<?xml version="1.0" encoding="UTF-8"?>
<map version="1.10" tiledversion="1.11.2" orientation="orthogonal" renderorder="right-down" width="103" height="24" tilewidth="128" tileheight="128" infinite="0" nextlayerid="37" nextobjectid="1057">
 <properties>
  <property name="Ground" type="bool" value="true"/>
  <property name="Navigation" type="bool" value="true"/>
 </properties>
 <tileset firstgid="1" name="Atlas_Bosque_V2" tilewidth="128" tileheight="128" tilecount="64" columns="8">
  <image source="Forest/Atlas_Forest.png" width="1024" height="1024"/>
  <wangsets>
   <wangset name="MixTierra" type="mixed" tile="-1">
    <wangcolor name="Tierra" color="#ff0000" tile="-1" probability="1"/>
    <wangtile tileid="30" wangid="1,1,1,1,1,1,1,1"/>
    <wangtile tileid="31" wangid="1,1,1,1,1,1,1,1"/>
    <wangtile tileid="36" wangid="1,1,1,1,1,1,1,1"/>
    <wangtile tileid="38" wangid="1,1,1,1,1,1,1,1"/>
    <wangtile tileid="39" wangid="1,1,1,1,1,1,1,1"/>
   </wangset>
  </wangsets>
 </tileset>
 <tileset firstgid="65" name="Espinas" tilewidth="128" tileheight="128" tilecount="64" columns="8">
  <image source="Forest/Archivo PSD Espinas.png" width="1024" height="1024"/>
 </tileset>
 <tileset firstgid="129" name="MapMetadata" tilewidth="128" tileheight="128" tilecount="2" columns="2">
  <image source="Pathfinding/MapMetadata.png" trans="ffffff" width="256" height="128"/>
 </tileset>
 <tileset firstgid="131" name="F_Bosque_01" tilewidth="2304" tileheight="1444" tilecount="1" columns="1">
  <image source="Forest/Fondo_Vigente/01_F_Inicio/F_Bosque_01.png" width="2304" height="1444"/>
 </tileset>
 <tileset firstgid="132" name="F_Bosque_02" tilewidth="2304" tileheight="1444" tilecount="1" columns="1">
  <image source="Forest/Fondo_Vigente/01_F_Inicio/F_Bosque_02.png" width="2304" height="1444"/>
 </tileset>
 <tileset firstgid="133" name="F_Bosque_03" tilewidth="2304" tileheight="1444" tilecount="1" columns="1">
  <image source="Forest/Fondo_Vigente/01_F_Inicio/F_Bosque_03.png" width="2304" height="1444"/>
 </tileset>
 <tileset firstgid="134" name="F_Bosque_05" tilewidth="2304" tileheight="1444" tilecount="1" columns="1">
  <image source="Forest/Fondo_Vigente/01_F_Inicio/F_Bosque_05.png" width="2304" height="1444"/>
 </tileset>
 <tileset firstgid="135" name="F_Bosque_V2_01" tilewidth="2304" tileheight="1444" tilecount="1" columns="1">
  <image source="Forest/Fondo_Vigente/02_F_Repeticion/F_Bosque_V2_01.png" width="2304" height="1444"/>
 </tileset>
 <tileset firstgid="136" name="F_Bosque_V2_02" tilewidth="2304" tileheight="1444" tilecount="1" columns="1">
  <image source="Forest/Fondo_Vigente/02_F_Repeticion/F_Bosque_V2_02.png" width="2304" height="1444"/>
 </tileset>
 <tileset firstgid="137" name="F_Bosque_V2_03" tilewidth="2304" tileheight="1444" tilecount="1" columns="1">
  <image source="Forest/Fondo_Vigente/02_F_Repeticion/F_Bosque_V2_03.png" width="2304" height="1444"/>
 </tileset>
 <tileset firstgid="138" name="F_Bosque_V2_05" tilewidth="2304" tileheight="1444" tilecount="1" columns="1">
  <image source="Forest/Fondo_Vigente/02_F_Repeticion/F_Bosque_V2_05.png" width="2304" height="1444"/>
 </tileset>
 <tileset firstgid="139" name="F_Bosque_V4_01" tilewidth="2304" tileheight="1444" tilecount="1" columns="1">
  <image source="Forest/Fondo_Vigente/04_F_Mini_Boss/F_Bosque_V4_01.png" width="2304" height="1444"/>
 </tileset>
 <tileset firstgid="140" name="F_Bosque_V4_02" tilewidth="2304" tileheight="1444" tilecount="1" columns="1">
  <image source="Forest/Fondo_Vigente/04_F_Mini_Boss/F_Bosque_V4_02.png" width="2304" height="1444"/>
 </tileset>
 <tileset firstgid="141" name="t_Fila_Arbustos" tilewidth="1920" tileheight="640" tilecount="4" columns="1">
  <image source="Forest/Fondo_Vigente/Arbustos/t_Fila_Arbustos.png" width="1920" height="2560"/>
 </tileset>
 <tileset firstgid="145" name="t_Sueltos_Arbustos_Esquinas" tilewidth="384" tileheight="384" tilecount="12" columns="3">
  <image source="Forest/Fondo_Vigente/Arbustos/t_Sueltos_Arbustos_Esquinas.png" width="1152" height="1536"/>
 </tileset>
 <tileset firstgid="157" name="Plantitas" tilewidth="128" tileheight="128" tilecount="64" columns="8">
  <image source="Forest/Fondo_Vigente/Arbustos/Plantitas.png" width="1024" height="1024"/>
  <tile id="0">
   <animation>
    <frame tileid="0" duration="400"/>
    <frame tileid="1" duration="400"/>
    <frame tileid="2" duration="400"/>
   </animation>
  </tile>
  <tile id="3">
   <animation>
    <frame tileid="3" duration="250"/>
    <frame tileid="4" duration="250"/>
    <frame tileid="5" duration="250"/>
   </animation>
  </tile>
  <tile id="6">
   <animation>
    <frame tileid="6" duration="250"/>
    <frame tileid="7" duration="250"/>
    <frame tileid="8" duration="225"/>
   </animation>
  </tile>
  <tile id="9">
   <animation>
    <frame tileid="9" duration="400"/>
    <frame tileid="10" duration="400"/>
    <frame tileid="11" duration="400"/>
   </animation>
  </tile>
  <tile id="12">
   <animation>
    <frame tileid="12" duration="225"/>
    <frame tileid="13" duration="225"/>
    <frame tileid="14" duration="225"/>
   </animation>
  </tile>
  <tile id="15">
   <animation>
    <frame tileid="15" duration="250"/>
    <frame tileid="16" duration="250"/>
    <frame tileid="17" duration="250"/>
   </animation>
  </tile>
 </tileset>
 <objectgroup id="18" name="Fondo1">
  <properties>
   <property name="BG" type="bool" value="true"/>
   <property name="Draw" type="bool" value="true"/>
   <property name="ParalaxX" type="float" value="0.8"/>
  </properties>
  <object id="410" gid="131" x="10752" y="2829.71" width="2447.43" height="1677.71"/>
  <object id="559" gid="139" x="-256" y="1920" width="3712" height="1920"/>
  <object id="695" gid="135" x="3432" y="2944" width="2480.24" height="3072"/>
  <object id="703" gid="131" x="13184" y="2816" width="2432" height="1664"/>
  <object id="706" gid="1073741955" x="10752" y="1152" width="2447.43" height="1677.71"/>
  <object id="707" gid="1073741955" x="13184" y="1152" width="2427.43" height="1664"/>
  <object id="718" gid="131" x="8320" y="2829.71" width="2447.43" height="1677.71"/>
  <object id="719" gid="1073741955" x="8320" y="1152" width="2447.43" height="1677.71"/>
  <object id="720" gid="131" x="5888" y="2829.71" width="2447.43" height="1677.71"/>
  <object id="721" gid="1073741955" x="5888" y="1161.09" width="2447.43" height="1686.8"/>
 </objectgroup>
 <objectgroup id="21" name="Fondo3">
  <properties>
   <property name="BG" type="bool" value="true"/>
   <property name="Draw" type="bool" value="true"/>
   <property name="ParalaxX" type="float" value="0.95"/>
  </properties>
  <object id="697" gid="137" x="3456" y="2944" width="2450.18" height="3072"/>
  <object id="709" gid="133" x="13172" y="2816" width="2439.43" height="1664"/>
  <object id="713" gid="137" x="10752" y="2816" width="2432" height="1664"/>
  <object id="725" gid="137" x="8320" y="2816" width="2450.18" height="1664"/>
  <object id="726" gid="137" x="5888" y="2816" width="2453.21" height="1664"/>
 </objectgroup>
 <objectgroup id="20" name="Fondo2">
  <properties>
   <property name="BG" type="bool" value="true"/>
   <property name="Draw" type="bool" value="true"/>
   <property name="ParalaxX" type="float" value="1"/>
  </properties>
  <object id="411" gid="132" x="8136" y="2656" width="2427.43" height="1497.79"/>
  <object id="560" gid="140" x="256" y="2210.94" width="2804.51" height="1884.57"/>
  <object id="588" gid="137" x="-906.667" y="1752" width="1166" height="896"/>
  <object id="694" gid="137" x="3020" y="1920" width="436" height="1792"/>
  <object id="729" gid="136" x="5760" y="2688" width="2427.43" height="1497.79"/>
  <object id="730" gid="132" x="3456" y="1552" width="2499.43" height="1545.79"/>
  <object id="732" gid="136" x="10376" y="2744" width="2427.43" height="1497.79"/>
  <object id="783" gid="1073741961" x="-906.545" y="862.667" width="1166" height="896"/>
  <object id="1050" gid="132" x="3570.28" y="2243.11" width="2427.43" height="1497.79"/>
  <object id="1051" gid="2147483780" x="826.285" y="2003.11" width="2427.43" height="1497.79"/>
  <object id="1052" gid="132" x="-45.715" y="1955.11" width="2427.43" height="1497.79"/>
 </objectgroup>
 <objectgroup id="35" name="Plantitas-Back">
  <properties>
   <property name="BG" type="bool" value="true"/>
   <property name="Draw" type="bool" value="true"/>
  </properties>
  <object id="910" gid="1073741993" x="776" y="700" width="128" height="128"/>
  <object id="912" gid="1073741993" x="1316" y="672" width="128" height="128"/>
  <object id="913" gid="1073741993" x="2012" y="816" width="128" height="128"/>
  <object id="914" gid="1073741993" x="2332" y="664" width="128" height="128"/>
  <object id="928" gid="163" x="1275.39" y="1945.82" width="128" height="128"/>
  <object id="929" gid="163" x="1692.24" y="1958.91" width="128" height="128"/>
  <object id="930" gid="163" x="2851.15" y="1851.88" width="128" height="128"/>
  <object id="932" gid="163" x="3328" y="1536" width="128" height="128"/>
  <object id="976" gid="160" x="5394" y="2320" width="128" height="128"/>
  <object id="978" gid="1073741984" x="5098" y="2630" width="128" height="128"/>
  <object id="979" gid="157" x="3981.45" y="2985.21" width="128" height="128"/>
  <object id="980" gid="157" x="4063.27" y="2985.21" width="128" height="128"/>
  <object id="981" gid="157" x="4608.73" y="2976.12" width="128" height="128"/>
  <object id="983" gid="2147483805" x="4723.88" y="2997.33" width="128" height="128"/>
  <object id="984" gid="166" x="4832.97" y="2973.09" width="128" height="128"/>
  <object id="985" gid="166" x="5117.82" y="2964" width="128" height="128"/>
  <object id="986" gid="166" x="5193.58" y="2970.06" width="128" height="128"/>
  <object id="987" gid="166" x="5760.24" y="2967.03" width="128" height="128"/>
  <object id="988" gid="157" x="6020.85" y="2603.39" width="128" height="128"/>
  <object id="990" gid="169" x="6272" y="2560" width="128" height="128"/>
  <object id="994" gid="163" x="6756" y="2696" width="128" height="128"/>
  <object id="995" gid="166" x="6572" y="2586" width="128" height="128"/>
  <object id="996" gid="166" x="7023.33" y="2708" width="128" height="128"/>
  <object id="997" gid="157" x="7386" y="2730" width="128" height="128"/>
  <object id="1005" gid="169" x="7790" y="2550" width="128" height="128"/>
  <object id="1006" gid="163" x="7520.85" y="2730.67" width="128" height="128"/>
  <object id="1008" gid="163" x="7226.91" y="2721.58" width="128" height="128"/>
  <object id="1009" gid="157" x="9326.91" y="2721.58" width="128" height="128"/>
  <object id="1012" gid="160" x="8717.82" y="2621.58" width="128" height="128"/>
  <object id="1014" gid="166" x="11954.2" y="2709.45" width="128" height="128"/>
  <object id="1016" gid="2147483811" x="11168.6" y="2709.21" width="128" height="128"/>
  <object id="1017" gid="2147483811" x="11008" y="2703.15" width="128" height="128"/>
  <object id="1018" gid="169" x="11098.9" y="2688" width="128" height="128"/>
  <object id="1020" gid="169" x="12433" y="2685.21" width="128" height="128"/>
  <object id="1024" gid="157" x="11592" y="2713.27" width="128" height="128"/>
  <object id="1025" gid="2147483805" x="11764.7" y="2704.18" width="128" height="128"/>
  <object id="1029" gid="160" x="11657.2" y="2689.82" width="191.636" height="191.636"/>
  <object id="1031" gid="160" x="9982" y="2690" width="128" height="128"/>
  <object id="1032" gid="157" x="9776" y="2734" width="128" height="128"/>
  <object id="1036" gid="163" x="10488" y="2706" width="128" height="128"/>
  <object id="1038" gid="169" x="10220" y="2682" width="128" height="128"/>
 </objectgroup>
 <objectgroup id="34" name="Fondo4">
  <properties>
   <property name="BG" type="bool" value="true"/>
   <property name="Draw" type="bool" value="true"/>
   <property name="ParalaxX" type="float" value="1"/>
  </properties>
  <object id="770" gid="149" x="1203.52" y="1950.91" width="852" height="852"/>
  <object id="771" gid="150" x="2304" y="1920" width="828" height="828"/>
  <object id="773" gid="150" x="128" y="1920" width="828" height="828"/>
  <object id="797" gid="151" x="7936" y="2816" width="908" height="908"/>
  <object id="828" gid="149" x="10062.8" y="2688" width="721.697" height="721.697"/>
  <object id="829" gid="149" x="10624" y="2688" width="652" height="652"/>
  <object id="830" gid="150" x="12160" y="2688" width="610" height="610"/>
  <object id="837" gid="156" x="8576" y="2688" width="635.515" height="635.515"/>
  <object id="838" gid="151" x="7553.45" y="2688" width="638.545" height="638.545"/>
  <object id="861" gid="148" x="5037.45" y="2374.42" width="620.364" height="620.364"/>
  <object id="862" gid="149" x="4352" y="2048" width="384" height="384"/>
  <object id="863" gid="152" x="3639.33" y="1860.52" width="520.364" height="520.364"/>
  <object id="871" gid="152" x="2892.85" y="1604.12" width="402.182" height="402.182"/>
  <object id="872" gid="152" x="3077.7" y="1598.91" width="402.182" height="402.182"/>
  <object id="878" gid="145" x="3708.97" y="2321.82" width="358.521" height="358.521"/>
  <object id="879" gid="2147483793" x="3735.5" y="2314.18" width="358.521" height="358.521"/>
  <object id="903" gid="1073741972" x="5027.67" y="2799.84" width="338" height="334"/>
  <object id="904" gid="3221225620" x="5253.67" y="2823.84" width="348" height="358"/>
  <object id="905" gid="147" x="4352" y="2596.36" width="384" height="420.364"/>
  <object id="906" gid="1073741973" x="4283.52" y="2651.03" width="430.667" height="430.667"/>
 </objectgroup>
 <objectgroup id="36" name="Plantitas-Front">
  <properties>
   <property name="BG" type="bool" value="true"/>
   <property name="Draw" type="bool" value="true"/>
  </properties>
  <object id="915" gid="163" x="284" y="1944" width="264" height="264"/>
  <object id="917" gid="157" x="904" y="1964" width="128" height="128"/>
  <object id="918" gid="157" x="1420.67" y="1982" width="128" height="128"/>
  <object id="919" gid="157" x="2252" y="1966" width="128" height="128"/>
  <object id="920" gid="166" x="2490" y="1948" width="128" height="128"/>
  <object id="921" gid="166" x="2788" y="1940" width="128" height="128"/>
  <object id="922" gid="166" x="1809.21" y="1936.73" width="128" height="128"/>
  <object id="923" gid="1073741984" x="314.788" y="730.667" width="128" height="128"/>
  <object id="924" gid="1073741984" x="1063.27" y="754.909" width="128" height="128"/>
  <object id="925" gid="1073741984" x="1611.76" y="827.636" width="128" height="128"/>
  <object id="926" gid="1073741984" x="2523.88" y="760.97" width="128" height="128"/>
  <object id="940" gid="157" x="3866" y="1845" width="128" height="128"/>
  <object id="942" gid="1073741987" x="3685.33" y="2092.33" width="128" height="128"/>
  <object id="945" gid="163" x="3684.33" y="1974.33" width="128" height="128"/>
  <object id="948" gid="1073741981" x="3952" y="2082" width="128" height="128"/>
  <object id="953" gid="166" x="4365.33" y="2066.67" width="128" height="128"/>
  <object id="954" gid="169" x="4608" y="2048" width="128" height="128"/>
  <object id="956" gid="163" x="4574" y="2095.33" width="128" height="128"/>
  <object id="970" gid="157" x="5224" y="2346" width="128" height="128"/>
  <object id="971" gid="1073741981" x="5372" y="2600" width="128" height="128"/>
  <object id="999" gid="166" x="7718" y="2710" width="128" height="128"/>
  <object id="1000" gid="163" x="7982" y="2712" width="128" height="128"/>
  <object id="1026" gid="166" x="11725.3" y="2686" width="128" height="128"/>
  <object id="1027" gid="166" x="11631.4" y="2695.09" width="128" height="128"/>
  <object id="1040" gid="172" x="9274" y="2706" width="128" height="128"/>
  <object id="1043" gid="2147483820" x="9458.67" y="2718.67" width="128" height="128"/>
  <object id="1044" gid="1073741981" x="4369.33" y="2339.76" width="128" height="128"/>
  <object id="1047" gid="1073741993" x="4604" y="896" width="128" height="128"/>
  <object id="1048" gid="1073741993" x="4216" y="920" width="128" height="128"/>
  <object id="1049" gid="1073741993" x="3392" y="920" width="128" height="128"/>
 </objectgroup>
 <layer id="1" name="Map" width="103" height="24">
  <properties>
   <property name="Draw" type="bool" value="true"/>
  </properties>
  <data>
   <tile gid="37"/>
   <tile gid="38"/>
   <tile/>
   <tile/>
   <tile/>
   <tile/>
   <tile/>
   <tile/>
   <tile/>
   <tile/>
   <tile/>
   <tile/>
   <tile/>
   <tile/>
   <tile/>
   <tile/>
   <tile/>
   <tile/>
   <tile/>
   <tile/>
   <tile/>
   <tile/>
   <tile/>
   <tile/>
   <tile/>
   <tile/>
   <tile/>
   <tile/>
   <tile/>
   <tile/>
   <tile/>
   <tile/>
   <tile/>
   <tile/>
   <tile/>
   <tile/>
   <tile/>
   <tile/>
   <tile/>
   <tile/>
   <tile/>
   <tile/>
   <tile/>
   <tile/>
   <tile/>
   <tile/>
   <tile gid="36"/>
   <tile gid="37"/>
   <tile/>
   <tile/>
   <tile/>
   <tile/>
   <tile/>
   <tile/>
   <tile/>
   <tile/>
   <tile/>
   <tile/>
   <tile/>
   <tile/>
   <tile/>
   <tile/>
   <tile/>
   <tile/>
   <tile/>
   <tile/>
   <tile/>
   <tile/>
   <tile/>
   <tile/>
   <tile/>
   <tile/>
   <tile/>
   <tile/>
   <tile/>
   <tile/>
   <tile/>
   <tile/>
   <tile/>
   <tile/>
   <tile/>
   <tile/>
   <tile/>
   <tile/>
   <tile/>
   <tile/>
   <tile/>
   <tile/>
   <tile/>
   <tile/>
   <tile/>
   <tile/>
   <tile/>
   <tile/>
   <tile/>
   <tile/>
   <tile/>
   <tile/>
   <tile/>
   <tile/>
   <tile/>
   <tile/>
   <tile/>
   <tile gid="37"/>
   <tile gid="38"/>
   <tile/>
   <tile/>
   <tile/>
   <tile/>
   <tile/>
   <tile/>
   <tile/>
   <tile/>
   <tile/>
   <tile/>
   <tile/>
   <tile/>
   <tile/>
   <tile/>
   <tile/>
   <tile/>
   <tile/>
   <tile/>
   <tile/>
   <tile/>
   <tile/>
   <tile/>
   <tile/>
   <tile/>
   <tile/>
   <tile/>
   <tile/>
   <tile/>
   <tile/>
   <tile/>
   <tile/>
   <tile/>
   <tile/>
   <tile/>
   <tile/>
   <tile/>
   <tile/>
   <tile/>
   <tile/>
   <tile/>
   <tile/>
   <tile/>
   <tile/>
   <tile/>
   <tile gid="36"/>
   <tile gid="37"/>
   <tile/>
   <tile/>
   <tile/>
   <tile/>
   <tile/>
   <tile/>
   <tile/>
   <tile/>
   <tile/>
   <tile/>
   <tile/>
   <tile/>
   <tile/>
   <tile/>
   <tile/>
   <tile/>
   <tile/>
   <tile/>
   <tile/>
   <tile/>
   <tile/>
   <tile/>
   <tile/>
   <tile/>
   <tile/>
   <tile/>
   <tile/>
   <tile/>
   <tile/>
   <tile/>
   <tile/>
   <tile/>
   <tile/>
   <tile/>
   <tile/>
   <tile/>
   <tile/>
   <tile/>
   <tile/>
   <tile/>
   <tile/>
   <tile/>
   <tile/>
   <tile/>
   <tile/>
   <tile/>
   <tile/>
   <tile/>
   <tile/>
   <tile/>
   <tile/>
   <tile/>
   <tile/>
   <tile/>
   <tile/>
   <tile gid="37"/>
   <tile gid="38"/>
   <tile/>
   <tile/>
   <tile/>
   <tile/>
   <tile/>
   <tile/>
   <tile/>
   <tile/>
   <tile/>
   <tile/>
   <tile/>
   <tile/>
   <tile/>
   <tile/>
   <tile/>
   <tile/>
   <tile/>
   <tile/>
   <tile/>
   <tile/>
   <tile/>
   <tile/>
   <tile/>
   <tile/>
   <tile/>
   <tile/>
   <tile/>
   <tile/>
   <tile/>
   <tile/>
   <tile/>
   <tile/>
   <tile/>
   <tile/>
   <tile/>
   <tile/>
   <tile/>
   <tile/>
   <tile/>
   <tile/>
   <tile/>
   <tile/>
   <tile/>
   <tile/>
   <tile gid="36"/>
   <tile gid="37"/>
   <tile/>
   <tile/>
   <tile/>
   <tile/>
   <tile/>
   <tile/>
   <tile/>
   <tile/>
   <tile/>
   <tile/>
   <tile/>
   <tile/>
   <tile/>
   <tile/>
   <tile/>
   <tile/>
   <tile/>
   <tile/>
   <tile/>
   <tile/>
   <tile/>
   <tile/>
   <tile/>
   <tile/>
   <tile/>
   <tile/>
   <tile/>
   <tile/>
   <tile/>
   <tile/>
   <tile/>
   <tile/>
   <tile/>
   <tile/>
   <tile/>
   <tile/>
   <tile/>
   <tile/>
   <tile/>
   <tile/>
   <tile/>
   <tile/>
   <tile/>
   <tile/>
   <tile/>
   <tile/>
   <tile/>
   <tile/>
   <tile/>
   <tile/>
   <tile/>
   <tile/>
   <tile/>
   <tile/>
   <tile/>
   <tile gid="45"/>
   <tile gid="46"/>
   <tile/>
   <tile/>
   <tile/>
   <tile/>
   <tile/>
   <tile/>
   <tile/>
   <tile/>
   <tile/>
   <tile/>
   <tile/>
   <tile/>
   <tile/>
   <tile/>
   <tile/>
   <tile/>
   <tile/>
   <tile/>
   <tile/>
   <tile/>
   <tile/>
   <tile/>
   <tile/>
   <tile/>
   <tile/>
   <tile/>
   <tile/>
   <tile/>
   <tile/>
   <tile/>
   <tile/>
   <tile/>
   <tile/>
   <tile/>
   <tile/>
   <tile/>
   <tile/>
   <tile/>
   <tile/>
   <tile/>
   <tile/>
   <tile/>
   <tile/>
   <tile/>
   <tile gid="36"/>
   <tile gid="37"/>
   <tile/>
   <tile/>
   <tile/>
   <tile/>
   <tile/>
   <tile/>
   <tile/>
   <tile/>
   <tile/>
   <tile/>
   <tile/>
   <tile/>
   <tile/>
   <tile/>
   <tile/>
   <tile/>
   <tile/>
   <tile/>
   <tile/>
   <tile/>
   <tile/>
   <tile/>
   <tile/>
   <tile/>
   <tile/>
   <tile/>
   <tile/>
   <tile/>
   <tile/>
   <tile/>
   <tile/>
   <tile/>
   <tile/>
   <tile/>
   <tile/>
   <tile/>
   <tile/>
   <tile/>
   <tile/>
   <tile/>
   <tile/>
   <tile/>
   <tile/>
   <tile/>
   <tile/>
   <tile/>
   <tile/>
   <tile/>
   <tile/>
   <tile/>
   <tile/>
   <tile/>
   <tile/>
   <tile/>
   <tile/>
   <tile/>
   <tile/>
   <tile/>
   <tile/>
   <tile/>
   <tile/>
   <tile/>
   <tile/>
   <tile/>
   <tile/>
   <tile/>
   <tile/>
   <tile/>
   <tile/>
   <tile/>
   <tile/>
   <tile/>
   <tile/>
   <tile/>
   <tile/>
   <tile/>
   <tile/>
   <tile/>
   <tile/>
   <tile/>
   <tile/>
   <tile/>
   <tile/>
   <tile/>
   <tile/>
   <tile/>
   <tile/>
   <tile/>
   <tile/>
   <tile/>
   <tile/>
   <tile/>
   <tile/>
   <tile/>
   <tile/>
   <tile/>
   <tile/>
   <tile/>
   <tile/>
   <tile/>
   <tile/>
   <tile gid="36"/>
   <tile gid="37"/>
   <tile/>
   <tile/>
   <tile/>
   <tile/>
   <tile/>
   <tile/>
   <tile/>
   <tile/>
   <tile/>
   <tile/>
   <tile/>
   <tile/>
   <tile/>
   <tile/>
   <tile/>
   <tile/>
   <tile/>
   <tile/>
   <tile/>
   <tile/>
   <tile/>
   <tile/>
   <tile/>
   <tile/>
   <tile/>
   <tile/>
   <tile/>
   <tile/>
   <tile/>
   <tile/>
   <tile/>
   <tile/>
   <tile/>
   <tile/>
   <tile/>
   <tile/>
   <tile/>
   <tile/>
   <tile/>
   <tile/>
   <tile/>
   <tile/>
   <tile/>
   <tile/>
   <tile/>
   <tile/>
   <tile/>
   <tile/>
   <tile/>
   <tile/>
   <tile/>
   <tile/>
   <tile/>
   <tile/>
   <tile/>
   <tile/>
   <tile/>
   <tile/>
   <tile/>
   <tile/>
   <tile/>
   <tile/>
   <tile/>
   <tile/>
   <tile/>
   <tile/>
   <tile/>
   <tile/>
   <tile/>
   <tile/>
   <tile/>
   <tile/>
   <tile/>
   <tile/>
   <tile/>
   <tile/>
   <tile/>
   <tile/>
   <tile/>
   <tile/>
   <tile/>
   <tile/>
   <tile/>
   <tile/>
   <tile/>
   <tile/>
   <tile/>
   <tile/>
   <tile/>
   <tile/>
   <tile/>
   <tile/>
   <tile/>
   <tile/>
   <tile/>
   <tile/>
   <tile/>
   <tile/>
   <tile/>
   <tile/>
   <tile/>
   <tile gid="36"/>
   <tile gid="37"/>
   <tile gid="39"/>
   <tile/>
   <tile/>
   <tile/>
   <tile/>
   <tile/>
   <tile/>
   <tile/>
   <tile/>
   <tile/>
   <tile/>
   <tile/>
   <tile/>
   <tile/>
   <tile/>
   <tile/>
   <tile/>
   <tile/>
   <tile/>
   <tile/>
   <tile/>
   <tile/>
   <tile/>
   <tile/>
   <tile/>
   <tile/>
   <tile/>
   <tile/>
   <tile/>
   <tile/>
   <tile/>
   <tile/>
   <tile/>
   <tile/>
   <tile/>
   <tile/>
   <tile/>
   <tile/>
   <tile/>
   <tile/>
   <tile/>
   <tile/>
   <tile/>
   <tile/>
   <tile/>
   <tile/>
   <tile/>
   <tile/>
   <tile/>
   <tile/>
   <tile/>
   <tile/>
   <tile/>
   <tile/>
   <tile/>
   <tile/>
   <tile/>
   <tile/>
   <tile/>
   <tile/>
   <tile/>
   <tile/>
   <tile/>
   <tile/>
   <tile/>
   <tile/>
   <tile/>
   <tile/>
   <tile/>
   <tile/>
   <tile/>
   <tile/>
   <tile/>
   <tile/>
   <tile/>
   <tile/>
   <tile/>
   <tile/>
   <tile/>
   <tile/>
   <tile/>
   <tile/>
   <tile/>
   <tile/>
   <tile/>
   <tile/>
   <tile/>
   <tile/>
   <tile/>
   <tile/>
   <tile/>
   <tile/>
   <tile/>
   <tile/>
   <tile/>
   <tile/>
   <tile/>
   <tile/>
   <tile/>
   <tile/>
   <tile/>
   <tile gid="36"/>
   <tile gid="37"/>
   <tile gid="32"/>
   <tile gid="32"/>
   <tile gid="39"/>
   <tile gid="37"/>
   <tile gid="39"/>
   <tile gid="37"/>
   <tile gid="39"/>
   <tile gid="39"/>
   <tile gid="39"/>
   <tile gid="39"/>
   <tile gid="39"/>
   <tile gid="39"/>
   <tile gid="37"/>
   <tile gid="37"/>
   <tile gid="37"/>
   <tile gid="37"/>
   <tile gid="37"/>
   <tile gid="37"/>
   <tile gid="37"/>
   <tile gid="37"/>
   <tile gid="37"/>
   <tile gid="32"/>
   <tile gid="32"/>
   <tile gid="32"/>
   <tile gid="37"/>
   <tile gid="37"/>
   <tile gid="37"/>
   <tile gid="37"/>
   <tile gid="37"/>
   <tile gid="37"/>
   <tile gid="31"/>
   <tile gid="31"/>
   <tile gid="37"/>
   <tile gid="37"/>
   <tile gid="37"/>
   <tile gid="37"/>
   <tile gid="37"/>
   <tile gid="37"/>
   <tile gid="37"/>
   <tile gid="37"/>
   <tile gid="37"/>
   <tile gid="37"/>
   <tile gid="37"/>
   <tile gid="37"/>
   <tile gid="37"/>
   <tile gid="37"/>
   <tile gid="37"/>
   <tile gid="37"/>
   <tile gid="39"/>
   <tile gid="37"/>
   <tile gid="37"/>
   <tile gid="37"/>
   <tile gid="37"/>
   <tile gid="37"/>
   <tile gid="38"/>
   <tile/>
   <tile/>
   <tile/>
   <tile/>
   <tile/>
   <tile/>
   <tile/>
   <tile/>
   <tile/>
   <tile/>
   <tile/>
   <tile/>
   <tile/>
   <tile/>
   <tile/>
   <tile/>
   <tile/>
   <tile/>
   <tile/>
   <tile/>
   <tile/>
   <tile/>
   <tile/>
   <tile/>
   <tile/>
   <tile/>
   <tile/>
   <tile/>
   <tile/>
   <tile/>
   <tile/>
   <tile/>
   <tile/>
   <tile/>
   <tile/>
   <tile/>
   <tile/>
   <tile/>
   <tile/>
   <tile/>
   <tile/>
   <tile/>
   <tile/>
   <tile/>
   <tile/>
   <tile/>
   <tile gid="36"/>
   <tile gid="37"/>
   <tile gid="37"/>
   <tile gid="37"/>
   <tile gid="39"/>
   <tile gid="39"/>
   <tile gid="39"/>
   <tile gid="37"/>
   <tile gid="37"/>
   <tile gid="39"/>
   <tile gid="39"/>
   <tile gid="39"/>
   <tile gid="39"/>
   <tile gid="37"/>
   <tile gid="37"/>
   <tile gid="37"/>
   <tile gid="37"/>
   <tile gid="37"/>
   <tile gid="37"/>
   <tile gid="37"/>
   <tile gid="37"/>
   <tile gid="37"/>
   <tile gid="37"/>
   <tile gid="37"/>
   <tile gid="37"/>
   <tile gid="37"/>
   <tile gid="37"/>
   <tile gid="37"/>
   <tile gid="37"/>
   <tile gid="37"/>
   <tile gid="37"/>
   <tile gid="37"/>
   <tile gid="37"/>
   <tile gid="37"/>
   <tile gid="37"/>
   <tile gid="37"/>
   <tile gid="37"/>
   <tile gid="37"/>
   <tile gid="37"/>
   <tile gid="37"/>
   <tile gid="37"/>
   <tile gid="37"/>
   <tile gid="37"/>
   <tile gid="37"/>
   <tile gid="37"/>
   <tile gid="37"/>
   <tile gid="37"/>
   <tile gid="37"/>
   <tile gid="37"/>
   <tile gid="37"/>
   <tile gid="37"/>
   <tile gid="37"/>
   <tile gid="37"/>
   <tile gid="37"/>
   <tile gid="37"/>
   <tile gid="37"/>
   <tile gid="38"/>
   <tile/>
   <tile/>
   <tile/>
   <tile/>
   <tile/>
   <tile/>
   <tile/>
   <tile/>
   <tile/>
   <tile/>
   <tile/>
   <tile/>
   <tile/>
   <tile/>
   <tile/>
   <tile/>
   <tile/>
   <tile/>
   <tile/>
   <tile/>
   <tile/>
   <tile/>
   <tile/>
   <tile/>
   <tile/>
   <tile/>
   <tile/>
   <tile/>
   <tile/>
   <tile/>
   <tile/>
   <tile/>
   <tile/>
   <tile/>
   <tile/>
   <tile/>
   <tile/>
   <tile/>
   <tile/>
   <tile/>
   <tile/>
   <tile/>
   <tile/>
   <tile/>
   <tile/>
   <tile/>
   <tile gid="44"/>
   <tile gid="37"/>
   <tile gid="37"/>
   <tile gid="39"/>
   <tile gid="39"/>
   <tile gid="39"/>
   <tile gid="37"/>
   <tile gid="37"/>
   <tile gid="39"/>
   <tile gid="39"/>
   <tile gid="39"/>
   <tile gid="39"/>
   <tile gid="37"/>
   <tile gid="37"/>
   <tile gid="37"/>
   <tile gid="37"/>
   <tile gid="37"/>
   <tile gid="37"/>
   <tile gid="37"/>
   <tile gid="37"/>
   <tile gid="37"/>
   <tile gid="37"/>
   <tile gid="37"/>
   <tile gid="37"/>
   <tile gid="37"/>
   <tile gid="37"/>
   <tile gid="37"/>
   <tile gid="39"/>
   <tile gid="39"/>
   <tile gid="39"/>
   <tile gid="37"/>
   <tile gid="37"/>
   <tile gid="39"/>
   <tile gid="39"/>
   <tile gid="39"/>
   <tile gid="39"/>
   <tile gid="37"/>
   <tile gid="37"/>
   <tile gid="37"/>
   <tile gid="37"/>
   <tile gid="37"/>
   <tile gid="37"/>
   <tile gid="37"/>
   <tile gid="37"/>
   <tile gid="37"/>
   <tile gid="37"/>
   <tile gid="37"/>
   <tile gid="37"/>
   <tile gid="37"/>
   <tile gid="37"/>
   <tile gid="37"/>
   <tile gid="37"/>
   <tile gid="37"/>
   <tile gid="37"/>
   <tile gid="37"/>
   <tile gid="37"/>
   <tile gid="37"/>
   <tile/>
   <tile/>
   <tile/>
   <tile/>
   <tile/>
   <tile/>
   <tile/>
   <tile/>
   <tile/>
   <tile/>
   <tile/>
   <tile/>
   <tile/>
   <tile/>
   <tile/>
   <tile/>
   <tile/>
   <tile/>
   <tile/>
   <tile/>
   <tile/>
   <tile/>
   <tile/>
   <tile/>
   <tile/>
   <tile/>
   <tile/>
   <tile/>
   <tile/>
   <tile/>
   <tile/>
   <tile/>
   <tile/>
   <tile/>
   <tile/>
   <tile/>
   <tile/>
   <tile/>
   <tile/>
   <tile/>
   <tile/>
   <tile/>
   <tile/>
   <tile/>
   <tile/>
   <tile/>
   <tile/>
   <tile/>
   <tile/>
   <tile/>
   <tile/>
   <tile/>
   <tile/>
   <tile/>
   <tile/>
   <tile/>
   <tile/>
   <tile/>
   <tile/>
   <tile/>
   <tile/>
   <tile/>
   <tile/>
   <tile/>
   <tile/>
   <tile/>
   <tile/>
   <tile/>
   <tile/>
   <tile/>
   <tile/>
   <tile/>
   <tile/>
   <tile/>
   <tile/>
   <tile/>
   <tile/>
   <tile/>
   <tile/>
   <tile/>
   <tile/>
   <tile/>
   <tile/>
   <tile/>
   <tile/>
   <tile/>
   <tile/>
   <tile/>
   <tile/>
   <tile/>
   <tile/>
   <tile/>
   <tile/>
   <tile/>
   <tile/>
   <tile/>
   <tile/>
   <tile/>
   <tile/>
   <tile/>
   <tile/>
   <tile/>
   <tile gid="37"/>
   <tile/>
   <tile/>
   <tile/>
   <tile/>
   <tile/>
   <tile/>
   <tile/>
   <tile/>
   <tile/>
   <tile/>
   <tile/>
   <tile/>
   <tile/>
   <tile/>
   <tile/>
   <tile/>
   <tile/>
   <tile/>
   <tile/>
   <tile/>
   <tile/>
   <tile/>
   <tile/>
   <tile/>
   <tile/>
   <tile/>
   <tile/>
   <tile/>
   <tile/>
   <tile/>
   <tile/>
   <tile/>
   <tile/>
   <tile/>
   <tile/>
   <tile/>
   <tile/>
   <tile/>
   <tile/>
   <tile/>
   <tile/>
   <tile/>
   <tile/>
   <tile/>
   <tile/>
   <tile/>
   <tile/>
   <tile/>
   <tile/>
   <tile/>
   <tile/>
   <tile/>
   <tile/>
   <tile/>
   <tile/>
   <tile/>
   <tile/>
   <tile/>
   <tile/>
   <tile/>
   <tile/>
   <tile/>
   <tile/>
   <tile/>
   <tile/>
   <tile/>
   <tile/>
   <tile/>
   <tile/>
   <tile/>
   <tile/>
   <tile/>
   <tile/>
   <tile/>
   <tile/>
   <tile/>
   <tile/>
   <tile/>
   <tile/>
   <tile/>
   <tile/>
   <tile/>
   <tile/>
   <tile/>
   <tile/>
   <tile/>
   <tile/>
   <tile/>
   <tile/>
   <tile/>
   <tile/>
   <tile/>
   <tile/>
   <tile/>
   <tile/>
   <tile/>
   <tile/>
   <tile/>
   <tile/>
   <tile/>
   <tile/>
   <tile/>
   <tile gid="37"/>
   <tile/>
   <tile/>
   <tile/>
   <tile/>
   <tile/>
   <tile/>
   <tile/>
   <tile/>
   <tile/>
   <tile/>
   <tile/>
   <tile/>
   <tile/>
   <tile/>
   <tile/>
   <tile/>
   <tile/>
   <tile/>
   <tile/>
   <tile/>
   <tile/>
   <tile/>
   <tile/>
   <tile/>
   <tile/>
   <tile/>
   <tile/>
   <tile/>
   <tile/>
   <tile/>
   <tile/>
   <tile/>
   <tile/>
   <tile/>
   <tile/>
   <tile/>
   <tile/>
   <tile/>
   <tile/>
   <tile/>
   <tile/>
   <tile/>
   <tile/>
   <tile/>
   <tile/>
   <tile/>
   <tile/>
   <tile/>
   <tile/>
   <tile/>
   <tile/>
   <tile/>
   <tile/>
   <tile/>
   <tile/>
   <tile/>
   <tile/>
   <tile/>
   <tile/>
   <tile/>
   <tile/>
   <tile/>
   <tile/>
   <tile/>
   <tile/>
   <tile/>
   <tile/>
   <tile/>
   <tile/>
   <tile/>
   <tile/>
   <tile/>
   <tile/>
   <tile/>
   <tile/>
   <tile/>
   <tile/>
   <tile/>
   <tile/>
   <tile/>
   <tile/>
   <tile/>
   <tile/>
   <tile/>
   <tile/>
   <tile/>
   <tile/>
   <tile/>
   <tile/>
   <tile/>
   <tile/>
   <tile/>
   <tile/>
   <tile/>
   <tile/>
   <tile/>
   <tile/>
   <tile/>
   <tile/>
   <tile/>
   <tile/>
   <tile/>
   <tile gid="37"/>
   <tile gid="29"/>
   <tile gid="29"/>
   <tile gid="30"/>
   <tile/>
   <tile/>
   <tile/>
   <tile/>
   <tile/>
   <tile/>
   <tile/>
   <tile/>
   <tile/>
   <tile/>
   <tile/>
   <tile/>
   <tile/>
   <tile/>
   <tile/>
   <tile/>
   <tile/>
   <tile/>
   <tile/>
   <tile/>
   <tile gid="28"/>
   <tile gid="29"/>
   <tile gid="29"/>
   <tile gid="30"/>
   <tile/>
   <tile/>
   <tile/>
   <tile/>
   <tile/>
   <tile/>
   <tile/>
   <tile/>
   <tile/>
   <tile/>
   <tile/>
   <tile/>
   <tile/>
   <tile/>
   <tile/>
   <tile/>
   <tile/>
   <tile/>
   <tile/>
   <tile/>
   <tile/>
   <tile/>
   <tile/>
   <tile/>
   <tile/>
   <tile/>
   <tile/>
   <tile/>
   <tile/>
   <tile/>
   <tile/>
   <tile/>
   <tile/>
   <tile/>
   <tile/>
   <tile/>
   <tile/>
   <tile/>
   <tile/>
   <tile/>
   <tile/>
   <tile/>
   <tile/>
   <tile/>
   <tile/>
   <tile/>
   <tile/>
   <tile/>
   <tile/>
   <tile/>
   <tile/>
   <tile/>
   <tile/>
   <tile/>
   <tile/>
   <tile/>
   <tile/>
   <tile/>
   <tile/>
   <tile/>
   <tile/>
   <tile/>
   <tile/>
   <tile/>
   <tile/>
   <tile/>
   <tile/>
   <tile/>
   <tile/>
   <tile/>
   <tile/>
   <tile/>
   <tile/>
   <tile/>
   <tile/>
   <tile gid="37"/>
   <tile gid="32"/>
   <tile gid="39"/>
   <tile gid="38"/>
   <tile/>
   <tile/>
   <tile/>
   <tile/>
   <tile/>
   <tile/>
   <tile/>
   <tile/>
   <tile/>
   <tile/>
   <tile/>
   <tile/>
   <tile/>
   <tile/>
   <tile/>
   <tile/>
   <tile/>
   <tile/>
   <tile/>
   <tile/>
   <tile gid="36"/>
   <tile gid="39"/>
   <tile gid="32"/>
   <tile gid="38"/>
   <tile/>
   <tile/>
   <tile/>
   <tile/>
   <tile/>
   <tile/>
   <tile/>
   <tile/>
   <tile/>
   <tile/>
   <tile/>
   <tile/>
   <tile/>
   <tile/>
   <tile/>
   <tile/>
   <tile/>
   <tile/>
   <tile/>
   <tile/>
   <tile/>
   <tile/>
   <tile/>
   <tile/>
   <tile/>
   <tile/>
   <tile/>
   <tile/>
   <tile/>
   <tile/>
   <tile/>
   <tile/>
   <tile/>
   <tile/>
   <tile/>
   <tile/>
   <tile/>
   <tile/>
   <tile/>
   <tile/>
   <tile/>
   <tile/>
   <tile/>
   <tile/>
   <tile/>
   <tile/>
   <tile/>
   <tile/>
   <tile/>
   <tile/>
   <tile/>
   <tile/>
   <tile/>
   <tile/>
   <tile/>
   <tile/>
   <tile/>
   <tile/>
   <tile/>
   <tile/>
   <tile/>
   <tile/>
   <tile/>
   <tile/>
   <tile/>
   <tile/>
   <tile/>
   <tile/>
   <tile/>
   <tile/>
   <tile/>
   <tile/>
   <tile/>
   <tile/>
   <tile/>
   <tile gid="37"/>
   <tile gid="32"/>
   <tile gid="37"/>
   <tile gid="38"/>
   <tile/>
   <tile/>
   <tile/>
   <tile/>
   <tile/>
   <tile/>
   <tile/>
   <tile/>
   <tile/>
   <tile/>
   <tile/>
   <tile/>
   <tile/>
   <tile/>
   <tile/>
   <tile/>
   <tile/>
   <tile/>
   <tile/>
   <tile/>
   <tile gid="36"/>
   <tile gid="32"/>
   <tile gid="32"/>
   <tile gid="38"/>
   <tile/>
   <tile/>
   <tile gid="28"/>
   <tile gid="29"/>
   <tile gid="30"/>
   <tile/>
   <tile/>
   <tile/>
   <tile/>
   <tile/>
   <tile/>
   <tile/>
   <tile/>
   <tile/>
   <tile/>
   <tile/>
   <tile/>
   <tile/>
   <tile/>
   <tile/>
   <tile/>
   <tile/>
   <tile/>
   <tile/>
   <tile/>
   <tile/>
   <tile/>
   <tile/>
   <tile/>
   <tile/>
   <tile/>
   <tile/>
   <tile/>
   <tile/>
   <tile/>
   <tile/>
   <tile/>
   <tile/>
   <tile/>
   <tile/>
   <tile/>
   <tile/>
   <tile/>
   <tile/>
   <tile/>
   <tile/>
   <tile/>
   <tile/>
   <tile/>
   <tile/>
   <tile/>
   <tile/>
   <tile/>
   <tile/>
   <tile/>
   <tile/>
   <tile/>
   <tile/>
   <tile/>
   <tile/>
   <tile/>
   <tile/>
   <tile/>
   <tile/>
   <tile/>
   <tile/>
   <tile/>
   <tile/>
   <tile/>
   <tile/>
   <tile/>
   <tile/>
   <tile/>
   <tile/>
   <tile/>
   <tile gid="37"/>
   <tile gid="37"/>
   <tile gid="37"/>
   <tile gid="2147483655"/>
   <tile gid="29"/>
   <tile gid="29"/>
   <tile gid="29"/>
   <tile gid="29"/>
   <tile gid="29"/>
   <tile gid="29"/>
   <tile gid="29"/>
   <tile gid="29"/>
   <tile gid="29"/>
   <tile gid="29"/>
   <tile gid="29"/>
   <tile gid="29"/>
   <tile gid="29"/>
   <tile gid="29"/>
   <tile gid="29"/>
   <tile gid="29"/>
   <tile gid="29"/>
   <tile gid="29"/>
   <tile gid="29"/>
   <tile gid="29"/>
   <tile gid="7"/>
   <tile gid="37"/>
   <tile gid="39"/>
   <tile gid="38"/>
   <tile/>
   <tile/>
   <tile gid="2147483683"/>
   <tile gid="2147483693"/>
   <tile gid="2147483681"/>
   <tile/>
   <tile/>
   <tile/>
   <tile/>
   <tile/>
   <tile/>
   <tile/>
   <tile/>
   <tile/>
   <tile/>
   <tile/>
   <tile/>
   <tile/>
   <tile/>
   <tile/>
   <tile/>
   <tile/>
   <tile/>
   <tile/>
   <tile/>
   <tile/>
   <tile/>
   <tile/>
   <tile/>
   <tile/>
   <tile/>
   <tile/>
   <tile/>
   <tile/>
   <tile/>
   <tile/>
   <tile/>
   <tile/>
   <tile/>
   <tile/>
   <tile/>
   <tile/>
   <tile/>
   <tile/>
   <tile/>
   <tile/>
   <tile/>
   <tile/>
   <tile/>
   <tile/>
   <tile/>
   <tile/>
   <tile/>
   <tile/>
   <tile/>
   <tile/>
   <tile/>
   <tile/>
   <tile/>
   <tile/>
   <tile/>
   <tile/>
   <tile/>
   <tile/>
   <tile/>
   <tile/>
   <tile/>
   <tile/>
   <tile/>
   <tile/>
   <tile/>
   <tile/>
   <tile/>
   <tile/>
   <tile/>
   <tile gid="37"/>
   <tile gid="32"/>
   <tile gid="32"/>
   <tile gid="40"/>
   <tile gid="37"/>
   <tile gid="37"/>
   <tile gid="37"/>
   <tile gid="37"/>
   <tile gid="37"/>
   <tile gid="37"/>
   <tile gid="37"/>
   <tile gid="37"/>
   <tile gid="37"/>
   <tile gid="37"/>
   <tile gid="37"/>
   <tile gid="37"/>
   <tile gid="37"/>
   <tile gid="31"/>
   <tile gid="40"/>
   <tile gid="32"/>
   <tile gid="39"/>
   <tile gid="31"/>
   <tile gid="31"/>
   <tile gid="32"/>
   <tile gid="37"/>
   <tile gid="39"/>
   <tile gid="32"/>
   <tile gid="38"/>
   <tile/>
   <tile/>
   <tile/>
   <tile/>
   <tile/>
   <tile/>
   <tile/>
   <tile gid="28"/>
   <tile gid="29"/>
   <tile gid="30"/>
   <tile/>
   <tile/>
   <tile/>
   <tile/>
   <tile/>
   <tile/>
   <tile/>
   <tile/>
   <tile/>
   <tile/>
   <tile/>
   <tile/>
   <tile/>
   <tile/>
   <tile/>
   <tile/>
   <tile/>
   <tile/>
   <tile/>
   <tile/>
   <tile/>
   <tile/>
   <tile/>
   <tile/>
   <tile/>
   <tile/>
   <tile/>
   <tile/>
   <tile/>
   <tile/>
   <tile/>
   <tile/>
   <tile/>
   <tile/>
   <tile/>
   <tile/>
   <tile/>
   <tile/>
   <tile/>
   <tile/>
   <tile/>
   <tile/>
   <tile/>
   <tile/>
   <tile/>
   <tile/>
   <tile/>
   <tile/>
   <tile/>
   <tile/>
   <tile/>
   <tile/>
   <tile/>
   <tile/>
   <tile/>
   <tile/>
   <tile/>
   <tile/>
   <tile/>
   <tile/>
   <tile/>
   <tile/>
   <tile/>
   <tile/>
   <tile/>
   <tile gid="37"/>
   <tile gid="37"/>
   <tile gid="40"/>
   <tile gid="39"/>
   <tile gid="32"/>
   <tile gid="37"/>
   <tile gid="39"/>
   <tile gid="32"/>
   <tile gid="31"/>
   <tile gid="37"/>
   <tile gid="39"/>
   <tile gid="37"/>
   <tile gid="39"/>
   <tile gid="31"/>
   <tile gid="32"/>
   <tile gid="32"/>
   <tile gid="37"/>
   <tile gid="40"/>
   <tile gid="31"/>
   <tile gid="40"/>
   <tile gid="32"/>
   <tile gid="39"/>
   <tile gid="39"/>
   <tile gid="39"/>
   <tile gid="32"/>
   <tile gid="40"/>
   <tile gid="39"/>
   <tile gid="38"/>
   <tile/>
   <tile/>
   <tile/>
   <tile/>
   <tile/>
   <tile/>
   <tile/>
   <tile gid="33"/>
   <tile gid="45"/>
   <tile gid="35"/>
   <tile/>
   <tile/>
   <tile/>
   <tile/>
   <tile/>
   <tile/>
   <tile/>
   <tile/>
   <tile/>
   <tile/>
   <tile/>
   <tile/>
   <tile/>
   <tile/>
   <tile/>
   <tile/>
   <tile/>
   <tile/>
   <tile/>
   <tile/>
   <tile/>
   <tile/>
   <tile/>
   <tile/>
   <tile/>
   <tile/>
   <tile/>
   <tile/>
   <tile/>
   <tile/>
   <tile/>
   <tile/>
   <tile/>
   <tile/>
   <tile/>
   <tile/>
   <tile/>
   <tile/>
   <tile/>
   <tile/>
   <tile/>
   <tile/>
   <tile/>
   <tile/>
   <tile/>
   <tile/>
   <tile/>
   <tile/>
   <tile/>
   <tile/>
   <tile/>
   <tile/>
   <tile/>
   <tile/>
   <tile/>
   <tile/>
   <tile/>
   <tile/>
   <tile/>
   <tile/>
   <tile/>
   <tile/>
   <tile/>
   <tile/>
   <tile/>
   <tile gid="37"/>
   <tile gid="40"/>
   <tile gid="39"/>
   <tile gid="31"/>
   <tile gid="31"/>
   <tile gid="31"/>
   <tile gid="31"/>
   <tile gid="37"/>
   <tile gid="31"/>
   <tile gid="39"/>
   <tile gid="39"/>
   <tile gid="31"/>
   <tile gid="39"/>
   <tile gid="39"/>
   <tile gid="31"/>
   <tile gid="32"/>
   <tile gid="40"/>
   <tile gid="37"/>
   <tile gid="37"/>
   <tile gid="32"/>
   <tile gid="37"/>
   <tile gid="39"/>
   <tile gid="32"/>
   <tile gid="39"/>
   <tile gid="32"/>
   <tile gid="32"/>
   <tile gid="37"/>
   <tile gid="38"/>
   <tile/>
   <tile/>
   <tile/>
   <tile/>
   <tile/>
   <tile/>
   <tile/>
   <tile/>
   <tile/>
   <tile/>
   <tile/>
   <tile/>
   <tile/>
   <tile gid="28"/>
   <tile gid="29"/>
   <tile gid="30"/>
   <tile/>
   <tile/>
   <tile/>
   <tile/>
   <tile/>
   <tile/>
   <tile/>
   <tile/>
   <tile/>
   <tile/>
   <tile/>
   <tile/>
   <tile/>
   <tile/>
   <tile/>
   <tile/>
   <tile/>
   <tile/>
   <tile/>
   <tile/>
   <tile/>
   <tile/>
   <tile/>
   <tile/>
   <tile/>
   <tile/>
   <tile/>
   <tile/>
   <tile/>
   <tile/>
   <tile/>
   <tile/>
   <tile/>
   <tile/>
   <tile/>
   <tile/>
   <tile/>
   <tile/>
   <tile/>
   <tile/>
   <tile/>
   <tile/>
   <tile/>
   <tile/>
   <tile/>
   <tile/>
   <tile/>
   <tile/>
   <tile/>
   <tile/>
   <tile/>
   <tile/>
   <tile/>
   <tile/>
   <tile/>
   <tile/>
   <tile/>
   <tile/>
   <tile/>
   <tile/>
   <tile gid="39"/>
   <tile gid="31"/>
   <tile gid="40"/>
   <tile gid="31"/>
   <tile gid="37"/>
   <tile gid="31"/>
   <tile gid="39"/>
   <tile gid="40"/>
   <tile gid="39"/>
   <tile gid="32"/>
   <tile gid="40"/>
   <tile gid="37"/>
   <tile gid="31"/>
   <tile gid="31"/>
   <tile gid="39"/>
   <tile gid="37"/>
   <tile gid="39"/>
   <tile gid="31"/>
   <tile gid="39"/>
   <tile gid="31"/>
   <tile gid="31"/>
   <tile gid="37"/>
   <tile gid="31"/>
   <tile gid="39"/>
   <tile gid="32"/>
   <tile gid="31"/>
   <tile gid="38"/>
   <tile/>
   <tile/>
   <tile/>
   <tile/>
   <tile/>
   <tile/>
   <tile/>
   <tile/>
   <tile/>
   <tile/>
   <tile/>
   <tile/>
   <tile/>
   <tile gid="33"/>
   <tile gid="45"/>
   <tile gid="35"/>
   <tile/>
   <tile/>
   <tile/>
   <tile/>
   <tile/>
   <tile/>
   <tile/>
   <tile/>
   <tile/>
   <tile/>
   <tile/>
   <tile/>
   <tile/>
   <tile/>
   <tile/>
   <tile/>
   <tile/>
   <tile/>
   <tile/>
   <tile/>
   <tile/>
   <tile/>
   <tile/>
   <tile/>
   <tile/>
   <tile/>
   <tile/>
   <tile/>
   <tile/>
   <tile/>
   <tile/>
   <tile/>
   <tile/>
   <tile/>
   <tile/>
   <tile/>
   <tile/>
   <tile/>
   <tile/>
   <tile/>
   <tile/>
   <tile/>
   <tile/>
   <tile/>
   <tile/>
   <tile/>
   <tile/>
   <tile/>
   <tile/>
   <tile/>
   <tile/>
   <tile/>
   <tile/>
   <tile/>
   <tile/>
   <tile/>
   <tile/>
   <tile/>
   <tile/>
   <tile/>
   <tile gid="37"/>
   <tile gid="39"/>
   <tile gid="40"/>
   <tile gid="37"/>
   <tile gid="40"/>
   <tile gid="31"/>
   <tile gid="37"/>
   <tile gid="32"/>
   <tile gid="39"/>
   <tile gid="31"/>
   <tile gid="32"/>
   <tile gid="32"/>
   <tile gid="32"/>
   <tile gid="40"/>
   <tile gid="40"/>
   <tile gid="31"/>
   <tile gid="32"/>
   <tile gid="40"/>
   <tile gid="39"/>
   <tile gid="40"/>
   <tile gid="31"/>
   <tile gid="32"/>
   <tile gid="32"/>
   <tile gid="31"/>
   <tile gid="32"/>
   <tile gid="32"/>
   <tile gid="38"/>
   <tile/>
   <tile/>
   <tile/>
   <tile/>
   <tile/>
   <tile/>
   <tile/>
   <tile/>
   <tile/>
   <tile/>
   <tile/>
   <tile/>
   <tile/>
   <tile/>
   <tile/>
   <tile/>
   <tile/>
   <tile/>
   <tile/>
   <tile gid="28"/>
   <tile gid="29"/>
   <tile gid="29"/>
   <tile gid="29"/>
   <tile gid="29"/>
   <tile gid="29"/>
   <tile gid="2147483654"/>
   <tile/>
   <tile/>
   <tile/>
   <tile/>
   <tile/>
   <tile/>
   <tile/>
   <tile/>
   <tile/>
   <tile/>
   <tile gid="14"/>
   <tile/>
   <tile/>
   <tile/>
   <tile gid="2147483662"/>
   <tile/>
   <tile/>
   <tile/>
   <tile/>
   <tile/>
   <tile/>
   <tile/>
   <tile/>
   <tile/>
   <tile/>
   <tile/>
   <tile/>
   <tile/>
   <tile/>
   <tile/>
   <tile/>
   <tile/>
   <tile/>
   <tile/>
   <tile/>
   <tile/>
   <tile/>
   <tile/>
   <tile/>
   <tile/>
   <tile/>
   <tile/>
   <tile/>
   <tile/>
   <tile/>
   <tile/>
   <tile/>
   <tile/>
   <tile/>
   <tile/>
   <tile gid="37"/>
   <tile gid="39"/>
   <tile gid="32"/>
   <tile gid="40"/>
   <tile gid="40"/>
   <tile gid="32"/>
   <tile gid="31"/>
   <tile gid="32"/>
   <tile gid="37"/>
   <tile gid="31"/>
   <tile gid="32"/>
   <tile gid="40"/>
   <tile gid="40"/>
   <tile gid="39"/>
   <tile gid="37"/>
   <tile gid="39"/>
   <tile gid="31"/>
   <tile gid="32"/>
   <tile gid="40"/>
   <tile gid="31"/>
   <tile gid="31"/>
   <tile gid="32"/>
   <tile gid="40"/>
   <tile gid="37"/>
   <tile gid="32"/>
   <tile gid="40"/>
   <tile gid="38"/>
   <tile/>
   <tile/>
   <tile/>
   <tile/>
   <tile/>
   <tile/>
   <tile/>
   <tile/>
   <tile/>
   <tile/>
   <tile/>
   <tile/>
   <tile/>
   <tile/>
   <tile/>
   <tile/>
   <tile/>
   <tile/>
   <tile/>
   <tile gid="36"/>
   <tile gid="31"/>
   <tile gid="37"/>
   <tile gid="37"/>
   <tile gid="32"/>
   <tile gid="39"/>
   <tile gid="2147483649"/>
   <tile gid="29"/>
   <tile gid="29"/>
   <tile gid="29"/>
   <tile gid="29"/>
   <tile gid="29"/>
   <tile gid="29"/>
   <tile gid="29"/>
   <tile gid="29"/>
   <tile gid="29"/>
   <tile gid="29"/>
   <tile gid="9"/>
   <tile gid="67"/>
   <tile gid="68"/>
   <tile gid="69"/>
   <tile gid="2147483657"/>
   <tile gid="29"/>
   <tile gid="29"/>
   <tile gid="29"/>
   <tile gid="29"/>
   <tile gid="29"/>
   <tile gid="29"/>
   <tile gid="29"/>
   <tile gid="29"/>
   <tile gid="29"/>
   <tile gid="29"/>
   <tile gid="29"/>
   <tile gid="29"/>
   <tile gid="29"/>
   <tile gid="29"/>
   <tile gid="29"/>
   <tile gid="29"/>
   <tile gid="29"/>
   <tile gid="29"/>
   <tile gid="29"/>
   <tile gid="29"/>
   <tile gid="29"/>
   <tile gid="29"/>
   <tile gid="29"/>
   <tile gid="29"/>
   <tile gid="29"/>
   <tile gid="29"/>
   <tile gid="29"/>
   <tile gid="29"/>
   <tile gid="29"/>
   <tile gid="29"/>
   <tile gid="29"/>
   <tile gid="29"/>
   <tile gid="29"/>
   <tile gid="29"/>
   <tile gid="29"/>
   <tile gid="31"/>
   <tile gid="40"/>
   <tile gid="39"/>
   <tile gid="39"/>
   <tile gid="32"/>
   <tile gid="31"/>
   <tile gid="39"/>
   <tile gid="39"/>
   <tile gid="40"/>
   <tile gid="40"/>
   <tile gid="31"/>
   <tile gid="32"/>
   <tile gid="31"/>
   <tile gid="37"/>
   <tile gid="37"/>
   <tile gid="37"/>
   <tile gid="37"/>
   <tile gid="37"/>
   <tile gid="39"/>
   <tile gid="31"/>
   <tile gid="31"/>
   <tile gid="40"/>
   <tile gid="37"/>
   <tile gid="31"/>
   <tile gid="32"/>
   <tile gid="32"/>
   <tile gid="38"/>
   <tile gid="69"/>
   <tile gid="73"/>
   <tile gid="74"/>
   <tile gid="75"/>
   <tile gid="76"/>
   <tile gid="77"/>
   <tile gid="65"/>
   <tile gid="66"/>
   <tile gid="67"/>
   <tile gid="68"/>
   <tile gid="69"/>
   <tile gid="65"/>
   <tile gid="66"/>
   <tile gid="73"/>
   <tile gid="74"/>
   <tile gid="75"/>
   <tile gid="76"/>
   <tile gid="77"/>
   <tile gid="67"/>
   <tile gid="36"/>
   <tile gid="32"/>
   <tile gid="31"/>
   <tile gid="37"/>
   <tile gid="32"/>
   <tile gid="39"/>
   <tile gid="32"/>
   <tile gid="32"/>
   <tile gid="32"/>
   <tile gid="37"/>
   <tile gid="31"/>
   <tile gid="40"/>
   <tile gid="32"/>
   <tile gid="39"/>
   <tile gid="40"/>
   <tile gid="31"/>
   <tile gid="31"/>
   <tile gid="32"/>
   <tile gid="3221225517"/>
   <tile gid="3221225517"/>
   <tile gid="3221225517"/>
   <tile gid="31"/>
   <tile gid="37"/>
   <tile gid="40"/>
   <tile gid="40"/>
   <tile gid="37"/>
   <tile gid="39"/>
   <tile gid="40"/>
   <tile gid="32"/>
   <tile gid="39"/>
   <tile gid="40"/>
   <tile gid="31"/>
   <tile gid="37"/>
   <tile gid="32"/>
   <tile gid="32"/>
   <tile gid="37"/>
   <tile gid="39"/>
   <tile gid="32"/>
   <tile gid="32"/>
   <tile gid="40"/>
   <tile gid="37"/>
   <tile gid="39"/>
   <tile gid="40"/>
   <tile gid="37"/>
   <tile gid="40"/>
   <tile gid="40"/>
   <tile gid="32"/>
   <tile gid="37"/>
   <tile gid="39"/>
   <tile gid="40"/>
   <tile gid="40"/>
   <tile gid="37"/>
   <tile gid="39"/>
   <tile gid="40"/>
   <tile gid="31"/>
   <tile gid="40"/>
   <tile gid="39"/>
   <tile gid="39"/>
   <tile gid="39"/>
   <tile gid="37"/>
   <tile gid="40"/>
   <tile gid="40"/>
   <tile gid="31"/>
   <tile gid="39"/>
   <tile gid="39"/>
   <tile gid="39"/>
   <tile gid="32"/>
   <tile gid="32"/>
   <tile gid="39"/>
   <tile gid="40"/>
   <tile gid="37"/>
   <tile gid="39"/>
   <tile gid="40"/>
   <tile gid="32"/>
   <tile gid="37"/>
   <tile gid="39"/>
   <tile gid="31"/>
   <tile gid="32"/>
   <tile gid="31"/>
   <tile gid="37"/>
   <tile gid="32"/>
   <tile gid="39"/>
   <tile gid="31"/>
   <tile gid="2147483655"/>
   <tile gid="29"/>
   <tile gid="29"/>
   <tile gid="29"/>
   <tile gid="29"/>
   <tile gid="29"/>
   <tile gid="29"/>
   <tile gid="29"/>
   <tile gid="29"/>
   <tile gid="29"/>
   <tile gid="29"/>
   <tile gid="29"/>
   <tile gid="29"/>
   <tile gid="29"/>
   <tile gid="29"/>
   <tile gid="29"/>
   <tile gid="29"/>
   <tile gid="29"/>
   <tile gid="29"/>
   <tile gid="29"/>
   <tile gid="7"/>
   <tile gid="31"/>
   <tile gid="40"/>
   <tile gid="32"/>
   <tile gid="39"/>
   <tile gid="40"/>
   <tile gid="31"/>
   <tile gid="32"/>
   <tile gid="39"/>
   <tile gid="32"/>
   <tile gid="39"/>
   <tile gid="37"/>
   <tile gid="40"/>
   <tile gid="32"/>
   <tile gid="37"/>
   <tile gid="32"/>
   <tile gid="32"/>
   <tile gid="32"/>
   <tile gid="37"/>
   <tile gid="37"/>
   <tile gid="37"/>
   <tile gid="32"/>
   <tile gid="39"/>
   <tile gid="40"/>
   <tile gid="39"/>
   <tile gid="39"/>
   <tile gid="40"/>
   <tile gid="39"/>
   <tile gid="37"/>
   <tile gid="39"/>
   <tile gid="37"/>
   <tile gid="37"/>
   <tile gid="31"/>
   <tile gid="40"/>
   <tile gid="31"/>
   <tile gid="31"/>
   <tile gid="37"/>
   <tile gid="31"/>
   <tile gid="31"/>
   <tile gid="37"/>
   <tile gid="31"/>
   <tile gid="32"/>
   <tile gid="39"/>
   <tile gid="31"/>
   <tile gid="37"/>
   <tile gid="39"/>
   <tile gid="37"/>
   <tile gid="40"/>
   <tile gid="40"/>
   <tile gid="40"/>
   <tile gid="40"/>
   <tile gid="32"/>
   <tile gid="31"/>
   <tile gid="40"/>
   <tile gid="37"/>
   <tile gid="31"/>
   <tile gid="40"/>
  </data>
 </layer>
 <objectgroup id="22" name="Fondo4-F">
  <properties>
   <property name="BG" type="bool" value="true"/>
   <property name="Draw" type="bool" value="true"/>
   <property name="Front" type="bool" value="true"/>
   <property name="ParalaxX" type="float" value="1"/>
  </properties>
  <object id="733" gid="144" x="9856.07" y="3129.68" width="5736.29" height="1991.26"/>
  <object id="734" gid="143" x="5825.73" y="2229.7" width="4014.4" height="1338.13"/>
  <object id="736" gid="151" x="-128" y="2432" width="1147.42" height="1147.42"/>
  <object id="737" gid="151" x="3320.12" y="3119.76" width="816" height="816"/>
  <object id="746" gid="1073741968" x="9856" y="1152" width="5736.29" height="1991.26"/>
  <object id="747" gid="1073741967" x="5817.66" y="912.305" width="4014.4" height="1338.13"/>
  <object id="748" gid="152" x="5686.67" y="694.788" width="1552" height="1552"/>
  <object id="749" gid="152" x="5711.88" y="445.212" width="1552" height="1552"/>
  <object id="750" gid="152" x="6308.85" y="627.03" width="1552" height="1552"/>
  <object id="751" gid="1073741975" x="-256" y="4864" width="3235.42" height="2491.42"/>
  <object id="752" gid="1073741975" x="758.801" y="3539.06" width="1147.42" height="1147.42"/>
  <object id="753" gid="1073741975" x="1404.58" y="3539.06" width="1147.42" height="1147.42"/>
  <object id="754" gid="151" x="381.782" y="2388" width="1147.42" height="1147.42"/>
  <object id="755" gid="151" x="1664" y="2560" width="1592" height="1592"/>
  <object id="756" gid="151" x="1460.58" y="2380" width="1147.42" height="1147.42"/>
  <object id="757" gid="148" x="-132" y="2120" width="1114.18" height="1114.18"/>
  <object id="760" gid="148" x="2416" y="2140" width="1230.18" height="1230.18"/>
  <object id="761" gid="151" x="772" y="2536" width="1147.42" height="1147.42"/>
  <object id="762" gid="1073741975" x="952.509" y="3667.06" width="1147.42" height="1147.42"/>
  <object id="763" gid="1073741975" x="1782.8" y="3667.06" width="1147.42" height="1147.42"/>
  <object id="764" gid="1073741975" x="2428.58" y="3667.06" width="1147.42" height="1147.42"/>
  <object id="765" gid="151" x="1413.78" y="2560" width="1147.42" height="1147.42"/>
  <object id="766" gid="151" x="2480.58" y="2532" width="1147.42" height="1291.42"/>
  <object id="768" gid="151" x="2048" y="3072" width="1632" height="1632"/>
  <object id="774" gid="153" x="3910.06" y="3123.76" width="768" height="768"/>
  <object id="775" gid="156" x="4523.03" y="3126.79" width="792" height="792"/>
  <object id="776" gid="151" x="5162.24" y="3116.36" width="816" height="816"/>
  <object id="805" gid="151" x="11904" y="3072" width="893.212" height="893.212"/>
  <object id="807" gid="152" x="11783.1" y="2957.37" width="951.247" height="770.584"/>
  <object id="808" gid="156" x="11646.7" y="2881.82" width="986.803" height="986.803"/>
  <object id="810" gid="151" x="10752" y="3072" width="868" height="960"/>
  <object id="814" gid="153" x="9984" y="3072" width="788" height="788"/>
  <object id="815" gid="151" x="11264" y="3072" width="951.879" height="951.879"/>
  <object id="818" gid="153" x="9694.3" y="2877.33" width="577.212" height="756"/>
  <object id="819" gid="156" x="9200" y="3076" width="996" height="996"/>
  <object id="820" gid="156" x="9444.73" y="3072" width="1031.27" height="1031.27"/>
  <object id="823" gid="148" x="7680" y="3072" width="980" height="864"/>
  <object id="824" gid="2147483796" x="8112" y="3072" width="864" height="864"/>
  <object id="825" gid="2147483801" x="8660" y="3072" width="856" height="856"/>
  <object id="827" gid="153" x="7168" y="3072" width="856" height="856"/>
  <object id="833" gid="151" x="12416" y="3072" width="893.212" height="893.212"/>
  <object id="834" gid="152" x="12288" y="2944" width="1108.24" height="1108.24"/>
  <object id="836" gid="153" x="10240" y="3072" width="788" height="788"/>
  <object id="841" gid="152" x="8320" y="2944" width="1065.82" height="1065.82"/>
  <object id="842" gid="155" x="8064" y="3072" width="644.606" height="644.606"/>
  <object id="843" gid="151" x="6192.61" y="2926.18" width="893.212" height="893.212"/>
  <object id="844" gid="151" x="5816" y="2812" width="951.879" height="951.879"/>
  <object id="846" gid="153" x="6150.3" y="3075.88" width="1212" height="1212"/>
  <object id="847" gid="2147483801" x="5852" y="3048" width="1212" height="1212"/>
  <object id="850" gid="151" x="5732" y="3120" width="816" height="816"/>
  <object id="851" gid="143" x="2824" y="1616" width="3222.4" height="1074.13"/>
  <object id="853" gid="144" x="-768" y="1832" width="4008.29" height="1391.41"/>
  <object id="854" gid="1073741967" x="-844" y="472" width="7102.4" height="2367.46"/>
  <object id="864" gid="1073741967" x="2712.8" y="752.27" width="7102.4" height="2367.46"/>
  <object id="867" gid="156" x="-720" y="2184" width="1396" height="1396"/>
  <object id="869" gid="156" x="2247.33" y="2266" width="1356" height="1396"/>
  <object id="870" gid="148" x="2816" y="2176" width="850.18" height="850.18"/>
  <object id="873" gid="151" x="-552.545" y="1800.18" width="893.212" height="893.212"/>
  <object id="874" gid="156" x="-383.273" y="2040.08" width="741.455" height="1117.21"/>
 </objectgroup>
 <objectgroup id="28" name="Fondo5-F    ">
  <properties>
   <property name="Draw" type="bool" value="true"/>
   <property name="Front" type="bool" value="true"/>
   <property name="ParalaxX" type="float" value="1.1"/>
  </properties>
  <object id="515" gid="134" x="11776" y="3072" width="3077.97" height="2308.48"/>
  <object id="688" gid="138" x="5760" y="3072" width="2304" height="3072"/>
  <object id="700" gid="2147483786" x="1408" y="3072" width="2304" height="3072"/>
  <object id="779" gid="138" x="9472" y="3072" width="3648" height="2286.33"/>
  <object id="907" gid="1073741962" x="9484.12" y="816.485" width="3648" height="2286.33"/>
 </objectgroup>
 <objectgroup color="#aa0000" id="19" name="Spikes">
  <properties>
   <property name="Danger" type="bool" value="true"/>
   <property name="Square" type="bool" value="true"/>
  </properties>
  <object id="164" x="3456" y="2864" width="2432" height="80"/>
  <object id="165" x="8184" y="2724.7" width="384" height="86.6667"/>
 </objectgroup>
 <objectgroup id="13" name="Path">
  <properties>
   <property name="Path" type="bool" value="true"/>
   <property name="Sensor" type="bool" value="true"/>
   <property name="Square" type="bool" value="true"/>
  </properties>
  <object id="131" x="13312" y="2304" width="128" height="384">
   <properties>
    <property name="TeleportTo" type="file" value="Nexo.tmx"/>
   </properties>
  </object>
  <object id="692" x="-256" y="512" width="128" height="1024">
   <properties>
    <property name="TeleportTo" type="file" value="Forest_02.tmx"/>
   </properties>
  </object>
 </objectgroup>
 <objectgroup color="#000000" id="8" name="Map">
  <properties>
   <property name="Map" type="bool" value="true"/>
   <property name="Square" type="bool" value="true"/>
  </properties>
  <object id="178" x="6784" y="2688" width="1408" height="128"/>
  <object id="179" x="8576" y="2688" width="4869.21" height="128"/>
  <object id="180" x="13056" y="0" width="256" height="2304"/>
  <object id="184" x="8064" y="2560" width="128" height="128"/>
  <object id="185" x="8576" y="2560" width="128" height="128"/>
  <object id="188" x="5888" y="2560" width="896" height="512"/>
  <object id="189" x="3456" y="2944" width="2432" height="128"/>
  <object id="190" x="2944" y="1536" width="512" height="1536"/>
  <object id="191" x="5120" y="2304" width="384" height="256"/>
  <object id="192" x="4352" y="2048" width="384" height="256"/>
  <object id="193" x="3712" y="1792" width="384" height="256"/>
  <object id="194" x="384" y="1920" width="2560" height="1152"/>
  <object id="195" x="-384" y="1536" width="768" height="1536"/>
  <object id="220" x="-384" y="0" width="640" height="512"/>
  <object id="522" x="128" y="-128" width="12928" height="128"/>
  <object id="745" x="5888" y="0" width="7168" height="1152"/>
 </objectgroup>
 <layer id="31" name="GroundNavLayer" width="103" height="24" visible="0">
  <properties>
   <property name="Ground" type="bool" value="true"/>
   <property name="Navigation" type="bool" value="true"/>
  </properties>
  <data>
   <tile gid="129"/>
   <tile gid="129"/>
   <tile/>
   <tile/>
   <tile/>
   <tile/>
   <tile/>
   <tile/>
   <tile/>
   <tile/>
   <tile/>
   <tile/>
   <tile/>
   <tile/>
   <tile/>
   <tile/>
   <tile/>
   <tile/>
   <tile/>
   <tile/>
   <tile/>
   <tile/>
   <tile/>
   <tile/>
   <tile/>
   <tile/>
   <tile/>
   <tile/>
   <tile/>
   <tile/>
   <tile/>
   <tile/>
   <tile/>
   <tile/>
   <tile/>
   <tile/>
   <tile/>
   <tile/>
   <tile/>
   <tile/>
   <tile/>
   <tile/>
   <tile/>
   <tile/>
   <tile/>
   <tile/>
   <tile/>
   <tile/>
   <tile/>
   <tile/>
   <tile/>
   <tile/>
   <tile/>
   <tile/>
   <tile/>
   <tile/>
   <tile/>
   <tile/>
   <tile/>
   <tile/>
   <tile/>
   <tile/>
   <tile/>
   <tile/>
   <tile/>
   <tile/>
   <tile/>
   <tile/>
   <tile/>
   <tile/>
   <tile/>
   <tile/>
   <tile/>
   <tile/>
   <tile/>
   <tile/>
   <tile/>
   <tile/>
   <tile/>
   <tile/>
   <tile/>
   <tile/>
   <tile/>
   <tile/>
   <tile/>
   <tile/>
   <tile/>
   <tile/>
   <tile/>
   <tile/>
   <tile/>
   <tile/>
   <tile/>
   <tile/>
   <tile/>
   <tile/>
   <tile/>
   <tile/>
   <tile/>
   <tile/>
   <tile/>
   <tile/>
   <tile gid="129"/>
   <tile gid="129"/>
   <tile gid="129"/>
   <tile/>
   <tile/>
   <tile/>
   <tile/>
   <tile/>
   <tile/>
   <tile/>
   <tile/>
   <tile/>
   <tile/>
   <tile/>
   <tile/>
   <tile/>
   <tile/>
   <tile/>
   <tile/>
   <tile/>
   <tile/>
   <tile/>
   <tile/>
   <tile/>
   <tile/>
   <tile/>
   <tile/>
   <tile/>
   <tile/>
   <tile/>
   <tile/>
   <tile/>
   <tile/>
   <tile/>
   <tile/>
   <tile/>
   <tile/>
   <tile/>
   <tile/>
   <tile/>
   <tile/>
   <tile/>
   <tile/>
   <tile/>
   <tile/>
   <tile/>
   <tile/>
   <tile/>
   <tile/>
   <tile/>
   <tile/>
   <tile/>
   <tile/>
   <tile/>
   <tile/>
   <tile/>
   <tile/>
   <tile/>
   <tile/>
   <tile/>
   <tile/>
   <tile/>
   <tile/>
   <tile/>
   <tile/>
   <tile/>
   <tile/>
   <tile/>
   <tile/>
   <tile/>
   <tile/>
   <tile/>
   <tile/>
   <tile/>
   <tile/>
   <tile/>
   <tile/>
   <tile/>
   <tile/>
   <tile/>
   <tile/>
   <tile/>
   <tile/>
   <tile/>
   <tile/>
   <tile/>
   <tile/>
   <tile/>
   <tile/>
   <tile/>
   <tile/>
   <tile/>
   <tile/>
   <tile/>
   <tile/>
   <tile/>
   <tile/>
   <tile/>
   <tile/>
   <tile/>
   <tile/>
   <tile/>
   <tile/>
   <tile gid="129"/>
   <tile gid="129"/>
   <tile gid="129"/>
   <tile/>
   <tile/>
   <tile/>
   <tile/>
   <tile/>
   <tile/>
   <tile/>
   <tile/>
   <tile/>
   <tile/>
   <tile/>
   <tile/>
   <tile/>
   <tile/>
   <tile/>
   <tile/>
   <tile/>
   <tile/>
   <tile/>
   <tile/>
   <tile/>
   <tile/>
   <tile/>
   <tile/>
   <tile/>
   <tile/>
   <tile/>
   <tile/>
   <tile/>
   <tile/>
   <tile/>
   <tile/>
   <tile/>
   <tile/>
   <tile/>
   <tile/>
   <tile/>
   <tile/>
   <tile/>
   <tile/>
   <tile/>
   <tile/>
   <tile/>
   <tile/>
   <tile/>
   <tile/>
   <tile/>
   <tile/>
   <tile/>
   <tile/>
   <tile/>
   <tile/>
   <tile/>
   <tile/>
   <tile/>
   <tile/>
   <tile/>
   <tile/>
   <tile/>
   <tile/>
   <tile/>
   <tile/>
   <tile/>
   <tile/>
   <tile/>
   <tile/>
   <tile/>
   <tile/>
   <tile/>
   <tile/>
   <tile/>
   <tile/>
   <tile/>
   <tile/>
   <tile/>
   <tile/>
   <tile/>
   <tile/>
   <tile/>
   <tile/>
   <tile/>
   <tile/>
   <tile/>
   <tile/>
   <tile/>
   <tile/>
   <tile/>
   <tile/>
   <tile/>
   <tile/>
   <tile/>
   <tile/>
   <tile/>
   <tile/>
   <tile/>
   <tile/>
   <tile/>
   <tile/>
   <tile/>
   <tile/>
   <tile gid="129"/>
   <tile gid="129"/>
   <tile gid="129"/>
   <tile/>
   <tile/>
   <tile/>
   <tile/>
   <tile/>
   <tile/>
   <tile/>
   <tile/>
   <tile/>
   <tile/>
   <tile/>
   <tile/>
   <tile/>
   <tile/>
   <tile/>
   <tile/>
   <tile/>
   <tile/>
   <tile/>
   <tile/>
   <tile/>
   <tile/>
   <tile/>
   <tile/>
   <tile/>
   <tile/>
   <tile/>
   <tile/>
   <tile/>
   <tile/>
   <tile/>
   <tile/>
   <tile/>
   <tile/>
   <tile/>
   <tile/>
   <tile/>
   <tile/>
   <tile/>
   <tile/>
   <tile/>
   <tile/>
   <tile/>
   <tile/>
   <tile/>
   <tile/>
   <tile/>
   <tile/>
   <tile/>
   <tile/>
   <tile/>
   <tile/>
   <tile/>
   <tile/>
   <tile/>
   <tile/>
   <tile/>
   <tile/>
   <tile/>
   <tile/>
   <tile/>
   <tile/>
   <tile/>
   <tile/>
   <tile/>
   <tile/>
   <tile/>
   <tile/>
   <tile/>
   <tile/>
   <tile/>
   <tile/>
   <tile/>
   <tile/>
   <tile/>
   <tile/>
   <tile/>
   <tile/>
   <tile/>
   <tile/>
   <tile/>
   <tile/>
   <tile/>
   <tile/>
   <tile/>
   <tile/>
   <tile/>
   <tile/>
   <tile/>
   <tile/>
   <tile/>
   <tile/>
   <tile/>
   <tile/>
   <tile/>
   <tile/>
   <tile/>
   <tile/>
   <tile/>
   <tile/>
   <tile gid="129"/>
   <tile/>
   <tile/>
   <tile/>
   <tile/>
   <tile/>
   <tile/>
   <tile/>
   <tile/>
   <tile/>
   <tile/>
   <tile/>
   <tile/>
   <tile/>
   <tile/>
   <tile/>
   <tile/>
   <tile/>
   <tile/>
   <tile/>
   <tile/>
   <tile/>
   <tile/>
   <tile/>
   <tile/>
   <tile/>
   <tile/>
   <tile/>
   <tile/>
   <tile/>
   <tile/>
   <tile/>
   <tile/>
   <tile/>
   <tile/>
   <tile/>
   <tile/>
   <tile/>
   <tile/>
   <tile/>
   <tile/>
   <tile/>
   <tile/>
   <tile/>
   <tile/>
   <tile/>
   <tile/>
   <tile/>
   <tile/>
   <tile/>
   <tile/>
   <tile/>
   <tile/>
   <tile/>
   <tile/>
   <tile/>
   <tile/>
   <tile/>
   <tile/>
   <tile/>
   <tile/>
   <tile/>
   <tile/>
   <tile/>
   <tile/>
   <tile/>
   <tile/>
   <tile/>
   <tile/>
   <tile/>
   <tile/>
   <tile/>
   <tile/>
   <tile/>
   <tile/>
   <tile/>
   <tile/>
   <tile/>
   <tile/>
   <tile/>
   <tile/>
   <tile/>
   <tile/>
   <tile/>
   <tile/>
   <tile/>
   <tile/>
   <tile/>
   <tile/>
   <tile/>
   <tile/>
   <tile/>
   <tile/>
   <tile/>
   <tile/>
   <tile/>
   <tile/>
   <tile/>
   <tile/>
   <tile/>
   <tile/>
   <tile/>
   <tile/>
   <tile gid="129"/>
   <tile/>
   <tile/>
   <tile/>
   <tile/>
   <tile/>
   <tile/>
   <tile/>
   <tile/>
   <tile/>
   <tile/>
   <tile/>
   <tile/>
   <tile/>
   <tile/>
   <tile/>
   <tile/>
   <tile/>
   <tile/>
   <tile/>
   <tile/>
   <tile/>
   <tile/>
   <tile/>
   <tile/>
   <tile/>
   <tile/>
   <tile/>
   <tile/>
   <tile/>
   <tile/>
   <tile/>
   <tile/>
   <tile/>
   <tile/>
   <tile/>
   <tile/>
   <tile/>
   <tile/>
   <tile/>
   <tile/>
   <tile/>
   <tile/>
   <tile/>
   <tile/>
   <tile/>
   <tile/>
   <tile/>
   <tile/>
   <tile/>
   <tile/>
   <tile/>
   <tile/>
   <tile/>
   <tile/>
   <tile/>
   <tile/>
   <tile/>
   <tile/>
   <tile/>
   <tile/>
   <tile/>
   <tile/>
   <tile/>
   <tile/>
   <tile/>
   <tile/>
   <tile/>
   <tile/>
   <tile/>
   <tile/>
   <tile/>
   <tile/>
   <tile/>
   <tile/>
   <tile/>
   <tile/>
   <tile/>
   <tile/>
   <tile/>
   <tile/>
   <tile/>
   <tile/>
   <tile/>
   <tile/>
   <tile/>
   <tile/>
   <tile/>
   <tile/>
   <tile/>
   <tile/>
   <tile/>
   <tile/>
   <tile/>
   <tile/>
   <tile/>
   <tile/>
   <tile/>
   <tile/>
   <tile/>
   <tile/>
   <tile/>
   <tile/>
   <tile gid="129"/>
   <tile/>
   <tile/>
   <tile/>
   <tile/>
   <tile/>
   <tile/>
   <tile/>
   <tile/>
   <tile/>
   <tile/>
   <tile/>
   <tile/>
   <tile/>
   <tile/>
   <tile/>
   <tile/>
   <tile/>
   <tile/>
   <tile/>
   <tile/>
   <tile/>
   <tile/>
   <tile/>
   <tile/>
   <tile/>
   <tile/>
   <tile/>
   <tile/>
   <tile/>
   <tile/>
   <tile/>
   <tile/>
   <tile/>
   <tile/>
   <tile/>
   <tile/>
   <tile/>
   <tile/>
   <tile/>
   <tile/>
   <tile/>
   <tile/>
   <tile/>
   <tile/>
   <tile/>
   <tile/>
   <tile/>
   <tile/>
   <tile/>
   <tile/>
   <tile/>
   <tile/>
   <tile/>
   <tile/>
   <tile/>
   <tile/>
   <tile/>
   <tile/>
   <tile/>
   <tile/>
   <tile/>
   <tile/>
   <tile/>
   <tile/>
   <tile/>
   <tile/>
   <tile/>
   <tile/>
   <tile/>
   <tile/>
   <tile/>
   <tile/>
   <tile/>
   <tile/>
   <tile/>
   <tile/>
   <tile/>
   <tile/>
   <tile/>
   <tile/>
   <tile/>
   <tile/>
   <tile/>
   <tile/>
   <tile/>
   <tile/>
   <tile/>
   <tile/>
   <tile/>
   <tile/>
   <tile/>
   <tile/>
   <tile/>
   <tile/>
   <tile/>
   <tile/>
   <tile/>
   <tile/>
   <tile/>
   <tile/>
   <tile/>
   <tile/>
   <tile gid="129"/>
   <tile/>
   <tile/>
   <tile/>
   <tile/>
   <tile/>
   <tile/>
   <tile/>
   <tile/>
   <tile/>
   <tile/>
   <tile/>
   <tile/>
   <tile/>
   <tile/>
   <tile/>
   <tile/>
   <tile/>
   <tile/>
   <tile/>
   <tile/>
   <tile/>
   <tile/>
   <tile/>
   <tile/>
   <tile/>
   <tile/>
   <tile/>
   <tile/>
   <tile/>
   <tile/>
   <tile/>
   <tile/>
   <tile/>
   <tile/>
   <tile/>
   <tile/>
   <tile/>
   <tile/>
   <tile/>
   <tile/>
   <tile/>
   <tile/>
   <tile/>
   <tile/>
   <tile/>
   <tile/>
   <tile/>
   <tile/>
   <tile/>
   <tile/>
   <tile/>
   <tile/>
   <tile/>
   <tile/>
   <tile/>
   <tile/>
   <tile/>
   <tile/>
   <tile/>
   <tile/>
   <tile/>
   <tile/>
   <tile/>
   <tile/>
   <tile/>
   <tile/>
   <tile/>
   <tile/>
   <tile/>
   <tile/>
   <tile/>
   <tile/>
   <tile/>
   <tile/>
   <tile/>
   <tile/>
   <tile/>
   <tile/>
   <tile/>
   <tile/>
   <tile/>
   <tile/>
   <tile/>
   <tile/>
   <tile/>
   <tile/>
   <tile/>
   <tile/>
   <tile/>
   <tile/>
   <tile/>
   <tile/>
   <tile/>
   <tile/>
   <tile/>
   <tile/>
   <tile/>
   <tile/>
   <tile/>
   <tile/>
   <tile/>
   <tile/>
   <tile gid="129"/>
   <tile/>
   <tile/>
   <tile/>
   <tile/>
   <tile/>
   <tile/>
   <tile/>
   <tile/>
   <tile/>
   <tile/>
   <tile/>
   <tile/>
   <tile/>
   <tile/>
   <tile/>
   <tile/>
   <tile/>
   <tile/>
   <tile/>
   <tile/>
   <tile/>
   <tile/>
   <tile/>
   <tile/>
   <tile/>
   <tile/>
   <tile/>
   <tile/>
   <tile/>
   <tile/>
   <tile/>
   <tile/>
   <tile/>
   <tile/>
   <tile/>
   <tile/>
   <tile/>
   <tile/>
   <tile/>
   <tile/>
   <tile/>
   <tile/>
   <tile/>
   <tile/>
   <tile/>
   <tile/>
   <tile/>
   <tile/>
   <tile/>
   <tile/>
   <tile/>
   <tile/>
   <tile/>
   <tile/>
   <tile/>
   <tile/>
   <tile/>
   <tile/>
   <tile/>
   <tile/>
   <tile/>
   <tile/>
   <tile/>
   <tile/>
   <tile/>
   <tile/>
   <tile/>
   <tile/>
   <tile/>
   <tile/>
   <tile/>
   <tile/>
   <tile/>
   <tile/>
   <tile/>
   <tile/>
   <tile/>
   <tile/>
   <tile/>
   <tile/>
   <tile/>
   <tile/>
   <tile/>
   <tile/>
   <tile/>
   <tile/>
   <tile/>
   <tile/>
   <tile/>
   <tile/>
   <tile/>
   <tile/>
   <tile/>
   <tile/>
   <tile/>
   <tile/>
   <tile/>
   <tile/>
   <tile/>
   <tile/>
   <tile/>
   <tile/>
   <tile gid="129"/>
   <tile/>
   <tile/>
   <tile/>
   <tile/>
   <tile/>
   <tile/>
   <tile/>
   <tile/>
   <tile/>
   <tile/>
   <tile/>
   <tile/>
   <tile/>
   <tile/>
   <tile/>
   <tile/>
   <tile/>
   <tile/>
   <tile/>
   <tile/>
   <tile/>
   <tile/>
   <tile/>
   <tile/>
   <tile/>
   <tile/>
   <tile/>
   <tile/>
   <tile/>
   <tile/>
   <tile/>
   <tile/>
   <tile/>
   <tile/>
   <tile/>
   <tile/>
   <tile/>
   <tile/>
   <tile/>
   <tile/>
   <tile/>
   <tile/>
   <tile/>
   <tile/>
   <tile/>
   <tile/>
   <tile/>
   <tile/>
   <tile/>
   <tile/>
   <tile/>
   <tile/>
   <tile/>
   <tile/>
   <tile/>
   <tile/>
   <tile/>
   <tile/>
   <tile/>
   <tile/>
   <tile/>
   <tile/>
   <tile/>
   <tile/>
   <tile/>
   <tile/>
   <tile/>
   <tile/>
   <tile/>
   <tile/>
   <tile/>
   <tile/>
   <tile/>
   <tile/>
   <tile/>
   <tile/>
   <tile/>
   <tile/>
   <tile/>
   <tile/>
   <tile/>
   <tile/>
   <tile/>
   <tile/>
   <tile/>
   <tile/>
   <tile/>
   <tile/>
   <tile/>
   <tile/>
   <tile/>
   <tile/>
   <tile/>
   <tile/>
   <tile/>
   <tile/>
   <tile/>
   <tile/>
   <tile/>
   <tile/>
   <tile/>
   <tile/>
   <tile gid="129"/>
   <tile/>
   <tile/>
   <tile/>
   <tile/>
   <tile/>
   <tile/>
   <tile/>
   <tile/>
   <tile/>
   <tile/>
   <tile/>
   <tile/>
   <tile/>
   <tile/>
   <tile/>
   <tile/>
   <tile/>
   <tile/>
   <tile/>
   <tile/>
   <tile/>
   <tile/>
   <tile/>
   <tile gid="129"/>
   <tile/>
   <tile/>
   <tile gid="129"/>
   <tile/>
   <tile/>
   <tile/>
   <tile/>
   <tile/>
   <tile/>
   <tile/>
   <tile/>
   <tile/>
   <tile/>
   <tile/>
   <tile/>
   <tile/>
   <tile/>
   <tile/>
   <tile/>
   <tile/>
   <tile/>
   <tile/>
   <tile/>
   <tile/>
   <tile/>
   <tile/>
   <tile/>
   <tile/>
   <tile/>
   <tile/>
   <tile/>
   <tile/>
   <tile/>
   <tile/>
   <tile/>
   <tile/>
   <tile/>
   <tile/>
   <tile/>
   <tile/>
   <tile/>
   <tile/>
   <tile/>
   <tile/>
   <tile/>
   <tile/>
   <tile/>
   <tile/>
   <tile/>
   <tile/>
   <tile/>
   <tile/>
   <tile/>
   <tile/>
   <tile/>
   <tile/>
   <tile/>
   <tile/>
   <tile/>
   <tile/>
   <tile/>
   <tile/>
   <tile/>
   <tile/>
   <tile/>
   <tile/>
   <tile/>
   <tile/>
   <tile/>
   <tile/>
   <tile/>
   <tile/>
   <tile/>
   <tile/>
   <tile/>
   <tile/>
   <tile/>
   <tile/>
   <tile gid="129"/>
   <tile/>
   <tile/>
   <tile/>
   <tile/>
   <tile/>
   <tile/>
   <tile/>
   <tile/>
   <tile/>
   <tile/>
   <tile/>
   <tile/>
   <tile/>
   <tile/>
   <tile/>
   <tile/>
   <tile/>
   <tile/>
   <tile/>
   <tile/>
   <tile/>
   <tile/>
   <tile/>
   <tile gid="129"/>
   <tile/>
   <tile/>
   <tile gid="129"/>
   <tile/>
   <tile/>
   <tile/>
   <tile/>
   <tile/>
   <tile/>
   <tile/>
   <tile/>
   <tile/>
   <tile/>
   <tile/>
   <tile/>
   <tile/>
   <tile/>
   <tile/>
   <tile/>
   <tile/>
   <tile/>
   <tile/>
   <tile/>
   <tile/>
   <tile/>
   <tile/>
   <tile/>
   <tile/>
   <tile/>
   <tile/>
   <tile/>
   <tile/>
   <tile/>
   <tile/>
   <tile/>
   <tile/>
   <tile/>
   <tile/>
   <tile/>
   <tile/>
   <tile/>
   <tile/>
   <tile/>
   <tile/>
   <tile/>
   <tile/>
   <tile/>
   <tile/>
   <tile/>
   <tile/>
   <tile/>
   <tile/>
   <tile/>
   <tile/>
   <tile/>
   <tile/>
   <tile/>
   <tile/>
   <tile/>
   <tile/>
   <tile/>
   <tile/>
   <tile/>
   <tile/>
   <tile/>
   <tile/>
   <tile/>
   <tile/>
   <tile/>
   <tile/>
   <tile/>
   <tile/>
   <tile/>
   <tile/>
   <tile/>
   <tile/>
   <tile/>
   <tile/>
   <tile gid="129"/>
   <tile gid="129"/>
   <tile gid="129"/>
   <tile gid="129"/>
   <tile/>
   <tile/>
   <tile/>
   <tile/>
   <tile/>
   <tile/>
   <tile/>
   <tile/>
   <tile/>
   <tile/>
   <tile/>
   <tile/>
   <tile/>
   <tile/>
   <tile/>
   <tile/>
   <tile/>
   <tile/>
   <tile/>
   <tile/>
   <tile gid="129"/>
   <tile gid="129"/>
   <tile gid="129"/>
   <tile gid="129"/>
   <tile/>
   <tile/>
   <tile/>
   <tile/>
   <tile/>
   <tile/>
   <tile/>
   <tile/>
   <tile/>
   <tile/>
   <tile/>
   <tile/>
   <tile/>
   <tile/>
   <tile/>
   <tile/>
   <tile/>
   <tile/>
   <tile/>
   <tile/>
   <tile/>
   <tile/>
   <tile/>
   <tile/>
   <tile/>
   <tile/>
   <tile/>
   <tile/>
   <tile/>
   <tile/>
   <tile/>
   <tile/>
   <tile/>
   <tile/>
   <tile/>
   <tile/>
   <tile/>
   <tile/>
   <tile/>
   <tile/>
   <tile/>
   <tile/>
   <tile/>
   <tile/>
   <tile/>
   <tile/>
   <tile/>
   <tile/>
   <tile/>
   <tile/>
   <tile/>
   <tile/>
   <tile/>
   <tile/>
   <tile/>
   <tile/>
   <tile/>
   <tile/>
   <tile/>
   <tile/>
   <tile/>
   <tile/>
   <tile/>
   <tile/>
   <tile/>
   <tile/>
   <tile/>
   <tile/>
   <tile/>
   <tile/>
   <tile/>
   <tile/>
   <tile/>
   <tile/>
   <tile/>
   <tile gid="129"/>
   <tile gid="129"/>
   <tile gid="129"/>
   <tile gid="129"/>
   <tile/>
   <tile/>
   <tile/>
   <tile/>
   <tile/>
   <tile/>
   <tile/>
   <tile/>
   <tile/>
   <tile/>
   <tile/>
   <tile/>
   <tile/>
   <tile/>
   <tile/>
   <tile/>
   <tile/>
   <tile/>
   <tile/>
   <tile/>
   <tile gid="129"/>
   <tile gid="129"/>
   <tile gid="129"/>
   <tile gid="129"/>
   <tile/>
   <tile/>
   <tile/>
   <tile/>
   <tile/>
   <tile/>
   <tile/>
   <tile/>
   <tile/>
   <tile/>
   <tile/>
   <tile/>
   <tile/>
   <tile/>
   <tile/>
   <tile/>
   <tile/>
   <tile/>
   <tile/>
   <tile/>
   <tile/>
   <tile/>
   <tile/>
   <tile/>
   <tile/>
   <tile/>
   <tile/>
   <tile/>
   <tile/>
   <tile/>
   <tile/>
   <tile/>
   <tile/>
   <tile/>
   <tile/>
   <tile/>
   <tile/>
   <tile/>
   <tile/>
   <tile/>
   <tile/>
   <tile/>
   <tile/>
   <tile/>
   <tile/>
   <tile/>
   <tile/>
   <tile/>
   <tile/>
   <tile/>
   <tile/>
   <tile/>
   <tile/>
   <tile/>
   <tile/>
   <tile/>
   <tile/>
   <tile/>
   <tile/>
   <tile/>
   <tile/>
   <tile/>
   <tile/>
   <tile/>
   <tile/>
   <tile/>
   <tile/>
   <tile/>
   <tile/>
   <tile/>
   <tile/>
   <tile/>
   <tile/>
   <tile/>
   <tile/>
   <tile gid="129"/>
   <tile gid="129"/>
   <tile gid="129"/>
   <tile gid="129"/>
   <tile/>
   <tile/>
   <tile/>
   <tile/>
   <tile/>
   <tile/>
   <tile/>
   <tile/>
   <tile/>
   <tile/>
   <tile/>
   <tile/>
   <tile/>
   <tile/>
   <tile/>
   <tile/>
   <tile/>
   <tile/>
   <tile/>
   <tile/>
   <tile gid="129"/>
   <tile gid="129"/>
   <tile gid="129"/>
   <tile gid="129"/>
   <tile/>
   <tile/>
   <tile gid="129"/>
   <tile gid="129"/>
   <tile gid="129"/>
   <tile/>
   <tile/>
   <tile/>
   <tile/>
   <tile/>
   <tile/>
   <tile/>
   <tile/>
   <tile/>
   <tile/>
   <tile/>
   <tile/>
   <tile/>
   <tile/>
   <tile/>
   <tile/>
   <tile/>
   <tile/>
   <tile/>
   <tile/>
   <tile/>
   <tile/>
   <tile/>
   <tile/>
   <tile/>
   <tile/>
   <tile/>
   <tile/>
   <tile/>
   <tile/>
   <tile/>
   <tile/>
   <tile/>
   <tile/>
   <tile/>
   <tile/>
   <tile/>
   <tile/>
   <tile/>
   <tile/>
   <tile/>
   <tile/>
   <tile/>
   <tile/>
   <tile/>
   <tile/>
   <tile/>
   <tile/>
   <tile/>
   <tile/>
   <tile/>
   <tile/>
   <tile/>
   <tile/>
   <tile/>
   <tile/>
   <tile/>
   <tile/>
   <tile/>
   <tile/>
   <tile/>
   <tile/>
   <tile/>
   <tile/>
   <tile/>
   <tile/>
   <tile/>
   <tile/>
   <tile/>
   <tile/>
   <tile gid="129"/>
   <tile gid="129"/>
   <tile gid="129"/>
   <tile gid="129"/>
   <tile gid="129"/>
   <tile gid="129"/>
   <tile gid="129"/>
   <tile gid="129"/>
   <tile gid="129"/>
   <tile gid="129"/>
   <tile gid="129"/>
   <tile gid="129"/>
   <tile gid="129"/>
   <tile gid="129"/>
   <tile gid="129"/>
   <tile gid="129"/>
   <tile gid="129"/>
   <tile gid="129"/>
   <tile gid="129"/>
   <tile gid="129"/>
   <tile gid="129"/>
   <tile gid="129"/>
   <tile gid="129"/>
   <tile gid="129"/>
   <tile gid="129"/>
   <tile gid="129"/>
   <tile gid="129"/>
   <tile gid="129"/>
   <tile/>
   <tile/>
   <tile gid="129"/>
   <tile gid="129"/>
   <tile gid="129"/>
   <tile/>
   <tile/>
   <tile/>
   <tile/>
   <tile/>
   <tile/>
   <tile/>
   <tile/>
   <tile/>
   <tile/>
   <tile/>
   <tile/>
   <tile/>
   <tile/>
   <tile/>
   <tile/>
   <tile/>
   <tile/>
   <tile/>
   <tile/>
   <tile/>
   <tile/>
   <tile/>
   <tile/>
   <tile/>
   <tile/>
   <tile/>
   <tile/>
   <tile/>
   <tile/>
   <tile/>
   <tile/>
   <tile/>
   <tile/>
   <tile/>
   <tile/>
   <tile/>
   <tile/>
   <tile/>
   <tile/>
   <tile/>
   <tile/>
   <tile/>
   <tile/>
   <tile/>
   <tile/>
   <tile/>
   <tile/>
   <tile/>
   <tile/>
   <tile/>
   <tile/>
   <tile/>
   <tile/>
   <tile/>
   <tile/>
   <tile/>
   <tile/>
   <tile/>
   <tile/>
   <tile/>
   <tile/>
   <tile/>
   <tile/>
   <tile/>
   <tile/>
   <tile/>
   <tile/>
   <tile/>
   <tile/>
   <tile gid="129"/>
   <tile gid="129"/>
   <tile gid="129"/>
   <tile gid="129"/>
   <tile gid="129"/>
   <tile gid="129"/>
   <tile gid="129"/>
   <tile gid="129"/>
   <tile gid="129"/>
   <tile gid="129"/>
   <tile gid="129"/>
   <tile gid="129"/>
   <tile gid="129"/>
   <tile gid="129"/>
   <tile gid="129"/>
   <tile gid="129"/>
   <tile gid="129"/>
   <tile gid="129"/>
   <tile gid="129"/>
   <tile gid="129"/>
   <tile gid="129"/>
   <tile gid="129"/>
   <tile gid="129"/>
   <tile gid="129"/>
   <tile gid="129"/>
   <tile gid="129"/>
   <tile gid="129"/>
   <tile gid="129"/>
   <tile/>
   <tile/>
   <tile/>
   <tile/>
   <tile/>
   <tile/>
   <tile/>
   <tile gid="129"/>
   <tile gid="129"/>
   <tile gid="129"/>
   <tile/>
   <tile/>
   <tile/>
   <tile/>
   <tile/>
   <tile/>
   <tile/>
   <tile/>
   <tile/>
   <tile/>
   <tile/>
   <tile/>
   <tile/>
   <tile/>
   <tile/>
   <tile/>
   <tile/>
   <tile/>
   <tile/>
   <tile/>
   <tile/>
   <tile/>
   <tile/>
   <tile/>
   <tile/>
   <tile/>
   <tile/>
   <tile/>
   <tile/>
   <tile/>
   <tile/>
   <tile/>
   <tile/>
   <tile/>
   <tile/>
   <tile/>
   <tile/>
   <tile/>
   <tile/>
   <tile/>
   <tile/>
   <tile/>
   <tile/>
   <tile/>
   <tile/>
   <tile/>
   <tile/>
   <tile/>
   <tile/>
   <tile/>
   <tile/>
   <tile/>
   <tile/>
   <tile/>
   <tile/>
   <tile/>
   <tile/>
   <tile/>
   <tile/>
   <tile/>
   <tile/>
   <tile/>
   <tile/>
   <tile/>
   <tile/>
   <tile gid="129"/>
   <tile gid="129"/>
   <tile gid="129"/>
   <tile gid="129"/>
   <tile gid="129"/>
   <tile gid="129"/>
   <tile gid="129"/>
   <tile gid="129"/>
   <tile gid="129"/>
   <tile gid="129"/>
   <tile gid="129"/>
   <tile gid="129"/>
   <tile gid="129"/>
   <tile gid="129"/>
   <tile gid="129"/>
   <tile gid="129"/>
   <tile gid="129"/>
   <tile gid="129"/>
   <tile gid="129"/>
   <tile gid="129"/>
   <tile gid="129"/>
   <tile gid="129"/>
   <tile gid="129"/>
   <tile gid="129"/>
   <tile gid="129"/>
   <tile gid="129"/>
   <tile gid="129"/>
   <tile gid="129"/>
   <tile/>
   <tile/>
   <tile/>
   <tile/>
   <tile/>
   <tile/>
   <tile/>
   <tile gid="129"/>
   <tile gid="129"/>
   <tile gid="129"/>
   <tile/>
   <tile/>
   <tile/>
   <tile/>
   <tile/>
   <tile/>
   <tile/>
   <tile/>
   <tile/>
   <tile/>
   <tile/>
   <tile/>
   <tile/>
   <tile/>
   <tile/>
   <tile/>
   <tile/>
   <tile/>
   <tile/>
   <tile/>
   <tile/>
   <tile/>
   <tile/>
   <tile/>
   <tile/>
   <tile/>
   <tile/>
   <tile/>
   <tile/>
   <tile/>
   <tile/>
   <tile/>
   <tile/>
   <tile/>
   <tile/>
   <tile/>
   <tile/>
   <tile/>
   <tile/>
   <tile/>
   <tile/>
   <tile/>
   <tile/>
   <tile/>
   <tile/>
   <tile/>
   <tile/>
   <tile/>
   <tile/>
   <tile/>
   <tile/>
   <tile/>
   <tile/>
   <tile/>
   <tile/>
   <tile/>
   <tile/>
   <tile/>
   <tile/>
   <tile/>
   <tile/>
   <tile/>
   <tile/>
   <tile/>
   <tile/>
   <tile gid="129"/>
   <tile gid="129"/>
   <tile gid="129"/>
   <tile gid="129"/>
   <tile gid="129"/>
   <tile gid="129"/>
   <tile gid="129"/>
   <tile gid="129"/>
   <tile gid="129"/>
   <tile gid="129"/>
   <tile gid="129"/>
   <tile gid="129"/>
   <tile gid="129"/>
   <tile gid="129"/>
   <tile gid="129"/>
   <tile gid="129"/>
   <tile gid="129"/>
   <tile gid="129"/>
   <tile gid="129"/>
   <tile gid="129"/>
   <tile gid="129"/>
   <tile gid="129"/>
   <tile gid="129"/>
   <tile gid="129"/>
   <tile gid="129"/>
   <tile gid="129"/>
   <tile gid="129"/>
   <tile gid="129"/>
   <tile/>
   <tile/>
   <tile/>
   <tile/>
   <tile/>
   <tile/>
   <tile/>
   <tile/>
   <tile/>
   <tile/>
   <tile/>
   <tile/>
   <tile/>
   <tile gid="129"/>
   <tile gid="129"/>
   <tile gid="129"/>
   <tile/>
   <tile/>
   <tile/>
   <tile gid="129"/>
   <tile/>
   <tile/>
   <tile/>
   <tile/>
   <tile/>
   <tile/>
   <tile/>
   <tile/>
   <tile/>
   <tile/>
   <tile/>
   <tile/>
   <tile/>
   <tile/>
   <tile/>
   <tile/>
   <tile/>
   <tile/>
   <tile/>
   <tile/>
   <tile/>
   <tile/>
   <tile/>
   <tile/>
   <tile/>
   <tile/>
   <tile/>
   <tile/>
   <tile/>
   <tile/>
   <tile/>
   <tile/>
   <tile/>
   <tile/>
   <tile/>
   <tile/>
   <tile/>
   <tile/>
   <tile/>
   <tile gid="129"/>
   <tile gid="129"/>
   <tile gid="129"/>
   <tile/>
   <tile/>
   <tile/>
   <tile/>
   <tile/>
   <tile/>
   <tile/>
   <tile/>
   <tile/>
   <tile/>
   <tile/>
   <tile/>
   <tile/>
   <tile/>
   <tile gid="129"/>
   <tile gid="129"/>
   <tile gid="129"/>
   <tile gid="129"/>
   <tile gid="129"/>
   <tile gid="129"/>
   <tile gid="129"/>
   <tile gid="129"/>
   <tile gid="129"/>
   <tile gid="129"/>
   <tile gid="129"/>
   <tile gid="129"/>
   <tile gid="129"/>
   <tile gid="129"/>
   <tile gid="129"/>
   <tile gid="129"/>
   <tile gid="129"/>
   <tile gid="129"/>
   <tile gid="129"/>
   <tile gid="129"/>
   <tile gid="129"/>
   <tile gid="129"/>
   <tile gid="129"/>
   <tile gid="129"/>
   <tile gid="129"/>
   <tile gid="129"/>
   <tile gid="129"/>
   <tile/>
   <tile/>
   <tile/>
   <tile/>
   <tile/>
   <tile/>
   <tile/>
   <tile/>
   <tile/>
   <tile/>
   <tile/>
   <tile/>
   <tile/>
   <tile gid="129"/>
   <tile gid="129"/>
   <tile gid="129"/>
   <tile/>
   <tile/>
   <tile/>
   <tile gid="129"/>
   <tile/>
   <tile/>
   <tile/>
   <tile/>
   <tile/>
   <tile/>
   <tile/>
   <tile/>
   <tile/>
   <tile/>
   <tile/>
   <tile/>
   <tile/>
   <tile/>
   <tile/>
   <tile/>
   <tile/>
   <tile/>
   <tile/>
   <tile/>
   <tile/>
   <tile/>
   <tile/>
   <tile/>
   <tile/>
   <tile/>
   <tile/>
   <tile/>
   <tile/>
   <tile/>
   <tile/>
   <tile/>
   <tile/>
   <tile/>
   <tile/>
   <tile/>
   <tile/>
   <tile/>
   <tile/>
   <tile/>
   <tile/>
   <tile/>
   <tile/>
   <tile/>
   <tile/>
   <tile/>
   <tile/>
   <tile/>
   <tile/>
   <tile/>
   <tile/>
   <tile/>
   <tile/>
   <tile/>
   <tile/>
   <tile/>
   <tile gid="129"/>
   <tile gid="129"/>
   <tile gid="129"/>
   <tile gid="129"/>
   <tile gid="129"/>
   <tile gid="129"/>
   <tile gid="129"/>
   <tile gid="129"/>
   <tile gid="129"/>
   <tile gid="129"/>
   <tile gid="129"/>
   <tile gid="129"/>
   <tile gid="129"/>
   <tile gid="129"/>
   <tile gid="129"/>
   <tile gid="129"/>
   <tile gid="129"/>
   <tile gid="129"/>
   <tile gid="129"/>
   <tile gid="129"/>
   <tile gid="129"/>
   <tile gid="129"/>
   <tile gid="129"/>
   <tile gid="129"/>
   <tile gid="129"/>
   <tile gid="129"/>
   <tile gid="129"/>
   <tile/>
   <tile/>
   <tile/>
   <tile/>
   <tile/>
   <tile/>
   <tile/>
   <tile/>
   <tile/>
   <tile/>
   <tile/>
   <tile/>
   <tile/>
   <tile/>
   <tile/>
   <tile/>
   <tile/>
   <tile/>
   <tile/>
   <tile gid="129"/>
   <tile gid="129"/>
   <tile gid="129"/>
   <tile gid="129"/>
   <tile gid="129"/>
   <tile gid="129"/>
   <tile gid="129"/>
   <tile/>
   <tile/>
   <tile/>
   <tile/>
   <tile/>
   <tile/>
   <tile/>
   <tile/>
   <tile/>
   <tile/>
   <tile gid="129"/>
   <tile/>
   <tile/>
   <tile/>
   <tile gid="129"/>
   <tile/>
   <tile/>
   <tile/>
   <tile/>
   <tile/>
   <tile/>
   <tile/>
   <tile/>
   <tile/>
   <tile/>
   <tile/>
   <tile/>
   <tile/>
   <tile/>
   <tile/>
   <tile/>
   <tile/>
   <tile/>
   <tile/>
   <tile/>
   <tile/>
   <tile/>
   <tile/>
   <tile/>
   <tile/>
   <tile/>
   <tile/>
   <tile/>
   <tile/>
   <tile/>
   <tile/>
   <tile/>
   <tile/>
   <tile/>
   <tile/>
   <tile gid="129"/>
   <tile gid="129"/>
   <tile gid="129"/>
   <tile gid="129"/>
   <tile gid="129"/>
   <tile gid="129"/>
   <tile gid="129"/>
   <tile gid="129"/>
   <tile gid="129"/>
   <tile gid="129"/>
   <tile gid="129"/>
   <tile gid="129"/>
   <tile gid="129"/>
   <tile gid="129"/>
   <tile gid="129"/>
   <tile gid="129"/>
   <tile gid="129"/>
   <tile gid="129"/>
   <tile gid="129"/>
   <tile gid="129"/>
   <tile gid="129"/>
   <tile gid="129"/>
   <tile gid="129"/>
   <tile gid="129"/>
   <tile gid="129"/>
   <tile gid="129"/>
   <tile gid="129"/>
   <tile gid="129"/>
   <tile gid="129"/>
   <tile gid="129"/>
   <tile gid="129"/>
   <tile gid="129"/>
   <tile gid="129"/>
   <tile gid="129"/>
   <tile gid="129"/>
   <tile gid="129"/>
   <tile gid="129"/>
   <tile gid="129"/>
   <tile gid="129"/>
   <tile gid="129"/>
   <tile gid="129"/>
   <tile gid="129"/>
   <tile gid="129"/>
   <tile gid="129"/>
   <tile gid="129"/>
   <tile gid="129"/>
   <tile gid="129"/>
   <tile gid="129"/>
   <tile gid="129"/>
   <tile gid="129"/>
   <tile gid="129"/>
   <tile gid="129"/>
   <tile gid="129"/>
   <tile gid="129"/>
   <tile gid="129"/>
   <tile gid="129"/>
   <tile gid="129"/>
   <tile gid="129"/>
   <tile gid="129"/>
   <tile gid="129"/>
   <tile gid="129"/>
   <tile gid="129"/>
   <tile gid="129"/>
   <tile gid="129"/>
   <tile gid="129"/>
   <tile gid="129"/>
   <tile gid="129"/>
   <tile gid="129"/>
   <tile gid="129"/>
   <tile gid="129"/>
   <tile gid="129"/>
   <tile gid="129"/>
   <tile gid="129"/>
   <tile gid="129"/>
   <tile gid="129"/>
   <tile gid="129"/>
   <tile gid="129"/>
   <tile gid="129"/>
   <tile gid="129"/>
   <tile gid="129"/>
   <tile gid="129"/>
   <tile gid="129"/>
   <tile gid="129"/>
   <tile gid="129"/>
   <tile gid="129"/>
   <tile gid="129"/>
   <tile gid="129"/>
   <tile gid="129"/>
   <tile gid="129"/>
   <tile gid="129"/>
   <tile gid="129"/>
   <tile gid="129"/>
   <tile gid="129"/>
   <tile gid="129"/>
   <tile gid="129"/>
   <tile gid="129"/>
   <tile gid="129"/>
   <tile gid="129"/>
   <tile gid="129"/>
   <tile gid="129"/>
   <tile gid="129"/>
   <tile gid="129"/>
   <tile gid="129"/>
   <tile gid="129"/>
   <tile gid="129"/>
   <tile gid="129"/>
   <tile gid="129"/>
   <tile gid="129"/>
   <tile gid="129"/>
   <tile gid="129"/>
   <tile gid="129"/>
   <tile gid="129"/>
   <tile gid="129"/>
   <tile gid="129"/>
   <tile gid="129"/>
   <tile gid="129"/>
   <tile gid="129"/>
   <tile gid="129"/>
   <tile gid="129"/>
   <tile gid="129"/>
   <tile gid="129"/>
   <tile gid="129"/>
   <tile gid="129"/>
   <tile gid="129"/>
   <tile gid="129"/>
   <tile gid="129"/>
   <tile gid="129"/>
   <tile gid="129"/>
   <tile gid="129"/>
   <tile gid="129"/>
   <tile gid="129"/>
   <tile gid="129"/>
   <tile gid="129"/>
   <tile gid="129"/>
   <tile gid="129"/>
   <tile gid="129"/>
   <tile gid="129"/>
   <tile gid="129"/>
   <tile gid="129"/>
   <tile gid="129"/>
   <tile gid="129"/>
   <tile gid="129"/>
   <tile gid="129"/>
   <tile gid="129"/>
   <tile gid="129"/>
   <tile gid="129"/>
   <tile gid="129"/>
   <tile gid="129"/>
   <tile gid="129"/>
   <tile gid="129"/>
   <tile gid="129"/>
   <tile gid="129"/>
   <tile gid="129"/>
   <tile gid="129"/>
   <tile gid="129"/>
   <tile gid="129"/>
   <tile gid="129"/>
   <tile gid="129"/>
   <tile gid="129"/>
   <tile gid="129"/>
   <tile gid="129"/>
   <tile gid="129"/>
   <tile gid="129"/>
   <tile gid="129"/>
   <tile gid="129"/>
   <tile gid="129"/>
   <tile gid="129"/>
   <tile gid="129"/>
   <tile gid="129"/>
   <tile gid="129"/>
   <tile gid="129"/>
   <tile gid="129"/>
   <tile gid="129"/>
   <tile gid="129"/>
   <tile gid="129"/>
   <tile gid="129"/>
   <tile gid="129"/>
   <tile gid="129"/>
   <tile gid="129"/>
   <tile gid="129"/>
   <tile gid="129"/>
   <tile gid="129"/>
   <tile gid="129"/>
   <tile gid="129"/>
   <tile gid="129"/>
   <tile gid="129"/>
   <tile gid="129"/>
   <tile gid="129"/>
   <tile gid="129"/>
   <tile gid="129"/>
   <tile gid="129"/>
   <tile gid="129"/>
   <tile gid="129"/>
   <tile gid="129"/>
   <tile gid="129"/>
   <tile gid="129"/>
   <tile gid="129"/>
   <tile gid="129"/>
   <tile gid="129"/>
   <tile gid="129"/>
   <tile gid="129"/>
   <tile gid="129"/>
   <tile gid="129"/>
   <tile gid="129"/>
   <tile gid="129"/>
   <tile gid="129"/>
   <tile gid="129"/>
   <tile gid="129"/>
   <tile gid="129"/>
   <tile gid="129"/>
   <tile gid="129"/>
   <tile gid="129"/>
   <tile gid="129"/>
   <tile gid="129"/>
   <tile gid="129"/>
   <tile gid="129"/>
   <tile gid="129"/>
   <tile gid="129"/>
   <tile gid="129"/>
   <tile gid="129"/>
   <tile gid="129"/>
   <tile gid="129"/>
   <tile gid="129"/>
   <tile gid="129"/>
   <tile gid="129"/>
   <tile gid="129"/>
   <tile gid="129"/>
   <tile gid="129"/>
   <tile gid="129"/>
   <tile gid="129"/>
   <tile gid="129"/>
   <tile gid="129"/>
   <tile gid="129"/>
   <tile gid="129"/>
   <tile gid="129"/>
   <tile gid="129"/>
   <tile gid="129"/>
   <tile gid="129"/>
   <tile gid="129"/>
   <tile gid="129"/>
   <tile gid="129"/>
   <tile gid="129"/>
   <tile gid="129"/>
   <tile gid="129"/>
   <tile gid="129"/>
   <tile gid="129"/>
   <tile gid="129"/>
   <tile gid="129"/>
   <tile gid="129"/>
   <tile gid="129"/>
   <tile gid="129"/>
   <tile gid="129"/>
   <tile gid="129"/>
   <tile gid="129"/>
   <tile gid="129"/>
   <tile gid="129"/>
   <tile gid="129"/>
   <tile gid="129"/>
   <tile gid="129"/>
   <tile gid="129"/>
   <tile gid="129"/>
   <tile gid="129"/>
   <tile gid="129"/>
   <tile gid="129"/>
   <tile gid="129"/>
   <tile gid="129"/>
   <tile gid="129"/>
   <tile gid="129"/>
   <tile gid="129"/>
   <tile gid="129"/>
   <tile gid="129"/>
   <tile gid="129"/>
   <tile gid="129"/>
   <tile gid="129"/>
   <tile gid="129"/>
   <tile gid="129"/>
   <tile gid="129"/>
   <tile gid="129"/>
   <tile gid="129"/>
   <tile gid="129"/>
   <tile gid="129"/>
   <tile gid="129"/>
   <tile gid="129"/>
   <tile gid="129"/>
   <tile gid="129"/>
   <tile gid="129"/>
   <tile gid="129"/>
   <tile gid="129"/>
   <tile gid="129"/>
   <tile gid="129"/>
   <tile gid="129"/>
   <tile gid="129"/>
   <tile gid="129"/>
   <tile gid="129"/>
   <tile gid="129"/>
   <tile gid="129"/>
   <tile gid="129"/>
   <tile gid="129"/>
   <tile gid="129"/>
   <tile gid="129"/>
   <tile gid="129"/>
   <tile gid="129"/>
   <tile gid="129"/>
   <tile gid="129"/>
   <tile gid="129"/>
   <tile gid="129"/>
   <tile gid="129"/>
   <tile gid="129"/>
   <tile gid="129"/>
  </data>
 </layer>
 <layer id="32" name="AirNavLayer" width="103" height="24" visible="0">
  <properties>
   <property name="Air" type="bool" value="true"/>
   <property name="Navigation" type="bool" value="true"/>
  </properties>
  <data>
   <tile gid="129"/>
   <tile gid="129"/>
   <tile/>
   <tile/>
   <tile/>
   <tile/>
   <tile/>
   <tile/>
   <tile/>
   <tile/>
   <tile/>
   <tile/>
   <tile/>
   <tile/>
   <tile/>
   <tile/>
   <tile/>
   <tile/>
   <tile/>
   <tile/>
   <tile/>
   <tile/>
   <tile/>
   <tile/>
   <tile/>
   <tile/>
   <tile/>
   <tile/>
   <tile/>
   <tile/>
   <tile/>
   <tile/>
   <tile/>
   <tile/>
   <tile/>
   <tile/>
   <tile/>
   <tile/>
   <tile/>
   <tile/>
   <tile/>
   <tile/>
   <tile/>
   <tile/>
   <tile/>
   <tile/>
   <tile/>
   <tile/>
   <tile/>
   <tile/>
   <tile/>
   <tile/>
   <tile/>
   <tile/>
   <tile/>
   <tile/>
   <tile/>
   <tile/>
   <tile/>
   <tile/>
   <tile/>
   <tile/>
   <tile/>
   <tile/>
   <tile/>
   <tile/>
   <tile/>
   <tile/>
   <tile/>
   <tile/>
   <tile/>
   <tile/>
   <tile/>
   <tile/>
   <tile/>
   <tile/>
   <tile/>
   <tile/>
   <tile/>
   <tile/>
   <tile/>
   <tile/>
   <tile/>
   <tile/>
   <tile/>
   <tile/>
   <tile/>
   <tile/>
   <tile/>
   <tile/>
   <tile/>
   <tile/>
   <tile/>
   <tile/>
   <tile/>
   <tile/>
   <tile/>
   <tile/>
   <tile/>
   <tile/>
   <tile/>
   <tile/>
   <tile gid="129"/>
   <tile gid="129"/>
   <tile gid="129"/>
   <tile/>
   <tile/>
   <tile/>
   <tile/>
   <tile/>
   <tile/>
   <tile/>
   <tile/>
   <tile/>
   <tile/>
   <tile/>
   <tile/>
   <tile/>
   <tile/>
   <tile/>
   <tile/>
   <tile/>
   <tile/>
   <tile/>
   <tile/>
   <tile/>
   <tile/>
   <tile/>
   <tile/>
   <tile/>
   <tile/>
   <tile/>
   <tile/>
   <tile/>
   <tile/>
   <tile/>
   <tile/>
   <tile/>
   <tile/>
   <tile/>
   <tile/>
   <tile/>
   <tile/>
   <tile/>
   <tile/>
   <tile/>
   <tile/>
   <tile/>
   <tile/>
   <tile/>
   <tile/>
   <tile/>
   <tile/>
   <tile/>
   <tile/>
   <tile/>
   <tile/>
   <tile/>
   <tile/>
   <tile/>
   <tile/>
   <tile/>
   <tile/>
   <tile/>
   <tile/>
   <tile/>
   <tile/>
   <tile/>
   <tile/>
   <tile/>
   <tile/>
   <tile/>
   <tile/>
   <tile/>
   <tile/>
   <tile/>
   <tile/>
   <tile/>
   <tile/>
   <tile/>
   <tile/>
   <tile/>
   <tile/>
   <tile/>
   <tile/>
   <tile/>
   <tile/>
   <tile/>
   <tile/>
   <tile/>
   <tile/>
   <tile/>
   <tile/>
   <tile/>
   <tile/>
   <tile/>
   <tile/>
   <tile/>
   <tile/>
   <tile/>
   <tile/>
   <tile/>
   <tile/>
   <tile/>
   <tile/>
   <tile gid="129"/>
   <tile gid="129"/>
   <tile gid="129"/>
   <tile/>
   <tile/>
   <tile/>
   <tile/>
   <tile/>
   <tile/>
   <tile/>
   <tile/>
   <tile/>
   <tile/>
   <tile/>
   <tile/>
   <tile/>
   <tile/>
   <tile/>
   <tile/>
   <tile/>
   <tile/>
   <tile/>
   <tile/>
   <tile/>
   <tile/>
   <tile/>
   <tile/>
   <tile/>
   <tile/>
   <tile/>
   <tile/>
   <tile/>
   <tile/>
   <tile/>
   <tile/>
   <tile/>
   <tile/>
   <tile/>
   <tile/>
   <tile/>
   <tile/>
   <tile/>
   <tile/>
   <tile/>
   <tile/>
   <tile/>
   <tile/>
   <tile/>
   <tile/>
   <tile/>
   <tile/>
   <tile/>
   <tile/>
   <tile/>
   <tile/>
   <tile/>
   <tile/>
   <tile/>
   <tile/>
   <tile/>
   <tile/>
   <tile/>
   <tile/>
   <tile/>
   <tile/>
   <tile/>
   <tile/>
   <tile/>
   <tile/>
   <tile/>
   <tile/>
   <tile/>
   <tile/>
   <tile/>
   <tile/>
   <tile/>
   <tile/>
   <tile/>
   <tile/>
   <tile/>
   <tile/>
   <tile/>
   <tile/>
   <tile/>
   <tile/>
   <tile/>
   <tile/>
   <tile/>
   <tile/>
   <tile/>
   <tile/>
   <tile/>
   <tile/>
   <tile/>
   <tile/>
   <tile/>
   <tile/>
   <tile/>
   <tile/>
   <tile/>
   <tile/>
   <tile/>
   <tile/>
   <tile gid="129"/>
   <tile gid="129"/>
   <tile gid="129"/>
   <tile/>
   <tile/>
   <tile/>
   <tile/>
   <tile/>
   <tile/>
   <tile/>
   <tile/>
   <tile/>
   <tile/>
   <tile/>
   <tile/>
   <tile/>
   <tile/>
   <tile/>
   <tile/>
   <tile/>
   <tile/>
   <tile/>
   <tile/>
   <tile/>
   <tile/>
   <tile/>
   <tile/>
   <tile/>
   <tile/>
   <tile/>
   <tile/>
   <tile/>
   <tile/>
   <tile/>
   <tile/>
   <tile/>
   <tile/>
   <tile/>
   <tile/>
   <tile/>
   <tile/>
   <tile/>
   <tile/>
   <tile/>
   <tile/>
   <tile/>
   <tile/>
   <tile/>
   <tile/>
   <tile/>
   <tile/>
   <tile/>
   <tile/>
   <tile/>
   <tile/>
   <tile/>
   <tile/>
   <tile/>
   <tile/>
   <tile/>
   <tile/>
   <tile/>
   <tile/>
   <tile/>
   <tile/>
   <tile/>
   <tile/>
   <tile/>
   <tile/>
   <tile/>
   <tile/>
   <tile/>
   <tile/>
   <tile/>
   <tile/>
   <tile/>
   <tile/>
   <tile/>
   <tile/>
   <tile/>
   <tile/>
   <tile/>
   <tile/>
   <tile/>
   <tile/>
   <tile/>
   <tile/>
   <tile/>
   <tile/>
   <tile/>
   <tile/>
   <tile/>
   <tile/>
   <tile/>
   <tile/>
   <tile/>
   <tile/>
   <tile/>
   <tile/>
   <tile/>
   <tile/>
   <tile/>
   <tile/>
   <tile gid="129"/>
   <tile/>
   <tile/>
   <tile/>
   <tile/>
   <tile/>
   <tile/>
   <tile/>
   <tile/>
   <tile/>
   <tile/>
   <tile/>
   <tile/>
   <tile/>
   <tile/>
   <tile/>
   <tile/>
   <tile/>
   <tile/>
   <tile/>
   <tile/>
   <tile/>
   <tile/>
   <tile/>
   <tile/>
   <tile/>
   <tile/>
   <tile/>
   <tile/>
   <tile/>
   <tile/>
   <tile/>
   <tile/>
   <tile/>
   <tile/>
   <tile/>
   <tile/>
   <tile/>
   <tile/>
   <tile/>
   <tile/>
   <tile/>
   <tile/>
   <tile/>
   <tile/>
   <tile/>
   <tile/>
   <tile/>
   <tile/>
   <tile/>
   <tile/>
   <tile/>
   <tile/>
   <tile/>
   <tile/>
   <tile/>
   <tile/>
   <tile/>
   <tile/>
   <tile/>
   <tile/>
   <tile/>
   <tile/>
   <tile/>
   <tile/>
   <tile/>
   <tile/>
   <tile/>
   <tile/>
   <tile/>
   <tile/>
   <tile/>
   <tile/>
   <tile/>
   <tile/>
   <tile/>
   <tile/>
   <tile/>
   <tile/>
   <tile/>
   <tile/>
   <tile/>
   <tile/>
   <tile/>
   <tile/>
   <tile/>
   <tile/>
   <tile/>
   <tile/>
   <tile/>
   <tile/>
   <tile/>
   <tile/>
   <tile/>
   <tile/>
   <tile/>
   <tile/>
   <tile/>
   <tile/>
   <tile/>
   <tile/>
   <tile/>
   <tile/>
   <tile gid="129"/>
   <tile/>
   <tile/>
   <tile/>
   <tile/>
   <tile/>
   <tile/>
   <tile/>
   <tile/>
   <tile/>
   <tile/>
   <tile/>
   <tile/>
   <tile/>
   <tile/>
   <tile/>
   <tile/>
   <tile/>
   <tile/>
   <tile/>
   <tile/>
   <tile/>
   <tile/>
   <tile/>
   <tile/>
   <tile/>
   <tile/>
   <tile/>
   <tile/>
   <tile/>
   <tile/>
   <tile/>
   <tile/>
   <tile/>
   <tile/>
   <tile/>
   <tile/>
   <tile/>
   <tile/>
   <tile/>
   <tile/>
   <tile/>
   <tile/>
   <tile/>
   <tile/>
   <tile/>
   <tile/>
   <tile/>
   <tile/>
   <tile/>
   <tile/>
   <tile/>
   <tile/>
   <tile/>
   <tile/>
   <tile/>
   <tile/>
   <tile/>
   <tile/>
   <tile/>
   <tile/>
   <tile/>
   <tile/>
   <tile/>
   <tile/>
   <tile/>
   <tile/>
   <tile/>
   <tile/>
   <tile/>
   <tile/>
   <tile/>
   <tile/>
   <tile/>
   <tile/>
   <tile/>
   <tile/>
   <tile/>
   <tile/>
   <tile/>
   <tile/>
   <tile/>
   <tile/>
   <tile/>
   <tile/>
   <tile/>
   <tile/>
   <tile/>
   <tile/>
   <tile/>
   <tile/>
   <tile/>
   <tile/>
   <tile/>
   <tile/>
   <tile/>
   <tile/>
   <tile/>
   <tile/>
   <tile/>
   <tile/>
   <tile/>
   <tile/>
   <tile gid="129"/>
   <tile/>
   <tile/>
   <tile/>
   <tile/>
   <tile/>
   <tile/>
   <tile/>
   <tile/>
   <tile/>
   <tile/>
   <tile/>
   <tile/>
   <tile/>
   <tile/>
   <tile/>
   <tile/>
   <tile/>
   <tile/>
   <tile/>
   <tile/>
   <tile/>
   <tile/>
   <tile/>
   <tile/>
   <tile/>
   <tile/>
   <tile/>
   <tile/>
   <tile/>
   <tile/>
   <tile/>
   <tile/>
   <tile/>
   <tile/>
   <tile/>
   <tile/>
   <tile/>
   <tile/>
   <tile/>
   <tile/>
   <tile/>
   <tile/>
   <tile/>
   <tile/>
   <tile/>
   <tile/>
   <tile/>
   <tile/>
   <tile/>
   <tile/>
   <tile/>
   <tile/>
   <tile/>
   <tile/>
   <tile/>
   <tile/>
   <tile/>
   <tile/>
   <tile/>
   <tile/>
   <tile/>
   <tile/>
   <tile/>
   <tile/>
   <tile/>
   <tile/>
   <tile/>
   <tile/>
   <tile/>
   <tile/>
   <tile/>
   <tile/>
   <tile/>
   <tile/>
   <tile/>
   <tile/>
   <tile/>
   <tile/>
   <tile/>
   <tile/>
   <tile/>
   <tile/>
   <tile/>
   <tile/>
   <tile/>
   <tile/>
   <tile/>
   <tile/>
   <tile/>
   <tile/>
   <tile/>
   <tile/>
   <tile/>
   <tile/>
   <tile/>
   <tile/>
   <tile/>
   <tile/>
   <tile/>
   <tile/>
   <tile/>
   <tile/>
   <tile gid="129"/>
   <tile/>
   <tile/>
   <tile/>
   <tile/>
   <tile/>
   <tile/>
   <tile/>
   <tile/>
   <tile/>
   <tile/>
   <tile/>
   <tile/>
   <tile/>
   <tile/>
   <tile/>
   <tile/>
   <tile/>
   <tile/>
   <tile/>
   <tile/>
   <tile/>
   <tile/>
   <tile/>
   <tile/>
   <tile/>
   <tile/>
   <tile/>
   <tile/>
   <tile/>
   <tile/>
   <tile/>
   <tile/>
   <tile/>
   <tile/>
   <tile/>
   <tile/>
   <tile/>
   <tile/>
   <tile/>
   <tile/>
   <tile/>
   <tile/>
   <tile/>
   <tile/>
   <tile/>
   <tile/>
   <tile/>
   <tile/>
   <tile/>
   <tile/>
   <tile/>
   <tile/>
   <tile/>
   <tile/>
   <tile/>
   <tile/>
   <tile/>
   <tile/>
   <tile/>
   <tile/>
   <tile/>
   <tile/>
   <tile/>
   <tile/>
   <tile/>
   <tile/>
   <tile/>
   <tile/>
   <tile/>
   <tile/>
   <tile/>
   <tile/>
   <tile/>
   <tile/>
   <tile/>
   <tile/>
   <tile/>
   <tile/>
   <tile/>
   <tile/>
   <tile/>
   <tile/>
   <tile/>
   <tile/>
   <tile/>
   <tile/>
   <tile/>
   <tile/>
   <tile/>
   <tile/>
   <tile/>
   <tile/>
   <tile/>
   <tile/>
   <tile/>
   <tile/>
   <tile/>
   <tile/>
   <tile/>
   <tile/>
   <tile/>
   <tile/>
   <tile gid="129"/>
   <tile/>
   <tile/>
   <tile/>
   <tile/>
   <tile/>
   <tile/>
   <tile/>
   <tile/>
   <tile/>
   <tile/>
   <tile/>
   <tile/>
   <tile/>
   <tile/>
   <tile/>
   <tile/>
   <tile/>
   <tile/>
   <tile/>
   <tile/>
   <tile/>
   <tile/>
   <tile/>
   <tile/>
   <tile/>
   <tile/>
   <tile/>
   <tile/>
   <tile/>
   <tile/>
   <tile/>
   <tile/>
   <tile/>
   <tile/>
   <tile/>
   <tile/>
   <tile/>
   <tile/>
   <tile/>
   <tile/>
   <tile/>
   <tile/>
   <tile/>
   <tile/>
   <tile/>
   <tile/>
   <tile/>
   <tile/>
   <tile/>
   <tile/>
   <tile/>
   <tile/>
   <tile/>
   <tile/>
   <tile/>
   <tile/>
   <tile/>
   <tile/>
   <tile/>
   <tile/>
   <tile/>
   <tile/>
   <tile/>
   <tile/>
   <tile/>
   <tile/>
   <tile/>
   <tile/>
   <tile/>
   <tile/>
   <tile/>
   <tile/>
   <tile/>
   <tile/>
   <tile/>
   <tile/>
   <tile/>
   <tile/>
   <tile/>
   <tile/>
   <tile/>
   <tile/>
   <tile/>
   <tile/>
   <tile/>
   <tile/>
   <tile/>
   <tile/>
   <tile/>
   <tile/>
   <tile/>
   <tile/>
   <tile/>
   <tile/>
   <tile/>
   <tile/>
   <tile/>
   <tile/>
   <tile/>
   <tile/>
   <tile/>
   <tile/>
   <tile gid="129"/>
   <tile/>
   <tile/>
   <tile/>
   <tile/>
   <tile/>
   <tile/>
   <tile/>
   <tile/>
   <tile/>
   <tile/>
   <tile/>
   <tile/>
   <tile/>
   <tile/>
   <tile/>
   <tile/>
   <tile/>
   <tile/>
   <tile/>
   <tile/>
   <tile/>
   <tile/>
   <tile/>
   <tile/>
   <tile/>
   <tile/>
   <tile/>
   <tile/>
   <tile/>
   <tile/>
   <tile/>
   <tile/>
   <tile/>
   <tile/>
   <tile/>
   <tile/>
   <tile/>
   <tile/>
   <tile/>
   <tile/>
   <tile/>
   <tile/>
   <tile/>
   <tile/>
   <tile/>
   <tile/>
   <tile/>
   <tile/>
   <tile/>
   <tile/>
   <tile/>
   <tile/>
   <tile/>
   <tile/>
   <tile/>
   <tile/>
   <tile/>
   <tile/>
   <tile/>
   <tile/>
   <tile/>
   <tile/>
   <tile/>
   <tile/>
   <tile/>
   <tile/>
   <tile/>
   <tile/>
   <tile/>
   <tile/>
   <tile/>
   <tile/>
   <tile/>
   <tile/>
   <tile/>
   <tile/>
   <tile/>
   <tile/>
   <tile/>
   <tile/>
   <tile/>
   <tile/>
   <tile/>
   <tile/>
   <tile/>
   <tile/>
   <tile/>
   <tile/>
   <tile/>
   <tile/>
   <tile/>
   <tile/>
   <tile/>
   <tile/>
   <tile/>
   <tile/>
   <tile/>
   <tile/>
   <tile/>
   <tile/>
   <tile/>
   <tile/>
   <tile gid="129"/>
   <tile/>
   <tile/>
   <tile/>
   <tile/>
   <tile/>
   <tile/>
   <tile/>
   <tile/>
   <tile/>
   <tile/>
   <tile/>
   <tile/>
   <tile/>
   <tile/>
   <tile/>
   <tile/>
   <tile/>
   <tile/>
   <tile/>
   <tile/>
   <tile/>
   <tile/>
   <tile/>
   <tile/>
   <tile/>
   <tile/>
   <tile/>
   <tile/>
   <tile/>
   <tile/>
   <tile/>
   <tile/>
   <tile/>
   <tile/>
   <tile/>
   <tile/>
   <tile/>
   <tile/>
   <tile/>
   <tile/>
   <tile/>
   <tile/>
   <tile/>
   <tile/>
   <tile/>
   <tile/>
   <tile/>
   <tile/>
   <tile/>
   <tile/>
   <tile/>
   <tile/>
   <tile/>
   <tile/>
   <tile/>
   <tile/>
   <tile/>
   <tile/>
   <tile/>
   <tile/>
   <tile/>
   <tile/>
   <tile/>
   <tile/>
   <tile/>
   <tile/>
   <tile/>
   <tile/>
   <tile/>
   <tile/>
   <tile/>
   <tile/>
   <tile/>
   <tile/>
   <tile/>
   <tile/>
   <tile/>
   <tile/>
   <tile/>
   <tile/>
   <tile/>
   <tile/>
   <tile/>
   <tile/>
   <tile/>
   <tile/>
   <tile/>
   <tile/>
   <tile/>
   <tile/>
   <tile/>
   <tile/>
   <tile/>
   <tile/>
   <tile/>
   <tile/>
   <tile/>
   <tile/>
   <tile/>
   <tile/>
   <tile/>
   <tile/>
   <tile gid="129"/>
   <tile/>
   <tile/>
   <tile/>
   <tile/>
   <tile/>
   <tile/>
   <tile/>
   <tile/>
   <tile/>
   <tile/>
   <tile/>
   <tile/>
   <tile/>
   <tile/>
   <tile/>
   <tile/>
   <tile/>
   <tile/>
   <tile/>
   <tile/>
   <tile/>
   <tile/>
   <tile/>
   <tile/>
   <tile/>
   <tile/>
   <tile/>
   <tile/>
   <tile/>
   <tile/>
   <tile/>
   <tile/>
   <tile/>
   <tile/>
   <tile/>
   <tile/>
   <tile/>
   <tile/>
   <tile/>
   <tile/>
   <tile/>
   <tile/>
   <tile/>
   <tile/>
   <tile/>
   <tile/>
   <tile/>
   <tile/>
   <tile/>
   <tile/>
   <tile/>
   <tile/>
   <tile/>
   <tile/>
   <tile/>
   <tile/>
   <tile/>
   <tile/>
   <tile/>
   <tile/>
   <tile/>
   <tile/>
   <tile/>
   <tile/>
   <tile/>
   <tile/>
   <tile/>
   <tile/>
   <tile/>
   <tile/>
   <tile/>
   <tile/>
   <tile/>
   <tile/>
   <tile/>
   <tile/>
   <tile/>
   <tile/>
   <tile/>
   <tile/>
   <tile/>
   <tile/>
   <tile/>
   <tile/>
   <tile/>
   <tile/>
   <tile/>
   <tile/>
   <tile/>
   <tile/>
   <tile/>
   <tile/>
   <tile/>
   <tile/>
   <tile/>
   <tile/>
   <tile/>
   <tile/>
   <tile/>
   <tile/>
   <tile/>
   <tile/>
   <tile gid="129"/>
   <tile gid="129"/>
   <tile gid="129"/>
   <tile gid="129"/>
   <tile/>
   <tile/>
   <tile/>
   <tile/>
   <tile/>
   <tile/>
   <tile/>
   <tile/>
   <tile/>
   <tile/>
   <tile/>
   <tile/>
   <tile/>
   <tile/>
   <tile/>
   <tile/>
   <tile/>
   <tile/>
   <tile/>
   <tile/>
   <tile gid="129"/>
   <tile gid="129"/>
   <tile gid="129"/>
   <tile gid="129"/>
   <tile/>
   <tile/>
   <tile/>
   <tile/>
   <tile/>
   <tile/>
   <tile/>
   <tile/>
   <tile/>
   <tile/>
   <tile/>
   <tile/>
   <tile/>
   <tile/>
   <tile/>
   <tile/>
   <tile/>
   <tile/>
   <tile/>
   <tile/>
   <tile/>
   <tile/>
   <tile/>
   <tile/>
   <tile/>
   <tile/>
   <tile/>
   <tile/>
   <tile/>
   <tile/>
   <tile/>
   <tile/>
   <tile/>
   <tile/>
   <tile/>
   <tile/>
   <tile/>
   <tile/>
   <tile/>
   <tile/>
   <tile/>
   <tile/>
   <tile/>
   <tile/>
   <tile/>
   <tile/>
   <tile/>
   <tile/>
   <tile/>
   <tile/>
   <tile/>
   <tile/>
   <tile/>
   <tile/>
   <tile/>
   <tile/>
   <tile/>
   <tile/>
   <tile/>
   <tile/>
   <tile/>
   <tile/>
   <tile/>
   <tile/>
   <tile/>
   <tile/>
   <tile/>
   <tile/>
   <tile/>
   <tile/>
   <tile/>
   <tile/>
   <tile/>
   <tile/>
   <tile/>
   <tile gid="129"/>
   <tile gid="129"/>
   <tile gid="129"/>
   <tile gid="129"/>
   <tile/>
   <tile/>
   <tile/>
   <tile/>
   <tile/>
   <tile/>
   <tile/>
   <tile/>
   <tile/>
   <tile/>
   <tile/>
   <tile/>
   <tile/>
   <tile/>
   <tile/>
   <tile/>
   <tile/>
   <tile/>
   <tile/>
   <tile/>
   <tile gid="129"/>
   <tile gid="129"/>
   <tile gid="129"/>
   <tile gid="129"/>
   <tile/>
   <tile/>
   <tile/>
   <tile/>
   <tile/>
   <tile/>
   <tile/>
   <tile/>
   <tile/>
   <tile/>
   <tile/>
   <tile/>
   <tile/>
   <tile/>
   <tile/>
   <tile/>
   <tile/>
   <tile/>
   <tile/>
   <tile/>
   <tile/>
   <tile/>
   <tile/>
   <tile/>
   <tile/>
   <tile/>
   <tile/>
   <tile/>
   <tile/>
   <tile/>
   <tile/>
   <tile/>
   <tile/>
   <tile/>
   <tile/>
   <tile/>
   <tile/>
   <tile/>
   <tile/>
   <tile/>
   <tile/>
   <tile/>
   <tile/>
   <tile/>
   <tile/>
   <tile/>
   <tile/>
   <tile/>
   <tile/>
   <tile/>
   <tile/>
   <tile/>
   <tile/>
   <tile/>
   <tile/>
   <tile/>
   <tile/>
   <tile/>
   <tile/>
   <tile/>
   <tile/>
   <tile/>
   <tile/>
   <tile/>
   <tile/>
   <tile/>
   <tile/>
   <tile/>
   <tile/>
   <tile/>
   <tile/>
   <tile/>
   <tile/>
   <tile/>
   <tile/>
   <tile gid="129"/>
   <tile gid="129"/>
   <tile gid="129"/>
   <tile gid="129"/>
   <tile/>
   <tile/>
   <tile/>
   <tile/>
   <tile/>
   <tile/>
   <tile/>
   <tile/>
   <tile/>
   <tile/>
   <tile/>
   <tile/>
   <tile/>
   <tile/>
   <tile/>
   <tile/>
   <tile/>
   <tile/>
   <tile/>
   <tile/>
   <tile gid="129"/>
   <tile gid="129"/>
   <tile gid="129"/>
   <tile gid="129"/>
   <tile/>
   <tile/>
   <tile gid="129"/>
   <tile gid="129"/>
   <tile gid="129"/>
   <tile/>
   <tile/>
   <tile/>
   <tile/>
   <tile/>
   <tile/>
   <tile/>
   <tile/>
   <tile/>
   <tile/>
   <tile/>
   <tile/>
   <tile/>
   <tile/>
   <tile/>
   <tile/>
   <tile/>
   <tile/>
   <tile/>
   <tile/>
   <tile/>
   <tile/>
   <tile/>
   <tile/>
   <tile/>
   <tile/>
   <tile/>
   <tile/>
   <tile/>
   <tile/>
   <tile/>
   <tile/>
   <tile/>
   <tile/>
   <tile/>
   <tile/>
   <tile/>
   <tile/>
   <tile/>
   <tile/>
   <tile/>
   <tile/>
   <tile/>
   <tile/>
   <tile/>
   <tile/>
   <tile/>
   <tile/>
   <tile/>
   <tile/>
   <tile/>
   <tile/>
   <tile/>
   <tile/>
   <tile/>
   <tile/>
   <tile/>
   <tile/>
   <tile/>
   <tile/>
   <tile/>
   <tile/>
   <tile/>
   <tile/>
   <tile/>
   <tile/>
   <tile/>
   <tile/>
   <tile/>
   <tile/>
   <tile gid="129"/>
   <tile gid="129"/>
   <tile gid="129"/>
   <tile gid="129"/>
   <tile gid="129"/>
   <tile gid="129"/>
   <tile gid="129"/>
   <tile gid="129"/>
   <tile gid="129"/>
   <tile gid="129"/>
   <tile gid="129"/>
   <tile gid="129"/>
   <tile gid="129"/>
   <tile gid="129"/>
   <tile gid="129"/>
   <tile gid="129"/>
   <tile gid="129"/>
   <tile gid="129"/>
   <tile gid="129"/>
   <tile gid="129"/>
   <tile gid="129"/>
   <tile gid="129"/>
   <tile gid="129"/>
   <tile gid="129"/>
   <tile gid="129"/>
   <tile gid="129"/>
   <tile gid="129"/>
   <tile gid="129"/>
   <tile/>
   <tile/>
   <tile gid="129"/>
   <tile gid="129"/>
   <tile gid="129"/>
   <tile/>
   <tile/>
   <tile/>
   <tile/>
   <tile/>
   <tile/>
   <tile/>
   <tile/>
   <tile/>
   <tile/>
   <tile/>
   <tile/>
   <tile/>
   <tile/>
   <tile/>
   <tile/>
   <tile/>
   <tile/>
   <tile/>
   <tile/>
   <tile/>
   <tile/>
   <tile/>
   <tile/>
   <tile/>
   <tile/>
   <tile/>
   <tile/>
   <tile/>
   <tile/>
   <tile/>
   <tile/>
   <tile/>
   <tile/>
   <tile/>
   <tile/>
   <tile/>
   <tile/>
   <tile/>
   <tile/>
   <tile/>
   <tile/>
   <tile/>
   <tile/>
   <tile/>
   <tile/>
   <tile/>
   <tile/>
   <tile/>
   <tile/>
   <tile/>
   <tile/>
   <tile/>
   <tile/>
   <tile/>
   <tile/>
   <tile/>
   <tile/>
   <tile/>
   <tile/>
   <tile/>
   <tile/>
   <tile/>
   <tile/>
   <tile/>
   <tile/>
   <tile/>
   <tile/>
   <tile/>
   <tile/>
   <tile gid="129"/>
   <tile gid="129"/>
   <tile gid="129"/>
   <tile gid="129"/>
   <tile gid="129"/>
   <tile gid="129"/>
   <tile gid="129"/>
   <tile gid="129"/>
   <tile gid="129"/>
   <tile gid="129"/>
   <tile gid="129"/>
   <tile gid="129"/>
   <tile gid="129"/>
   <tile gid="129"/>
   <tile gid="129"/>
   <tile gid="129"/>
   <tile gid="129"/>
   <tile gid="129"/>
   <tile gid="129"/>
   <tile gid="129"/>
   <tile gid="129"/>
   <tile gid="129"/>
   <tile gid="129"/>
   <tile gid="129"/>
   <tile gid="129"/>
   <tile gid="129"/>
   <tile gid="129"/>
   <tile gid="129"/>
   <tile/>
   <tile/>
   <tile/>
   <tile/>
   <tile/>
   <tile/>
   <tile/>
   <tile gid="129"/>
   <tile gid="129"/>
   <tile gid="129"/>
   <tile/>
   <tile/>
   <tile/>
   <tile/>
   <tile/>
   <tile/>
   <tile/>
   <tile/>
   <tile/>
   <tile/>
   <tile/>
   <tile/>
   <tile/>
   <tile/>
   <tile/>
   <tile/>
   <tile/>
   <tile/>
   <tile/>
   <tile/>
   <tile/>
   <tile/>
   <tile/>
   <tile/>
   <tile/>
   <tile/>
   <tile/>
   <tile/>
   <tile/>
   <tile/>
   <tile/>
   <tile/>
   <tile/>
   <tile/>
   <tile/>
   <tile/>
   <tile/>
   <tile/>
   <tile/>
   <tile/>
   <tile/>
   <tile/>
   <tile/>
   <tile/>
   <tile/>
   <tile/>
   <tile/>
   <tile/>
   <tile/>
   <tile/>
   <tile/>
   <tile/>
   <tile/>
   <tile/>
   <tile/>
   <tile/>
   <tile/>
   <tile/>
   <tile/>
   <tile/>
   <tile/>
   <tile/>
   <tile/>
   <tile/>
   <tile/>
   <tile gid="129"/>
   <tile gid="129"/>
   <tile gid="129"/>
   <tile gid="129"/>
   <tile gid="129"/>
   <tile gid="129"/>
   <tile gid="129"/>
   <tile gid="129"/>
   <tile gid="129"/>
   <tile gid="129"/>
   <tile gid="129"/>
   <tile gid="129"/>
   <tile gid="129"/>
   <tile gid="129"/>
   <tile gid="129"/>
   <tile gid="129"/>
   <tile gid="129"/>
   <tile gid="129"/>
   <tile gid="129"/>
   <tile gid="129"/>
   <tile gid="129"/>
   <tile gid="129"/>
   <tile gid="129"/>
   <tile gid="129"/>
   <tile gid="129"/>
   <tile gid="129"/>
   <tile gid="129"/>
   <tile gid="129"/>
   <tile/>
   <tile/>
   <tile/>
   <tile/>
   <tile/>
   <tile/>
   <tile/>
   <tile gid="129"/>
   <tile gid="129"/>
   <tile gid="129"/>
   <tile/>
   <tile/>
   <tile/>
   <tile/>
   <tile/>
   <tile/>
   <tile/>
   <tile/>
   <tile/>
   <tile/>
   <tile/>
   <tile/>
   <tile/>
   <tile/>
   <tile/>
   <tile/>
   <tile/>
   <tile/>
   <tile/>
   <tile/>
   <tile/>
   <tile/>
   <tile/>
   <tile/>
   <tile/>
   <tile/>
   <tile/>
   <tile/>
   <tile/>
   <tile/>
   <tile/>
   <tile/>
   <tile/>
   <tile/>
   <tile/>
   <tile/>
   <tile/>
   <tile/>
   <tile/>
   <tile/>
   <tile/>
   <tile/>
   <tile/>
   <tile/>
   <tile/>
   <tile/>
   <tile/>
   <tile/>
   <tile/>
   <tile/>
   <tile/>
   <tile/>
   <tile/>
   <tile/>
   <tile/>
   <tile/>
   <tile/>
   <tile/>
   <tile/>
   <tile/>
   <tile/>
   <tile/>
   <tile/>
   <tile/>
   <tile/>
   <tile gid="129"/>
   <tile gid="129"/>
   <tile gid="129"/>
   <tile gid="129"/>
   <tile gid="129"/>
   <tile gid="129"/>
   <tile gid="129"/>
   <tile gid="129"/>
   <tile gid="129"/>
   <tile gid="129"/>
   <tile gid="129"/>
   <tile gid="129"/>
   <tile gid="129"/>
   <tile gid="129"/>
   <tile gid="129"/>
   <tile gid="129"/>
   <tile gid="129"/>
   <tile gid="129"/>
   <tile gid="129"/>
   <tile gid="129"/>
   <tile gid="129"/>
   <tile gid="129"/>
   <tile gid="129"/>
   <tile gid="129"/>
   <tile gid="129"/>
   <tile gid="129"/>
   <tile gid="129"/>
   <tile gid="129"/>
   <tile/>
   <tile/>
   <tile/>
   <tile/>
   <tile/>
   <tile/>
   <tile/>
   <tile/>
   <tile/>
   <tile/>
   <tile/>
   <tile/>
   <tile/>
   <tile gid="129"/>
   <tile gid="129"/>
   <tile gid="129"/>
   <tile/>
   <tile/>
   <tile/>
   <tile/>
   <tile/>
   <tile/>
   <tile/>
   <tile/>
   <tile/>
   <tile/>
   <tile/>
   <tile/>
   <tile/>
   <tile/>
   <tile/>
   <tile/>
   <tile/>
   <tile/>
   <tile/>
   <tile/>
   <tile/>
   <tile/>
   <tile/>
   <tile/>
   <tile/>
   <tile/>
   <tile/>
   <tile/>
   <tile/>
   <tile/>
   <tile/>
   <tile/>
   <tile/>
   <tile/>
   <tile/>
   <tile/>
   <tile/>
   <tile/>
   <tile/>
   <tile/>
   <tile/>
   <tile/>
   <tile/>
   <tile gid="129"/>
   <tile gid="129"/>
   <tile gid="129"/>
   <tile/>
   <tile/>
   <tile/>
   <tile/>
   <tile/>
   <tile/>
   <tile/>
   <tile/>
   <tile/>
   <tile/>
   <tile/>
   <tile/>
   <tile/>
   <tile/>
   <tile gid="129"/>
   <tile gid="129"/>
   <tile gid="129"/>
   <tile gid="129"/>
   <tile gid="129"/>
   <tile gid="129"/>
   <tile gid="129"/>
   <tile gid="129"/>
   <tile gid="129"/>
   <tile gid="129"/>
   <tile gid="129"/>
   <tile gid="129"/>
   <tile gid="129"/>
   <tile gid="129"/>
   <tile gid="129"/>
   <tile gid="129"/>
   <tile gid="129"/>
   <tile gid="129"/>
   <tile gid="129"/>
   <tile gid="129"/>
   <tile gid="129"/>
   <tile gid="129"/>
   <tile gid="129"/>
   <tile gid="129"/>
   <tile gid="129"/>
   <tile gid="129"/>
   <tile gid="129"/>
   <tile/>
   <tile/>
   <tile/>
   <tile/>
   <tile/>
   <tile/>
   <tile/>
   <tile/>
   <tile/>
   <tile/>
   <tile/>
   <tile/>
   <tile/>
   <tile gid="129"/>
   <tile gid="129"/>
   <tile gid="129"/>
   <tile/>
   <tile/>
   <tile/>
   <tile/>
   <tile/>
   <tile/>
   <tile/>
   <tile/>
   <tile/>
   <tile/>
   <tile/>
   <tile/>
   <tile/>
   <tile/>
   <tile/>
   <tile/>
   <tile/>
   <tile/>
   <tile/>
   <tile/>
   <tile/>
   <tile/>
   <tile/>
   <tile/>
   <tile/>
   <tile/>
   <tile/>
   <tile/>
   <tile/>
   <tile/>
   <tile/>
   <tile/>
   <tile/>
   <tile/>
   <tile/>
   <tile/>
   <tile/>
   <tile/>
   <tile/>
   <tile/>
   <tile/>
   <tile/>
   <tile/>
   <tile/>
   <tile/>
   <tile/>
   <tile/>
   <tile/>
   <tile/>
   <tile/>
   <tile/>
   <tile/>
   <tile/>
   <tile/>
   <tile/>
   <tile/>
   <tile/>
   <tile/>
   <tile/>
   <tile/>
   <tile gid="129"/>
   <tile gid="129"/>
   <tile gid="129"/>
   <tile gid="129"/>
   <tile gid="129"/>
   <tile gid="129"/>
   <tile gid="129"/>
   <tile gid="129"/>
   <tile gid="129"/>
   <tile gid="129"/>
   <tile gid="129"/>
   <tile gid="129"/>
   <tile gid="129"/>
   <tile gid="129"/>
   <tile gid="129"/>
   <tile gid="129"/>
   <tile gid="129"/>
   <tile gid="129"/>
   <tile gid="129"/>
   <tile gid="129"/>
   <tile gid="129"/>
   <tile gid="129"/>
   <tile gid="129"/>
   <tile gid="129"/>
   <tile gid="129"/>
   <tile gid="129"/>
   <tile gid="129"/>
   <tile/>
   <tile/>
   <tile/>
   <tile/>
   <tile/>
   <tile/>
   <tile/>
   <tile/>
   <tile/>
   <tile/>
   <tile/>
   <tile/>
   <tile/>
   <tile/>
   <tile/>
   <tile/>
   <tile/>
   <tile/>
   <tile/>
   <tile gid="129"/>
   <tile gid="129"/>
   <tile gid="129"/>
   <tile gid="129"/>
   <tile gid="129"/>
   <tile gid="129"/>
   <tile gid="129"/>
   <tile/>
   <tile/>
   <tile/>
   <tile/>
   <tile/>
   <tile/>
   <tile/>
   <tile/>
   <tile/>
   <tile/>
   <tile gid="129"/>
   <tile/>
   <tile/>
   <tile/>
   <tile gid="129"/>
   <tile/>
   <tile/>
   <tile/>
   <tile/>
   <tile/>
   <tile/>
   <tile/>
   <tile/>
   <tile/>
   <tile/>
   <tile/>
   <tile/>
   <tile/>
   <tile/>
   <tile/>
   <tile/>
   <tile/>
   <tile/>
   <tile/>
   <tile/>
   <tile/>
   <tile/>
   <tile/>
   <tile/>
   <tile/>
   <tile/>
   <tile/>
   <tile/>
   <tile/>
   <tile/>
   <tile/>
   <tile/>
   <tile/>
   <tile/>
   <tile/>
   <tile gid="129"/>
   <tile gid="129"/>
   <tile gid="129"/>
   <tile gid="129"/>
   <tile gid="129"/>
   <tile gid="129"/>
   <tile gid="129"/>
   <tile gid="129"/>
   <tile gid="129"/>
   <tile gid="129"/>
   <tile gid="129"/>
   <tile gid="129"/>
   <tile gid="129"/>
   <tile gid="129"/>
   <tile gid="129"/>
   <tile gid="129"/>
   <tile gid="129"/>
   <tile gid="129"/>
   <tile gid="129"/>
   <tile gid="129"/>
   <tile gid="129"/>
   <tile gid="129"/>
   <tile gid="129"/>
   <tile gid="129"/>
   <tile gid="129"/>
   <tile gid="129"/>
   <tile gid="129"/>
   <tile gid="129"/>
   <tile gid="129"/>
   <tile gid="129"/>
   <tile gid="129"/>
   <tile gid="129"/>
   <tile gid="129"/>
   <tile gid="129"/>
   <tile gid="129"/>
   <tile gid="129"/>
   <tile gid="129"/>
   <tile gid="129"/>
   <tile gid="129"/>
   <tile gid="129"/>
   <tile gid="129"/>
   <tile gid="129"/>
   <tile gid="129"/>
   <tile gid="129"/>
   <tile gid="129"/>
   <tile gid="129"/>
   <tile gid="129"/>
   <tile gid="129"/>
   <tile gid="129"/>
   <tile gid="129"/>
   <tile gid="129"/>
   <tile gid="129"/>
   <tile gid="129"/>
   <tile gid="129"/>
   <tile gid="129"/>
   <tile gid="129"/>
   <tile gid="129"/>
   <tile gid="129"/>
   <tile gid="129"/>
   <tile gid="129"/>
   <tile gid="129"/>
   <tile gid="129"/>
   <tile gid="129"/>
   <tile gid="129"/>
   <tile gid="129"/>
   <tile gid="129"/>
   <tile gid="129"/>
   <tile gid="129"/>
   <tile gid="129"/>
   <tile gid="129"/>
   <tile gid="129"/>
   <tile gid="129"/>
   <tile gid="129"/>
   <tile gid="129"/>
   <tile gid="129"/>
   <tile gid="129"/>
   <tile gid="129"/>
   <tile gid="129"/>
   <tile gid="129"/>
   <tile gid="129"/>
   <tile gid="129"/>
   <tile gid="129"/>
   <tile gid="129"/>
   <tile gid="129"/>
   <tile gid="129"/>
   <tile gid="129"/>
   <tile gid="129"/>
   <tile gid="129"/>
   <tile gid="129"/>
   <tile gid="129"/>
   <tile gid="129"/>
   <tile gid="129"/>
   <tile gid="129"/>
   <tile gid="129"/>
   <tile gid="129"/>
   <tile gid="129"/>
   <tile gid="129"/>
   <tile gid="129"/>
   <tile gid="129"/>
   <tile gid="129"/>
   <tile gid="129"/>
   <tile gid="129"/>
   <tile gid="129"/>
   <tile gid="129"/>
   <tile gid="129"/>
   <tile gid="129"/>
   <tile gid="129"/>
   <tile gid="129"/>
   <tile gid="129"/>
   <tile gid="129"/>
   <tile gid="129"/>
   <tile gid="129"/>
   <tile gid="129"/>
   <tile gid="129"/>
   <tile gid="129"/>
   <tile gid="129"/>
   <tile gid="129"/>
   <tile gid="129"/>
   <tile gid="129"/>
   <tile gid="129"/>
   <tile gid="129"/>
   <tile gid="129"/>
   <tile gid="129"/>
   <tile gid="129"/>
   <tile gid="129"/>
   <tile gid="129"/>
   <tile gid="129"/>
   <tile gid="129"/>
   <tile gid="129"/>
   <tile gid="129"/>
   <tile gid="129"/>
   <tile gid="129"/>
   <tile gid="129"/>
   <tile gid="129"/>
   <tile gid="129"/>
   <tile gid="129"/>
   <tile gid="129"/>
   <tile gid="129"/>
   <tile gid="129"/>
   <tile gid="129"/>
   <tile gid="129"/>
   <tile gid="129"/>
   <tile gid="129"/>
   <tile gid="129"/>
   <tile gid="129"/>
   <tile gid="129"/>
   <tile gid="129"/>
   <tile gid="129"/>
   <tile gid="129"/>
   <tile gid="129"/>
   <tile gid="129"/>
   <tile gid="129"/>
   <tile gid="129"/>
   <tile gid="129"/>
   <tile gid="129"/>
   <tile gid="129"/>
   <tile gid="129"/>
   <tile gid="129"/>
   <tile gid="129"/>
   <tile gid="129"/>
   <tile gid="129"/>
   <tile gid="129"/>
   <tile gid="129"/>
   <tile gid="129"/>
   <tile gid="129"/>
   <tile gid="129"/>
   <tile gid="129"/>
   <tile gid="129"/>
   <tile gid="129"/>
   <tile gid="129"/>
   <tile gid="129"/>
   <tile gid="129"/>
   <tile gid="129"/>
   <tile gid="129"/>
   <tile gid="129"/>
   <tile gid="129"/>
   <tile gid="129"/>
   <tile gid="129"/>
   <tile gid="129"/>
   <tile gid="129"/>
   <tile gid="129"/>
   <tile gid="129"/>
   <tile gid="129"/>
   <tile gid="129"/>
   <tile gid="129"/>
   <tile gid="129"/>
   <tile gid="129"/>
   <tile gid="129"/>
   <tile gid="129"/>
   <tile gid="129"/>
   <tile gid="129"/>
   <tile gid="129"/>
   <tile gid="129"/>
   <tile gid="129"/>
   <tile gid="129"/>
   <tile gid="129"/>
   <tile gid="129"/>
   <tile gid="129"/>
   <tile gid="129"/>
   <tile gid="129"/>
   <tile gid="129"/>
   <tile gid="129"/>
   <tile gid="129"/>
   <tile gid="129"/>
   <tile gid="129"/>
   <tile gid="129"/>
   <tile gid="129"/>
   <tile gid="129"/>
   <tile gid="129"/>
   <tile gid="129"/>
   <tile gid="129"/>
   <tile gid="129"/>
   <tile gid="129"/>
   <tile gid="129"/>
   <tile gid="129"/>
   <tile gid="129"/>
   <tile gid="129"/>
   <tile gid="129"/>
   <tile gid="129"/>
   <tile gid="129"/>
   <tile gid="129"/>
   <tile gid="129"/>
   <tile gid="129"/>
   <tile gid="129"/>
   <tile gid="129"/>
   <tile gid="129"/>
   <tile gid="129"/>
   <tile gid="129"/>
   <tile gid="129"/>
   <tile gid="129"/>
   <tile gid="129"/>
   <tile gid="129"/>
   <tile gid="129"/>
   <tile gid="129"/>
   <tile gid="129"/>
   <tile gid="129"/>
   <tile gid="129"/>
   <tile gid="129"/>
   <tile gid="129"/>
   <tile gid="129"/>
   <tile gid="129"/>
   <tile gid="129"/>
   <tile gid="129"/>
   <tile gid="129"/>
   <tile gid="129"/>
   <tile gid="129"/>
   <tile gid="129"/>
   <tile gid="129"/>
   <tile gid="129"/>
   <tile gid="129"/>
   <tile gid="129"/>
   <tile gid="129"/>
   <tile gid="129"/>
   <tile gid="129"/>
   <tile gid="129"/>
   <tile gid="129"/>
   <tile gid="129"/>
   <tile gid="129"/>
   <tile gid="129"/>
   <tile gid="129"/>
   <tile gid="129"/>
   <tile gid="129"/>
   <tile gid="129"/>
   <tile gid="129"/>
   <tile gid="129"/>
   <tile gid="129"/>
   <tile gid="129"/>
   <tile gid="129"/>
   <tile gid="129"/>
   <tile gid="129"/>
   <tile gid="129"/>
   <tile gid="129"/>
   <tile gid="129"/>
   <tile gid="129"/>
   <tile gid="129"/>
   <tile gid="129"/>
   <tile gid="129"/>
   <tile gid="129"/>
   <tile gid="129"/>
   <tile gid="129"/>
   <tile gid="129"/>
   <tile gid="129"/>
   <tile gid="129"/>
   <tile gid="129"/>
   <tile gid="129"/>
   <tile gid="129"/>
   <tile gid="129"/>
   <tile gid="129"/>
   <tile gid="129"/>
   <tile gid="129"/>
   <tile gid="129"/>
   <tile gid="129"/>
   <tile gid="129"/>
   <tile gid="129"/>
   <tile gid="129"/>
   <tile gid="129"/>
   <tile gid="129"/>
   <tile gid="129"/>
   <tile gid="129"/>
   <tile gid="129"/>
   <tile gid="129"/>
   <tile gid="129"/>
   <tile gid="129"/>
   <tile gid="129"/>
   <tile gid="129"/>
   <tile gid="129"/>
   <tile gid="129"/>
   <tile gid="129"/>
   <tile gid="129"/>
  </data>
 </layer>
 <objectgroup id="11" name="EntitiesSpawnPoints">
  <object id="52" name="Player" type="Player" x="12326.3" y="2418.3">
   <point/>
  </object>
  <object id="159" name="SkillPointOrb" type="SkillPointOrb" x="8376.7" y="2201.5">
   <point/>
  </object>
  <object id="162" name="Cucafera" type="Cucafera" x="7296" y="2560">
   <point/>
  </object>
  <object id="163" name="Cucafera" type="Cucafera" x="9644" y="2620">
   <point/>
  </object>
  <object id="514" name="KnightBoss" type="KnightBoss" x="128" y="1280">
   <point/>
  </object>
  <object id="554" name="SavePoint" type="SavePoint" x="11448" y="2562.67">
   <point/>
  </object>
  <object id="1053" name="DialogueTrigger" type="DialogueTrigger" x="11104" y="1592" width="140" height="1092">
   <properties>
    <property name="DialogueID" value="Quan la Rose arriba al bosc 1"/>
   </properties>
  </object>
  <object id="1055" name="DialogueTrigger" type="DialogueTrigger" x="6630" y="1470" width="140" height="1092">
   <properties>
    <property name="DialogueID" value="Quan la Rose arriba al bosc 2"/>
   </properties>
  </object>
  <object id="1056" name="DialogueTrigger" type="DialogueTrigger" x="8062" y="1466" width="140" height="1092">
   <properties>
    <property name="DialogueID" value="Quan troba orbe de força"/>
   </properties>
  </object>
 </objectgroup>
 <objectgroup id="15" name="PlayerSpawns" visible="0">
  <properties>
   <property name="PlayerSpawns" type="bool" value="true"/>
  </properties>
  <object id="50" name="Player" type="Player" x="13019.8" y="2569.97">
   <properties>
    <property name="FromRoom" type="file" value="Nexo.tmx"/>
   </properties>
   <point/>
  </object>
  <object id="693" name="Player" type="Player" x="128" y="1408">
   <properties>
    <property name="FromRoom" type="file" value="Forest_02.tmx"/>
   </properties>
   <point/>
  </object>
 </objectgroup>
</map>
