<?xml version="1.0" encoding="UTF-8"?>
<map version="1.10" tiledversion="1.10.2" orientation="orthogonal" renderorder="right-down" width="153" height="19" tilewidth="128" tileheight="128" infinite="0" nextlayerid="52" nextobjectid="1900">
 <properties>
  <property name="Ground" type="bool" value="true"/>
  <property name="Navigation" type="bool" value="true"/>
 </properties>
 <tileset firstgid="1" name="Atlas_Bosque_V2" tilewidth="128" tileheight="128" tilecount="64" columns="8">
  <image source="Forest/Atlas_Forest.png" width="1024" height="1024"/>
  <wangsets>
   <wangset name="MixTierra" type="mixed" tile="-1">
    <wangcolor name="Tierra" color="#ff0000" tile="-1" probability="1"/>
    <wangtile tileid="30" wangid="1,1,1,1,1,1,1,1"/>
    <wangtile tileid="31" wangid="1,1,1,1,1,1,1,1"/>
    <wangtile tileid="36" wangid="1,1,1,1,1,1,1,1"/>
    <wangtile tileid="38" wangid="1,1,1,1,1,1,1,1"/>
    <wangtile tileid="39" wangid="1,1,1,1,1,1,1,1"/>
   </wangset>
  </wangsets>
 </tileset>
 <tileset firstgid="65" name="Espinas" tilewidth="128" tileheight="128" tilecount="64" columns="8">
  <image source="Forest/Archivo PSD Espinas.png" width="1024" height="1024"/>
 </tileset>
 <tileset firstgid="129" name="MapMetadata" tilewidth="128" tileheight="128" tilecount="2" columns="2">
  <image source="Pathfinding/MapMetadata.png" trans="ffffff" width="256" height="128"/>
 </tileset>
 <tileset firstgid="131" name="F_Bosque_V6_01" tilewidth="2304" tileheight="1444" tilecount="1" columns="1">
  <image source="Forest/Fondo_Vigente/06_F_Ninfas/F_Bosque_V6_01.png" width="2304" height="1444"/>
 </tileset>
 <tileset firstgid="132" name="F_Bosque_V6_02" tilewidth="2304" tileheight="1444" tilecount="1" columns="1">
  <image source="Forest/Fondo_Vigente/06_F_Ninfas/F_Bosque_V6_02.png" width="2304" height="1444"/>
 </tileset>
 <tileset firstgid="133" name="F_Bosque_V6_03" tilewidth="2304" tileheight="1444" tilecount="1" columns="1">
  <image source="Forest/Fondo_Vigente/06_F_Ninfas/F_Bosque_V6_03.png" width="2304" height="1444"/>
 </tileset>
 <tileset firstgid="134" name="t_Sueltos_Arbustos_Esquinas" tilewidth="384" tileheight="384" tilecount="12" columns="3">
  <image source="Forest/Fondo_Vigente/Arbustos/t_Sueltos_Arbustos_Esquinas.png" width="1152" height="1536"/>
 </tileset>
 <tileset firstgid="146" name="t_Fila_Arbustos" tilewidth="1920" tileheight="640" tilecount="4" columns="1">
  <image source="Forest/Fondo_Vigente/Arbustos/t_Fila_Arbustos.png" width="1920" height="2560"/>
 </tileset>
 <tileset firstgid="150" name="F_Bosque_V2_02" tilewidth="2304" tileheight="1444" tilecount="1" columns="1">
  <image source="Forest/Fondo_Vigente/02_F_Repeticion/F_Bosque_V2_02.png" width="2304" height="1444"/>
 </tileset>
 <tileset firstgid="151" name="SS_cascada_Transparente" tilewidth="768" tileheight="768" tilecount="6" columns="3">
  <image source="Forest/Aguas/SS_cascada_Transparente.png" width="2304" height="2048"/>
  <tile id="0">
   <animation>
    <frame tileid="0" duration="200"/>
    <frame tileid="1" duration="200"/>
    <frame tileid="2" duration="200"/>
    <frame tileid="3" duration="200"/>
    <frame tileid="4" duration="200"/>
    <frame tileid="5" duration="200"/>
   </animation>
  </tile>
 </tileset>
 <tileset firstgid="157" name="t_Fila_Arbustos_02" tilewidth="960" tileheight="640" tilecount="8" columns="2">
  <image source="Forest/Fondo_Vigente/Arbustos/t_Fila_Arbustos_02.png" width="1920" height="2560"/>
 </tileset>
 <tileset firstgid="165" name="F_Bosque_V5_05" tilewidth="2304" tileheight="1444" tilecount="1" columns="1">
  <image source="Forest/Fondo_Vigente/05_F_Cambio_Zona/F_Bosque_V5_05.png" width="2304" height="1444"/>
 </tileset>
 <tileset firstgid="166" name="Sprite Sheet_Agua_Transparente" tilewidth="128" tileheight="128" tilecount="64" columns="8">
  <image source="Forest/Aguas/Atl_Agua_MuyTransparente.png" width="1024" height="1024"/>
  <tile id="0">
   <animation>
    <frame tileid="0" duration="200"/>
    <frame tileid="3" duration="200"/>
    <frame tileid="6" duration="200"/>
    <frame tileid="24" duration="200"/>
    <frame tileid="27" duration="200"/>
   </animation>
  </tile>
  <tile id="1">
   <animation>
    <frame tileid="1" duration="200"/>
    <frame tileid="4" duration="200"/>
    <frame tileid="7" duration="200"/>
    <frame tileid="25" duration="200"/>
    <frame tileid="28" duration="200"/>
   </animation>
  </tile>
  <tile id="8">
   <animation>
    <frame tileid="8" duration="200"/>
    <frame tileid="11" duration="200"/>
    <frame tileid="14" duration="200"/>
    <frame tileid="32" duration="200"/>
    <frame tileid="35" duration="200"/>
   </animation>
  </tile>
  <tile id="9">
   <animation>
    <frame tileid="9" duration="200"/>
    <frame tileid="12" duration="200"/>
    <frame tileid="15" duration="200"/>
    <frame tileid="33" duration="200"/>
    <frame tileid="36" duration="200"/>
   </animation>
  </tile>
 </tileset>
 <tileset firstgid="230" name="Plantitas" tilewidth="128" tileheight="128" tilecount="64" columns="8">
  <image source="Forest/Fondo_Vigente/Arbustos/Plantitas.png" width="1024" height="1024"/>
  <tile id="0">
   <animation>
    <frame tileid="0" duration="300"/>
    <frame tileid="1" duration="300"/>
    <frame tileid="2" duration="300"/>
   </animation>
  </tile>
  <tile id="3">
   <animation>
    <frame tileid="3" duration="250"/>
    <frame tileid="4" duration="250"/>
    <frame tileid="5" duration="250"/>
   </animation>
  </tile>
  <tile id="6">
   <animation>
    <frame tileid="6" duration="250"/>
    <frame tileid="7" duration="250"/>
    <frame tileid="8" duration="250"/>
   </animation>
  </tile>
  <tile id="9">
   <animation>
    <frame tileid="9" duration="300"/>
    <frame tileid="10" duration="300"/>
    <frame tileid="11" duration="300"/>
   </animation>
  </tile>
  <tile id="12">
   <animation>
    <frame tileid="12" duration="250"/>
    <frame tileid="13" duration="250"/>
    <frame tileid="14" duration="250"/>
   </animation>
  </tile>
  <tile id="15">
   <animation>
    <frame tileid="15" duration="250"/>
    <frame tileid="16" duration="250"/>
    <frame tileid="17" duration="250"/>
   </animation>
  </tile>
 </tileset>
 <tileset firstgid="294" name="F_Bosque_02" tilewidth="2304" tileheight="1444" tilecount="1" columns="1">
  <image source="Forest/Fondo_Vigente/01_F_Inicio/F_Bosque_02.png" width="2304" height="1444"/>
 </tileset>
 <objectgroup id="18" name="Fondo1">
  <properties>
   <property name="BG" type="bool" value="true"/>
   <property name="Draw" type="bool" value="true"/>
   <property name="Paralax" type="float" value="0.8"/>
  </properties>
  <object id="589" gid="131" x="14592" y="1792" width="2708" height="1792"/>
  <object id="590" gid="131" x="17280" y="1792" width="2328" height="1792"/>
  <object id="613" gid="131" x="11392" y="2432" width="3220" height="2432"/>
  <object id="618" gid="131" x="8960" y="2432" width="2468" height="2432"/>
  <object id="619" gid="131" x="5376" y="2432" width="3612" height="2432"/>
  <object id="620" gid="131" x="768" y="2432" width="4632" height="2560"/>
  <object id="626" gid="131" x="-2816" y="1920" width="3712" height="2048"/>
  <object id="728" gid="131" x="19584" y="1792" width="2304" height="1444"/>
  <object id="729" gid="131" x="21888" y="1792" width="2304" height="1444"/>
 </objectgroup>
 <objectgroup id="20" name="Fondo2">
  <properties>
   <property name="BG" type="bool" value="true"/>
   <property name="Draw" type="bool" value="true"/>
   <property name="Paralax" type="float" value="0.9"/>
  </properties>
  <object id="586" gid="132" x="17288.1" y="1874.55" width="1948" height="1664"/>
  <object id="587" gid="132" x="14592" y="1792" width="2703.15" height="1572"/>
  <object id="595" gid="1073741956" x="14592" y="5888" width="3672" height="4096"/>
  <object id="615" gid="132" x="11392" y="2432" width="3240" height="2304"/>
  <object id="616" gid="132" x="8704" y="2432" width="2715.27" height="2304"/>
  <object id="617" gid="132" x="5376" y="2432" width="3352.24" height="2432"/>
  <object id="627" gid="132" x="-2816" y="2048" width="3760" height="2304"/>
  <object id="628" gid="132" x="896" y="2304" width="4508" height="2176"/>
  <object id="629" gid="1073741956" x="-1670.06" y="5644.12" width="7068" height="3584"/>
  <object id="726" gid="1073741956" x="18176" y="5888" width="3200" height="4096"/>
  <object id="750" gid="132" x="19216" y="1852" width="1964" height="1664"/>
  <object id="751" gid="132" x="21120" y="1872" width="1920" height="1664"/>
 </objectgroup>
 <objectgroup id="21" name="Plantas Back">
  <properties>
   <property name="BG" type="bool" value="true"/>
   <property name="Draw" type="bool" value="true"/>
   <property name="Paralax" type="float" value="1"/>
  </properties>
  <object id="634" gid="133" x="-896" y="1792" width="2304" height="2048"/>
  <object id="1753" gid="1073742054" x="8602" y="1876" width="128" height="128"/>
  <object id="1755" gid="1073742054" x="9244" y="1882" width="128" height="128"/>
  <object id="1757" gid="230" x="7576" y="1942" width="128" height="128"/>
  <object id="1760" gid="230" x="7636" y="1936" width="128" height="128"/>
  <object id="1762" gid="242" x="6922" y="1548" width="128" height="128"/>
  <object id="1764" gid="233" x="7904" y="1152" width="140" height="140"/>
  <object id="1766" gid="233" x="7540" y="790" width="128" height="128"/>
  <object id="1767" gid="236" x="7310" y="780" width="128" height="128"/>
  <object id="1768" gid="236" x="6900" y="2190" width="128" height="128"/>
  <object id="1770" gid="233" x="6194" y="1930" width="128" height="128"/>
  <object id="1771" gid="242" x="6386" y="1930" width="128" height="128"/>
  <object id="1772" gid="242" x="6160" y="1174" width="128" height="128"/>
  <object id="1775" gid="236" x="6388" y="1170" width="128" height="128"/>
  <object id="1849" gid="230" x="8014" y="1146" width="128" height="128"/>
  <object id="1854" gid="233" x="5708" y="648" width="128" height="128"/>
  <object id="1855" gid="242" x="5380" y="630" width="128" height="128"/>
  <object id="1860" gid="242" x="5326" y="1802" width="128" height="128"/>
  <object id="1862" gid="242" x="1926" y="1540" width="128" height="128"/>
  <object id="1865" gid="233" x="2696" y="1550" width="128" height="128"/>
  <object id="1867" gid="1073742057" x="2064" y="1938" width="128" height="128"/>
  <object id="1868" gid="1073742057" x="2376" y="1946" width="128" height="128"/>
  <object id="1872" gid="1073742066" x="2564" y="1934" width="128" height="128"/>
  <object id="1873" gid="1073742066" x="2190" y="1930" width="128" height="128"/>
  <object id="1875" gid="1073742060" x="2296" y="1894" width="128" height="128"/>
  <object id="1876" gid="233" x="7430" y="1956" width="128" height="128"/>
  <object id="1877" gid="1073742060" x="6176" y="1328" width="128" height="128"/>
  <object id="1880" gid="1073742063" x="6140" y="2104" width="128" height="128"/>
  <object id="1881" gid="1073742063" x="6286" y="2116" width="128" height="128"/>
  <object id="1883" gid="1073742063" x="6894" y="1736" width="128" height="128"/>
  <object id="1884" gid="1073742063" x="7034" y="1718" width="128" height="128"/>
  <object id="1885" gid="1073742063" x="6922" y="2368" width="128" height="128"/>
  <object id="1886" gid="1073742063" x="6784" y="2354" width="128" height="128"/>
  <object id="1887" gid="1073742063" x="7420" y="2100" width="128" height="128"/>
  <object id="1889" gid="1073742054" x="7558" y="2126" width="128" height="128"/>
  <object id="1890" gid="1073742054" x="7812" y="1334" width="128" height="128"/>
  <object id="1891" gid="1073742054" x="7420" y="956" width="128" height="128"/>
  <object id="1892" gid="1073742054" x="5612" y="1066" width="128" height="128"/>
  <object id="1895" gid="3221225702" x="5468" y="1218" width="128" height="128"/>
  <object id="1896" gid="3221225702" x="5740" y="942" width="128" height="128"/>
  <object id="1897" gid="3221225717" x="8063.27" y="1315.52" width="128" height="128"/>
 </objectgroup>
 <objectgroup id="50" name="Fondo2-Agua" visible="0">
  <properties>
   <property name="BG" type="bool" value="true"/>
   <property name="Draw" type="bool" value="true"/>
   <property name="Paralax" type="float" value="0.9"/>
  </properties>
  <object id="1777" gid="133" x="15250" y="2432" width="2304" height="1408"/>
  <object id="1778" gid="133" x="13202" y="2432" width="2304" height="1408"/>
  <object id="1779" gid="133" x="12306" y="2432" width="2304" height="1408"/>
  <object id="1780" gid="133" x="14226" y="2432" width="2304" height="1408"/>
  <object id="1781" gid="1073741957" x="15251.1" y="1024" width="2304" height="1478.52"/>
  <object id="1782" gid="1073741957" x="13203.1" y="1024" width="2304" height="1478.52"/>
  <object id="1783" gid="1073741957" x="12307.1" y="1024" width="2304" height="1478.52"/>
  <object id="1784" gid="1073741957" x="14227.1" y="1024" width="2304" height="1478.52"/>
 </objectgroup>
 <objectgroup id="36" name="Forest3 - Luces" visible="0">
  <properties>
   <property name="BG" type="bool" value="true"/>
   <property name="Draw" type="bool" value="true"/>
   <property name="Paralax" type="float" value="1"/>
  </properties>
  <object id="1787" gid="294" x="5548" y="1548" width="2304" height="1444"/>
  <object id="1788" gid="2147483942" x="6648" y="1578" width="2304" height="1444"/>
  <object id="1792" gid="294" x="1408" y="1408" width="2304" height="1444"/>
  <object id="1795" gid="294" x="2176" y="1408" width="2304" height="1444"/>
  <object id="1796" gid="294" x="256" y="1536" width="2304" height="1444"/>
  <object id="1798" gid="294" x="768" y="1536" width="2304" height="1444"/>
  <object id="1799" gid="2147483942" x="1520" y="1384" width="2304" height="1444"/>
  <object id="1800" gid="2147483942" x="9720" y="1762" width="2304" height="1444"/>
  <object id="1804" gid="2147483942" x="14400" y="1474" width="2304" height="1444"/>
  <object id="1807" gid="150" x="16784" y="1650" width="2304" height="1444"/>
  <object id="1810" gid="150" x="15560" y="1490" width="2304" height="1444"/>
  <object id="1811" gid="150" x="17944" y="1714" width="2304" height="1444"/>
  <object id="1815" gid="1073741974" x="15926.8" y="3018.97" width="2304" height="1444"/>
  <object id="1820" gid="1073741974" x="16011.6" y="2694.73" width="2304" height="1444"/>
  <object id="1821" gid="1073741974" x="16014.7" y="2694.73" width="2304" height="1444"/>
  <object id="1822" gid="150" x="4352" y="942" width="1091.66" height="980"/>
  <object id="1823" gid="150" x="4258.17" y="910" width="1171.66" height="980"/>
  <object id="1824" gid="150" x="4578.17" y="930" width="787.657" height="980"/>
  <object id="1825" gid="150" x="4334.17" y="890" width="1079.66" height="980"/>
  <object id="1829" gid="150" x="17988" y="1762" width="2304" height="1444"/>
  <object id="1831" gid="133" x="7511.64" y="2637.15" width="2304" height="1444"/>
  <object id="1833" gid="133" x="5866.18" y="2615.94" width="2304" height="1444"/>
  <object id="1835" gid="133" x="6484.36" y="2997.76" width="2304" height="1444"/>
  <object id="1836" gid="133" x="6999.52" y="2494.73" width="2304" height="1689.45"/>
  <object id="1838" gid="133" x="7141.33" y="2795.28" width="2304" height="821.45"/>
 </objectgroup>
 <objectgroup id="22" name="Fondo4">
  <properties>
   <property name="BG" type="bool" value="true"/>
   <property name="Draw" type="bool" value="true"/>
   <property name="Paralax" type="float" value="1"/>
  </properties>
  <object id="822" gid="1073741961" x="18126.2" y="1861.7" width="384" height="384"/>
  <object id="824" gid="1073741969" x="18465.3" y="1889.67" width="384" height="384"/>
  <object id="864" gid="142" x="18498.9" y="1949.58" width="384" height="384"/>
  <object id="865" gid="2147483790" x="18083.8" y="1946.55" width="384" height="384"/>
  <object id="959" gid="1073741961" x="18050" y="1866" width="384" height="384"/>
  <object id="960" gid="137" x="18054" y="1496" width="384" height="384"/>
  <object id="961" gid="2147483789" x="18096" y="1340" width="384" height="384"/>
  <object id="963" gid="2147483785" x="18530" y="1318" width="384" height="384"/>
  <object id="969" gid="141" x="18514" y="1380" width="384" height="384"/>
  <object id="971" gid="145" x="18416" y="1006" width="384" height="384"/>
  <object id="972" gid="1073741969" x="18414" y="1376" width="384" height="384"/>
  <object id="973" gid="3221225617" x="18220" y="1030" width="384" height="384"/>
  <object id="974" gid="2147483793" x="18224" y="658" width="384" height="384"/>
  <object id="976" gid="138" x="16580" y="1548" width="558" height="558"/>
  <object id="979" gid="140" x="15429.2" y="1458.67" width="384" height="384"/>
  <object id="980" gid="1073741964" x="15426" y="1836" width="384" height="384"/>
  <object id="981" gid="141" x="16301.3" y="1572" width="384" height="384"/>
  <object id="983" gid="139" x="16220.1" y="1422.3" width="384" height="384"/>
  <object id="985" gid="140" x="14980.7" y="2340.48" width="384" height="384"/>
  <object id="987" gid="141" x="15271.6" y="2355.64" width="384" height="384"/>
  <object id="988" gid="143" x="15644.4" y="2370.79" width="384" height="384"/>
  <object id="989" gid="145" x="15905" y="2340.48" width="384" height="384"/>
  <object id="991" gid="2147483785" x="16635.3" y="2379.88" width="384" height="384"/>
  <object id="994" gid="145" x="17480.7" y="1792" width="384" height="384"/>
  <object id="996" gid="2147483785" x="17317.1" y="1692" width="384" height="384"/>
  <object id="997" gid="2147483785" x="17868.6" y="1879.88" width="384" height="384"/>
  <object id="998" gid="140" x="18968.6" y="1855.64" width="384" height="384"/>
  <object id="1118" gid="138" x="11856" y="1418" width="384" height="384"/>
  <object id="1119" gid="1073741961" x="11818" y="1372" width="384" height="384"/>
  <object id="1121" gid="1073741966" x="11908" y="1394" width="384" height="384"/>
  <object id="1122" gid="1073741966" x="12828" y="2000" width="384" height="384"/>
  <object id="1123" gid="3221225613" x="12752" y="2002" width="384" height="384"/>
  <object id="1124" gid="2147483789" x="12750" y="2078" width="384" height="384"/>
  <object id="1126" gid="141" x="12832" y="2080" width="384" height="384"/>
  <object id="1128" gid="141" x="11948" y="1464" width="384" height="384"/>
  <object id="1129" gid="140" x="13690" y="1854" width="384" height="384"/>
  <object id="1131" gid="1073741964" x="13704" y="1716" width="384" height="384"/>
  <object id="1134" gid="1073741966" x="14586" y="1516" width="384" height="384"/>
  <object id="1135" gid="142" x="14586" y="1564" width="384" height="384"/>
  <object id="1136" gid="139" x="14958" y="1926" width="384" height="384"/>
  <object id="1262" gid="142" x="6141.33" y="1961.82" width="384" height="384"/>
  <object id="1263" gid="137" x="6692.85" y="2229.27" width="384" height="384"/>
  <object id="1264" gid="2147483785" x="6880.73" y="2208.06" width="384" height="384"/>
  <object id="1268" gid="139" x="6766" y="2182" width="384" height="384"/>
  <object id="1269" gid="138" x="7356" y="1927.33" width="384" height="384"/>
  <object id="1270" gid="137" x="7512" y="1958" width="384" height="384"/>
  <object id="1272" gid="2147483789" x="6720" y="1560" width="384" height="384"/>
  <object id="1273" gid="140" x="7294" y="822" width="384" height="384"/>
  <object id="1274" gid="144" x="7892" y="1188" width="384" height="384"/>
  <object id="1276" gid="137" x="7716" y="1180" width="384" height="384"/>
  <object id="1278" gid="2147483788" x="6140" y="1192" width="384" height="384"/>
  <object id="1679" gid="137" x="5108" y="1832" width="384" height="384"/>
  <object id="1680" gid="141" x="5317.09" y="1849.58" width="384" height="384"/>
  <object id="1681" gid="141" x="5556.48" y="1843.52" width="384" height="384"/>
  <object id="1682" gid="142" x="4404.97" y="1846.55" width="384" height="384"/>
  <object id="1683" gid="142" x="3844.36" y="1852.61" width="384" height="384"/>
  <object id="1684" gid="137" x="3495.88" y="1849.58" width="384" height="384"/>
  <object id="1685" gid="137" x="1838.3" y="1598.06" width="384" height="384"/>
  <object id="1687" gid="141" x="1947.39" y="1607.15" width="384" height="384"/>
  <object id="1689" gid="1073741961" x="1841.33" y="2128.36" width="384" height="384"/>
  <object id="1691" gid="1073741966" x="1929.21" y="2149.58" width="384" height="384"/>
  <object id="1697" gid="1073741964" x="2447.39" y="2128.36" width="384" height="384"/>
  <object id="1698" gid="1073741969" x="2198.91" y="2143.52" width="384" height="384"/>
  <object id="1701" gid="141" x="2483.76" y="1595.03" width="384" height="384"/>
  <object id="1702" gid="139" x="2798.91" y="1673.82" width="384" height="384"/>
  <object id="1703" gid="139" x="1517.09" y="1676.85" width="384" height="384"/>
  <object id="1704" gid="137" x="1259.52" y="1919.27" width="384" height="384"/>
  <object id="1705" gid="141" x="3120.12" y="1910.18" width="384" height="384"/>
  <object id="1707" gid="141" x="232.242" y="1849.58" width="384" height="384"/>
  <object id="1709" gid="140" x="908" y="1852.61" width="384" height="384"/>
  <object id="1711" gid="139" x="8192" y="2048" width="384" height="384"/>
  <object id="1712" gid="137" x="8920" y="2142" width="384" height="384"/>
  <object id="1713" gid="137" x="9646" y="2116" width="384" height="384"/>
  <object id="1715" gid="140" x="10084" y="2104" width="384" height="384"/>
  <object id="1716" gid="145" x="10606" y="1852" width="384" height="384"/>
  <object id="1718" gid="137" x="10938" y="1716" width="384" height="384"/>
  <object id="1719" gid="2147483793" x="10392" y="1988" width="384" height="384"/>
  <object id="1722" gid="3221225617" x="8583.76" y="2140.48" width="384" height="384"/>
  <object id="1723" gid="3221225617" x="9256.48" y="2122.3" width="384" height="384"/>
  <object id="1724" gid="1073741962" x="8960" y="2176" width="384" height="384"/>
  <object id="1726" gid="137" x="8483.76" y="1382.91" width="384" height="384"/>
  <object id="1728" gid="2147483789" x="8277.7" y="1473.82" width="384" height="384"/>
  <object id="1731" gid="2147483789" x="5562.55" y="688.97" width="384" height="384"/>
  <object id="1733" gid="233" x="14652" y="1550.67" width="128" height="128"/>
  <object id="1736" gid="233" x="14872" y="1552" width="128" height="128"/>
  <object id="1739" gid="1073742057" x="15104" y="2056" width="128" height="128"/>
  <object id="1741" gid="1073742057" x="14002.7" y="1994.67" width="128" height="128"/>
  <object id="1742" gid="1073742057" x="14533.3" y="1958.67" width="128" height="128"/>
  <object id="1744" gid="245" x="14548" y="2196" width="128" height="128"/>
  <object id="1745" gid="2147483893" x="14000" y="2194.67" width="128" height="128"/>
  <object id="1746" gid="2147483893" x="12181.5" y="2094.3" width="128" height="128"/>
  <object id="1853" gid="141" x="5288" y="680" width="384" height="384"/>
 </objectgroup>
 <objectgroup id="37" name="Cascada">
  <properties>
   <property name="BG" type="bool" value="true"/>
   <property name="Draw" type="bool" value="true"/>
   <property name="Paralax" type="float" value="1"/>
  </properties>
  <object id="810" gid="151" x="14049.7" y="2560" width="572.606" height="1280"/>
  <object id="811" gid="1073741975" x="14049.7" y="1280" width="572.667" height="1280"/>
  <object id="818" gid="151" x="11358.7" y="2560" width="578.667" height="1280"/>
  <object id="819" gid="1073741975" x="11356.7" y="1280" width="582.606" height="1280"/>
 </objectgroup>
 <objectgroup id="47" name="Planitas">
  <properties>
   <property name="BG" type="bool" value="true"/>
   <property name="Draw" type="bool" value="true"/>
  </properties>
  <object id="1607" gid="236" x="2736.66" y="1778.66" width="128" height="128"/>
  <object id="1608" gid="3221225708" x="2735.33" y="1904" width="128" height="128"/>
  <object id="1609" gid="236" x="1867.33" y="1765.33" width="128" height="128"/>
  <object id="1610" gid="3221225708" x="1866" y="1890.67" width="128" height="128"/>
  <object id="1626" gid="245" x="2022.67" y="1558.67" width="128" height="128"/>
  <object id="1627" gid="2147483893" x="2562.67" y="1558.67" width="128" height="128"/>
  <object id="1628" gid="2147483893" x="5528.24" y="670.303" width="197.697" height="197.697"/>
  <object id="1629" gid="239" x="5698.58" y="1801.09" width="188.606" height="188.606"/>
  <object id="1630" gid="245" x="8400.24" y="1426" width="220" height="220"/>
  <object id="1631" gid="3221225717" x="8656.36" y="1966.12" width="220" height="220"/>
  <object id="1632" gid="230" x="8960.24" y="2060.97" width="140.121" height="97.697"/>
  <object id="1633" gid="230" x="9066.3" y="2060.24" width="140.121" height="97.697"/>
  <object id="1636" gid="1073742060" x="9361.67" y="1913.67" width="167.333" height="167.333"/>
  <object id="1638" gid="233" x="9854" y="2064" width="166" height="166"/>
  <object id="1640" gid="233" x="8124" y="2062" width="128" height="128"/>
  <object id="1641" gid="239" x="11944" y="1416" width="162" height="162"/>
  <object id="1645" gid="245" x="12804" y="2084" width="128" height="128"/>
  <object id="1647" gid="2147483893" x="13026.7" y="2093.33" width="128" height="128"/>
  <object id="1650" gid="2147483893" x="12142.7" y="1448" width="128" height="128"/>
  <object id="1652" gid="230" x="11246" y="1562" width="128" height="128"/>
  <object id="1653" gid="230" x="11190" y="1572" width="128" height="128"/>
  <object id="1654" gid="230" x="11101" y="1625" width="128" height="128"/>
  <object id="1655" gid="230" x="11006" y="1678.33" width="133" height="133"/>
  <object id="1656" gid="2147483878" x="10899" y="1734.33" width="133" height="133"/>
  <object id="1657" gid="230" x="10784" y="1799.67" width="146" height="146"/>
  <object id="1658" gid="239" x="10702" y="1816.33" width="150" height="150"/>
  <object id="1659" gid="239" x="10597.7" y="1868" width="148" height="148"/>
  <object id="1660" gid="230" x="10472" y="1965.33" width="158" height="158"/>
  <object id="1661" gid="230" x="10364.7" y="2018.67" width="158" height="158"/>
  <object id="1662" gid="236" x="13764" y="1828" width="128" height="128"/>
  <object id="1663" gid="236" x="13816" y="1808" width="128" height="128"/>
  <object id="1842" gid="230" x="8328" y="1456" width="128" height="128"/>
  <object id="1843" gid="230" x="8524" y="1394" width="128" height="128"/>
 </objectgroup>
 <objectgroup id="49" name="PlantitasFrontPlantitas">
  <properties>
   <property name="BG" type="bool" value="true"/>
   <property name="Draw" type="bool" value="true"/>
  </properties>
  <object id="1621" gid="242" x="2108" y="1546" width="160" height="160"/>
  <object id="1622" gid="242" x="2488" y="1556" width="160" height="160"/>
  <object id="1623" gid="233" x="1965.33" y="1548" width="146.667" height="146.667"/>
  <object id="1624" gid="233" x="2630.67" y="1548" width="146.667" height="146.667"/>
  <object id="1634" gid="242" x="9025" y="2062" width="126" height="126"/>
  <object id="1666" gid="1073742063" x="12842.1" y="1842.79" width="197.697" height="197.697"/>
  <object id="1668" gid="1073742063" x="12867.2" y="1899.15" width="233.697" height="283.697"/>
  <object id="1670" gid="1073742063" x="12987.2" y="1815.15" width="197.697" height="197.697"/>
  <object id="1673" gid="230" x="4472" y="1856" width="164" height="164"/>
  <object id="1675" gid="230" x="4116" y="1848" width="164" height="164"/>
  <object id="1677" gid="230" x="4022" y="1844" width="164" height="164"/>
  <object id="1678" gid="230" x="4552" y="1840" width="164" height="164"/>
 </objectgroup>
 <layer id="1" name="Map" width="153" height="19">
  <properties>
   <property name="Draw" type="bool" value="true"/>
  </properties>
  <data>
   <tile/>
   <tile/>
   <tile/>
   <tile/>
   <tile/>
   <tile/>
   <tile/>
   <tile/>
   <tile/>
   <tile/>
   <tile/>
   <tile/>
   <tile/>
   <tile/>
   <tile/>
   <tile/>
   <tile/>
   <tile/>
   <tile/>
   <tile/>
   <tile/>
   <tile/>
   <tile/>
   <tile gid="36"/>
   <tile gid="37"/>
   <tile gid="39"/>
   <tile gid="31"/>
   <tile gid="37"/>
   <tile gid="39"/>
   <tile gid="37"/>
   <tile gid="31"/>
   <tile gid="37"/>
   <tile gid="32"/>
   <tile gid="37"/>
   <tile gid="37"/>
   <tile gid="37"/>
   <tile gid="38"/>
   <tile/>
   <tile/>
   <tile/>
   <tile/>
   <tile gid="2147483686"/>
   <tile gid="37"/>
   <tile gid="37"/>
   <tile gid="37"/>
   <tile gid="37"/>
   <tile gid="37"/>
   <tile gid="31"/>
   <tile gid="37"/>
   <tile gid="32"/>
   <tile gid="32"/>
   <tile gid="40"/>
   <tile gid="32"/>
   <tile gid="31"/>
   <tile gid="39"/>
   <tile gid="37"/>
   <tile gid="40"/>
   <tile gid="31"/>
   <tile gid="32"/>
   <tile gid="40"/>
   <tile gid="32"/>
   <tile gid="31"/>
   <tile gid="32"/>
   <tile gid="39"/>
   <tile gid="40"/>
   <tile gid="31"/>
   <tile gid="31"/>
   <tile gid="32"/>
   <tile gid="39"/>
   <tile gid="39"/>
   <tile gid="37"/>
   <tile gid="32"/>
   <tile gid="32"/>
   <tile gid="32"/>
   <tile gid="39"/>
   <tile gid="32"/>
   <tile gid="32"/>
   <tile gid="32"/>
   <tile gid="32"/>
   <tile gid="31"/>
   <tile gid="31"/>
   <tile gid="45"/>
   <tile gid="45"/>
   <tile gid="45"/>
   <tile gid="45"/>
   <tile gid="45"/>
   <tile gid="45"/>
   <tile gid="45"/>
   <tile gid="45"/>
   <tile gid="45"/>
   <tile gid="45"/>
   <tile gid="45"/>
   <tile gid="45"/>
   <tile gid="37"/>
   <tile gid="39"/>
   <tile gid="37"/>
   <tile gid="45"/>
   <tile gid="45"/>
   <tile gid="45"/>
   <tile gid="45"/>
   <tile gid="40"/>
   <tile gid="32"/>
   <tile gid="32"/>
   <tile gid="45"/>
   <tile gid="45"/>
   <tile gid="45"/>
   <tile gid="45"/>
   <tile gid="31"/>
   <tile gid="40"/>
   <tile gid="40"/>
   <tile gid="45"/>
   <tile gid="45"/>
   <tile gid="45"/>
   <tile gid="45"/>
   <tile gid="40"/>
   <tile gid="31"/>
   <tile gid="32"/>
   <tile gid="40"/>
   <tile gid="40"/>
   <tile gid="39"/>
   <tile gid="31"/>
   <tile gid="37"/>
   <tile gid="37"/>
   <tile gid="37"/>
   <tile gid="37"/>
   <tile gid="37"/>
   <tile gid="37"/>
   <tile gid="37"/>
   <tile gid="37"/>
   <tile gid="37"/>
   <tile gid="37"/>
   <tile gid="37"/>
   <tile gid="37"/>
   <tile gid="37"/>
   <tile gid="37"/>
   <tile gid="37"/>
   <tile gid="37"/>
   <tile gid="37"/>
   <tile gid="37"/>
   <tile gid="37"/>
   <tile gid="37"/>
   <tile gid="37"/>
   <tile gid="37"/>
   <tile gid="37"/>
   <tile gid="37"/>
   <tile gid="37"/>
   <tile gid="37"/>
   <tile gid="37"/>
   <tile gid="37"/>
   <tile gid="37"/>
   <tile gid="37"/>
   <tile gid="39"/>
   <tile gid="32"/>
   <tile/>
   <tile/>
   <tile/>
   <tile/>
   <tile/>
   <tile/>
   <tile/>
   <tile/>
   <tile/>
   <tile/>
   <tile/>
   <tile/>
   <tile/>
   <tile/>
   <tile/>
   <tile/>
   <tile/>
   <tile/>
   <tile/>
   <tile/>
   <tile/>
   <tile/>
   <tile/>
   <tile gid="41"/>
   <tile gid="37"/>
   <tile gid="37"/>
   <tile gid="37"/>
   <tile gid="32"/>
   <tile gid="37"/>
   <tile gid="32"/>
   <tile gid="37"/>
   <tile gid="32"/>
   <tile gid="32"/>
   <tile gid="32"/>
   <tile gid="37"/>
   <tile gid="37"/>
   <tile gid="38"/>
   <tile/>
   <tile/>
   <tile/>
   <tile/>
   <tile gid="2147483686"/>
   <tile gid="45"/>
   <tile gid="45"/>
   <tile gid="45"/>
   <tile gid="45"/>
   <tile gid="45"/>
   <tile gid="45"/>
   <tile gid="45"/>
   <tile gid="45"/>
   <tile gid="45"/>
   <tile gid="45"/>
   <tile gid="45"/>
   <tile gid="45"/>
   <tile gid="45"/>
   <tile gid="45"/>
   <tile gid="45"/>
   <tile gid="45"/>
   <tile gid="45"/>
   <tile gid="45"/>
   <tile gid="45"/>
   <tile gid="45"/>
   <tile gid="45"/>
   <tile gid="45"/>
   <tile gid="45"/>
   <tile gid="45"/>
   <tile gid="45"/>
   <tile gid="45"/>
   <tile gid="40"/>
   <tile gid="39"/>
   <tile gid="40"/>
   <tile gid="32"/>
   <tile gid="40"/>
   <tile gid="32"/>
   <tile gid="39"/>
   <tile gid="40"/>
   <tile gid="32"/>
   <tile gid="40"/>
   <tile gid="37"/>
   <tile gid="39"/>
   <tile gid="38"/>
   <tile/>
   <tile/>
   <tile/>
   <tile/>
   <tile/>
   <tile/>
   <tile/>
   <tile/>
   <tile/>
   <tile/>
   <tile/>
   <tile/>
   <tile gid="36"/>
   <tile gid="40"/>
   <tile gid="38"/>
   <tile/>
   <tile/>
   <tile/>
   <tile/>
   <tile gid="36"/>
   <tile gid="37"/>
   <tile gid="38"/>
   <tile/>
   <tile/>
   <tile/>
   <tile/>
   <tile gid="36"/>
   <tile gid="37"/>
   <tile gid="38"/>
   <tile/>
   <tile/>
   <tile/>
   <tile/>
   <tile gid="36"/>
   <tile gid="37"/>
   <tile gid="40"/>
   <tile gid="39"/>
   <tile gid="31"/>
   <tile gid="31"/>
   <tile gid="32"/>
   <tile gid="32"/>
   <tile gid="32"/>
   <tile gid="37"/>
   <tile gid="40"/>
   <tile gid="32"/>
   <tile gid="39"/>
   <tile gid="37"/>
   <tile gid="31"/>
   <tile gid="32"/>
   <tile gid="40"/>
   <tile gid="39"/>
   <tile gid="37"/>
   <tile gid="39"/>
   <tile gid="37"/>
   <tile gid="32"/>
   <tile gid="37"/>
   <tile gid="40"/>
   <tile gid="32"/>
   <tile gid="39"/>
   <tile gid="31"/>
   <tile gid="32"/>
   <tile gid="31"/>
   <tile gid="40"/>
   <tile gid="40"/>
   <tile gid="37"/>
   <tile gid="37"/>
   <tile gid="32"/>
   <tile gid="39"/>
   <tile gid="37"/>
   <tile gid="37"/>
   <tile gid="39"/>
   <tile gid="40"/>
   <tile/>
   <tile/>
   <tile/>
   <tile/>
   <tile/>
   <tile/>
   <tile/>
   <tile/>
   <tile/>
   <tile/>
   <tile/>
   <tile/>
   <tile/>
   <tile/>
   <tile/>
   <tile/>
   <tile/>
   <tile/>
   <tile/>
   <tile/>
   <tile/>
   <tile/>
   <tile/>
   <tile/>
   <tile gid="33"/>
   <tile gid="37"/>
   <tile gid="37"/>
   <tile gid="37"/>
   <tile gid="37"/>
   <tile gid="39"/>
   <tile gid="39"/>
   <tile gid="32"/>
   <tile gid="32"/>
   <tile gid="31"/>
   <tile gid="37"/>
   <tile gid="37"/>
   <tile gid="38"/>
   <tile/>
   <tile/>
   <tile/>
   <tile/>
   <tile gid="38"/>
   <tile/>
   <tile/>
   <tile/>
   <tile/>
   <tile/>
   <tile/>
   <tile/>
   <tile/>
   <tile/>
   <tile/>
   <tile/>
   <tile/>
   <tile/>
   <tile/>
   <tile/>
   <tile/>
   <tile/>
   <tile/>
   <tile/>
   <tile/>
   <tile/>
   <tile/>
   <tile/>
   <tile/>
   <tile/>
   <tile/>
   <tile gid="36"/>
   <tile gid="40"/>
   <tile gid="40"/>
   <tile gid="37"/>
   <tile gid="40"/>
   <tile gid="31"/>
   <tile gid="32"/>
   <tile gid="40"/>
   <tile gid="40"/>
   <tile gid="31"/>
   <tile gid="32"/>
   <tile gid="31"/>
   <tile gid="38"/>
   <tile/>
   <tile/>
   <tile/>
   <tile/>
   <tile/>
   <tile/>
   <tile/>
   <tile/>
   <tile/>
   <tile/>
   <tile/>
   <tile/>
   <tile gid="36"/>
   <tile gid="32"/>
   <tile gid="38"/>
   <tile/>
   <tile/>
   <tile/>
   <tile/>
   <tile gid="36"/>
   <tile gid="40"/>
   <tile gid="38"/>
   <tile/>
   <tile/>
   <tile/>
   <tile/>
   <tile gid="36"/>
   <tile gid="40"/>
   <tile gid="38"/>
   <tile/>
   <tile/>
   <tile/>
   <tile/>
   <tile gid="36"/>
   <tile gid="40"/>
   <tile gid="37"/>
   <tile gid="45"/>
   <tile gid="45"/>
   <tile gid="45"/>
   <tile gid="45"/>
   <tile gid="45"/>
   <tile gid="45"/>
   <tile gid="45"/>
   <tile gid="45"/>
   <tile gid="45"/>
   <tile gid="45"/>
   <tile gid="45"/>
   <tile gid="45"/>
   <tile gid="45"/>
   <tile gid="45"/>
   <tile gid="45"/>
   <tile gid="45"/>
   <tile gid="45"/>
   <tile gid="45"/>
   <tile gid="45"/>
   <tile gid="45"/>
   <tile gid="45"/>
   <tile gid="45"/>
   <tile gid="45"/>
   <tile gid="45"/>
   <tile gid="45"/>
   <tile gid="45"/>
   <tile gid="31"/>
   <tile gid="37"/>
   <tile gid="37"/>
   <tile gid="45"/>
   <tile gid="45"/>
   <tile gid="45"/>
   <tile gid="45"/>
   <tile gid="45"/>
   <tile gid="45"/>
   <tile gid="45"/>
   <tile/>
   <tile/>
   <tile/>
   <tile/>
   <tile/>
   <tile/>
   <tile/>
   <tile/>
   <tile/>
   <tile/>
   <tile/>
   <tile/>
   <tile/>
   <tile/>
   <tile/>
   <tile/>
   <tile/>
   <tile/>
   <tile/>
   <tile/>
   <tile/>
   <tile/>
   <tile/>
   <tile/>
   <tile/>
   <tile gid="33"/>
   <tile gid="37"/>
   <tile gid="37"/>
   <tile gid="40"/>
   <tile gid="31"/>
   <tile gid="31"/>
   <tile gid="39"/>
   <tile gid="32"/>
   <tile gid="32"/>
   <tile gid="32"/>
   <tile gid="32"/>
   <tile gid="32"/>
   <tile gid="35"/>
   <tile/>
   <tile/>
   <tile/>
   <tile gid="38"/>
   <tile/>
   <tile/>
   <tile/>
   <tile/>
   <tile/>
   <tile/>
   <tile/>
   <tile/>
   <tile/>
   <tile/>
   <tile/>
   <tile/>
   <tile/>
   <tile/>
   <tile/>
   <tile/>
   <tile/>
   <tile/>
   <tile/>
   <tile/>
   <tile/>
   <tile/>
   <tile/>
   <tile/>
   <tile/>
   <tile/>
   <tile gid="36"/>
   <tile gid="37"/>
   <tile gid="37"/>
   <tile gid="31"/>
   <tile gid="31"/>
   <tile gid="37"/>
   <tile gid="37"/>
   <tile gid="37"/>
   <tile gid="31"/>
   <tile gid="39"/>
   <tile gid="37"/>
   <tile gid="37"/>
   <tile gid="38"/>
   <tile/>
   <tile/>
   <tile/>
   <tile/>
   <tile/>
   <tile/>
   <tile/>
   <tile/>
   <tile/>
   <tile/>
   <tile/>
   <tile/>
   <tile gid="36"/>
   <tile gid="31"/>
   <tile gid="38"/>
   <tile/>
   <tile/>
   <tile/>
   <tile/>
   <tile gid="36"/>
   <tile gid="39"/>
   <tile gid="38"/>
   <tile/>
   <tile/>
   <tile/>
   <tile/>
   <tile gid="36"/>
   <tile gid="37"/>
   <tile gid="38"/>
   <tile/>
   <tile/>
   <tile/>
   <tile/>
   <tile gid="36"/>
   <tile gid="32"/>
   <tile gid="38"/>
   <tile/>
   <tile/>
   <tile/>
   <tile/>
   <tile/>
   <tile/>
   <tile/>
   <tile/>
   <tile/>
   <tile/>
   <tile/>
   <tile/>
   <tile/>
   <tile/>
   <tile/>
   <tile/>
   <tile/>
   <tile/>
   <tile/>
   <tile/>
   <tile/>
   <tile/>
   <tile/>
   <tile/>
   <tile/>
   <tile/>
   <tile gid="36"/>
   <tile gid="39"/>
   <tile gid="38"/>
   <tile/>
   <tile/>
   <tile/>
   <tile/>
   <tile/>
   <tile/>
   <tile/>
   <tile/>
   <tile/>
   <tile/>
   <tile/>
   <tile/>
   <tile/>
   <tile/>
   <tile/>
   <tile/>
   <tile/>
   <tile/>
   <tile/>
   <tile/>
   <tile/>
   <tile/>
   <tile/>
   <tile/>
   <tile/>
   <tile/>
   <tile/>
   <tile/>
   <tile/>
   <tile/>
   <tile/>
   <tile/>
   <tile/>
   <tile gid="41"/>
   <tile gid="40"/>
   <tile gid="32"/>
   <tile gid="31"/>
   <tile gid="37"/>
   <tile gid="32"/>
   <tile gid="39"/>
   <tile gid="37"/>
   <tile gid="32"/>
   <tile gid="37"/>
   <tile gid="38"/>
   <tile/>
   <tile/>
   <tile/>
   <tile/>
   <tile gid="38"/>
   <tile/>
   <tile/>
   <tile/>
   <tile/>
   <tile/>
   <tile/>
   <tile/>
   <tile/>
   <tile/>
   <tile/>
   <tile/>
   <tile/>
   <tile/>
   <tile/>
   <tile/>
   <tile/>
   <tile/>
   <tile/>
   <tile/>
   <tile/>
   <tile/>
   <tile/>
   <tile/>
   <tile/>
   <tile/>
   <tile/>
   <tile gid="36"/>
   <tile gid="31"/>
   <tile gid="37"/>
   <tile gid="32"/>
   <tile gid="31"/>
   <tile gid="31"/>
   <tile gid="40"/>
   <tile gid="37"/>
   <tile gid="39"/>
   <tile gid="32"/>
   <tile gid="31"/>
   <tile gid="37"/>
   <tile gid="38"/>
   <tile/>
   <tile/>
   <tile/>
   <tile/>
   <tile/>
   <tile/>
   <tile/>
   <tile/>
   <tile/>
   <tile/>
   <tile/>
   <tile/>
   <tile gid="36"/>
   <tile gid="40"/>
   <tile gid="38"/>
   <tile/>
   <tile/>
   <tile/>
   <tile/>
   <tile gid="36"/>
   <tile gid="31"/>
   <tile gid="38"/>
   <tile/>
   <tile/>
   <tile/>
   <tile/>
   <tile gid="36"/>
   <tile gid="39"/>
   <tile gid="38"/>
   <tile/>
   <tile/>
   <tile/>
   <tile/>
   <tile gid="36"/>
   <tile gid="32"/>
   <tile gid="38"/>
   <tile/>
   <tile/>
   <tile/>
   <tile/>
   <tile/>
   <tile/>
   <tile/>
   <tile/>
   <tile/>
   <tile/>
   <tile/>
   <tile/>
   <tile/>
   <tile/>
   <tile/>
   <tile/>
   <tile/>
   <tile/>
   <tile/>
   <tile/>
   <tile/>
   <tile/>
   <tile/>
   <tile/>
   <tile/>
   <tile/>
   <tile gid="36"/>
   <tile gid="39"/>
   <tile gid="38"/>
   <tile/>
   <tile/>
   <tile/>
   <tile/>
   <tile/>
   <tile/>
   <tile/>
   <tile/>
   <tile/>
   <tile/>
   <tile/>
   <tile/>
   <tile/>
   <tile/>
   <tile/>
   <tile/>
   <tile/>
   <tile/>
   <tile/>
   <tile/>
   <tile/>
   <tile/>
   <tile/>
   <tile/>
   <tile/>
   <tile/>
   <tile/>
   <tile/>
   <tile/>
   <tile/>
   <tile/>
   <tile/>
   <tile/>
   <tile/>
   <tile gid="41"/>
   <tile gid="32"/>
   <tile gid="37"/>
   <tile gid="40"/>
   <tile gid="32"/>
   <tile gid="32"/>
   <tile gid="32"/>
   <tile gid="39"/>
   <tile gid="31"/>
   <tile gid="38"/>
   <tile/>
   <tile/>
   <tile/>
   <tile gid="33"/>
   <tile gid="2147483655"/>
   <tile gid="29"/>
   <tile gid="29"/>
   <tile gid="29"/>
   <tile gid="30"/>
   <tile/>
   <tile/>
   <tile/>
   <tile/>
   <tile/>
   <tile/>
   <tile/>
   <tile/>
   <tile/>
   <tile/>
   <tile/>
   <tile/>
   <tile/>
   <tile/>
   <tile/>
   <tile/>
   <tile/>
   <tile/>
   <tile/>
   <tile/>
   <tile/>
   <tile/>
   <tile gid="36"/>
   <tile gid="40"/>
   <tile gid="32"/>
   <tile gid="39"/>
   <tile gid="40"/>
   <tile gid="37"/>
   <tile gid="31"/>
   <tile gid="40"/>
   <tile gid="40"/>
   <tile gid="37"/>
   <tile gid="40"/>
   <tile gid="37"/>
   <tile gid="38"/>
   <tile/>
   <tile/>
   <tile/>
   <tile/>
   <tile/>
   <tile/>
   <tile/>
   <tile/>
   <tile/>
   <tile/>
   <tile/>
   <tile/>
   <tile gid="36"/>
   <tile gid="37"/>
   <tile gid="38"/>
   <tile/>
   <tile/>
   <tile/>
   <tile/>
   <tile gid="36"/>
   <tile gid="37"/>
   <tile gid="38"/>
   <tile/>
   <tile/>
   <tile/>
   <tile/>
   <tile gid="36"/>
   <tile gid="31"/>
   <tile gid="38"/>
   <tile/>
   <tile/>
   <tile/>
   <tile/>
   <tile gid="36"/>
   <tile gid="37"/>
   <tile gid="38"/>
   <tile/>
   <tile/>
   <tile/>
   <tile/>
   <tile/>
   <tile/>
   <tile/>
   <tile/>
   <tile/>
   <tile/>
   <tile/>
   <tile/>
   <tile/>
   <tile/>
   <tile/>
   <tile/>
   <tile/>
   <tile/>
   <tile/>
   <tile/>
   <tile/>
   <tile/>
   <tile/>
   <tile/>
   <tile/>
   <tile/>
   <tile gid="36"/>
   <tile gid="37"/>
   <tile gid="38"/>
   <tile/>
   <tile/>
   <tile/>
   <tile/>
   <tile/>
   <tile/>
   <tile/>
   <tile/>
   <tile/>
   <tile/>
   <tile/>
   <tile/>
   <tile/>
   <tile/>
   <tile/>
   <tile/>
   <tile/>
   <tile/>
   <tile/>
   <tile/>
   <tile/>
   <tile/>
   <tile/>
   <tile/>
   <tile/>
   <tile/>
   <tile/>
   <tile/>
   <tile/>
   <tile/>
   <tile/>
   <tile/>
   <tile/>
   <tile/>
   <tile/>
   <tile gid="41"/>
   <tile gid="32"/>
   <tile gid="32"/>
   <tile gid="32"/>
   <tile gid="40"/>
   <tile gid="32"/>
   <tile gid="32"/>
   <tile gid="32"/>
   <tile gid="38"/>
   <tile/>
   <tile/>
   <tile/>
   <tile/>
   <tile gid="2147483686"/>
   <tile gid="32"/>
   <tile gid="32"/>
   <tile gid="37"/>
   <tile gid="35"/>
   <tile/>
   <tile/>
   <tile/>
   <tile/>
   <tile/>
   <tile/>
   <tile/>
   <tile/>
   <tile/>
   <tile/>
   <tile/>
   <tile gid="20"/>
   <tile gid="21"/>
   <tile gid="22"/>
   <tile/>
   <tile/>
   <tile/>
   <tile/>
   <tile/>
   <tile/>
   <tile/>
   <tile/>
   <tile gid="36"/>
   <tile gid="39"/>
   <tile gid="40"/>
   <tile gid="40"/>
   <tile gid="39"/>
   <tile gid="32"/>
   <tile gid="37"/>
   <tile gid="39"/>
   <tile gid="37"/>
   <tile gid="32"/>
   <tile gid="31"/>
   <tile gid="37"/>
   <tile gid="38"/>
   <tile/>
   <tile/>
   <tile/>
   <tile/>
   <tile/>
   <tile/>
   <tile/>
   <tile/>
   <tile/>
   <tile/>
   <tile/>
   <tile/>
   <tile gid="36"/>
   <tile gid="32"/>
   <tile gid="38"/>
   <tile/>
   <tile/>
   <tile/>
   <tile/>
   <tile gid="36"/>
   <tile gid="39"/>
   <tile gid="38"/>
   <tile/>
   <tile/>
   <tile/>
   <tile/>
   <tile gid="36"/>
   <tile gid="31"/>
   <tile gid="38"/>
   <tile/>
   <tile/>
   <tile/>
   <tile/>
   <tile gid="36"/>
   <tile gid="40"/>
   <tile gid="38"/>
   <tile/>
   <tile/>
   <tile/>
   <tile/>
   <tile/>
   <tile/>
   <tile/>
   <tile/>
   <tile/>
   <tile/>
   <tile/>
   <tile/>
   <tile/>
   <tile/>
   <tile/>
   <tile/>
   <tile/>
   <tile/>
   <tile/>
   <tile/>
   <tile/>
   <tile/>
   <tile/>
   <tile/>
   <tile/>
   <tile/>
   <tile gid="36"/>
   <tile gid="39"/>
   <tile gid="38"/>
   <tile/>
   <tile/>
   <tile/>
   <tile/>
   <tile/>
   <tile/>
   <tile/>
   <tile/>
   <tile/>
   <tile/>
   <tile/>
   <tile/>
   <tile/>
   <tile/>
   <tile/>
   <tile/>
   <tile/>
   <tile/>
   <tile/>
   <tile/>
   <tile/>
   <tile/>
   <tile/>
   <tile/>
   <tile/>
   <tile/>
   <tile/>
   <tile/>
   <tile/>
   <tile/>
   <tile/>
   <tile/>
   <tile/>
   <tile/>
   <tile/>
   <tile/>
   <tile gid="33"/>
   <tile gid="40"/>
   <tile gid="39"/>
   <tile gid="40"/>
   <tile gid="39"/>
   <tile gid="32"/>
   <tile gid="32"/>
   <tile gid="38"/>
   <tile/>
   <tile/>
   <tile/>
   <tile/>
   <tile gid="2147483686"/>
   <tile gid="32"/>
   <tile gid="37"/>
   <tile gid="35"/>
   <tile/>
   <tile/>
   <tile/>
   <tile/>
   <tile/>
   <tile/>
   <tile/>
   <tile/>
   <tile/>
   <tile/>
   <tile/>
   <tile/>
   <tile/>
   <tile/>
   <tile/>
   <tile/>
   <tile/>
   <tile/>
   <tile/>
   <tile/>
   <tile/>
   <tile/>
   <tile/>
   <tile gid="36"/>
   <tile gid="40"/>
   <tile gid="31"/>
   <tile gid="40"/>
   <tile gid="39"/>
   <tile gid="31"/>
   <tile gid="40"/>
   <tile gid="40"/>
   <tile gid="39"/>
   <tile gid="31"/>
   <tile gid="40"/>
   <tile gid="37"/>
   <tile gid="38"/>
   <tile/>
   <tile/>
   <tile/>
   <tile/>
   <tile/>
   <tile/>
   <tile/>
   <tile/>
   <tile/>
   <tile/>
   <tile/>
   <tile/>
   <tile gid="1073741852"/>
   <tile gid="3221225496"/>
   <tile gid="1073741854"/>
   <tile/>
   <tile/>
   <tile/>
   <tile/>
   <tile gid="36"/>
   <tile gid="40"/>
   <tile gid="38"/>
   <tile/>
   <tile/>
   <tile/>
   <tile/>
   <tile gid="36"/>
   <tile gid="37"/>
   <tile gid="38"/>
   <tile/>
   <tile/>
   <tile/>
   <tile/>
   <tile gid="36"/>
   <tile gid="32"/>
   <tile gid="38"/>
   <tile/>
   <tile/>
   <tile/>
   <tile/>
   <tile/>
   <tile/>
   <tile/>
   <tile/>
   <tile/>
   <tile/>
   <tile/>
   <tile/>
   <tile/>
   <tile/>
   <tile/>
   <tile/>
   <tile/>
   <tile/>
   <tile/>
   <tile/>
   <tile/>
   <tile/>
   <tile/>
   <tile/>
   <tile/>
   <tile/>
   <tile gid="36"/>
   <tile gid="40"/>
   <tile gid="38"/>
   <tile/>
   <tile/>
   <tile/>
   <tile/>
   <tile/>
   <tile/>
   <tile/>
   <tile/>
   <tile/>
   <tile/>
   <tile/>
   <tile/>
   <tile/>
   <tile/>
   <tile/>
   <tile/>
   <tile/>
   <tile/>
   <tile/>
   <tile/>
   <tile/>
   <tile/>
   <tile/>
   <tile/>
   <tile/>
   <tile/>
   <tile/>
   <tile/>
   <tile/>
   <tile/>
   <tile/>
   <tile/>
   <tile/>
   <tile/>
   <tile/>
   <tile/>
   <tile/>
   <tile gid="41"/>
   <tile gid="40"/>
   <tile gid="39"/>
   <tile gid="31"/>
   <tile gid="37"/>
   <tile gid="37"/>
   <tile gid="39"/>
   <tile gid="43"/>
   <tile/>
   <tile/>
   <tile/>
   <tile gid="2147483686"/>
   <tile gid="37"/>
   <tile gid="35"/>
   <tile/>
   <tile/>
   <tile/>
   <tile/>
   <tile/>
   <tile/>
   <tile/>
   <tile/>
   <tile/>
   <tile/>
   <tile/>
   <tile/>
   <tile/>
   <tile/>
   <tile/>
   <tile/>
   <tile/>
   <tile/>
   <tile/>
   <tile/>
   <tile/>
   <tile/>
   <tile/>
   <tile/>
   <tile gid="36"/>
   <tile gid="39"/>
   <tile gid="40"/>
   <tile gid="39"/>
   <tile gid="32"/>
   <tile gid="40"/>
   <tile gid="39"/>
   <tile gid="37"/>
   <tile gid="37"/>
   <tile gid="32"/>
   <tile gid="39"/>
   <tile gid="37"/>
   <tile gid="37"/>
   <tile/>
   <tile/>
   <tile/>
   <tile/>
   <tile/>
   <tile/>
   <tile/>
   <tile/>
   <tile/>
   <tile/>
   <tile/>
   <tile/>
   <tile gid="3221225541"/>
   <tile gid="3221225540"/>
   <tile gid="3221225539"/>
   <tile/>
   <tile/>
   <tile/>
   <tile/>
   <tile gid="36"/>
   <tile gid="37"/>
   <tile gid="38"/>
   <tile/>
   <tile/>
   <tile/>
   <tile/>
   <tile gid="36"/>
   <tile gid="37"/>
   <tile gid="38"/>
   <tile/>
   <tile/>
   <tile/>
   <tile/>
   <tile gid="1073741852"/>
   <tile gid="3221225496"/>
   <tile gid="1073741854"/>
   <tile/>
   <tile/>
   <tile/>
   <tile/>
   <tile/>
   <tile/>
   <tile/>
   <tile/>
   <tile/>
   <tile/>
   <tile/>
   <tile/>
   <tile/>
   <tile/>
   <tile/>
   <tile/>
   <tile/>
   <tile/>
   <tile/>
   <tile/>
   <tile/>
   <tile/>
   <tile/>
   <tile/>
   <tile/>
   <tile/>
   <tile gid="36"/>
   <tile gid="32"/>
   <tile gid="38"/>
   <tile/>
   <tile/>
   <tile/>
   <tile/>
   <tile/>
   <tile/>
   <tile/>
   <tile/>
   <tile/>
   <tile/>
   <tile/>
   <tile/>
   <tile/>
   <tile/>
   <tile/>
   <tile/>
   <tile/>
   <tile/>
   <tile/>
   <tile/>
   <tile/>
   <tile/>
   <tile/>
   <tile/>
   <tile/>
   <tile/>
   <tile/>
   <tile/>
   <tile/>
   <tile/>
   <tile/>
   <tile/>
   <tile/>
   <tile/>
   <tile/>
   <tile/>
   <tile/>
   <tile/>
   <tile gid="1073741852"/>
   <tile gid="3221225501"/>
   <tile gid="3221225496"/>
   <tile gid="3221225501"/>
   <tile gid="3221225496"/>
   <tile gid="1073741854"/>
   <tile/>
   <tile/>
   <tile/>
   <tile/>
   <tile gid="2147483686"/>
   <tile gid="38"/>
   <tile/>
   <tile/>
   <tile/>
   <tile/>
   <tile/>
   <tile gid="20"/>
   <tile gid="21"/>
   <tile gid="22"/>
   <tile/>
   <tile/>
   <tile/>
   <tile/>
   <tile/>
   <tile/>
   <tile/>
   <tile/>
   <tile/>
   <tile/>
   <tile gid="20"/>
   <tile gid="21"/>
   <tile gid="22"/>
   <tile/>
   <tile/>
   <tile/>
   <tile/>
   <tile gid="36"/>
   <tile gid="31"/>
   <tile gid="40"/>
   <tile gid="37"/>
   <tile gid="32"/>
   <tile gid="32"/>
   <tile gid="32"/>
   <tile gid="32"/>
   <tile gid="32"/>
   <tile gid="32"/>
   <tile gid="39"/>
   <tile gid="37"/>
   <tile gid="35"/>
   <tile/>
   <tile/>
   <tile/>
   <tile/>
   <tile/>
   <tile/>
   <tile/>
   <tile/>
   <tile/>
   <tile/>
   <tile/>
   <tile/>
   <tile/>
   <tile/>
   <tile/>
   <tile/>
   <tile/>
   <tile/>
   <tile/>
   <tile gid="36"/>
   <tile gid="40"/>
   <tile gid="38"/>
   <tile/>
   <tile/>
   <tile/>
   <tile/>
   <tile gid="36"/>
   <tile gid="37"/>
   <tile gid="38"/>
   <tile/>
   <tile/>
   <tile/>
   <tile/>
   <tile/>
   <tile/>
   <tile/>
   <tile/>
   <tile/>
   <tile/>
   <tile/>
   <tile/>
   <tile/>
   <tile/>
   <tile/>
   <tile/>
   <tile/>
   <tile/>
   <tile/>
   <tile/>
   <tile/>
   <tile/>
   <tile/>
   <tile/>
   <tile/>
   <tile/>
   <tile/>
   <tile/>
   <tile/>
   <tile/>
   <tile/>
   <tile/>
   <tile/>
   <tile gid="36"/>
   <tile gid="39"/>
   <tile gid="38"/>
   <tile/>
   <tile/>
   <tile/>
   <tile/>
   <tile/>
   <tile/>
   <tile/>
   <tile/>
   <tile/>
   <tile/>
   <tile/>
   <tile/>
   <tile/>
   <tile/>
   <tile/>
   <tile/>
   <tile/>
   <tile/>
   <tile/>
   <tile/>
   <tile/>
   <tile/>
   <tile/>
   <tile/>
   <tile/>
   <tile/>
   <tile/>
   <tile/>
   <tile/>
   <tile/>
   <tile/>
   <tile/>
   <tile/>
   <tile/>
   <tile/>
   <tile/>
   <tile/>
   <tile/>
   <tile/>
   <tile/>
   <tile/>
   <tile/>
   <tile/>
   <tile/>
   <tile/>
   <tile/>
   <tile/>
   <tile gid="41"/>
   <tile gid="45"/>
   <tile gid="35"/>
   <tile/>
   <tile/>
   <tile/>
   <tile/>
   <tile/>
   <tile/>
   <tile/>
   <tile/>
   <tile/>
   <tile/>
   <tile/>
   <tile/>
   <tile/>
   <tile/>
   <tile/>
   <tile/>
   <tile/>
   <tile/>
   <tile/>
   <tile/>
   <tile/>
   <tile/>
   <tile/>
   <tile gid="2"/>
   <tile gid="4"/>
   <tile gid="7"/>
   <tile gid="39"/>
   <tile gid="32"/>
   <tile gid="40"/>
   <tile gid="40"/>
   <tile gid="40"/>
   <tile gid="32"/>
   <tile gid="32"/>
   <tile gid="37"/>
   <tile gid="37"/>
   <tile gid="39"/>
   <tile gid="43"/>
   <tile/>
   <tile/>
   <tile/>
   <tile/>
   <tile/>
   <tile/>
   <tile/>
   <tile/>
   <tile gid="52"/>
   <tile/>
   <tile/>
   <tile/>
   <tile/>
   <tile/>
   <tile/>
   <tile/>
   <tile/>
   <tile/>
   <tile/>
   <tile/>
   <tile gid="36"/>
   <tile gid="39"/>
   <tile gid="38"/>
   <tile/>
   <tile/>
   <tile/>
   <tile/>
   <tile gid="1073741852"/>
   <tile gid="1073741853"/>
   <tile gid="1073741854"/>
   <tile/>
   <tile/>
   <tile/>
   <tile/>
   <tile gid="2147483700"/>
   <tile/>
   <tile/>
   <tile/>
   <tile/>
   <tile/>
   <tile/>
   <tile/>
   <tile/>
   <tile/>
   <tile/>
   <tile/>
   <tile/>
   <tile/>
   <tile/>
   <tile/>
   <tile/>
   <tile/>
   <tile/>
   <tile/>
   <tile/>
   <tile/>
   <tile/>
   <tile/>
   <tile/>
   <tile/>
   <tile/>
   <tile/>
   <tile gid="6"/>
   <tile gid="7"/>
   <tile gid="39"/>
   <tile gid="2147483655"/>
   <tile gid="2147483654"/>
   <tile/>
   <tile/>
   <tile/>
   <tile/>
   <tile/>
   <tile/>
   <tile/>
   <tile/>
   <tile/>
   <tile/>
   <tile/>
   <tile/>
   <tile/>
   <tile/>
   <tile/>
   <tile/>
   <tile/>
   <tile/>
   <tile/>
   <tile/>
   <tile/>
   <tile/>
   <tile/>
   <tile/>
   <tile/>
   <tile/>
   <tile/>
   <tile/>
   <tile/>
   <tile/>
   <tile/>
   <tile/>
   <tile/>
   <tile/>
   <tile/>
   <tile/>
   <tile/>
   <tile/>
   <tile/>
   <tile/>
   <tile/>
   <tile/>
   <tile/>
   <tile/>
   <tile/>
   <tile/>
   <tile/>
   <tile/>
   <tile/>
   <tile/>
   <tile/>
   <tile/>
   <tile/>
   <tile/>
   <tile/>
   <tile/>
   <tile/>
   <tile/>
   <tile/>
   <tile/>
   <tile/>
   <tile/>
   <tile/>
   <tile/>
   <tile/>
   <tile/>
   <tile/>
   <tile/>
   <tile/>
   <tile/>
   <tile/>
   <tile gid="28"/>
   <tile gid="1"/>
   <tile gid="32"/>
   <tile gid="37"/>
   <tile gid="39"/>
   <tile gid="31"/>
   <tile gid="32"/>
   <tile gid="40"/>
   <tile gid="32"/>
   <tile gid="32"/>
   <tile gid="31"/>
   <tile gid="39"/>
   <tile gid="39"/>
   <tile gid="43"/>
   <tile/>
   <tile/>
   <tile/>
   <tile/>
   <tile/>
   <tile/>
   <tile/>
   <tile/>
   <tile/>
   <tile gid="60"/>
   <tile/>
   <tile/>
   <tile/>
   <tile/>
   <tile gid="28"/>
   <tile gid="29"/>
   <tile gid="30"/>
   <tile/>
   <tile/>
   <tile/>
   <tile/>
   <tile gid="36"/>
   <tile gid="40"/>
   <tile gid="38"/>
   <tile/>
   <tile/>
   <tile/>
   <tile/>
   <tile gid="3221225541"/>
   <tile gid="3221225540"/>
   <tile gid="3221225539"/>
   <tile/>
   <tile/>
   <tile/>
   <tile/>
   <tile gid="2147483708"/>
   <tile/>
   <tile/>
   <tile/>
   <tile/>
   <tile/>
   <tile/>
   <tile gid="28"/>
   <tile gid="24"/>
   <tile gid="29"/>
   <tile gid="29"/>
   <tile gid="29"/>
   <tile gid="24"/>
   <tile gid="29"/>
   <tile gid="30"/>
   <tile/>
   <tile/>
   <tile/>
   <tile/>
   <tile/>
   <tile/>
   <tile/>
   <tile/>
   <tile/>
   <tile/>
   <tile/>
   <tile/>
   <tile/>
   <tile gid="1073741830"/>
   <tile gid="3221225496"/>
   <tile gid="1073741853"/>
   <tile gid="3221225496"/>
   <tile gid="3221225478"/>
   <tile/>
   <tile/>
   <tile/>
   <tile/>
   <tile/>
   <tile/>
   <tile/>
   <tile/>
   <tile/>
   <tile/>
   <tile/>
   <tile/>
   <tile/>
   <tile/>
   <tile/>
   <tile/>
   <tile/>
   <tile/>
   <tile/>
   <tile/>
   <tile/>
   <tile/>
   <tile/>
   <tile/>
   <tile/>
   <tile/>
   <tile/>
   <tile/>
   <tile/>
   <tile/>
   <tile/>
   <tile/>
   <tile/>
   <tile/>
   <tile/>
   <tile/>
   <tile/>
   <tile/>
   <tile/>
   <tile/>
   <tile/>
   <tile/>
   <tile/>
   <tile/>
   <tile/>
   <tile/>
   <tile/>
   <tile/>
   <tile/>
   <tile/>
   <tile/>
   <tile gid="52"/>
   <tile/>
   <tile/>
   <tile/>
   <tile/>
   <tile/>
   <tile/>
   <tile/>
   <tile gid="20"/>
   <tile gid="21"/>
   <tile gid="22"/>
   <tile/>
   <tile/>
   <tile/>
   <tile/>
   <tile/>
   <tile/>
   <tile/>
   <tile/>
   <tile/>
   <tile gid="36"/>
   <tile gid="32"/>
   <tile gid="32"/>
   <tile gid="39"/>
   <tile gid="39"/>
   <tile gid="31"/>
   <tile gid="37"/>
   <tile gid="40"/>
   <tile gid="39"/>
   <tile gid="40"/>
   <tile gid="32"/>
   <tile gid="45"/>
   <tile gid="43"/>
   <tile/>
   <tile/>
   <tile/>
   <tile/>
   <tile/>
   <tile/>
   <tile/>
   <tile/>
   <tile gid="2"/>
   <tile gid="4"/>
   <tile gid="30"/>
   <tile/>
   <tile/>
   <tile/>
   <tile/>
   <tile gid="36"/>
   <tile gid="32"/>
   <tile gid="38"/>
   <tile/>
   <tile/>
   <tile/>
   <tile/>
   <tile gid="1073741852"/>
   <tile gid="1073741853"/>
   <tile gid="1073741854"/>
   <tile/>
   <tile/>
   <tile/>
   <tile/>
   <tile/>
   <tile/>
   <tile/>
   <tile/>
   <tile/>
   <tile/>
   <tile/>
   <tile gid="28"/>
   <tile gid="29"/>
   <tile gid="30"/>
   <tile/>
   <tile/>
   <tile/>
   <tile/>
   <tile gid="36"/>
   <tile gid="39"/>
   <tile gid="39"/>
   <tile gid="37"/>
   <tile gid="40"/>
   <tile gid="37"/>
   <tile gid="40"/>
   <tile gid="2147483655"/>
   <tile gid="29"/>
   <tile gid="29"/>
   <tile gid="29"/>
   <tile gid="29"/>
   <tile gid="29"/>
   <tile gid="29"/>
   <tile gid="29"/>
   <tile gid="2147483652"/>
   <tile gid="2147483650"/>
   <tile/>
   <tile/>
   <tile/>
   <tile/>
   <tile/>
   <tile/>
   <tile/>
   <tile/>
   <tile/>
   <tile/>
   <tile/>
   <tile/>
   <tile/>
   <tile/>
   <tile/>
   <tile/>
   <tile/>
   <tile/>
   <tile/>
   <tile/>
   <tile/>
   <tile/>
   <tile/>
   <tile/>
   <tile/>
   <tile/>
   <tile/>
   <tile/>
   <tile gid="18"/>
   <tile/>
   <tile/>
   <tile/>
   <tile/>
   <tile/>
   <tile/>
   <tile/>
   <tile/>
   <tile/>
   <tile gid="18"/>
   <tile/>
   <tile/>
   <tile/>
   <tile/>
   <tile/>
   <tile/>
   <tile/>
   <tile/>
   <tile/>
   <tile/>
   <tile/>
   <tile/>
   <tile/>
   <tile/>
   <tile gid="28"/>
   <tile gid="30"/>
   <tile/>
   <tile/>
   <tile/>
   <tile/>
   <tile/>
   <tile gid="60"/>
   <tile/>
   <tile/>
   <tile/>
   <tile/>
   <tile/>
   <tile/>
   <tile/>
   <tile/>
   <tile/>
   <tile/>
   <tile/>
   <tile/>
   <tile/>
   <tile/>
   <tile/>
   <tile/>
   <tile/>
   <tile/>
   <tile/>
   <tile gid="41"/>
   <tile gid="45"/>
   <tile gid="45"/>
   <tile gid="45"/>
   <tile gid="45"/>
   <tile gid="45"/>
   <tile gid="45"/>
   <tile gid="45"/>
   <tile gid="45"/>
   <tile gid="45"/>
   <tile gid="35"/>
   <tile/>
   <tile/>
   <tile/>
   <tile/>
   <tile/>
   <tile/>
   <tile/>
   <tile/>
   <tile gid="2"/>
   <tile gid="4"/>
   <tile gid="1"/>
   <tile gid="37"/>
   <tile gid="38"/>
   <tile/>
   <tile/>
   <tile/>
   <tile/>
   <tile gid="36"/>
   <tile gid="39"/>
   <tile gid="38"/>
   <tile/>
   <tile/>
   <tile/>
   <tile/>
   <tile gid="3221225541"/>
   <tile gid="3221225540"/>
   <tile gid="3221225539"/>
   <tile/>
   <tile/>
   <tile/>
   <tile/>
   <tile/>
   <tile/>
   <tile/>
   <tile/>
   <tile/>
   <tile/>
   <tile/>
   <tile gid="36"/>
   <tile gid="32"/>
   <tile gid="38"/>
   <tile/>
   <tile/>
   <tile/>
   <tile/>
   <tile gid="33"/>
   <tile gid="45"/>
   <tile gid="45"/>
   <tile gid="45"/>
   <tile gid="45"/>
   <tile gid="45"/>
   <tile gid="45"/>
   <tile gid="45"/>
   <tile gid="45"/>
   <tile gid="45"/>
   <tile gid="45"/>
   <tile gid="45"/>
   <tile gid="45"/>
   <tile gid="45"/>
   <tile gid="39"/>
   <tile gid="37"/>
   <tile gid="2147483649"/>
   <tile gid="2147483652"/>
   <tile gid="2147483650"/>
   <tile/>
   <tile/>
   <tile/>
   <tile/>
   <tile/>
   <tile/>
   <tile/>
   <tile/>
   <tile/>
   <tile/>
   <tile/>
   <tile/>
   <tile/>
   <tile gid="29"/>
   <tile gid="24"/>
   <tile gid="24"/>
   <tile gid="29"/>
   <tile gid="29"/>
   <tile gid="24"/>
   <tile gid="24"/>
   <tile gid="24"/>
   <tile gid="29"/>
   <tile gid="29"/>
   <tile gid="2147483652"/>
   <tile gid="2147483650"/>
   <tile/>
   <tile/>
   <tile/>
   <tile/>
   <tile/>
   <tile/>
   <tile/>
   <tile/>
   <tile/>
   <tile/>
   <tile/>
   <tile/>
   <tile/>
   <tile gid="2"/>
   <tile gid="4"/>
   <tile gid="29"/>
   <tile gid="24"/>
   <tile gid="29"/>
   <tile gid="29"/>
   <tile gid="29"/>
   <tile gid="24"/>
   <tile gid="24"/>
   <tile gid="24"/>
   <tile gid="29"/>
   <tile gid="29"/>
   <tile gid="29"/>
   <tile gid="32"/>
   <tile gid="2147483655"/>
   <tile gid="29"/>
   <tile gid="24"/>
   <tile gid="29"/>
   <tile gid="24"/>
   <tile gid="29"/>
   <tile gid="30"/>
   <tile/>
   <tile/>
   <tile/>
   <tile/>
   <tile/>
   <tile/>
   <tile/>
   <tile/>
   <tile/>
   <tile/>
   <tile/>
   <tile/>
   <tile/>
   <tile/>
   <tile/>
   <tile/>
   <tile/>
   <tile gid="2147483700"/>
   <tile/>
   <tile/>
   <tile/>
   <tile/>
   <tile/>
   <tile/>
   <tile/>
   <tile/>
   <tile/>
   <tile/>
   <tile/>
   <tile/>
   <tile/>
   <tile/>
   <tile/>
   <tile/>
   <tile/>
   <tile/>
   <tile gid="2"/>
   <tile gid="4"/>
   <tile gid="1"/>
   <tile gid="37"/>
   <tile gid="32"/>
   <tile gid="39"/>
   <tile gid="38"/>
   <tile/>
   <tile/>
   <tile/>
   <tile/>
   <tile gid="36"/>
   <tile gid="31"/>
   <tile gid="38"/>
   <tile/>
   <tile/>
   <tile/>
   <tile/>
   <tile/>
   <tile/>
   <tile/>
   <tile/>
   <tile/>
   <tile/>
   <tile/>
   <tile gid="28"/>
   <tile gid="2147483672"/>
   <tile gid="30"/>
   <tile/>
   <tile/>
   <tile/>
   <tile/>
   <tile gid="36"/>
   <tile gid="39"/>
   <tile gid="38"/>
   <tile/>
   <tile/>
   <tile/>
   <tile/>
   <tile/>
   <tile/>
   <tile/>
   <tile/>
   <tile/>
   <tile/>
   <tile/>
   <tile/>
   <tile/>
   <tile/>
   <tile/>
   <tile/>
   <tile/>
   <tile/>
   <tile gid="33"/>
   <tile gid="37"/>
   <tile gid="37"/>
   <tile gid="37"/>
   <tile gid="2147483649"/>
   <tile gid="29"/>
   <tile gid="30"/>
   <tile gid="89"/>
   <tile gid="90"/>
   <tile gid="91"/>
   <tile gid="92"/>
   <tile gid="93"/>
   <tile gid="28"/>
   <tile gid="29"/>
   <tile gid="29"/>
   <tile gid="29"/>
   <tile gid="29"/>
   <tile gid="29"/>
   <tile gid="37"/>
   <tile gid="37"/>
   <tile gid="39"/>
   <tile gid="40"/>
   <tile gid="39"/>
   <tile gid="37"/>
   <tile gid="40"/>
   <tile gid="32"/>
   <tile gid="37"/>
   <tile gid="37"/>
   <tile gid="39"/>
   <tile gid="2147483649"/>
   <tile/>
   <tile/>
   <tile/>
   <tile/>
   <tile/>
   <tile/>
   <tile/>
   <tile/>
   <tile/>
   <tile/>
   <tile/>
   <tile/>
   <tile/>
   <tile gid="1"/>
   <tile gid="31"/>
   <tile gid="40"/>
   <tile gid="31"/>
   <tile gid="39"/>
   <tile gid="37"/>
   <tile gid="31"/>
   <tile gid="37"/>
   <tile gid="37"/>
   <tile gid="32"/>
   <tile gid="32"/>
   <tile gid="37"/>
   <tile gid="37"/>
   <tile gid="32"/>
   <tile gid="32"/>
   <tile gid="32"/>
   <tile gid="37"/>
   <tile gid="37"/>
   <tile gid="32"/>
   <tile gid="32"/>
   <tile gid="38"/>
   <tile/>
   <tile/>
   <tile gid="20"/>
   <tile gid="21"/>
   <tile gid="22"/>
   <tile/>
   <tile/>
   <tile/>
   <tile/>
   <tile/>
   <tile/>
   <tile/>
   <tile gid="20"/>
   <tile gid="21"/>
   <tile gid="22"/>
   <tile/>
   <tile/>
   <tile gid="2147483708"/>
   <tile/>
   <tile/>
   <tile/>
   <tile/>
   <tile/>
   <tile/>
   <tile/>
   <tile/>
   <tile/>
   <tile/>
   <tile/>
   <tile/>
   <tile/>
   <tile/>
   <tile/>
   <tile/>
   <tile gid="2"/>
   <tile gid="4"/>
   <tile gid="1"/>
   <tile gid="40"/>
   <tile gid="37"/>
   <tile gid="31"/>
   <tile gid="31"/>
   <tile gid="37"/>
   <tile gid="38"/>
   <tile/>
   <tile/>
   <tile/>
   <tile/>
   <tile gid="36"/>
   <tile gid="40"/>
   <tile gid="38"/>
   <tile/>
   <tile/>
   <tile/>
   <tile/>
   <tile/>
   <tile/>
   <tile/>
   <tile/>
   <tile/>
   <tile/>
   <tile/>
   <tile gid="36"/>
   <tile gid="37"/>
   <tile gid="38"/>
   <tile/>
   <tile/>
   <tile/>
   <tile/>
   <tile gid="36"/>
   <tile gid="40"/>
   <tile gid="38"/>
   <tile/>
   <tile gid="18"/>
   <tile/>
   <tile/>
   <tile/>
   <tile/>
   <tile/>
   <tile/>
   <tile/>
   <tile/>
   <tile/>
   <tile/>
   <tile/>
   <tile/>
   <tile/>
   <tile/>
   <tile/>
   <tile/>
   <tile/>
   <tile gid="33"/>
   <tile gid="37"/>
   <tile gid="37"/>
   <tile gid="37"/>
   <tile gid="37"/>
   <tile gid="2147483655"/>
   <tile gid="29"/>
   <tile gid="24"/>
   <tile gid="24"/>
   <tile gid="29"/>
   <tile gid="29"/>
   <tile gid="7"/>
   <tile gid="32"/>
   <tile gid="39"/>
   <tile gid="31"/>
   <tile gid="31"/>
   <tile gid="31"/>
   <tile gid="32"/>
   <tile gid="39"/>
   <tile gid="31"/>
   <tile gid="37"/>
   <tile gid="32"/>
   <tile gid="39"/>
   <tile gid="40"/>
   <tile gid="31"/>
   <tile gid="32"/>
   <tile gid="31"/>
   <tile gid="32"/>
   <tile gid="39"/>
   <tile/>
   <tile/>
   <tile/>
   <tile/>
   <tile/>
   <tile/>
   <tile/>
   <tile/>
   <tile/>
   <tile/>
   <tile/>
   <tile/>
   <tile/>
   <tile gid="32"/>
   <tile gid="32"/>
   <tile gid="37"/>
   <tile gid="39"/>
   <tile gid="40"/>
   <tile gid="39"/>
   <tile gid="31"/>
   <tile gid="37"/>
   <tile gid="32"/>
   <tile gid="32"/>
   <tile gid="37"/>
   <tile gid="37"/>
   <tile gid="32"/>
   <tile gid="32"/>
   <tile gid="32"/>
   <tile gid="32"/>
   <tile gid="37"/>
   <tile gid="37"/>
   <tile gid="32"/>
   <tile gid="32"/>
   <tile gid="38"/>
   <tile/>
   <tile/>
   <tile/>
   <tile/>
   <tile/>
   <tile/>
   <tile/>
   <tile/>
   <tile/>
   <tile/>
   <tile/>
   <tile/>
   <tile/>
   <tile/>
   <tile/>
   <tile/>
   <tile/>
   <tile gid="28"/>
   <tile gid="29"/>
   <tile gid="29"/>
   <tile gid="30"/>
   <tile gid="83"/>
   <tile gid="84"/>
   <tile gid="85"/>
   <tile gid="28"/>
   <tile gid="30"/>
   <tile gid="89"/>
   <tile gid="90"/>
   <tile gid="2147483738"/>
   <tile gid="93"/>
   <tile gid="28"/>
   <tile gid="24"/>
   <tile gid="24"/>
   <tile gid="29"/>
   <tile gid="1"/>
   <tile gid="32"/>
   <tile gid="32"/>
   <tile gid="39"/>
   <tile gid="37"/>
   <tile gid="40"/>
   <tile gid="31"/>
   <tile gid="39"/>
   <tile gid="38"/>
   <tile/>
   <tile/>
   <tile/>
   <tile/>
   <tile gid="36"/>
   <tile gid="32"/>
   <tile gid="38"/>
   <tile/>
   <tile/>
   <tile/>
   <tile/>
   <tile gid="28"/>
   <tile gid="2147483672"/>
   <tile gid="30"/>
   <tile/>
   <tile/>
   <tile/>
   <tile/>
   <tile gid="36"/>
   <tile gid="37"/>
   <tile gid="38"/>
   <tile/>
   <tile/>
   <tile/>
   <tile/>
   <tile gid="36"/>
   <tile gid="37"/>
   <tile gid="38"/>
   <tile/>
   <tile/>
   <tile/>
   <tile/>
   <tile/>
   <tile/>
   <tile/>
   <tile/>
   <tile/>
   <tile/>
   <tile/>
   <tile/>
   <tile/>
   <tile/>
   <tile/>
   <tile/>
   <tile/>
   <tile/>
   <tile/>
   <tile/>
   <tile gid="33"/>
   <tile gid="40"/>
   <tile gid="39"/>
   <tile gid="39"/>
   <tile gid="31"/>
   <tile gid="39"/>
   <tile gid="32"/>
   <tile gid="37"/>
   <tile gid="39"/>
   <tile gid="40"/>
   <tile gid="39"/>
   <tile gid="39"/>
   <tile gid="40"/>
   <tile gid="39"/>
   <tile gid="39"/>
   <tile gid="39"/>
   <tile gid="40"/>
   <tile gid="40"/>
   <tile gid="31"/>
   <tile gid="39"/>
   <tile gid="40"/>
   <tile gid="32"/>
   <tile gid="40"/>
   <tile gid="40"/>
   <tile gid="37"/>
   <tile gid="37"/>
   <tile gid="32"/>
   <tile gid="39"/>
   <tile/>
   <tile/>
   <tile/>
   <tile/>
   <tile/>
   <tile/>
   <tile/>
   <tile/>
   <tile/>
   <tile/>
   <tile/>
   <tile/>
   <tile/>
   <tile gid="31"/>
   <tile gid="32"/>
   <tile gid="31"/>
   <tile gid="31"/>
   <tile gid="40"/>
   <tile gid="40"/>
   <tile gid="32"/>
   <tile gid="37"/>
   <tile gid="39"/>
   <tile gid="32"/>
   <tile gid="32"/>
   <tile gid="32"/>
   <tile gid="31"/>
   <tile gid="39"/>
   <tile gid="32"/>
   <tile gid="32"/>
   <tile gid="37"/>
   <tile gid="32"/>
   <tile gid="32"/>
   <tile gid="32"/>
   <tile gid="38"/>
   <tile/>
   <tile/>
   <tile/>
   <tile/>
   <tile/>
   <tile/>
   <tile/>
   <tile gid="20"/>
   <tile gid="21"/>
   <tile gid="22"/>
   <tile/>
   <tile/>
   <tile/>
   <tile/>
   <tile/>
   <tile/>
   <tile/>
   <tile gid="36"/>
   <tile gid="37"/>
   <tile gid="37"/>
   <tile gid="39"/>
   <tile gid="29"/>
   <tile gid="29"/>
   <tile gid="29"/>
   <tile gid="39"/>
   <tile gid="39"/>
   <tile gid="29"/>
   <tile gid="29"/>
   <tile gid="29"/>
   <tile gid="29"/>
   <tile gid="31"/>
   <tile gid="40"/>
   <tile gid="31"/>
   <tile gid="39"/>
   <tile gid="32"/>
   <tile gid="40"/>
   <tile gid="37"/>
   <tile gid="40"/>
   <tile gid="32"/>
   <tile gid="37"/>
   <tile gid="37"/>
   <tile gid="37"/>
   <tile gid="38"/>
   <tile/>
   <tile/>
   <tile/>
   <tile/>
   <tile gid="36"/>
   <tile gid="31"/>
   <tile gid="38"/>
   <tile/>
   <tile/>
   <tile/>
   <tile/>
   <tile gid="36"/>
   <tile gid="39"/>
   <tile gid="38"/>
   <tile/>
   <tile/>
   <tile/>
   <tile/>
   <tile gid="36"/>
   <tile gid="37"/>
   <tile gid="38"/>
   <tile/>
   <tile/>
   <tile/>
   <tile/>
   <tile gid="36"/>
   <tile gid="37"/>
   <tile gid="38"/>
   <tile/>
   <tile/>
   <tile/>
   <tile/>
   <tile/>
   <tile/>
   <tile/>
   <tile/>
   <tile/>
   <tile/>
   <tile/>
   <tile/>
   <tile/>
   <tile/>
   <tile/>
   <tile/>
   <tile/>
   <tile/>
   <tile/>
   <tile/>
   <tile/>
   <tile gid="33"/>
   <tile gid="37"/>
   <tile gid="39"/>
   <tile gid="32"/>
   <tile gid="40"/>
   <tile gid="37"/>
   <tile gid="39"/>
   <tile gid="31"/>
   <tile gid="39"/>
   <tile gid="32"/>
   <tile gid="37"/>
   <tile gid="39"/>
   <tile gid="37"/>
   <tile gid="31"/>
   <tile gid="37"/>
   <tile gid="40"/>
   <tile gid="31"/>
   <tile gid="37"/>
   <tile gid="31"/>
   <tile gid="37"/>
   <tile gid="37"/>
   <tile gid="39"/>
   <tile gid="37"/>
   <tile gid="37"/>
   <tile gid="40"/>
   <tile gid="39"/>
   <tile gid="39"/>
   <tile/>
   <tile/>
   <tile/>
   <tile/>
   <tile/>
   <tile/>
   <tile/>
   <tile/>
   <tile/>
   <tile/>
   <tile/>
   <tile/>
   <tile/>
   <tile gid="32"/>
   <tile gid="40"/>
   <tile gid="39"/>
   <tile gid="40"/>
   <tile gid="37"/>
   <tile gid="40"/>
   <tile gid="32"/>
   <tile gid="37"/>
   <tile gid="32"/>
   <tile gid="32"/>
   <tile gid="32"/>
   <tile gid="31"/>
   <tile gid="37"/>
   <tile gid="31"/>
   <tile gid="39"/>
   <tile gid="37"/>
   <tile gid="37"/>
   <tile gid="32"/>
   <tile gid="32"/>
   <tile gid="32"/>
   <tile gid="38"/>
   <tile gid="83"/>
   <tile gid="84"/>
   <tile gid="85"/>
   <tile gid="83"/>
   <tile gid="84"/>
   <tile gid="85"/>
   <tile gid="89"/>
   <tile gid="90"/>
   <tile gid="91"/>
   <tile gid="92"/>
   <tile gid="93"/>
   <tile gid="81"/>
   <tile gid="82"/>
   <tile gid="83"/>
   <tile gid="84"/>
   <tile gid="85"/>
   <tile gid="81"/>
   <tile gid="44"/>
   <tile gid="37"/>
   <tile gid="37"/>
   <tile gid="37"/>
   <tile gid="39"/>
   <tile gid="37"/>
   <tile gid="31"/>
   <tile gid="31"/>
   <tile gid="37"/>
   <tile gid="37"/>
   <tile gid="32"/>
   <tile gid="32"/>
   <tile gid="31"/>
   <tile gid="39"/>
   <tile gid="37"/>
   <tile gid="37"/>
   <tile gid="37"/>
   <tile gid="37"/>
   <tile gid="31"/>
   <tile gid="37"/>
   <tile gid="37"/>
   <tile gid="31"/>
   <tile gid="37"/>
   <tile gid="37"/>
   <tile gid="31"/>
   <tile gid="38"/>
   <tile/>
   <tile/>
   <tile/>
   <tile/>
   <tile gid="36"/>
   <tile gid="37"/>
   <tile gid="38"/>
   <tile/>
   <tile/>
   <tile/>
   <tile/>
   <tile gid="36"/>
   <tile gid="39"/>
   <tile gid="38"/>
   <tile/>
   <tile/>
   <tile/>
   <tile/>
   <tile gid="36"/>
   <tile gid="37"/>
   <tile gid="38"/>
   <tile/>
   <tile/>
   <tile/>
   <tile/>
   <tile gid="36"/>
   <tile gid="37"/>
   <tile gid="2147483655"/>
   <tile gid="29"/>
   <tile gid="29"/>
   <tile gid="24"/>
   <tile gid="24"/>
   <tile gid="24"/>
   <tile gid="29"/>
   <tile gid="29"/>
   <tile gid="24"/>
   <tile gid="29"/>
   <tile gid="24"/>
   <tile gid="24"/>
   <tile gid="29"/>
   <tile gid="24"/>
   <tile gid="29"/>
   <tile gid="30"/>
   <tile/>
   <tile/>
   <tile/>
   <tile/>
   <tile/>
   <tile/>
   <tile/>
   <tile gid="33"/>
   <tile gid="37"/>
   <tile gid="39"/>
   <tile gid="32"/>
   <tile gid="40"/>
   <tile gid="40"/>
   <tile gid="40"/>
   <tile gid="40"/>
   <tile gid="39"/>
   <tile gid="32"/>
   <tile gid="39"/>
   <tile gid="31"/>
   <tile gid="32"/>
   <tile gid="40"/>
  </data>
 </layer>
 <layer id="51" name="Maderas" width="153" height="19">
  <data>
   <tile/>
   <tile/>
   <tile/>
   <tile/>
   <tile/>
   <tile/>
   <tile/>
   <tile/>
   <tile/>
   <tile/>
   <tile/>
   <tile/>
   <tile/>
   <tile/>
   <tile/>
   <tile/>
   <tile/>
   <tile/>
   <tile/>
   <tile/>
   <tile/>
   <tile/>
   <tile/>
   <tile/>
   <tile/>
   <tile/>
   <tile/>
   <tile/>
   <tile/>
   <tile/>
   <tile/>
   <tile/>
   <tile/>
   <tile/>
   <tile/>
   <tile/>
   <tile/>
   <tile/>
   <tile/>
   <tile/>
   <tile/>
   <tile/>
   <tile/>
   <tile/>
   <tile/>
   <tile/>
   <tile/>
   <tile/>
   <tile/>
   <tile/>
   <tile/>
   <tile/>
   <tile/>
   <tile/>
   <tile/>
   <tile/>
   <tile/>
   <tile/>
   <tile/>
   <tile/>
   <tile/>
   <tile/>
   <tile/>
   <tile/>
   <tile/>
   <tile/>
   <tile/>
   <tile/>
   <tile/>
   <tile/>
   <tile/>
   <tile/>
   <tile/>
   <tile/>
   <tile/>
   <tile/>
   <tile/>
   <tile/>
   <tile/>
   <tile/>
   <tile/>
   <tile/>
   <tile/>
   <tile/>
   <tile/>
   <tile/>
   <tile/>
   <tile/>
   <tile/>
   <tile/>
   <tile/>
   <tile/>
   <tile/>
   <tile/>
   <tile/>
   <tile/>
   <tile/>
   <tile/>
   <tile/>
   <tile/>
   <tile/>
   <tile/>
   <tile/>
   <tile/>
   <tile/>
   <tile/>
   <tile/>
   <tile/>
   <tile/>
   <tile/>
   <tile/>
   <tile/>
   <tile/>
   <tile/>
   <tile/>
   <tile/>
   <tile/>
   <tile/>
   <tile/>
   <tile/>
   <tile/>
   <tile/>
   <tile/>
   <tile/>
   <tile/>
   <tile/>
   <tile/>
   <tile/>
   <tile/>
   <tile/>
   <tile/>
   <tile/>
   <tile/>
   <tile/>
   <tile/>
   <tile/>
   <tile/>
   <tile/>
   <tile/>
   <tile/>
   <tile/>
   <tile/>
   <tile/>
   <tile/>
   <tile/>
   <tile/>
   <tile/>
   <tile/>
   <tile/>
   <tile/>
   <tile/>
   <tile/>
   <tile/>
   <tile/>
   <tile/>
   <tile/>
   <tile/>
   <tile/>
   <tile/>
   <tile/>
   <tile/>
   <tile/>
   <tile/>
   <tile/>
   <tile/>
   <tile/>
   <tile/>
   <tile/>
   <tile/>
   <tile/>
   <tile/>
   <tile/>
   <tile/>
   <tile/>
   <tile/>
   <tile/>
   <tile/>
   <tile/>
   <tile/>
   <tile/>
   <tile/>
   <tile/>
   <tile/>
   <tile/>
   <tile/>
   <tile/>
   <tile/>
   <tile/>
   <tile/>
   <tile/>
   <tile/>
   <tile/>
   <tile/>
   <tile/>
   <tile/>
   <tile/>
   <tile/>
   <tile/>
   <tile/>
   <tile/>
   <tile/>
   <tile/>
   <tile/>
   <tile/>
   <tile/>
   <tile/>
   <tile/>
   <tile/>
   <tile/>
   <tile/>
   <tile/>
   <tile/>
   <tile/>
   <tile/>
   <tile/>
   <tile/>
   <tile/>
   <tile/>
   <tile/>
   <tile/>
   <tile/>
   <tile/>
   <tile/>
   <tile/>
   <tile/>
   <tile/>
   <tile/>
   <tile/>
   <tile/>
   <tile/>
   <tile/>
   <tile/>
   <tile/>
   <tile/>
   <tile/>
   <tile/>
   <tile/>
   <tile/>
   <tile/>
   <tile/>
   <tile/>
   <tile/>
   <tile/>
   <tile/>
   <tile/>
   <tile/>
   <tile/>
   <tile/>
   <tile/>
   <tile/>
   <tile/>
   <tile/>
   <tile/>
   <tile/>
   <tile/>
   <tile/>
   <tile/>
   <tile/>
   <tile/>
   <tile/>
   <tile/>
   <tile/>
   <tile/>
   <tile/>
   <tile/>
   <tile/>
   <tile/>
   <tile/>
   <tile/>
   <tile/>
   <tile/>
   <tile/>
   <tile/>
   <tile/>
   <tile/>
   <tile/>
   <tile/>
   <tile/>
   <tile/>
   <tile/>
   <tile/>
   <tile/>
   <tile/>
   <tile/>
   <tile/>
   <tile/>
   <tile/>
   <tile/>
   <tile/>
   <tile/>
   <tile/>
   <tile/>
   <tile/>
   <tile/>
   <tile/>
   <tile/>
   <tile/>
   <tile/>
   <tile/>
   <tile/>
   <tile/>
   <tile/>
   <tile/>
   <tile/>
   <tile/>
   <tile/>
   <tile/>
   <tile/>
   <tile/>
   <tile/>
   <tile/>
   <tile/>
   <tile/>
   <tile/>
   <tile/>
   <tile/>
   <tile/>
   <tile/>
   <tile/>
   <tile/>
   <tile/>
   <tile/>
   <tile/>
   <tile/>
   <tile/>
   <tile/>
   <tile/>
   <tile/>
   <tile/>
   <tile/>
   <tile/>
   <tile/>
   <tile/>
   <tile/>
   <tile/>
   <tile/>
   <tile/>
   <tile/>
   <tile/>
   <tile/>
   <tile/>
   <tile/>
   <tile/>
   <tile/>
   <tile/>
   <tile/>
   <tile/>
   <tile/>
   <tile/>
   <tile/>
   <tile/>
   <tile/>
   <tile/>
   <tile/>
   <tile/>
   <tile/>
   <tile/>
   <tile/>
   <tile/>
   <tile/>
   <tile/>
   <tile/>
   <tile/>
   <tile/>
   <tile/>
   <tile/>
   <tile/>
   <tile/>
   <tile/>
   <tile/>
   <tile/>
   <tile/>
   <tile/>
   <tile/>
   <tile/>
   <tile/>
   <tile/>
   <tile/>
   <tile/>
   <tile/>
   <tile/>
   <tile/>
   <tile/>
   <tile/>
   <tile/>
   <tile/>
   <tile/>
   <tile/>
   <tile/>
   <tile/>
   <tile/>
   <tile/>
   <tile/>
   <tile/>
   <tile/>
   <tile/>
   <tile/>
   <tile/>
   <tile/>
   <tile/>
   <tile/>
   <tile/>
   <tile/>
   <tile/>
   <tile/>
   <tile/>
   <tile/>
   <tile/>
   <tile/>
   <tile/>
   <tile/>
   <tile/>
   <tile/>
   <tile/>
   <tile/>
   <tile/>
   <tile/>
   <tile/>
   <tile/>
   <tile/>
   <tile/>
   <tile/>
   <tile/>
   <tile/>
   <tile/>
   <tile/>
   <tile/>
   <tile/>
   <tile/>
   <tile/>
   <tile/>
   <tile/>
   <tile/>
   <tile/>
   <tile/>
   <tile/>
   <tile/>
   <tile/>
   <tile/>
   <tile/>
   <tile/>
   <tile/>
   <tile/>
   <tile/>
   <tile/>
   <tile/>
   <tile/>
   <tile/>
   <tile/>
   <tile/>
   <tile/>
   <tile/>
   <tile/>
   <tile/>
   <tile/>
   <tile/>
   <tile/>
   <tile/>
   <tile/>
   <tile/>
   <tile/>
   <tile/>
   <tile/>
   <tile/>
   <tile/>
   <tile/>
   <tile/>
   <tile/>
   <tile/>
   <tile/>
   <tile/>
   <tile/>
   <tile/>
   <tile/>
   <tile/>
   <tile/>
   <tile/>
   <tile/>
   <tile/>
   <tile/>
   <tile/>
   <tile/>
   <tile/>
   <tile/>
   <tile/>
   <tile/>
   <tile/>
   <tile/>
   <tile/>
   <tile/>
   <tile/>
   <tile/>
   <tile/>
   <tile/>
   <tile/>
   <tile/>
   <tile gid="18"/>
   <tile/>
   <tile/>
   <tile/>
   <tile/>
   <tile/>
   <tile/>
   <tile/>
   <tile/>
   <tile/>
   <tile/>
   <tile/>
   <tile/>
   <tile/>
   <tile/>
   <tile/>
   <tile/>
   <tile/>
   <tile/>
   <tile/>
   <tile/>
   <tile/>
   <tile/>
   <tile/>
   <tile/>
   <tile/>
   <tile/>
   <tile/>
   <tile/>
   <tile/>
   <tile/>
   <tile/>
   <tile/>
   <tile/>
   <tile/>
   <tile/>
   <tile/>
   <tile/>
   <tile/>
   <tile/>
   <tile/>
   <tile/>
   <tile/>
   <tile/>
   <tile/>
   <tile/>
   <tile/>
   <tile/>
   <tile/>
   <tile/>
   <tile/>
   <tile/>
   <tile/>
   <tile/>
   <tile/>
   <tile/>
   <tile/>
   <tile/>
   <tile/>
   <tile/>
   <tile/>
   <tile/>
   <tile/>
   <tile/>
   <tile/>
   <tile/>
   <tile/>
   <tile/>
   <tile/>
   <tile/>
   <tile/>
   <tile/>
   <tile/>
   <tile/>
   <tile/>
   <tile/>
   <tile/>
   <tile/>
   <tile/>
   <tile/>
   <tile/>
   <tile/>
   <tile/>
   <tile/>
   <tile/>
   <tile/>
   <tile/>
   <tile/>
   <tile/>
   <tile/>
   <tile/>
   <tile/>
   <tile/>
   <tile/>
   <tile/>
   <tile/>
   <tile/>
   <tile/>
   <tile/>
   <tile/>
   <tile/>
   <tile/>
   <tile/>
   <tile/>
   <tile/>
   <tile/>
   <tile/>
   <tile/>
   <tile/>
   <tile/>
   <tile/>
   <tile/>
   <tile/>
   <tile/>
   <tile/>
   <tile/>
   <tile/>
   <tile/>
   <tile/>
   <tile/>
   <tile/>
   <tile/>
   <tile/>
   <tile/>
   <tile/>
   <tile/>
   <tile/>
   <tile/>
   <tile/>
   <tile/>
   <tile/>
   <tile/>
   <tile/>
   <tile/>
   <tile/>
   <tile/>
   <tile/>
   <tile/>
   <tile/>
   <tile/>
   <tile/>
   <tile/>
   <tile/>
   <tile/>
   <tile/>
   <tile/>
   <tile/>
   <tile/>
   <tile/>
   <tile/>
   <tile/>
   <tile/>
   <tile/>
   <tile/>
   <tile/>
   <tile/>
   <tile/>
   <tile/>
   <tile/>
   <tile/>
   <tile/>
   <tile/>
   <tile/>
   <tile/>
   <tile/>
   <tile/>
   <tile/>
   <tile/>
   <tile/>
   <tile/>
   <tile/>
   <tile/>
   <tile/>
   <tile/>
   <tile/>
   <tile/>
   <tile/>
   <tile/>
   <tile/>
   <tile/>
   <tile/>
   <tile/>
   <tile/>
   <tile/>
   <tile/>
   <tile/>
   <tile/>
   <tile/>
   <tile/>
   <tile/>
   <tile/>
   <tile/>
   <tile/>
   <tile/>
   <tile/>
   <tile/>
   <tile/>
   <tile/>
   <tile/>
   <tile/>
   <tile/>
   <tile/>
   <tile/>
   <tile/>
   <tile/>
   <tile/>
   <tile/>
   <tile/>
   <tile/>
   <tile/>
   <tile/>
   <tile/>
   <tile/>
   <tile/>
   <tile/>
   <tile/>
   <tile/>
   <tile/>
   <tile/>
   <tile/>
   <tile/>
   <tile/>
   <tile/>
   <tile/>
   <tile/>
   <tile/>
   <tile/>
   <tile/>
   <tile/>
   <tile/>
   <tile/>
   <tile/>
   <tile/>
   <tile/>
   <tile/>
   <tile/>
   <tile/>
   <tile/>
   <tile/>
   <tile/>
   <tile/>
   <tile/>
   <tile/>
   <tile/>
   <tile/>
   <tile/>
   <tile/>
   <tile/>
   <tile/>
   <tile/>
   <tile/>
   <tile/>
   <tile/>
   <tile/>
   <tile/>
   <tile/>
   <tile/>
   <tile/>
   <tile/>
   <tile/>
   <tile/>
   <tile/>
   <tile/>
   <tile/>
   <tile/>
   <tile/>
   <tile/>
   <tile/>
   <tile/>
   <tile/>
   <tile/>
   <tile/>
   <tile/>
   <tile/>
   <tile/>
   <tile/>
   <tile/>
   <tile/>
   <tile/>
   <tile/>
   <tile/>
   <tile/>
   <tile/>
   <tile/>
   <tile/>
   <tile/>
   <tile/>
   <tile/>
   <tile/>
   <tile/>
   <tile/>
   <tile/>
   <tile/>
   <tile/>
   <tile/>
   <tile/>
   <tile/>
   <tile/>
   <tile/>
   <tile/>
   <tile/>
   <tile/>
   <tile/>
   <tile/>
   <tile/>
   <tile/>
   <tile/>
   <tile/>
   <tile/>
   <tile gid="18"/>
   <tile/>
   <tile/>
   <tile/>
   <tile/>
   <tile/>
   <tile/>
   <tile/>
   <tile/>
   <tile/>
   <tile/>
   <tile/>
   <tile/>
   <tile/>
   <tile/>
   <tile/>
   <tile/>
   <tile/>
   <tile/>
   <tile/>
   <tile/>
   <tile/>
   <tile/>
   <tile/>
   <tile/>
   <tile/>
   <tile/>
   <tile/>
   <tile/>
   <tile/>
   <tile/>
   <tile/>
   <tile/>
   <tile/>
   <tile/>
   <tile/>
   <tile/>
   <tile/>
   <tile/>
   <tile/>
   <tile/>
   <tile/>
   <tile/>
   <tile/>
   <tile/>
   <tile/>
   <tile/>
   <tile/>
   <tile/>
   <tile/>
   <tile/>
   <tile/>
   <tile/>
   <tile/>
   <tile/>
   <tile/>
   <tile/>
   <tile/>
   <tile/>
   <tile/>
   <tile/>
   <tile/>
   <tile/>
   <tile/>
   <tile/>
   <tile/>
   <tile/>
   <tile/>
   <tile/>
   <tile/>
   <tile/>
   <tile/>
   <tile/>
   <tile/>
   <tile/>
   <tile/>
   <tile/>
   <tile/>
   <tile/>
   <tile/>
   <tile/>
   <tile/>
   <tile/>
   <tile/>
   <tile/>
   <tile/>
   <tile/>
   <tile/>
   <tile/>
   <tile/>
   <tile/>
   <tile/>
   <tile/>
   <tile/>
   <tile/>
   <tile/>
   <tile/>
   <tile/>
   <tile/>
   <tile/>
   <tile/>
   <tile/>
   <tile/>
   <tile/>
   <tile/>
   <tile/>
   <tile/>
   <tile/>
   <tile/>
   <tile/>
   <tile/>
   <tile/>
   <tile/>
   <tile/>
   <tile/>
   <tile/>
   <tile/>
   <tile/>
   <tile/>
   <tile/>
   <tile/>
   <tile/>
   <tile/>
   <tile/>
   <tile/>
   <tile/>
   <tile/>
   <tile/>
   <tile/>
   <tile/>
   <tile/>
   <tile/>
   <tile/>
   <tile/>
   <tile/>
   <tile/>
   <tile/>
   <tile/>
   <tile/>
   <tile/>
   <tile/>
   <tile/>
   <tile/>
   <tile/>
   <tile/>
   <tile/>
   <tile/>
   <tile/>
   <tile/>
   <tile/>
   <tile/>
   <tile/>
   <tile/>
   <tile/>
   <tile/>
   <tile/>
   <tile/>
   <tile/>
   <tile/>
   <tile/>
   <tile/>
   <tile/>
   <tile/>
   <tile/>
   <tile/>
   <tile/>
   <tile/>
   <tile/>
   <tile/>
   <tile/>
   <tile/>
   <tile/>
   <tile/>
   <tile/>
   <tile/>
   <tile/>
   <tile/>
   <tile/>
   <tile/>
   <tile/>
   <tile/>
   <tile/>
   <tile/>
   <tile/>
   <tile/>
   <tile/>
   <tile/>
   <tile/>
   <tile/>
   <tile/>
   <tile/>
   <tile/>
   <tile/>
   <tile/>
   <tile/>
   <tile/>
   <tile/>
   <tile/>
   <tile/>
   <tile/>
   <tile/>
   <tile/>
   <tile/>
   <tile/>
   <tile/>
   <tile/>
   <tile/>
   <tile/>
   <tile/>
   <tile/>
   <tile/>
   <tile/>
   <tile/>
   <tile/>
   <tile/>
   <tile/>
   <tile/>
   <tile/>
   <tile/>
   <tile/>
   <tile/>
   <tile/>
   <tile/>
   <tile/>
   <tile/>
   <tile/>
   <tile/>
   <tile/>
   <tile/>
   <tile/>
   <tile/>
   <tile/>
   <tile/>
   <tile/>
   <tile/>
   <tile/>
   <tile/>
   <tile/>
   <tile/>
   <tile/>
   <tile/>
   <tile/>
   <tile/>
   <tile/>
   <tile/>
   <tile/>
   <tile/>
   <tile/>
   <tile/>
   <tile/>
   <tile/>
   <tile/>
   <tile/>
   <tile/>
   <tile/>
   <tile/>
   <tile/>
   <tile/>
   <tile/>
   <tile/>
   <tile/>
   <tile/>
   <tile/>
   <tile/>
   <tile/>
   <tile/>
   <tile/>
   <tile/>
   <tile/>
   <tile/>
   <tile/>
   <tile/>
   <tile/>
   <tile/>
   <tile/>
   <tile/>
   <tile/>
   <tile/>
   <tile/>
   <tile/>
   <tile/>
   <tile/>
   <tile/>
   <tile/>
   <tile/>
   <tile/>
   <tile/>
   <tile/>
   <tile/>
   <tile/>
   <tile/>
   <tile/>
   <tile/>
   <tile/>
   <tile/>
   <tile/>
   <tile/>
   <tile/>
   <tile/>
   <tile/>
   <tile/>
   <tile/>
   <tile/>
   <tile/>
   <tile/>
   <tile/>
   <tile/>
   <tile/>
   <tile/>
   <tile/>
   <tile/>
   <tile/>
   <tile/>
   <tile/>
   <tile/>
   <tile/>
   <tile/>
   <tile/>
   <tile/>
   <tile/>
   <tile/>
   <tile/>
   <tile/>
   <tile/>
   <tile/>
   <tile/>
   <tile/>
   <tile/>
   <tile/>
   <tile/>
   <tile/>
   <tile/>
   <tile/>
   <tile/>
   <tile/>
   <tile/>
   <tile/>
   <tile/>
   <tile/>
   <tile/>
   <tile/>
   <tile/>
   <tile/>
   <tile/>
   <tile/>
   <tile/>
   <tile/>
   <tile/>
   <tile/>
   <tile/>
   <tile/>
   <tile/>
   <tile/>
   <tile/>
   <tile/>
   <tile/>
   <tile/>
   <tile/>
   <tile/>
   <tile/>
   <tile/>
   <tile/>
   <tile/>
   <tile/>
   <tile/>
   <tile/>
   <tile/>
   <tile/>
   <tile/>
   <tile/>
   <tile/>
   <tile/>
   <tile/>
   <tile/>
   <tile/>
   <tile/>
   <tile/>
   <tile/>
   <tile/>
   <tile/>
   <tile/>
   <tile/>
   <tile/>
   <tile/>
   <tile/>
   <tile/>
   <tile/>
   <tile/>
   <tile/>
   <tile/>
   <tile/>
   <tile/>
   <tile/>
   <tile/>
   <tile/>
   <tile/>
   <tile/>
   <tile/>
   <tile/>
   <tile/>
   <tile/>
   <tile/>
   <tile/>
   <tile/>
   <tile/>
   <tile/>
   <tile/>
   <tile/>
   <tile/>
   <tile/>
   <tile/>
   <tile/>
   <tile/>
   <tile/>
   <tile/>
   <tile/>
   <tile/>
   <tile/>
   <tile/>
   <tile/>
   <tile/>
   <tile/>
   <tile/>
   <tile/>
   <tile/>
   <tile/>
   <tile/>
   <tile/>
   <tile/>
   <tile/>
   <tile/>
   <tile/>
   <tile/>
   <tile/>
   <tile/>
   <tile/>
   <tile/>
   <tile/>
   <tile/>
   <tile/>
   <tile/>
   <tile/>
   <tile/>
   <tile/>
   <tile/>
   <tile/>
   <tile/>
   <tile/>
   <tile/>
   <tile/>
   <tile/>
   <tile/>
   <tile/>
   <tile/>
   <tile/>
   <tile/>
   <tile gid="18"/>
   <tile/>
   <tile/>
   <tile/>
   <tile/>
   <tile/>
   <tile/>
   <tile/>
   <tile/>
   <tile/>
   <tile/>
   <tile/>
   <tile/>
   <tile/>
   <tile/>
   <tile/>
   <tile/>
   <tile/>
   <tile/>
   <tile/>
   <tile/>
   <tile/>
   <tile/>
   <tile/>
   <tile/>
   <tile/>
   <tile/>
   <tile/>
   <tile/>
   <tile/>
   <tile/>
   <tile/>
   <tile/>
   <tile/>
   <tile/>
   <tile/>
   <tile/>
   <tile/>
   <tile/>
   <tile/>
   <tile/>
   <tile/>
   <tile/>
   <tile/>
   <tile/>
   <tile/>
   <tile/>
   <tile/>
   <tile/>
   <tile/>
   <tile/>
   <tile/>
   <tile/>
   <tile/>
   <tile/>
   <tile/>
   <tile/>
   <tile/>
   <tile/>
   <tile/>
   <tile/>
   <tile/>
   <tile/>
   <tile/>
   <tile/>
   <tile/>
   <tile/>
   <tile/>
   <tile/>
   <tile/>
   <tile/>
   <tile/>
   <tile/>
   <tile/>
   <tile/>
   <tile/>
   <tile/>
   <tile/>
   <tile/>
   <tile/>
   <tile/>
   <tile/>
   <tile/>
   <tile/>
   <tile/>
   <tile/>
   <tile/>
   <tile/>
   <tile/>
   <tile/>
   <tile/>
   <tile/>
   <tile/>
   <tile/>
   <tile/>
   <tile/>
   <tile/>
   <tile/>
   <tile/>
   <tile/>
   <tile/>
   <tile/>
   <tile/>
   <tile/>
   <tile/>
   <tile/>
   <tile/>
   <tile/>
   <tile/>
   <tile/>
   <tile/>
   <tile/>
   <tile/>
   <tile/>
   <tile/>
   <tile/>
   <tile/>
   <tile/>
   <tile/>
   <tile/>
   <tile/>
   <tile/>
   <tile/>
   <tile/>
   <tile/>
   <tile/>
   <tile/>
   <tile/>
   <tile/>
   <tile/>
   <tile/>
   <tile/>
   <tile/>
   <tile/>
   <tile/>
   <tile/>
   <tile/>
   <tile/>
   <tile/>
   <tile/>
   <tile/>
   <tile/>
   <tile/>
   <tile/>
   <tile/>
   <tile/>
   <tile/>
   <tile/>
   <tile/>
   <tile/>
   <tile/>
   <tile/>
   <tile/>
   <tile/>
   <tile/>
   <tile/>
   <tile/>
   <tile/>
   <tile/>
   <tile/>
   <tile/>
   <tile/>
   <tile/>
   <tile/>
   <tile/>
   <tile/>
   <tile/>
   <tile/>
   <tile/>
   <tile/>
   <tile/>
   <tile/>
   <tile/>
   <tile/>
   <tile/>
   <tile/>
   <tile/>
   <tile/>
   <tile/>
   <tile/>
   <tile/>
   <tile/>
   <tile/>
   <tile/>
   <tile/>
   <tile/>
   <tile/>
   <tile/>
   <tile/>
   <tile/>
   <tile/>
   <tile/>
   <tile/>
   <tile/>
   <tile/>
   <tile/>
   <tile/>
   <tile/>
   <tile/>
   <tile/>
   <tile/>
   <tile/>
   <tile/>
   <tile/>
   <tile/>
   <tile/>
   <tile/>
   <tile/>
   <tile/>
   <tile/>
   <tile/>
   <tile/>
   <tile/>
   <tile/>
   <tile/>
   <tile/>
   <tile/>
   <tile/>
   <tile/>
   <tile/>
   <tile/>
   <tile/>
   <tile/>
   <tile/>
   <tile/>
   <tile/>
   <tile/>
   <tile/>
   <tile/>
   <tile/>
   <tile/>
   <tile/>
   <tile/>
   <tile/>
   <tile/>
   <tile/>
   <tile/>
   <tile/>
   <tile/>
   <tile/>
   <tile/>
   <tile/>
   <tile/>
   <tile/>
   <tile/>
   <tile/>
   <tile/>
   <tile/>
   <tile/>
   <tile/>
   <tile/>
   <tile/>
   <tile/>
   <tile/>
   <tile/>
   <tile/>
   <tile/>
   <tile/>
   <tile/>
   <tile/>
   <tile/>
   <tile/>
   <tile/>
   <tile/>
   <tile/>
   <tile/>
   <tile/>
   <tile/>
   <tile/>
   <tile/>
   <tile/>
   <tile/>
   <tile/>
   <tile/>
   <tile/>
   <tile/>
   <tile/>
   <tile/>
   <tile/>
   <tile/>
   <tile/>
   <tile/>
   <tile/>
   <tile/>
   <tile/>
   <tile/>
   <tile/>
   <tile/>
   <tile/>
   <tile/>
   <tile/>
   <tile/>
   <tile/>
   <tile/>
   <tile/>
   <tile/>
   <tile/>
   <tile/>
   <tile/>
   <tile/>
   <tile/>
   <tile/>
   <tile/>
   <tile/>
   <tile/>
   <tile/>
   <tile/>
   <tile/>
   <tile/>
   <tile gid="18"/>
   <tile/>
   <tile/>
   <tile/>
   <tile/>
   <tile/>
   <tile/>
   <tile/>
   <tile/>
   <tile/>
   <tile/>
   <tile/>
   <tile/>
   <tile/>
   <tile/>
   <tile/>
   <tile/>
   <tile/>
   <tile/>
   <tile/>
   <tile/>
   <tile/>
   <tile/>
   <tile/>
   <tile/>
   <tile/>
   <tile/>
   <tile/>
   <tile/>
   <tile/>
   <tile/>
   <tile/>
   <tile/>
   <tile/>
   <tile/>
   <tile/>
   <tile/>
   <tile/>
   <tile/>
   <tile/>
   <tile/>
   <tile/>
   <tile/>
   <tile/>
   <tile/>
   <tile/>
   <tile/>
   <tile/>
   <tile/>
   <tile/>
   <tile/>
   <tile/>
   <tile/>
   <tile/>
   <tile/>
   <tile/>
   <tile/>
   <tile/>
   <tile/>
   <tile/>
   <tile/>
   <tile/>
   <tile/>
   <tile/>
   <tile/>
   <tile/>
   <tile/>
   <tile/>
   <tile/>
   <tile/>
   <tile/>
   <tile/>
   <tile/>
   <tile/>
   <tile/>
   <tile/>
   <tile/>
   <tile/>
   <tile/>
   <tile/>
   <tile/>
   <tile/>
   <tile/>
   <tile/>
   <tile/>
   <tile/>
   <tile/>
   <tile/>
   <tile/>
   <tile/>
   <tile/>
   <tile/>
   <tile/>
   <tile/>
   <tile/>
   <tile/>
   <tile/>
   <tile/>
   <tile/>
   <tile/>
   <tile/>
   <tile/>
   <tile/>
   <tile/>
   <tile/>
   <tile/>
   <tile/>
   <tile/>
   <tile/>
   <tile/>
   <tile/>
   <tile/>
   <tile/>
   <tile/>
   <tile/>
   <tile/>
   <tile/>
   <tile/>
   <tile/>
   <tile/>
   <tile/>
   <tile/>
   <tile/>
   <tile/>
   <tile/>
   <tile/>
   <tile/>
   <tile/>
   <tile/>
   <tile/>
   <tile/>
   <tile/>
   <tile/>
   <tile/>
   <tile/>
   <tile/>
   <tile/>
   <tile/>
   <tile/>
   <tile/>
   <tile/>
   <tile/>
   <tile/>
   <tile/>
   <tile/>
   <tile/>
   <tile/>
   <tile/>
   <tile/>
   <tile/>
   <tile/>
   <tile/>
   <tile/>
   <tile/>
   <tile/>
   <tile/>
   <tile/>
   <tile/>
   <tile/>
   <tile/>
   <tile/>
   <tile/>
   <tile/>
   <tile/>
   <tile/>
   <tile/>
   <tile/>
   <tile/>
   <tile/>
   <tile/>
   <tile/>
   <tile/>
   <tile/>
   <tile/>
   <tile/>
   <tile/>
   <tile/>
   <tile/>
   <tile/>
   <tile/>
   <tile/>
   <tile/>
   <tile/>
   <tile/>
   <tile/>
   <tile/>
   <tile/>
   <tile/>
   <tile/>
   <tile/>
   <tile/>
   <tile/>
   <tile/>
   <tile/>
   <tile/>
   <tile/>
   <tile/>
   <tile/>
   <tile/>
   <tile/>
   <tile/>
   <tile/>
   <tile/>
   <tile/>
   <tile/>
   <tile/>
   <tile/>
   <tile/>
   <tile/>
   <tile/>
   <tile/>
   <tile/>
   <tile/>
   <tile/>
   <tile/>
   <tile/>
   <tile/>
   <tile/>
   <tile/>
   <tile/>
   <tile/>
   <tile/>
   <tile/>
   <tile/>
   <tile/>
   <tile/>
   <tile/>
   <tile/>
   <tile/>
   <tile/>
   <tile/>
   <tile/>
   <tile/>
   <tile/>
   <tile/>
   <tile/>
   <tile/>
   <tile/>
   <tile/>
   <tile/>
   <tile/>
   <tile/>
   <tile/>
   <tile/>
   <tile/>
   <tile/>
   <tile/>
   <tile/>
   <tile/>
   <tile/>
   <tile/>
   <tile/>
   <tile/>
   <tile/>
   <tile/>
   <tile/>
   <tile/>
   <tile/>
   <tile/>
   <tile/>
   <tile/>
   <tile/>
   <tile/>
   <tile/>
   <tile/>
   <tile/>
   <tile/>
   <tile/>
   <tile/>
   <tile/>
   <tile/>
   <tile/>
   <tile/>
   <tile/>
   <tile/>
   <tile/>
   <tile/>
   <tile/>
   <tile/>
   <tile/>
   <tile/>
   <tile/>
   <tile/>
   <tile/>
   <tile/>
   <tile/>
   <tile/>
   <tile/>
   <tile/>
   <tile/>
   <tile/>
   <tile/>
   <tile/>
   <tile/>
   <tile/>
   <tile/>
   <tile/>
   <tile/>
   <tile/>
   <tile/>
   <tile/>
   <tile/>
   <tile/>
   <tile/>
   <tile/>
   <tile/>
   <tile/>
   <tile/>
   <tile/>
   <tile/>
   <tile/>
   <tile/>
   <tile/>
   <tile/>
   <tile/>
   <tile/>
   <tile/>
   <tile/>
   <tile/>
   <tile/>
   <tile/>
   <tile/>
   <tile/>
   <tile/>
   <tile/>
   <tile/>
   <tile/>
   <tile/>
   <tile/>
   <tile/>
   <tile/>
   <tile/>
   <tile/>
   <tile/>
   <tile/>
   <tile/>
   <tile/>
   <tile/>
   <tile/>
   <tile/>
   <tile/>
   <tile/>
   <tile/>
   <tile/>
   <tile/>
   <tile/>
   <tile/>
   <tile/>
   <tile/>
   <tile/>
   <tile/>
   <tile/>
   <tile/>
   <tile/>
   <tile/>
   <tile/>
   <tile/>
   <tile/>
   <tile/>
   <tile/>
   <tile/>
   <tile/>
   <tile/>
   <tile/>
   <tile/>
   <tile/>
   <tile/>
   <tile/>
   <tile/>
   <tile/>
   <tile/>
   <tile/>
   <tile/>
   <tile/>
   <tile/>
   <tile/>
   <tile/>
   <tile/>
   <tile/>
   <tile/>
   <tile/>
   <tile/>
   <tile/>
   <tile/>
   <tile/>
   <tile/>
   <tile/>
   <tile/>
   <tile/>
   <tile/>
   <tile/>
   <tile/>
   <tile/>
   <tile/>
   <tile/>
   <tile/>
   <tile/>
   <tile/>
   <tile/>
   <tile/>
   <tile/>
   <tile/>
   <tile/>
   <tile/>
   <tile/>
   <tile/>
   <tile/>
   <tile/>
   <tile/>
   <tile/>
   <tile/>
   <tile/>
   <tile/>
   <tile/>
   <tile/>
   <tile/>
   <tile/>
   <tile/>
   <tile/>
   <tile/>
   <tile/>
   <tile/>
   <tile/>
   <tile/>
   <tile/>
   <tile/>
   <tile/>
   <tile/>
   <tile/>
   <tile/>
   <tile/>
   <tile/>
   <tile/>
   <tile/>
   <tile/>
   <tile/>
   <tile/>
   <tile/>
   <tile/>
   <tile/>
   <tile/>
   <tile/>
   <tile/>
   <tile/>
   <tile/>
   <tile/>
   <tile/>
   <tile/>
   <tile/>
   <tile/>
   <tile/>
   <tile/>
   <tile/>
   <tile/>
   <tile/>
   <tile/>
   <tile/>
   <tile/>
   <tile/>
   <tile/>
   <tile/>
   <tile/>
   <tile/>
   <tile/>
   <tile/>
   <tile/>
   <tile/>
   <tile/>
   <tile/>
   <tile/>
   <tile/>
   <tile/>
   <tile/>
   <tile/>
   <tile/>
   <tile/>
   <tile/>
   <tile/>
   <tile/>
   <tile/>
   <tile/>
   <tile/>
   <tile/>
   <tile/>
   <tile/>
   <tile/>
   <tile/>
   <tile/>
   <tile/>
   <tile/>
   <tile/>
   <tile/>
   <tile/>
   <tile/>
   <tile/>
   <tile/>
   <tile/>
   <tile/>
   <tile/>
   <tile/>
   <tile/>
   <tile/>
   <tile/>
   <tile/>
   <tile/>
   <tile/>
   <tile/>
   <tile/>
   <tile/>
   <tile/>
   <tile/>
   <tile/>
   <tile/>
   <tile/>
   <tile/>
   <tile/>
   <tile/>
   <tile/>
   <tile/>
   <tile/>
   <tile/>
   <tile/>
   <tile/>
   <tile/>
   <tile/>
   <tile/>
   <tile/>
   <tile/>
   <tile/>
   <tile/>
   <tile/>
   <tile/>
   <tile/>
   <tile/>
   <tile/>
   <tile/>
   <tile/>
   <tile/>
   <tile/>
   <tile/>
   <tile/>
   <tile/>
   <tile/>
   <tile/>
   <tile/>
   <tile/>
   <tile/>
   <tile/>
   <tile/>
   <tile/>
   <tile/>
   <tile/>
   <tile/>
   <tile/>
   <tile/>
   <tile/>
   <tile/>
   <tile/>
   <tile/>
   <tile/>
   <tile/>
   <tile/>
   <tile/>
   <tile/>
   <tile/>
   <tile/>
   <tile/>
   <tile/>
   <tile/>
   <tile/>
   <tile/>
   <tile/>
   <tile/>
   <tile/>
   <tile/>
   <tile/>
   <tile/>
   <tile/>
   <tile/>
   <tile/>
   <tile/>
   <tile/>
   <tile/>
   <tile/>
   <tile/>
   <tile/>
   <tile/>
   <tile/>
   <tile/>
   <tile/>
   <tile/>
   <tile/>
   <tile/>
   <tile/>
   <tile/>
   <tile/>
   <tile/>
   <tile/>
   <tile/>
   <tile/>
   <tile/>
   <tile/>
   <tile/>
   <tile/>
   <tile/>
   <tile/>
   <tile/>
   <tile/>
   <tile/>
   <tile/>
   <tile/>
   <tile/>
   <tile/>
   <tile/>
   <tile/>
   <tile/>
   <tile/>
   <tile/>
   <tile/>
   <tile/>
   <tile/>
   <tile/>
   <tile/>
   <tile/>
   <tile/>
   <tile/>
   <tile/>
   <tile/>
   <tile/>
   <tile/>
   <tile/>
   <tile/>
   <tile/>
   <tile/>
   <tile/>
   <tile/>
   <tile/>
   <tile/>
   <tile/>
   <tile/>
   <tile/>
   <tile/>
   <tile/>
   <tile/>
   <tile/>
   <tile/>
   <tile/>
   <tile/>
   <tile/>
   <tile/>
   <tile/>
   <tile/>
   <tile/>
   <tile/>
   <tile/>
   <tile/>
   <tile/>
   <tile/>
   <tile/>
   <tile/>
   <tile/>
   <tile/>
   <tile/>
   <tile/>
   <tile/>
   <tile/>
   <tile/>
   <tile/>
   <tile/>
   <tile/>
   <tile/>
   <tile/>
   <tile/>
   <tile/>
   <tile/>
   <tile/>
   <tile/>
   <tile/>
   <tile/>
   <tile/>
   <tile/>
   <tile/>
   <tile/>
   <tile/>
   <tile/>
   <tile/>
   <tile/>
   <tile/>
   <tile/>
   <tile/>
   <tile/>
   <tile/>
   <tile/>
   <tile/>
   <tile/>
   <tile/>
   <tile/>
   <tile/>
   <tile/>
   <tile/>
   <tile/>
   <tile/>
   <tile/>
   <tile/>
   <tile/>
   <tile/>
   <tile/>
   <tile/>
   <tile/>
   <tile/>
   <tile/>
   <tile/>
   <tile/>
   <tile/>
   <tile/>
   <tile/>
   <tile/>
   <tile/>
   <tile/>
   <tile/>
   <tile/>
   <tile/>
   <tile/>
   <tile/>
   <tile/>
   <tile/>
   <tile/>
   <tile/>
   <tile/>
   <tile/>
   <tile/>
   <tile/>
   <tile/>
   <tile/>
   <tile/>
   <tile/>
   <tile/>
   <tile/>
   <tile/>
   <tile/>
   <tile/>
   <tile/>
   <tile/>
   <tile/>
   <tile/>
   <tile/>
   <tile/>
   <tile/>
   <tile/>
   <tile/>
   <tile/>
   <tile/>
   <tile/>
   <tile/>
   <tile/>
   <tile/>
   <tile/>
   <tile/>
   <tile/>
   <tile/>
   <tile/>
   <tile/>
   <tile/>
   <tile/>
   <tile/>
   <tile/>
   <tile/>
   <tile/>
   <tile/>
   <tile/>
   <tile/>
   <tile/>
   <tile/>
   <tile/>
   <tile/>
   <tile/>
   <tile/>
   <tile/>
   <tile/>
   <tile/>
   <tile/>
   <tile/>
   <tile/>
   <tile/>
   <tile/>
   <tile/>
   <tile/>
   <tile/>
   <tile/>
   <tile/>
   <tile/>
   <tile/>
   <tile/>
   <tile/>
   <tile/>
   <tile/>
   <tile/>
   <tile/>
   <tile/>
   <tile/>
   <tile/>
   <tile/>
   <tile/>
   <tile/>
   <tile/>
   <tile/>
   <tile/>
   <tile/>
   <tile/>
   <tile/>
   <tile/>
   <tile/>
   <tile/>
   <tile/>
   <tile/>
   <tile/>
   <tile/>
   <tile/>
   <tile/>
   <tile/>
   <tile/>
   <tile/>
   <tile/>
   <tile/>
   <tile/>
   <tile/>
   <tile/>
   <tile/>
   <tile/>
   <tile/>
   <tile/>
   <tile/>
   <tile/>
   <tile/>
   <tile/>
   <tile/>
   <tile/>
   <tile/>
   <tile/>
   <tile/>
   <tile/>
   <tile/>
   <tile/>
   <tile/>
   <tile/>
   <tile/>
   <tile/>
   <tile/>
   <tile/>
   <tile/>
   <tile/>
   <tile/>
   <tile/>
   <tile/>
   <tile/>
   <tile/>
   <tile/>
   <tile/>
   <tile/>
   <tile/>
   <tile/>
   <tile/>
   <tile/>
   <tile/>
   <tile/>
   <tile/>
   <tile/>
   <tile/>
   <tile/>
   <tile/>
   <tile/>
   <tile/>
   <tile/>
   <tile/>
   <tile/>
   <tile/>
   <tile/>
   <tile/>
   <tile/>
   <tile/>
   <tile/>
   <tile/>
   <tile/>
   <tile/>
   <tile/>
   <tile/>
   <tile/>
   <tile/>
   <tile/>
   <tile/>
   <tile/>
   <tile/>
   <tile/>
   <tile/>
   <tile/>
   <tile/>
   <tile/>
   <tile/>
   <tile/>
   <tile/>
   <tile/>
   <tile/>
   <tile/>
   <tile/>
   <tile/>
   <tile/>
   <tile/>
   <tile/>
   <tile/>
   <tile/>
   <tile/>
   <tile/>
   <tile/>
   <tile/>
   <tile/>
   <tile/>
   <tile/>
   <tile/>
   <tile/>
   <tile/>
   <tile/>
   <tile/>
   <tile/>
   <tile/>
   <tile/>
   <tile/>
   <tile/>
   <tile/>
   <tile/>
   <tile/>
   <tile/>
   <tile/>
   <tile/>
   <tile/>
   <tile/>
   <tile/>
   <tile/>
   <tile/>
   <tile/>
   <tile/>
   <tile/>
   <tile/>
   <tile/>
   <tile/>
   <tile/>
   <tile/>
   <tile/>
   <tile/>
   <tile/>
   <tile/>
   <tile/>
   <tile/>
   <tile/>
   <tile/>
   <tile/>
   <tile/>
   <tile/>
   <tile/>
   <tile/>
   <tile/>
   <tile/>
   <tile/>
   <tile/>
   <tile/>
   <tile/>
   <tile/>
   <tile/>
   <tile/>
   <tile/>
   <tile/>
   <tile/>
   <tile/>
   <tile/>
   <tile/>
   <tile/>
   <tile/>
   <tile/>
   <tile/>
   <tile/>
   <tile/>
   <tile/>
   <tile/>
   <tile/>
   <tile/>
   <tile/>
   <tile/>
   <tile/>
   <tile/>
   <tile/>
   <tile/>
   <tile/>
   <tile/>
   <tile/>
   <tile/>
   <tile/>
   <tile/>
   <tile/>
   <tile/>
   <tile/>
   <tile/>
   <tile/>
   <tile/>
   <tile/>
   <tile/>
   <tile/>
   <tile/>
   <tile/>
   <tile/>
   <tile/>
   <tile/>
   <tile/>
   <tile/>
   <tile/>
   <tile/>
   <tile/>
   <tile/>
   <tile/>
   <tile/>
   <tile/>
   <tile/>
   <tile/>
   <tile/>
   <tile/>
   <tile/>
   <tile/>
   <tile/>
   <tile/>
   <tile/>
   <tile/>
   <tile/>
   <tile/>
   <tile/>
   <tile/>
   <tile/>
   <tile/>
   <tile/>
   <tile/>
   <tile/>
   <tile/>
   <tile/>
   <tile/>
   <tile/>
   <tile/>
   <tile/>
   <tile/>
   <tile/>
   <tile/>
   <tile/>
   <tile/>
   <tile/>
   <tile/>
   <tile/>
   <tile/>
   <tile/>
   <tile/>
   <tile/>
   <tile/>
   <tile/>
   <tile/>
   <tile/>
   <tile/>
   <tile/>
   <tile/>
   <tile/>
   <tile/>
   <tile/>
   <tile/>
   <tile/>
   <tile/>
   <tile/>
   <tile/>
   <tile/>
   <tile/>
   <tile/>
   <tile/>
   <tile/>
   <tile/>
   <tile/>
   <tile/>
   <tile/>
   <tile/>
   <tile/>
   <tile/>
   <tile/>
   <tile/>
   <tile/>
   <tile/>
   <tile/>
   <tile/>
   <tile/>
   <tile/>
   <tile/>
   <tile/>
   <tile/>
   <tile/>
   <tile/>
   <tile/>
   <tile/>
   <tile/>
   <tile/>
   <tile/>
   <tile/>
   <tile/>
   <tile/>
   <tile/>
   <tile/>
   <tile/>
   <tile/>
   <tile/>
   <tile/>
   <tile/>
   <tile/>
   <tile/>
   <tile/>
   <tile/>
   <tile/>
   <tile/>
   <tile/>
   <tile/>
   <tile/>
   <tile/>
   <tile/>
   <tile/>
   <tile/>
   <tile/>
   <tile/>
   <tile/>
   <tile/>
   <tile/>
   <tile/>
   <tile/>
   <tile/>
   <tile/>
   <tile/>
   <tile/>
   <tile/>
   <tile/>
   <tile/>
   <tile/>
   <tile/>
   <tile/>
   <tile/>
   <tile/>
   <tile/>
   <tile/>
   <tile/>
   <tile/>
   <tile/>
   <tile/>
   <tile/>
   <tile/>
   <tile/>
   <tile/>
   <tile/>
   <tile/>
   <tile/>
   <tile/>
   <tile/>
   <tile/>
   <tile/>
   <tile/>
   <tile/>
   <tile/>
   <tile/>
   <tile/>
   <tile/>
   <tile/>
   <tile/>
   <tile/>
   <tile/>
   <tile/>
   <tile/>
   <tile/>
   <tile/>
   <tile/>
   <tile/>
   <tile/>
   <tile/>
   <tile/>
   <tile/>
   <tile/>
   <tile/>
   <tile/>
   <tile/>
   <tile/>
   <tile/>
   <tile/>
   <tile/>
   <tile/>
   <tile/>
   <tile/>
   <tile/>
   <tile/>
   <tile/>
   <tile/>
   <tile/>
   <tile/>
   <tile/>
   <tile/>
   <tile/>
   <tile/>
   <tile/>
   <tile/>
   <tile/>
   <tile/>
   <tile/>
   <tile/>
   <tile/>
   <tile/>
   <tile/>
   <tile/>
   <tile/>
   <tile/>
   <tile/>
   <tile/>
   <tile/>
   <tile/>
   <tile/>
   <tile/>
   <tile/>
   <tile/>
   <tile/>
   <tile/>
   <tile/>
   <tile/>
   <tile/>
   <tile/>
   <tile/>
   <tile/>
   <tile/>
   <tile/>
   <tile/>
   <tile/>
   <tile/>
   <tile/>
   <tile/>
   <tile/>
   <tile/>
   <tile/>
   <tile/>
   <tile/>
   <tile/>
   <tile/>
   <tile/>
   <tile/>
   <tile/>
   <tile/>
   <tile/>
   <tile/>
   <tile/>
   <tile/>
   <tile/>
   <tile/>
   <tile/>
   <tile/>
   <tile/>
   <tile/>
   <tile/>
   <tile/>
   <tile/>
   <tile/>
   <tile/>
   <tile/>
   <tile/>
   <tile/>
   <tile/>
   <tile/>
   <tile/>
   <tile/>
   <tile/>
   <tile/>
   <tile/>
   <tile/>
   <tile/>
   <tile/>
   <tile/>
   <tile/>
   <tile/>
   <tile/>
   <tile/>
   <tile/>
   <tile/>
   <tile/>
   <tile/>
   <tile/>
   <tile/>
   <tile/>
   <tile/>
   <tile/>
   <tile/>
   <tile/>
   <tile/>
   <tile/>
   <tile/>
   <tile/>
   <tile/>
   <tile/>
   <tile/>
   <tile/>
   <tile/>
   <tile/>
   <tile/>
   <tile/>
   <tile/>
   <tile/>
   <tile/>
   <tile/>
   <tile/>
   <tile/>
   <tile/>
   <tile/>
   <tile/>
   <tile/>
   <tile/>
   <tile/>
   <tile/>
   <tile/>
   <tile/>
   <tile/>
   <tile/>
   <tile/>
   <tile/>
   <tile/>
   <tile/>
   <tile/>
   <tile/>
   <tile/>
   <tile/>
   <tile/>
   <tile/>
   <tile/>
   <tile/>
   <tile/>
   <tile/>
   <tile/>
   <tile/>
   <tile/>
  </data>
 </layer>
 <layer id="43" name="AguaFront" width="153" height="19">
  <properties>
   <property name="Draw" type="bool" value="true"/>
   <property name="Front" type="bool" value="true"/>
  </properties>
  <data>
   <tile/>
   <tile/>
   <tile/>
   <tile/>
   <tile/>
   <tile/>
   <tile/>
   <tile/>
   <tile/>
   <tile/>
   <tile/>
   <tile/>
   <tile/>
   <tile/>
   <tile/>
   <tile/>
   <tile/>
   <tile/>
   <tile/>
   <tile/>
   <tile/>
   <tile/>
   <tile/>
   <tile/>
   <tile/>
   <tile/>
   <tile/>
   <tile/>
   <tile/>
   <tile/>
   <tile/>
   <tile/>
   <tile/>
   <tile/>
   <tile/>
   <tile/>
   <tile/>
   <tile/>
   <tile/>
   <tile/>
   <tile/>
   <tile/>
   <tile/>
   <tile/>
   <tile/>
   <tile/>
   <tile/>
   <tile/>
   <tile/>
   <tile/>
   <tile/>
   <tile/>
   <tile/>
   <tile/>
   <tile/>
   <tile/>
   <tile/>
   <tile/>
   <tile/>
   <tile/>
   <tile/>
   <tile/>
   <tile/>
   <tile/>
   <tile/>
   <tile/>
   <tile/>
   <tile/>
   <tile/>
   <tile/>
   <tile/>
   <tile/>
   <tile/>
   <tile/>
   <tile/>
   <tile/>
   <tile/>
   <tile/>
   <tile/>
   <tile/>
   <tile/>
   <tile/>
   <tile/>
   <tile/>
   <tile/>
   <tile/>
   <tile/>
   <tile/>
   <tile/>
   <tile/>
   <tile/>
   <tile/>
   <tile/>
   <tile/>
   <tile/>
   <tile/>
   <tile/>
   <tile/>
   <tile/>
   <tile/>
   <tile/>
   <tile/>
   <tile/>
   <tile/>
   <tile/>
   <tile/>
   <tile/>
   <tile/>
   <tile/>
   <tile/>
   <tile/>
   <tile/>
   <tile/>
   <tile/>
   <tile/>
   <tile/>
   <tile/>
   <tile/>
   <tile/>
   <tile/>
   <tile/>
   <tile/>
   <tile/>
   <tile/>
   <tile/>
   <tile/>
   <tile/>
   <tile/>
   <tile/>
   <tile/>
   <tile/>
   <tile/>
   <tile/>
   <tile/>
   <tile/>
   <tile/>
   <tile/>
   <tile/>
   <tile/>
   <tile/>
   <tile/>
   <tile/>
   <tile/>
   <tile/>
   <tile/>
   <tile/>
   <tile/>
   <tile/>
   <tile/>
   <tile/>
   <tile/>
   <tile/>
   <tile/>
   <tile/>
   <tile/>
   <tile/>
   <tile/>
   <tile/>
   <tile/>
   <tile/>
   <tile/>
   <tile/>
   <tile/>
   <tile/>
   <tile/>
   <tile/>
   <tile/>
   <tile/>
   <tile/>
   <tile/>
   <tile/>
   <tile/>
   <tile/>
   <tile/>
   <tile/>
   <tile/>
   <tile/>
   <tile/>
   <tile/>
   <tile/>
   <tile/>
   <tile/>
   <tile/>
   <tile/>
   <tile/>
   <tile/>
   <tile/>
   <tile/>
   <tile/>
   <tile/>
   <tile/>
   <tile/>
   <tile/>
   <tile/>
   <tile/>
   <tile/>
   <tile/>
   <tile/>
   <tile/>
   <tile/>
   <tile/>
   <tile/>
   <tile/>
   <tile/>
   <tile/>
   <tile/>
   <tile/>
   <tile/>
   <tile/>
   <tile/>
   <tile/>
   <tile/>
   <tile/>
   <tile/>
   <tile/>
   <tile/>
   <tile/>
   <tile/>
   <tile/>
   <tile/>
   <tile/>
   <tile/>
   <tile/>
   <tile/>
   <tile/>
   <tile/>
   <tile/>
   <tile/>
   <tile/>
   <tile/>
   <tile/>
   <tile/>
   <tile/>
   <tile/>
   <tile/>
   <tile/>
   <tile/>
   <tile/>
   <tile/>
   <tile/>
   <tile/>
   <tile/>
   <tile/>
   <tile/>
   <tile/>
   <tile/>
   <tile/>
   <tile/>
   <tile/>
   <tile/>
   <tile/>
   <tile/>
   <tile/>
   <tile/>
   <tile/>
   <tile/>
   <tile/>
   <tile/>
   <tile/>
   <tile/>
   <tile/>
   <tile/>
   <tile/>
   <tile/>
   <tile/>
   <tile/>
   <tile/>
   <tile/>
   <tile/>
   <tile/>
   <tile/>
   <tile/>
   <tile/>
   <tile/>
   <tile/>
   <tile/>
   <tile/>
   <tile/>
   <tile/>
   <tile/>
   <tile/>
   <tile/>
   <tile/>
   <tile/>
   <tile/>
   <tile/>
   <tile/>
   <tile/>
   <tile/>
   <tile/>
   <tile/>
   <tile/>
   <tile/>
   <tile/>
   <tile/>
   <tile/>
   <tile/>
   <tile/>
   <tile/>
   <tile/>
   <tile/>
   <tile/>
   <tile/>
   <tile/>
   <tile/>
   <tile/>
   <tile/>
   <tile/>
   <tile/>
   <tile/>
   <tile/>
   <tile/>
   <tile/>
   <tile/>
   <tile/>
   <tile/>
   <tile/>
   <tile/>
   <tile/>
   <tile/>
   <tile/>
   <tile/>
   <tile/>
   <tile/>
   <tile/>
   <tile/>
   <tile/>
   <tile/>
   <tile/>
   <tile/>
   <tile/>
   <tile/>
   <tile/>
   <tile/>
   <tile/>
   <tile/>
   <tile/>
   <tile/>
   <tile/>
   <tile/>
   <tile/>
   <tile/>
   <tile/>
   <tile/>
   <tile/>
   <tile/>
   <tile/>
   <tile/>
   <tile/>
   <tile/>
   <tile/>
   <tile/>
   <tile/>
   <tile/>
   <tile/>
   <tile/>
   <tile/>
   <tile/>
   <tile/>
   <tile/>
   <tile/>
   <tile/>
   <tile/>
   <tile/>
   <tile/>
   <tile/>
   <tile/>
   <tile/>
   <tile/>
   <tile/>
   <tile/>
   <tile/>
   <tile/>
   <tile/>
   <tile/>
   <tile/>
   <tile/>
   <tile/>
   <tile/>
   <tile/>
   <tile/>
   <tile/>
   <tile/>
   <tile/>
   <tile/>
   <tile/>
   <tile/>
   <tile/>
   <tile/>
   <tile/>
   <tile/>
   <tile/>
   <tile/>
   <tile/>
   <tile/>
   <tile/>
   <tile/>
   <tile/>
   <tile/>
   <tile/>
   <tile/>
   <tile/>
   <tile/>
   <tile/>
   <tile/>
   <tile/>
   <tile/>
   <tile/>
   <tile/>
   <tile/>
   <tile/>
   <tile/>
   <tile/>
   <tile/>
   <tile/>
   <tile/>
   <tile/>
   <tile/>
   <tile/>
   <tile/>
   <tile/>
   <tile/>
   <tile/>
   <tile/>
   <tile/>
   <tile/>
   <tile/>
   <tile/>
   <tile/>
   <tile/>
   <tile/>
   <tile/>
   <tile/>
   <tile/>
   <tile/>
   <tile/>
   <tile/>
   <tile/>
   <tile/>
   <tile/>
   <tile/>
   <tile/>
   <tile/>
   <tile/>
   <tile/>
   <tile/>
   <tile/>
   <tile/>
   <tile/>
   <tile/>
   <tile/>
   <tile/>
   <tile/>
   <tile/>
   <tile/>
   <tile/>
   <tile/>
   <tile/>
   <tile/>
   <tile/>
   <tile/>
   <tile/>
   <tile/>
   <tile/>
   <tile/>
   <tile/>
   <tile/>
   <tile/>
   <tile/>
   <tile/>
   <tile/>
   <tile/>
   <tile/>
   <tile/>
   <tile/>
   <tile/>
   <tile/>
   <tile/>
   <tile/>
   <tile/>
   <tile/>
   <tile/>
   <tile/>
   <tile/>
   <tile/>
   <tile/>
   <tile/>
   <tile/>
   <tile/>
   <tile/>
   <tile/>
   <tile/>
   <tile/>
   <tile/>
   <tile/>
   <tile/>
   <tile/>
   <tile/>
   <tile/>
   <tile/>
   <tile/>
   <tile/>
   <tile/>
   <tile/>
   <tile/>
   <tile/>
   <tile/>
   <tile/>
   <tile/>
   <tile/>
   <tile/>
   <tile/>
   <tile/>
   <tile/>
   <tile/>
   <tile/>
   <tile/>
   <tile/>
   <tile/>
   <tile/>
   <tile/>
   <tile/>
   <tile/>
   <tile/>
   <tile/>
   <tile/>
   <tile/>
   <tile/>
   <tile/>
   <tile/>
   <tile/>
   <tile/>
   <tile/>
   <tile/>
   <tile/>
   <tile/>
   <tile/>
   <tile/>
   <tile/>
   <tile/>
   <tile/>
   <tile/>
   <tile/>
   <tile/>
   <tile/>
   <tile/>
   <tile/>
   <tile/>
   <tile/>
   <tile/>
   <tile/>
   <tile/>
   <tile/>
   <tile/>
   <tile/>
   <tile/>
   <tile/>
   <tile/>
   <tile/>
   <tile/>
   <tile/>
   <tile/>
   <tile/>
   <tile/>
   <tile/>
   <tile/>
   <tile/>
   <tile/>
   <tile/>
   <tile/>
   <tile/>
   <tile/>
   <tile/>
   <tile/>
   <tile/>
   <tile/>
   <tile/>
   <tile/>
   <tile/>
   <tile/>
   <tile/>
   <tile/>
   <tile/>
   <tile/>
   <tile/>
   <tile/>
   <tile/>
   <tile/>
   <tile/>
   <tile/>
   <tile/>
   <tile/>
   <tile/>
   <tile/>
   <tile/>
   <tile/>
   <tile/>
   <tile/>
   <tile/>
   <tile/>
   <tile/>
   <tile/>
   <tile/>
   <tile/>
   <tile/>
   <tile/>
   <tile/>
   <tile/>
   <tile/>
   <tile/>
   <tile/>
   <tile/>
   <tile/>
   <tile/>
   <tile/>
   <tile/>
   <tile/>
   <tile/>
   <tile/>
   <tile/>
   <tile/>
   <tile/>
   <tile/>
   <tile/>
   <tile/>
   <tile/>
   <tile/>
   <tile/>
   <tile/>
   <tile/>
   <tile/>
   <tile/>
   <tile/>
   <tile/>
   <tile/>
   <tile/>
   <tile/>
   <tile/>
   <tile/>
   <tile/>
   <tile/>
   <tile/>
   <tile/>
   <tile/>
   <tile/>
   <tile/>
   <tile/>
   <tile/>
   <tile/>
   <tile/>
   <tile/>
   <tile/>
   <tile/>
   <tile/>
   <tile/>
   <tile/>
   <tile/>
   <tile/>
   <tile/>
   <tile/>
   <tile/>
   <tile/>
   <tile/>
   <tile/>
   <tile/>
   <tile/>
   <tile/>
   <tile/>
   <tile/>
   <tile/>
   <tile/>
   <tile/>
   <tile/>
   <tile/>
   <tile/>
   <tile/>
   <tile/>
   <tile/>
   <tile/>
   <tile/>
   <tile/>
   <tile/>
   <tile/>
   <tile/>
   <tile/>
   <tile/>
   <tile/>
   <tile/>
   <tile/>
   <tile/>
   <tile/>
   <tile/>
   <tile/>
   <tile/>
   <tile/>
   <tile/>
   <tile/>
   <tile/>
   <tile/>
   <tile/>
   <tile/>
   <tile/>
   <tile/>
   <tile/>
   <tile/>
   <tile/>
   <tile/>
   <tile/>
   <tile/>
   <tile/>
   <tile/>
   <tile/>
   <tile/>
   <tile/>
   <tile/>
   <tile/>
   <tile/>
   <tile/>
   <tile/>
   <tile/>
   <tile/>
   <tile/>
   <tile/>
   <tile/>
   <tile/>
   <tile/>
   <tile/>
   <tile/>
   <tile/>
   <tile/>
   <tile/>
   <tile/>
   <tile/>
   <tile/>
   <tile/>
   <tile/>
   <tile/>
   <tile/>
   <tile/>
   <tile/>
   <tile/>
   <tile/>
   <tile/>
   <tile/>
   <tile/>
   <tile/>
   <tile/>
   <tile/>
   <tile/>
   <tile/>
   <tile/>
   <tile/>
   <tile/>
   <tile/>
   <tile/>
   <tile/>
   <tile/>
   <tile/>
   <tile/>
   <tile/>
   <tile/>
   <tile/>
   <tile/>
   <tile/>
   <tile/>
   <tile/>
   <tile/>
   <tile/>
   <tile/>
   <tile/>
   <tile/>
   <tile/>
   <tile/>
   <tile/>
   <tile/>
   <tile/>
   <tile/>
   <tile/>
   <tile/>
   <tile/>
   <tile/>
   <tile/>
   <tile/>
   <tile/>
   <tile/>
   <tile/>
   <tile/>
   <tile/>
   <tile/>
   <tile/>
   <tile/>
   <tile/>
   <tile/>
   <tile/>
   <tile/>
   <tile/>
   <tile/>
   <tile/>
   <tile/>
   <tile/>
   <tile/>
   <tile/>
   <tile/>
   <tile/>
   <tile/>
   <tile/>
   <tile/>
   <tile/>
   <tile/>
   <tile/>
   <tile/>
   <tile/>
   <tile/>
   <tile/>
   <tile/>
   <tile/>
   <tile/>
   <tile/>
   <tile/>
   <tile/>
   <tile/>
   <tile/>
   <tile/>
   <tile/>
   <tile/>
   <tile/>
   <tile/>
   <tile/>
   <tile/>
   <tile/>
   <tile/>
   <tile/>
   <tile/>
   <tile/>
   <tile/>
   <tile/>
   <tile/>
   <tile/>
   <tile/>
   <tile/>
   <tile/>
   <tile/>
   <tile/>
   <tile/>
   <tile/>
   <tile/>
   <tile/>
   <tile/>
   <tile/>
   <tile/>
   <tile/>
   <tile/>
   <tile/>
   <tile/>
   <tile/>
   <tile/>
   <tile/>
   <tile/>
   <tile/>
   <tile/>
   <tile/>
   <tile/>
   <tile/>
   <tile/>
   <tile/>
   <tile/>
   <tile/>
   <tile/>
   <tile/>
   <tile/>
   <tile/>
   <tile/>
   <tile/>
   <tile/>
   <tile/>
   <tile/>
   <tile/>
   <tile/>
   <tile/>
   <tile/>
   <tile/>
   <tile/>
   <tile/>
   <tile/>
   <tile/>
   <tile/>
   <tile/>
   <tile/>
   <tile/>
   <tile/>
   <tile/>
   <tile/>
   <tile/>
   <tile/>
   <tile/>
   <tile/>
   <tile/>
   <tile/>
   <tile/>
   <tile/>
   <tile/>
   <tile/>
   <tile/>
   <tile/>
   <tile/>
   <tile/>
   <tile/>
   <tile/>
   <tile/>
   <tile/>
   <tile/>
   <tile/>
   <tile/>
   <tile/>
   <tile/>
   <tile/>
   <tile/>
   <tile/>
   <tile/>
   <tile/>
   <tile/>
   <tile/>
   <tile/>
   <tile/>
   <tile/>
   <tile/>
   <tile/>
   <tile/>
   <tile/>
   <tile/>
   <tile/>
   <tile/>
   <tile/>
   <tile/>
   <tile/>
   <tile/>
   <tile/>
   <tile/>
   <tile/>
   <tile/>
   <tile/>
   <tile/>
   <tile/>
   <tile/>
   <tile/>
   <tile/>
   <tile/>
   <tile/>
   <tile/>
   <tile/>
   <tile/>
   <tile/>
   <tile/>
   <tile/>
   <tile/>
   <tile/>
   <tile/>
   <tile/>
   <tile/>
   <tile/>
   <tile/>
   <tile/>
   <tile/>
   <tile/>
   <tile/>
   <tile/>
   <tile/>
   <tile/>
   <tile/>
   <tile/>
   <tile/>
   <tile/>
   <tile/>
   <tile/>
   <tile/>
   <tile/>
   <tile/>
   <tile/>
   <tile/>
   <tile/>
   <tile/>
   <tile/>
   <tile/>
   <tile/>
   <tile/>
   <tile/>
   <tile/>
   <tile/>
   <tile/>
   <tile/>
   <tile/>
   <tile/>
   <tile/>
   <tile/>
   <tile/>
   <tile/>
   <tile/>
   <tile/>
   <tile/>
   <tile/>
   <tile/>
   <tile/>
   <tile/>
   <tile/>
   <tile/>
   <tile/>
   <tile/>
   <tile/>
   <tile/>
   <tile/>
   <tile/>
   <tile/>
   <tile/>
   <tile/>
   <tile/>
   <tile/>
   <tile/>
   <tile/>
   <tile/>
   <tile/>
   <tile/>
   <tile/>
   <tile/>
   <tile/>
   <tile/>
   <tile/>
   <tile/>
   <tile/>
   <tile/>
   <tile/>
   <tile/>
   <tile/>
   <tile/>
   <tile/>
   <tile/>
   <tile/>
   <tile/>
   <tile/>
   <tile/>
   <tile/>
   <tile/>
   <tile/>
   <tile/>
   <tile/>
   <tile/>
   <tile/>
   <tile/>
   <tile/>
   <tile/>
   <tile/>
   <tile/>
   <tile/>
   <tile/>
   <tile/>
   <tile/>
   <tile/>
   <tile/>
   <tile/>
   <tile/>
   <tile/>
   <tile/>
   <tile/>
   <tile/>
   <tile/>
   <tile/>
   <tile/>
   <tile/>
   <tile/>
   <tile/>
   <tile/>
   <tile/>
   <tile/>
   <tile/>
   <tile/>
   <tile/>
   <tile/>
   <tile/>
   <tile/>
   <tile/>
   <tile/>
   <tile/>
   <tile/>
   <tile/>
   <tile/>
   <tile/>
   <tile/>
   <tile/>
   <tile/>
   <tile/>
   <tile/>
   <tile/>
   <tile/>
   <tile/>
   <tile/>
   <tile/>
   <tile/>
   <tile/>
   <tile/>
   <tile/>
   <tile/>
   <tile/>
   <tile/>
   <tile/>
   <tile/>
   <tile/>
   <tile/>
   <tile/>
   <tile/>
   <tile/>
   <tile/>
   <tile/>
   <tile/>
   <tile/>
   <tile/>
   <tile/>
   <tile/>
   <tile/>
   <tile/>
   <tile/>
   <tile/>
   <tile/>
   <tile/>
   <tile/>
   <tile/>
   <tile/>
   <tile/>
   <tile/>
   <tile/>
   <tile/>
   <tile/>
   <tile/>
   <tile/>
   <tile/>
   <tile/>
   <tile/>
   <tile/>
   <tile/>
   <tile/>
   <tile/>
   <tile/>
   <tile/>
   <tile/>
   <tile/>
   <tile/>
   <tile/>
   <tile/>
   <tile/>
   <tile/>
   <tile/>
   <tile/>
   <tile/>
   <tile/>
   <tile/>
   <tile/>
   <tile/>
   <tile/>
   <tile/>
   <tile/>
   <tile/>
   <tile/>
   <tile/>
   <tile/>
   <tile/>
   <tile/>
   <tile/>
   <tile/>
   <tile/>
   <tile/>
   <tile/>
   <tile/>
   <tile/>
   <tile/>
   <tile/>
   <tile/>
   <tile/>
   <tile/>
   <tile/>
   <tile/>
   <tile/>
   <tile/>
   <tile/>
   <tile/>
   <tile/>
   <tile/>
   <tile/>
   <tile/>
   <tile/>
   <tile/>
   <tile/>
   <tile/>
   <tile/>
   <tile/>
   <tile/>
   <tile/>
   <tile/>
   <tile/>
   <tile/>
   <tile/>
   <tile/>
   <tile/>
   <tile/>
   <tile/>
   <tile/>
   <tile/>
   <tile/>
   <tile/>
   <tile/>
   <tile/>
   <tile/>
   <tile/>
   <tile/>
   <tile/>
   <tile/>
   <tile/>
   <tile/>
   <tile/>
   <tile/>
   <tile/>
   <tile/>
   <tile/>
   <tile/>
   <tile/>
   <tile/>
   <tile/>
   <tile/>
   <tile/>
   <tile/>
   <tile/>
   <tile/>
   <tile/>
   <tile/>
   <tile/>
   <tile/>
   <tile/>
   <tile/>
   <tile/>
   <tile/>
   <tile/>
   <tile/>
   <tile/>
   <tile/>
   <tile/>
   <tile/>
   <tile/>
   <tile/>
   <tile/>
   <tile/>
   <tile/>
   <tile/>
   <tile/>
   <tile/>
   <tile/>
   <tile/>
   <tile/>
   <tile/>
   <tile/>
   <tile/>
   <tile/>
   <tile/>
   <tile/>
   <tile/>
   <tile/>
   <tile/>
   <tile/>
   <tile/>
   <tile/>
   <tile/>
   <tile/>
   <tile/>
   <tile/>
   <tile/>
   <tile/>
   <tile/>
   <tile/>
   <tile/>
   <tile/>
   <tile/>
   <tile/>
   <tile/>
   <tile/>
   <tile/>
   <tile/>
   <tile/>
   <tile/>
   <tile/>
   <tile/>
   <tile/>
   <tile/>
   <tile/>
   <tile/>
   <tile/>
   <tile/>
   <tile/>
   <tile/>
   <tile/>
   <tile/>
   <tile/>
   <tile/>
   <tile/>
   <tile/>
   <tile/>
   <tile/>
   <tile/>
   <tile/>
   <tile/>
   <tile/>
   <tile/>
   <tile/>
   <tile/>
   <tile/>
   <tile/>
   <tile/>
   <tile/>
   <tile/>
   <tile/>
   <tile/>
   <tile/>
   <tile/>
   <tile/>
   <tile/>
   <tile/>
   <tile/>
   <tile/>
   <tile/>
   <tile/>
   <tile/>
   <tile/>
   <tile/>
   <tile/>
   <tile/>
   <tile/>
   <tile/>
   <tile/>
   <tile/>
   <tile/>
   <tile/>
   <tile/>
   <tile/>
   <tile/>
   <tile/>
   <tile/>
   <tile/>
   <tile/>
   <tile/>
   <tile/>
   <tile/>
   <tile/>
   <tile/>
   <tile/>
   <tile/>
   <tile/>
   <tile/>
   <tile/>
   <tile/>
   <tile/>
   <tile/>
   <tile/>
   <tile/>
   <tile/>
   <tile/>
   <tile/>
   <tile/>
   <tile/>
   <tile/>
   <tile/>
   <tile/>
   <tile/>
   <tile/>
   <tile/>
   <tile/>
   <tile/>
   <tile/>
   <tile/>
   <tile/>
   <tile/>
   <tile/>
   <tile/>
   <tile/>
   <tile/>
   <tile/>
   <tile/>
   <tile/>
   <tile/>
   <tile/>
   <tile/>
   <tile/>
   <tile/>
   <tile/>
   <tile/>
   <tile/>
   <tile/>
   <tile/>
   <tile/>
   <tile/>
   <tile/>
   <tile/>
   <tile/>
   <tile/>
   <tile/>
   <tile/>
   <tile/>
   <tile/>
   <tile/>
   <tile/>
   <tile/>
   <tile/>
   <tile/>
   <tile/>
   <tile/>
   <tile/>
   <tile/>
   <tile/>
   <tile/>
   <tile/>
   <tile/>
   <tile/>
   <tile/>
   <tile/>
   <tile/>
   <tile/>
   <tile/>
   <tile/>
   <tile/>
   <tile/>
   <tile/>
   <tile/>
   <tile/>
   <tile/>
   <tile/>
   <tile/>
   <tile/>
   <tile/>
   <tile/>
   <tile/>
   <tile/>
   <tile/>
   <tile/>
   <tile/>
   <tile/>
   <tile/>
   <tile/>
   <tile/>
   <tile/>
   <tile/>
   <tile/>
   <tile/>
   <tile/>
   <tile/>
   <tile/>
   <tile/>
   <tile/>
   <tile/>
   <tile/>
   <tile/>
   <tile/>
   <tile/>
   <tile/>
   <tile/>
   <tile/>
   <tile/>
   <tile/>
   <tile/>
   <tile/>
   <tile/>
   <tile/>
   <tile/>
   <tile/>
   <tile/>
   <tile/>
   <tile/>
   <tile/>
   <tile/>
   <tile/>
   <tile/>
   <tile/>
   <tile/>
   <tile/>
   <tile/>
   <tile/>
   <tile/>
   <tile/>
   <tile/>
   <tile/>
   <tile/>
   <tile/>
   <tile/>
   <tile/>
   <tile/>
   <tile/>
   <tile/>
   <tile/>
   <tile/>
   <tile/>
   <tile/>
   <tile/>
   <tile/>
   <tile/>
   <tile/>
   <tile/>
   <tile/>
   <tile/>
   <tile/>
   <tile/>
   <tile/>
   <tile/>
   <tile/>
   <tile/>
   <tile/>
   <tile/>
   <tile/>
   <tile/>
   <tile/>
   <tile/>
   <tile/>
   <tile/>
   <tile/>
   <tile/>
   <tile/>
   <tile/>
   <tile/>
   <tile/>
   <tile/>
   <tile/>
   <tile/>
   <tile/>
   <tile/>
   <tile/>
   <tile/>
   <tile/>
   <tile/>
   <tile/>
   <tile/>
   <tile/>
   <tile/>
   <tile/>
   <tile/>
   <tile/>
   <tile/>
   <tile/>
   <tile/>
   <tile/>
   <tile/>
   <tile/>
   <tile/>
   <tile/>
   <tile/>
   <tile/>
   <tile/>
   <tile/>
   <tile/>
   <tile/>
   <tile/>
   <tile/>
   <tile/>
   <tile/>
   <tile/>
   <tile/>
   <tile/>
   <tile/>
   <tile/>
   <tile/>
   <tile/>
   <tile/>
   <tile/>
   <tile/>
   <tile/>
   <tile/>
   <tile/>
   <tile/>
   <tile/>
   <tile/>
   <tile/>
   <tile/>
   <tile/>
   <tile/>
   <tile/>
   <tile/>
   <tile/>
   <tile/>
   <tile/>
   <tile/>
   <tile/>
   <tile/>
   <tile/>
   <tile/>
   <tile/>
   <tile/>
   <tile/>
   <tile/>
   <tile/>
   <tile/>
   <tile/>
   <tile/>
   <tile/>
   <tile/>
   <tile/>
   <tile/>
   <tile/>
   <tile/>
   <tile/>
   <tile/>
   <tile/>
   <tile/>
   <tile/>
   <tile/>
   <tile/>
   <tile/>
   <tile/>
   <tile/>
   <tile/>
   <tile/>
   <tile/>
   <tile/>
   <tile/>
   <tile/>
   <tile/>
   <tile/>
   <tile/>
   <tile/>
   <tile/>
   <tile/>
   <tile/>
   <tile/>
   <tile/>
   <tile/>
   <tile/>
   <tile/>
   <tile/>
   <tile/>
   <tile/>
   <tile/>
   <tile/>
   <tile/>
   <tile/>
   <tile/>
   <tile/>
   <tile/>
   <tile/>
   <tile/>
   <tile/>
   <tile/>
   <tile/>
   <tile/>
   <tile/>
   <tile/>
   <tile/>
   <tile/>
   <tile/>
   <tile/>
   <tile/>
   <tile/>
   <tile/>
   <tile/>
   <tile/>
   <tile/>
   <tile/>
   <tile/>
   <tile/>
   <tile/>
   <tile/>
   <tile/>
   <tile/>
   <tile/>
   <tile/>
   <tile/>
   <tile/>
   <tile/>
   <tile/>
   <tile/>
   <tile/>
   <tile/>
   <tile/>
   <tile/>
   <tile/>
   <tile/>
   <tile/>
   <tile/>
   <tile/>
   <tile/>
   <tile/>
   <tile/>
   <tile/>
   <tile/>
   <tile/>
   <tile/>
   <tile/>
   <tile/>
   <tile/>
   <tile/>
   <tile/>
   <tile/>
   <tile/>
   <tile/>
   <tile/>
   <tile/>
   <tile/>
   <tile/>
   <tile/>
   <tile/>
   <tile/>
   <tile/>
   <tile/>
   <tile/>
   <tile/>
   <tile/>
   <tile/>
   <tile/>
   <tile/>
   <tile/>
   <tile/>
   <tile/>
   <tile/>
   <tile/>
   <tile/>
   <tile/>
   <tile/>
   <tile/>
   <tile/>
   <tile/>
   <tile/>
   <tile/>
   <tile/>
   <tile/>
   <tile/>
   <tile/>
   <tile/>
   <tile/>
   <tile/>
   <tile/>
   <tile/>
   <tile/>
   <tile/>
   <tile/>
   <tile/>
   <tile/>
   <tile/>
   <tile/>
   <tile/>
   <tile/>
   <tile/>
   <tile/>
   <tile/>
   <tile/>
   <tile/>
   <tile/>
   <tile/>
   <tile/>
   <tile/>
   <tile/>
   <tile/>
   <tile/>
   <tile/>
   <tile/>
   <tile/>
   <tile/>
   <tile/>
   <tile/>
   <tile/>
   <tile/>
   <tile/>
   <tile/>
   <tile/>
   <tile/>
   <tile/>
   <tile/>
   <tile/>
   <tile/>
   <tile/>
   <tile/>
   <tile/>
   <tile/>
   <tile/>
   <tile/>
   <tile/>
   <tile/>
   <tile/>
   <tile/>
   <tile/>
   <tile/>
   <tile/>
   <tile/>
   <tile/>
   <tile/>
   <tile/>
   <tile/>
   <tile/>
   <tile/>
   <tile/>
   <tile/>
   <tile/>
   <tile/>
   <tile/>
   <tile/>
   <tile/>
   <tile/>
   <tile/>
   <tile/>
   <tile/>
   <tile/>
   <tile/>
   <tile/>
   <tile/>
   <tile/>
   <tile/>
   <tile/>
   <tile/>
   <tile/>
   <tile/>
   <tile/>
   <tile/>
   <tile/>
   <tile/>
   <tile/>
   <tile/>
   <tile/>
   <tile/>
   <tile/>
   <tile/>
   <tile/>
   <tile/>
   <tile/>
   <tile/>
   <tile/>
   <tile/>
   <tile/>
   <tile/>
   <tile/>
   <tile/>
   <tile/>
   <tile/>
   <tile/>
   <tile/>
   <tile/>
   <tile/>
   <tile/>
   <tile/>
   <tile/>
   <tile/>
   <tile/>
   <tile/>
   <tile/>
   <tile/>
   <tile/>
   <tile/>
   <tile/>
   <tile/>
   <tile/>
   <tile/>
   <tile/>
   <tile/>
   <tile/>
   <tile gid="6"/>
   <tile gid="24"/>
   <tile gid="29"/>
   <tile gid="24"/>
   <tile gid="24"/>
   <tile gid="24"/>
   <tile gid="2147483654"/>
   <tile/>
   <tile/>
   <tile/>
   <tile/>
   <tile/>
   <tile/>
   <tile/>
   <tile/>
   <tile/>
   <tile/>
   <tile/>
   <tile/>
   <tile/>
   <tile/>
   <tile/>
   <tile/>
   <tile/>
   <tile/>
   <tile/>
   <tile/>
   <tile/>
   <tile/>
   <tile/>
   <tile/>
   <tile/>
   <tile/>
   <tile/>
   <tile/>
   <tile/>
   <tile/>
   <tile/>
   <tile/>
   <tile/>
   <tile/>
   <tile/>
   <tile/>
   <tile/>
   <tile/>
   <tile/>
   <tile/>
   <tile/>
   <tile/>
   <tile/>
   <tile/>
   <tile/>
   <tile/>
   <tile/>
   <tile/>
   <tile/>
   <tile/>
   <tile/>
   <tile/>
   <tile/>
   <tile/>
   <tile/>
   <tile/>
   <tile/>
   <tile/>
   <tile/>
   <tile/>
   <tile/>
   <tile/>
   <tile/>
   <tile/>
   <tile/>
   <tile/>
   <tile/>
   <tile/>
   <tile/>
   <tile/>
   <tile/>
   <tile/>
   <tile/>
   <tile/>
   <tile/>
   <tile/>
   <tile/>
   <tile/>
   <tile/>
   <tile/>
   <tile/>
   <tile/>
   <tile/>
   <tile/>
   <tile/>
   <tile/>
   <tile/>
   <tile/>
   <tile/>
   <tile/>
   <tile/>
   <tile/>
   <tile/>
   <tile/>
   <tile/>
   <tile/>
   <tile/>
   <tile/>
   <tile/>
   <tile/>
   <tile/>
   <tile/>
   <tile/>
   <tile/>
   <tile/>
   <tile/>
   <tile/>
   <tile/>
   <tile/>
   <tile/>
   <tile/>
   <tile/>
   <tile/>
   <tile/>
   <tile/>
   <tile/>
   <tile/>
   <tile/>
   <tile/>
   <tile/>
   <tile/>
   <tile/>
   <tile/>
   <tile/>
   <tile/>
   <tile/>
   <tile/>
   <tile/>
   <tile/>
   <tile/>
   <tile/>
   <tile/>
   <tile/>
   <tile/>
   <tile/>
   <tile/>
   <tile/>
   <tile/>
   <tile/>
   <tile/>
   <tile/>
   <tile/>
   <tile/>
   <tile/>
   <tile/>
   <tile/>
   <tile gid="1073741830"/>
   <tile gid="1073741853"/>
   <tile gid="1073741848"/>
   <tile gid="1073741848"/>
   <tile gid="1073741853"/>
   <tile gid="1073741853"/>
   <tile gid="3221225478"/>
   <tile/>
   <tile/>
   <tile/>
   <tile/>
   <tile/>
   <tile/>
   <tile/>
   <tile/>
   <tile/>
   <tile/>
   <tile/>
   <tile/>
   <tile/>
   <tile/>
   <tile/>
   <tile/>
   <tile/>
   <tile/>
   <tile/>
   <tile/>
   <tile/>
   <tile/>
   <tile/>
   <tile/>
   <tile/>
   <tile/>
   <tile/>
   <tile/>
   <tile/>
   <tile/>
   <tile/>
   <tile/>
   <tile/>
   <tile/>
   <tile/>
   <tile/>
   <tile/>
   <tile/>
   <tile/>
   <tile/>
   <tile/>
   <tile/>
   <tile/>
   <tile/>
   <tile/>
   <tile/>
   <tile/>
   <tile/>
   <tile/>
   <tile/>
   <tile/>
   <tile/>
   <tile/>
   <tile/>
   <tile/>
   <tile/>
   <tile/>
   <tile/>
   <tile/>
   <tile/>
   <tile/>
   <tile/>
   <tile/>
   <tile/>
   <tile/>
   <tile/>
   <tile/>
   <tile/>
   <tile/>
   <tile/>
   <tile/>
   <tile/>
   <tile/>
   <tile/>
   <tile/>
   <tile/>
   <tile/>
   <tile/>
   <tile/>
   <tile/>
   <tile/>
   <tile/>
   <tile/>
   <tile/>
   <tile/>
   <tile/>
   <tile/>
   <tile/>
   <tile/>
   <tile/>
   <tile/>
   <tile/>
   <tile/>
   <tile/>
   <tile/>
   <tile/>
   <tile/>
   <tile/>
   <tile/>
   <tile/>
   <tile/>
   <tile/>
   <tile/>
   <tile/>
   <tile/>
   <tile/>
   <tile/>
   <tile/>
   <tile/>
   <tile/>
   <tile/>
   <tile/>
   <tile/>
   <tile/>
   <tile/>
   <tile/>
   <tile/>
   <tile/>
   <tile/>
   <tile/>
   <tile/>
   <tile/>
   <tile/>
   <tile/>
   <tile/>
   <tile/>
   <tile/>
   <tile/>
   <tile/>
   <tile/>
   <tile/>
   <tile/>
   <tile/>
   <tile/>
   <tile/>
   <tile/>
   <tile/>
   <tile/>
   <tile/>
   <tile/>
   <tile/>
   <tile/>
   <tile/>
   <tile/>
   <tile/>
   <tile/>
   <tile/>
   <tile/>
   <tile/>
   <tile/>
   <tile/>
   <tile/>
   <tile/>
   <tile/>
   <tile/>
   <tile/>
   <tile/>
   <tile/>
   <tile/>
   <tile/>
   <tile/>
   <tile/>
   <tile/>
   <tile/>
   <tile/>
   <tile/>
   <tile/>
   <tile/>
   <tile/>
   <tile/>
   <tile/>
   <tile/>
   <tile/>
   <tile/>
   <tile/>
   <tile/>
   <tile/>
   <tile/>
   <tile/>
   <tile/>
   <tile/>
   <tile/>
   <tile/>
   <tile/>
   <tile/>
   <tile/>
   <tile/>
   <tile/>
   <tile/>
   <tile/>
   <tile/>
   <tile/>
   <tile/>
   <tile/>
   <tile/>
   <tile/>
   <tile/>
   <tile/>
   <tile/>
   <tile/>
   <tile/>
   <tile/>
   <tile/>
   <tile/>
   <tile/>
   <tile/>
   <tile/>
   <tile/>
   <tile/>
   <tile/>
   <tile/>
   <tile/>
   <tile/>
   <tile/>
   <tile/>
   <tile/>
   <tile/>
   <tile/>
   <tile/>
   <tile/>
   <tile/>
   <tile/>
   <tile/>
   <tile/>
   <tile/>
   <tile/>
   <tile/>
   <tile/>
   <tile/>
   <tile/>
   <tile/>
   <tile/>
   <tile/>
   <tile/>
   <tile/>
   <tile/>
   <tile/>
   <tile/>
   <tile/>
   <tile/>
   <tile/>
   <tile/>
   <tile/>
   <tile/>
   <tile/>
   <tile/>
   <tile/>
   <tile/>
   <tile/>
   <tile/>
   <tile/>
   <tile/>
   <tile/>
   <tile/>
   <tile/>
   <tile/>
   <tile/>
   <tile/>
   <tile/>
   <tile/>
   <tile/>
   <tile/>
   <tile/>
   <tile/>
   <tile/>
   <tile/>
   <tile/>
   <tile/>
   <tile/>
   <tile/>
   <tile/>
   <tile/>
   <tile/>
   <tile/>
   <tile/>
   <tile/>
   <tile/>
   <tile/>
   <tile/>
   <tile/>
   <tile/>
   <tile/>
   <tile/>
   <tile/>
   <tile/>
   <tile/>
   <tile/>
   <tile/>
   <tile/>
   <tile/>
   <tile/>
   <tile/>
   <tile/>
   <tile/>
   <tile/>
   <tile/>
   <tile gid="166"/>
   <tile gid="167"/>
   <tile gid="2147483815"/>
   <tile gid="2147483814"/>
   <tile gid="166"/>
   <tile gid="167"/>
   <tile gid="2147483815"/>
   <tile gid="2147483814"/>
   <tile gid="166"/>
   <tile gid="167"/>
   <tile gid="2147483815"/>
   <tile gid="2147483814"/>
   <tile gid="166"/>
   <tile/>
   <tile/>
   <tile/>
   <tile/>
   <tile/>
   <tile/>
   <tile/>
   <tile/>
   <tile/>
   <tile/>
   <tile/>
   <tile/>
   <tile/>
   <tile/>
   <tile/>
   <tile/>
   <tile/>
   <tile/>
   <tile/>
   <tile/>
   <tile/>
   <tile/>
   <tile/>
   <tile/>
   <tile/>
   <tile/>
   <tile/>
   <tile/>
   <tile/>
   <tile/>
   <tile/>
   <tile/>
   <tile/>
   <tile/>
   <tile/>
   <tile/>
   <tile/>
   <tile/>
   <tile/>
   <tile/>
   <tile/>
   <tile/>
   <tile/>
   <tile/>
   <tile/>
   <tile/>
   <tile/>
   <tile/>
   <tile/>
   <tile/>
   <tile/>
   <tile/>
   <tile/>
   <tile/>
   <tile/>
   <tile/>
   <tile/>
   <tile/>
   <tile/>
   <tile/>
   <tile/>
   <tile/>
   <tile/>
   <tile/>
   <tile/>
   <tile/>
   <tile/>
   <tile/>
   <tile/>
   <tile/>
   <tile/>
   <tile/>
   <tile/>
   <tile/>
   <tile/>
   <tile/>
   <tile/>
   <tile/>
   <tile/>
   <tile/>
   <tile/>
   <tile/>
   <tile/>
   <tile/>
   <tile/>
   <tile/>
   <tile/>
   <tile/>
   <tile/>
   <tile/>
   <tile/>
   <tile/>
   <tile/>
   <tile/>
   <tile/>
   <tile/>
   <tile/>
   <tile/>
   <tile/>
   <tile/>
   <tile/>
   <tile/>
   <tile/>
   <tile/>
   <tile/>
   <tile/>
   <tile/>
   <tile/>
   <tile/>
   <tile/>
   <tile/>
   <tile/>
   <tile/>
   <tile/>
   <tile/>
   <tile/>
   <tile/>
   <tile/>
   <tile/>
   <tile/>
   <tile/>
   <tile/>
   <tile/>
   <tile/>
   <tile/>
   <tile/>
   <tile/>
   <tile/>
   <tile/>
   <tile/>
   <tile/>
   <tile/>
   <tile/>
   <tile/>
   <tile/>
   <tile/>
   <tile/>
   <tile/>
   <tile/>
   <tile/>
   <tile gid="174"/>
   <tile gid="175"/>
   <tile gid="2147483823"/>
   <tile gid="2147483822"/>
   <tile gid="174"/>
   <tile gid="175"/>
   <tile gid="2147483823"/>
   <tile gid="2147483822"/>
   <tile gid="174"/>
   <tile gid="175"/>
   <tile gid="2147483823"/>
   <tile gid="2147483822"/>
   <tile gid="174"/>
   <tile/>
   <tile/>
   <tile/>
   <tile/>
   <tile/>
   <tile/>
   <tile/>
   <tile/>
   <tile/>
   <tile/>
   <tile/>
   <tile/>
   <tile/>
   <tile/>
   <tile/>
   <tile/>
   <tile/>
   <tile/>
   <tile/>
   <tile/>
   <tile/>
   <tile/>
   <tile/>
   <tile/>
   <tile/>
   <tile/>
   <tile/>
   <tile/>
   <tile/>
   <tile/>
   <tile/>
   <tile/>
   <tile/>
   <tile/>
   <tile/>
   <tile/>
   <tile/>
   <tile/>
   <tile/>
   <tile/>
   <tile/>
   <tile/>
   <tile/>
   <tile/>
   <tile/>
   <tile/>
   <tile/>
   <tile/>
   <tile/>
   <tile/>
   <tile/>
   <tile/>
   <tile/>
   <tile/>
   <tile/>
   <tile/>
   <tile/>
   <tile/>
   <tile/>
   <tile/>
   <tile/>
   <tile/>
   <tile/>
   <tile/>
   <tile/>
   <tile/>
   <tile/>
   <tile/>
   <tile/>
   <tile/>
   <tile/>
   <tile/>
   <tile/>
   <tile/>
   <tile/>
   <tile/>
   <tile/>
   <tile/>
   <tile/>
   <tile/>
   <tile/>
   <tile/>
   <tile/>
   <tile/>
   <tile/>
   <tile/>
   <tile/>
   <tile/>
   <tile/>
   <tile/>
   <tile/>
   <tile/>
   <tile/>
   <tile/>
   <tile/>
   <tile/>
   <tile/>
   <tile/>
   <tile/>
   <tile/>
   <tile/>
   <tile/>
   <tile/>
   <tile/>
   <tile/>
   <tile/>
   <tile/>
   <tile/>
   <tile/>
   <tile/>
   <tile/>
   <tile/>
   <tile/>
   <tile/>
   <tile/>
   <tile/>
   <tile/>
   <tile/>
   <tile/>
   <tile/>
   <tile/>
   <tile/>
   <tile/>
   <tile/>
   <tile/>
   <tile/>
   <tile/>
   <tile/>
   <tile/>
   <tile/>
   <tile/>
   <tile/>
   <tile/>
   <tile/>
   <tile/>
   <tile/>
   <tile/>
   <tile/>
   <tile/>
   <tile/>
   <tile gid="1073741998"/>
   <tile gid="1073741999"/>
   <tile gid="3221225647"/>
   <tile gid="3221225646"/>
   <tile gid="1073741998"/>
   <tile gid="1073741999"/>
   <tile gid="3221225647"/>
   <tile gid="3221225646"/>
   <tile gid="1073741998"/>
   <tile gid="1073741999"/>
   <tile gid="3221225647"/>
   <tile gid="3221225646"/>
   <tile gid="1073741998"/>
   <tile/>
   <tile/>
   <tile/>
   <tile/>
   <tile/>
   <tile/>
   <tile/>
   <tile/>
   <tile/>
   <tile/>
   <tile/>
   <tile/>
   <tile/>
   <tile/>
   <tile/>
   <tile/>
   <tile/>
   <tile/>
   <tile/>
   <tile/>
   <tile/>
   <tile/>
   <tile/>
   <tile/>
   <tile/>
   <tile/>
   <tile/>
   <tile/>
   <tile/>
   <tile/>
   <tile/>
   <tile/>
   <tile/>
   <tile/>
   <tile/>
   <tile/>
   <tile/>
   <tile/>
   <tile/>
   <tile/>
   <tile/>
   <tile/>
   <tile/>
   <tile/>
   <tile/>
   <tile/>
   <tile/>
   <tile/>
   <tile/>
   <tile/>
   <tile/>
   <tile/>
   <tile/>
   <tile/>
   <tile/>
   <tile/>
   <tile/>
   <tile/>
   <tile/>
   <tile/>
   <tile/>
   <tile/>
   <tile/>
   <tile/>
   <tile/>
   <tile/>
   <tile/>
   <tile/>
   <tile/>
   <tile/>
   <tile/>
   <tile/>
   <tile/>
   <tile/>
   <tile/>
   <tile/>
   <tile/>
   <tile/>
   <tile/>
   <tile/>
   <tile/>
   <tile/>
   <tile/>
   <tile/>
   <tile/>
   <tile/>
   <tile/>
   <tile/>
   <tile/>
   <tile/>
   <tile/>
   <tile/>
   <tile/>
   <tile/>
   <tile/>
   <tile/>
   <tile/>
   <tile/>
   <tile/>
   <tile/>
   <tile/>
   <tile/>
   <tile/>
   <tile/>
   <tile/>
   <tile/>
   <tile/>
   <tile/>
   <tile/>
   <tile/>
   <tile/>
   <tile/>
   <tile/>
   <tile/>
   <tile/>
   <tile/>
   <tile/>
   <tile/>
   <tile/>
   <tile/>
   <tile/>
   <tile/>
   <tile/>
   <tile/>
   <tile/>
   <tile/>
   <tile/>
   <tile/>
   <tile/>
   <tile/>
   <tile/>
   <tile/>
   <tile/>
   <tile/>
   <tile/>
   <tile/>
   <tile/>
   <tile/>
   <tile/>
   <tile/>
   <tile gid="174"/>
   <tile gid="175"/>
   <tile gid="2147483823"/>
   <tile gid="2147483822"/>
   <tile gid="174"/>
   <tile gid="175"/>
   <tile gid="2147483823"/>
   <tile gid="2147483822"/>
   <tile gid="174"/>
   <tile gid="175"/>
   <tile gid="2147483823"/>
   <tile gid="2147483822"/>
   <tile gid="174"/>
   <tile/>
   <tile/>
   <tile/>
   <tile/>
   <tile/>
   <tile/>
   <tile/>
   <tile/>
   <tile/>
   <tile/>
   <tile/>
   <tile/>
   <tile/>
   <tile/>
   <tile/>
   <tile/>
   <tile/>
   <tile/>
   <tile/>
   <tile/>
   <tile/>
   <tile gid="166"/>
   <tile gid="167"/>
   <tile gid="2147483815"/>
   <tile gid="2147483814"/>
   <tile gid="166"/>
   <tile gid="167"/>
   <tile gid="2147483815"/>
   <tile gid="2147483814"/>
   <tile gid="166"/>
   <tile gid="167"/>
   <tile gid="2147483815"/>
   <tile gid="2147483814"/>
   <tile gid="166"/>
   <tile gid="167"/>
   <tile gid="2147483815"/>
   <tile gid="2147483814"/>
   <tile gid="166"/>
   <tile/>
   <tile/>
   <tile/>
   <tile/>
   <tile/>
   <tile/>
   <tile/>
   <tile/>
   <tile/>
   <tile/>
   <tile/>
   <tile/>
   <tile/>
   <tile/>
   <tile/>
   <tile/>
   <tile/>
   <tile/>
   <tile/>
   <tile/>
   <tile/>
   <tile/>
   <tile/>
   <tile/>
   <tile/>
   <tile/>
   <tile/>
   <tile/>
   <tile/>
   <tile/>
   <tile/>
   <tile/>
   <tile/>
   <tile/>
   <tile/>
   <tile/>
   <tile/>
   <tile/>
   <tile/>
   <tile/>
   <tile/>
   <tile/>
   <tile/>
   <tile/>
   <tile/>
   <tile/>
   <tile/>
   <tile/>
   <tile/>
   <tile/>
   <tile/>
   <tile/>
   <tile/>
   <tile/>
   <tile/>
   <tile/>
   <tile/>
   <tile/>
   <tile/>
   <tile/>
   <tile/>
   <tile/>
   <tile/>
   <tile/>
   <tile/>
   <tile/>
   <tile/>
   <tile/>
   <tile/>
   <tile/>
   <tile/>
   <tile/>
   <tile/>
   <tile/>
   <tile/>
   <tile/>
   <tile/>
   <tile/>
   <tile/>
   <tile/>
   <tile/>
   <tile/>
   <tile/>
   <tile/>
   <tile/>
   <tile/>
   <tile/>
   <tile/>
   <tile/>
   <tile/>
  </data>
 </layer>
 <objectgroup id="42" name="Fondos4-F-Cascada">
  <properties>
   <property name="BG" type="bool" value="true"/>
   <property name="Draw" type="bool" value="true"/>
   <property name="Front" type="bool" value="true"/>
   <property name="Paralax" type="float" value="1"/>
  </properties>
  <object id="1021" gid="2147483785" x="13914.9" y="982.777" width="333.591" height="333.591"/>
  <object id="1022" gid="3221225609" x="13914.2" y="1314.18" width="333.591" height="333.591"/>
  <object id="1026" gid="3221225609" x="13859" y="2670.79" width="384" height="384"/>
  <object id="1027" gid="2147483785" x="13859" y="2286.79" width="384" height="384"/>
  <object id="1028" gid="2147483789" x="13570.3" y="2045.8" width="342.485" height="432.485"/>
  <object id="1029" gid="3221225613" x="13572.3" y="2472.65" width="341.576" height="432.485"/>
  <object id="1038" gid="2147483785" x="12864.9" y="965.53" width="542" height="542"/>
  <object id="1039" gid="3221225609" x="12871.9" y="1498.53" width="542" height="542"/>
  <object id="1040" gid="137" x="12587" y="1426.14" width="542" height="542"/>
  <object id="1041" gid="1073741961" x="12580" y="1959.14" width="542" height="542"/>
  <object id="1044" gid="145" x="12870" y="1424" width="428" height="410"/>
  <object id="1045" gid="1073741969" x="12906" y="1820" width="396" height="404"/>
  <object id="1046" gid="141" x="14538.7" y="1928.18" width="401" height="404"/>
  <object id="1047" gid="1073741965" x="14505" y="2353" width="412" height="430"/>
  <object id="1058" gid="141" x="11909.9" y="1787.09" width="401" height="404"/>
  <object id="1059" gid="1073741965" x="11900.8" y="2212.76" width="412" height="430"/>
  <object id="1060" gid="2147483789" x="11716.1" y="1667.88" width="523.394" height="523.394"/>
  <object id="1061" gid="3221225613" x="11716.1" y="2168.72" width="523.394" height="523.394"/>
  <object id="1062" gid="145" x="12035.2" y="1881.57" width="384" height="384"/>
  <object id="1063" gid="1073741969" x="12037.9" y="2255.57" width="384" height="384"/>
  <object id="1064" gid="141" x="11949.9" y="2239.09" width="401" height="404"/>
  <object id="1065" gid="1073741965" x="11940.8" y="2664.76" width="412" height="430"/>
  <object id="1068" gid="145" x="12077.2" y="2327.57" width="384" height="384"/>
  <object id="1069" gid="1073741969" x="12079.9" y="2701.57" width="384" height="384"/>
  <object id="1070" gid="2147483790" x="11823.2" y="2110.18" width="384" height="384"/>
  <object id="1071" gid="3221225614" x="11807.2" y="2624.85" width="452" height="520"/>
  <object id="1072" gid="3221225609" x="12093.6" y="1878.9" width="333.591" height="333.591"/>
  <object id="1073" gid="2147483785" x="12092.9" y="1547.51" width="333.591" height="333.591"/>
  <object id="1082" gid="137" x="14444" y="1063.57" width="480" height="496"/>
  <object id="1083" gid="1073741961" x="14443" y="1526.57" width="480" height="472"/>
  <object id="1084" gid="145" x="14681" y="1073.43" width="428" height="410"/>
  <object id="1085" gid="1073741969" x="14709" y="1469.43" width="396" height="404"/>
  <object id="1095" gid="1073741965" x="13700.3" y="1480.24" width="401" height="404"/>
  <object id="1096" gid="141" x="13703.2" y="1084.57" width="412" height="430"/>
  <object id="1097" gid="3221225613" x="13520.5" y="1542.85" width="523.394" height="359.394"/>
  <object id="1098" gid="2147483789" x="13528.5" y="1188.01" width="493.394" height="401.394"/>
  <object id="1099" gid="1073741969" x="13817.6" y="1372.76" width="406" height="403"/>
  <object id="1100" gid="145" x="13820.3" y="979.762" width="406" height="406"/>
  <object id="1109" gid="3221225609" x="12808.3" y="2708.09" width="542" height="542"/>
  <object id="1110" gid="2147483785" x="12821.3" y="2185.09" width="542" height="542"/>
  <object id="1111" gid="3221225617" x="12664.3" y="2545.38" width="428" height="410"/>
  <object id="1112" gid="2147483793" x="12678.3" y="2151.38" width="396" height="404"/>
  <object id="1244" gid="141" x="11173.4" y="1812.76" width="342.485" height="432.485"/>
  <object id="1245" gid="1073741965" x="11173.7" y="2239.61" width="341.576" height="432.485"/>
  <object id="1549" gid="137" x="3072.5" y="212.297" width="848.545" height="848.545"/>
  <object id="1550" gid="1073741961" x="3061.55" y="1046.75" width="848.545" height="848.545"/>
  <object id="1551" gid="145" x="3124.65" y="390.765" width="670.069" height="641.888"/>
  <object id="1552" gid="1073741969" x="3123.44" y="1001.64" width="619.97" height="632.495"/>
  <object id="1553" gid="137" x="2857.55" y="227.243" width="848.545" height="848.545"/>
  <object id="1554" gid="145" x="3091.51" y="348.135" width="670.069" height="641.888"/>
  <object id="1555" gid="1073741961" x="3347.73" y="897.035" width="867.535" height="867.535"/>
  <object id="1556" gid="145" x="3378.36" y="182.785" width="685.065" height="656.253"/>
  <object id="1557" gid="1073741961" x="3299.73" y="1105.04" width="934.634" height="934.634"/>
 </objectgroup>
 <objectgroup id="40" name="Cascadas-F">
  <properties>
   <property name="BG" type="bool" value="true"/>
   <property name="Draw" type="bool" value="true"/>
   <property name="Front" type="bool" value="true"/>
   <property name="Paralax" type="float" value="1"/>
  </properties>
  <object id="812" gid="151" x="13141.6" y="2560" width="596.848" height="1280"/>
  <object id="813" gid="1073741975" x="13141.6" y="1280" width="596.788" height="1280"/>
  <object id="814" gid="151" x="12233.5" y="2560" width="621.091" height="1280"/>
  <object id="815" gid="1073741975" x="12233.5" y="1280" width="621.091" height="1280"/>
 </objectgroup>
 <objectgroup id="38" name="Fondo4-F">
  <properties>
   <property name="BG" type="bool" value="true"/>
   <property name="Draw" type="bool" value="true"/>
   <property name="Front" type="bool" value="true"/>
   <property name="Paralax" type="float" value="1"/>
  </properties>
  <object id="769" gid="158" x="17420" y="1836" width="2200" height="1466.67"/>
  <object id="770" gid="1073741972" x="9807.99" y="384" width="9822.4" height="3540.8"/>
  <object id="771" gid="134" x="13757.6" y="1441.2" width="666.26" height="1061.2"/>
  <object id="772" gid="136" x="14353" y="1392.15" width="867.503" height="1012.22"/>
  <object id="773" gid="134" x="12842.8" y="1357.2" width="676.925" height="1001.2"/>
  <object id="774" gid="136" x="13344" y="1257.2" width="601.2" height="881.2"/>
  <object id="775" gid="136" x="12259.7" y="1630.9" width="746.655" height="1258.9"/>
  <object id="776" gid="134" x="11932" y="1397.2" width="698.56" height="1033.2"/>
  <object id="778" gid="149" x="9480" y="1218.67" width="2528" height="842.667"/>
  <object id="783" gid="146" x="15131.4" y="1180.85" width="2460" height="820"/>
  <object id="829" gid="142" x="18594.9" y="1985.66" width="654.686" height="600.569"/>
  <object id="830" gid="143" x="17613" y="2020.79" width="681.959" height="669.838"/>
  <object id="832" gid="2147483785" x="18995.9" y="1979.88" width="814.303" height="838.545"/>
  <object id="833" gid="1073741965" x="18599.6" y="3018.06" width="1043.88" height="1043.88"/>
  <object id="836" gid="1073741965" x="17113.1" y="2417.45" width="661.213" height="661.213"/>
  <object id="840" gid="142" x="17155" y="1764.73" width="505.212" height="505.212"/>
  <object id="841" gid="142" x="17395.9" y="1916.97" width="505.212" height="505.212"/>
  <object id="849" gid="3221225609" x="19108" y="2593.23" width="623.394" height="641.952"/>
  <object id="853" gid="142" x="17745.2" y="2237.55" width="578.038" height="578.038"/>
  <object id="855" gid="142" x="18137.4" y="2239.53" width="578.038" height="578.038"/>
  <object id="857" gid="141" x="18241.3" y="2179.88" width="829.455" height="829.455"/>
  <object id="858" gid="137" x="18068.7" y="2004.3" width="454.667" height="454.667"/>
  <object id="859" gid="1073741961" x="18075" y="2443.67" width="448" height="448"/>
  <object id="860" gid="1073741961" x="18752" y="2510" width="384" height="384"/>
  <object id="861" gid="1073741961" x="19286" y="2454" width="384" height="384"/>
  <object id="866" gid="148" x="15488" y="2304" width="1920" height="640"/>
  <object id="868" gid="1073741971" x="14592" y="2432" width="1920" height="640"/>
  <object id="871" gid="1073741982" x="15872" y="2432" width="960" height="640"/>
  <object id="875" gid="1073741961" x="15363" y="2045" width="384" height="384"/>
  <object id="876" gid="137" x="15381" y="1680" width="384" height="384"/>
  <object id="877" gid="140" x="15488" y="1664" width="578.667" height="578.667"/>
  <object id="879" gid="141" x="15349.4" y="1618.88" width="708" height="708"/>
  <object id="880" gid="137" x="15633.4" y="1561.85" width="756" height="768"/>
  <object id="881" gid="2147483785" x="15431.5" y="1689.91" width="880.97" height="880.97"/>
  <object id="887" gid="160" x="16256" y="1672" width="1105.45" height="736.97"/>
  <object id="889" gid="2147483807" x="15527.4" y="1579.15" width="981.212" height="654.141"/>
  <object id="890" gid="2147483807" x="15830.6" y="1669.9" width="623.636" height="654.141"/>
  <object id="893" gid="157" x="18560" y="2816" width="960" height="640"/>
  <object id="894" gid="2147483805" x="18642" y="2716" width="960" height="640"/>
  <object id="896" gid="157" x="17744" y="2868" width="960" height="640"/>
  <object id="926" gid="140" x="8592.47" y="2265.12" width="451.717" height="451.717"/>
  <object id="927" gid="140" x="9600" y="2304" width="603.232" height="603.232"/>
  <object id="928" gid="143" x="7909.69" y="2263" width="550.477" height="456.781"/>
  <object id="929" gid="141" x="8315.29" y="2264.88" width="462" height="376"/>
  <object id="932" gid="140" x="8007.6" y="2158.09" width="427.091" height="427.091"/>
  <object id="933" gid="143" x="7900.09" y="2210.49" width="550.477" height="456.781"/>
  <object id="934" gid="2147483791" x="8189.09" y="2181.49" width="550.477" height="456.781"/>
  <object id="937" gid="140" x="8885.76" y="2209.76" width="303.865" height="303.865"/>
  <object id="938" gid="2147483796" x="8064" y="2856" width="2040" height="680"/>
  <object id="939" gid="140" x="9092.07" y="2245.4" width="303.865" height="303.865"/>
  <object id="940" gid="138" x="9246.67" y="2186.67" width="541.333" height="541.333"/>
  <object id="945" gid="2147483805" x="17920" y="1024" width="960" height="640"/>
  <object id="946" gid="2147483805" x="16112" y="828" width="960" height="640"/>
  <object id="947" gid="140" x="18174.9" y="1417.01" width="467.18" height="467.18"/>
  <object id="949" gid="1073741964" x="18165" y="1876.07" width="467.18" height="467.18"/>
  <object id="950" gid="1073741964" x="18352" y="1870.06" width="467.18" height="467.18"/>
  <object id="951" gid="140" x="18349" y="1412.5" width="467.18" height="467.18"/>
  <object id="952" gid="141" x="18212.8" y="1310.58" width="564.585" height="564.585"/>
  <object id="953" gid="137" x="18106" y="934" width="542" height="542"/>
  <object id="954" gid="1073741961" x="18099" y="1467" width="542" height="542"/>
  <object id="957" gid="2147483785" x="18357.5" y="750.5" width="542" height="542"/>
  <object id="958" gid="3221225609" x="18364.5" y="1283.5" width="542" height="542"/>
  <object id="1000" gid="2147483789" x="14456" y="2036.15" width="343.394" height="343.394"/>
  <object id="1001" gid="2147483789" x="14941.3" y="-85.9394" width="523.394" height="523.394"/>
  <object id="1002" gid="3221225613" x="14464.8" y="2338.09" width="305.212" height="305.212"/>
  <object id="1003" gid="145" x="14640.7" y="1848" width="384" height="384"/>
  <object id="1004" gid="1073741969" x="14624.7" y="2215.33" width="384" height="384"/>
  <object id="1005" gid="2147483785" x="14738" y="1722" width="384" height="384"/>
  <object id="1006" gid="3221225609" x="14736" y="2088" width="384" height="384"/>
  <object id="1010" gid="137" x="11726.5" y="830.5" width="542" height="542"/>
  <object id="1011" gid="1073741961" x="11719.5" y="1363.5" width="542" height="542"/>
  <object id="1014" gid="134" x="14517.1" y="776.848" width="384" height="384"/>
  <object id="1023" gid="2147483793" x="14511.1" y="714.617" width="199.155" height="273.155"/>
  <object id="1024" gid="3221225617" x="14508.3" y="980.84" width="203.155" height="273.155"/>
  <object id="1048" gid="137" x="14687.3" y="1808.67" width="384" height="384"/>
  <object id="1088" gid="1073741970" x="12752.1" y="2486.67" width="1920" height="640"/>
  <object id="1089" gid="1073741971" x="10982.4" y="2486.67" width="1920" height="640"/>
  <object id="1094" gid="1073741972" x="10127.3" y="2441.09" width="1344.85" height="640"/>
  <object id="1137" gid="159" x="9992.73" y="2329.09" width="1341.82" height="894.545"/>
  <object id="1139" gid="1073741961" x="9976" y="2702.67" width="384" height="384"/>
  <object id="1140" gid="1073741961" x="7926.18" y="2634.42" width="384" height="384"/>
  <object id="1141" gid="157" x="8312" y="2288" width="960" height="640"/>
  <object id="1142" gid="2147483805" x="8952.61" y="2286.06" width="890.303" height="640"/>
  <object id="1153" gid="1073741961" x="9757.39" y="1870.08" width="534.131" height="534.131"/>
  <object id="1158" gid="137" x="17511" y="2328.63" width="534.131" height="534.131"/>
  <object id="1159" gid="3221225609" x="17530.9" y="2849.23" width="534.131" height="534.131"/>
  <object id="1160" gid="137" x="17357" y="2086.63" width="534.131" height="534.131"/>
  <object id="1161" gid="3221225609" x="17376.9" y="2607.23" width="534.131" height="534.131"/>
  <object id="1162" gid="140" x="17616" y="2226" width="830" height="916"/>
  <object id="1163" gid="2147483789" x="17498" y="2078" width="426" height="862"/>
  <object id="1165" gid="1073741972" x="8318" y="1653.09" width="1518.85" height="449.091"/>
  <object id="1166" gid="1073741972" x="8665.21" y="1580.24" width="1288.73" height="745.091"/>
  <object id="1167" gid="1073741972" x="8785.45" y="1448.18" width="1266.73" height="649.091"/>
  <object id="1168" gid="1073741972" x="8788.48" y="1332.24" width="1350.73" height="629.091"/>
  <object id="1169" gid="1073741972" x="8836.97" y="1275.45" width="1392.73" height="649.091"/>
  <object id="1183" gid="1073741972" x="8871.64" y="1159.45" width="1344.73" height="649.091"/>
  <object id="1184" gid="1073741972" x="8781.64" y="1049.45" width="1392.73" height="693.091"/>
  <object id="1185" gid="1073741972" x="8715.64" y="923.455" width="1392.73" height="649.091"/>
  <object id="1186" gid="1073741972" x="8807.64" y="819.454" width="1392.73" height="649.091"/>
  <object id="1187" gid="1073741972" x="8807.64" y="711.454" width="1392.73" height="649.091"/>
  <object id="1188" gid="1073741972" x="8724" y="620" width="1468.73" height="2547.76"/>
  <object id="1192" gid="141" x="8568.47" y="1330.36" width="348.635" height="348.635"/>
  <object id="1193" gid="1073741965" x="8560.15" y="1672.85" width="348.635" height="348.635"/>
  <object id="1195" gid="145" x="8322" y="1582" width="644" height="644"/>
  <object id="1199" gid="1073741961" x="9834.93" y="1794.93" width="534.131" height="534.131"/>
  <object id="1202" gid="1073741961" x="9590.51" y="2039" width="534.131" height="534.131"/>
  <object id="1206" gid="1073741972" x="8704" y="256" width="1392.73" height="825.091"/>
  <object id="1209" gid="3221225613" x="8621.09" y="994.667" width="384" height="384"/>
  <object id="1211" gid="3221225617" x="8685.33" y="1301.33" width="384" height="384"/>
  <object id="1212" gid="146" x="6144" y="1024" width="2680" height="893.333"/>
  <object id="1214" gid="157" x="5241.94" y="932.579" width="1244.36" height="825.791"/>
  <object id="1215" gid="1073741971" x="5250" y="136" width="3960" height="1552.94"/>
  <object id="1218" gid="2147483789" x="8622" y="611.333" width="384" height="384"/>
  <object id="1219" gid="1073741969" x="8742" y="1400" width="384" height="384"/>
  <object id="1220" gid="1073741969" x="8668" y="666" width="384" height="384"/>
  <object id="1232" gid="140" x="8126.4" y="2432" width="303.865" height="303.865"/>
  <object id="1234" gid="142" x="5652" y="2484.04" width="442.35" height="422.35"/>
  <object id="1235" gid="145" x="7349.3" y="2486.66" width="432.852" height="432.852"/>
  <object id="1236" gid="140" x="7113.3" y="2504.73" width="451.717" height="451.717"/>
  <object id="1237" gid="140" x="7856" y="2460" width="344.323" height="344.323"/>
  <object id="1238" gid="143" x="6284.4" y="2490.07" width="550.477" height="456.781"/>
  <object id="1239" gid="141" x="6838" y="2495.95" width="462" height="376"/>
  <object id="1240" gid="140" x="8098.1" y="2488.02" width="303.865" height="303.865"/>
  <object id="1241" gid="143" x="5924.8" y="2487.56" width="550.477" height="456.781"/>
  <object id="1242" gid="141" x="6663" y="2489.95" width="462" height="376"/>
  <object id="1243" gid="140" x="7599.84" y="2499.84" width="344.323" height="344.323"/>
  <object id="1279" gid="134" x="6780" y="1951" width="384" height="384"/>
  <object id="1280" gid="134" x="6805.33" y="2599.03" width="384" height="384"/>
  <object id="1281" gid="2147483784" x="7833.21" y="1543.03" width="349.333" height="349.333"/>
  <object id="1282" gid="138" x="7737.5" y="1196.5" width="516" height="516"/>
  <object id="1283" gid="2147483786" x="7372.67" y="1975.33" width="516" height="516"/>
  <object id="1284" gid="2147483786" x="6722.33" y="1573" width="516" height="516"/>
  <object id="1285" gid="138" x="6726" y="2218" width="516" height="516"/>
  <object id="1286" gid="136" x="7420.12" y="2355.64" width="384" height="384"/>
  <object id="1289" gid="1073741961" x="7358" y="2370" width="384" height="384"/>
  <object id="1290" gid="1073741965" x="7841.33" y="1576.85" width="384" height="384"/>
  <object id="1291" gid="136" x="6852" y="1893.91" width="294" height="324"/>
  <object id="1314" gid="1073741961" x="6037.03" y="1565.94" width="384" height="384"/>
  <object id="1315" gid="3221225609" x="6230.97" y="1562.91" width="384" height="384"/>
  <object id="1316" gid="138" x="6070.37" y="1190.18" width="384" height="384"/>
  <object id="1317" gid="2147483786" x="6198.25" y="1182.67" width="384" height="384"/>
  <object id="1318" gid="1073741962" x="6135.58" y="1572" width="384" height="384"/>
  <object id="1324" gid="134" x="7301.91" y="1190.49" width="384" height="384"/>
  <object id="1325" gid="136" x="7337.67" y="1148.18" width="334.667" height="340"/>
  <object id="1326" gid="138" x="7241" y="864.848" width="493.333" height="438.667"/>
  <object id="1328" gid="138" x="7237.67" y="808.182" width="488" height="488"/>
  <object id="1330" gid="136" x="6180.01" y="2271.55" width="350.667" height="320.364"/>
  <object id="1331" gid="2147483784" x="6158.19" y="2272.94" width="350.667" height="320.364"/>
  <object id="1332" gid="138" x="6090.67" y="1953.37" width="490.667" height="490.667"/>
  <object id="1348" name="Ninfa" type="Ninfa" x="-2153.88" y="-576.306">
   <point/>
  </object>
  <object id="1424" gid="1073741961" x="5443.76" y="1321.98" width="413.383" height="413.383"/>
  <object id="1425" gid="2147483785" x="5473.9" y="919.37" width="413.383" height="413.383"/>
  <object id="1426" gid="1073741969" x="5529.88" y="1173.42" width="413.383" height="413.383"/>
  <object id="1427" gid="145" x="5561.26" y="767.98" width="400" height="396"/>
  <object id="1428" gid="140" x="5475.26" y="733.98" width="384" height="384"/>
  <object id="1429" gid="143" x="5207.26" y="696.98" width="384" height="384"/>
  <object id="1430" gid="1073741967" x="5209.26" y="1048.98" width="384" height="384"/>
  <object id="1431" gid="137" x="5070.74" y="584.02" width="451.032" height="451.032"/>
  <object id="1432" gid="1073741961" x="5078.23" y="1028.98" width="451.032" height="451.032"/>
  <object id="1433" gid="141" x="5153.26" y="898.98" width="606" height="762"/>
  <object id="1434" gid="1073741965" x="5194.26" y="1561.98" width="606" height="674"/>
  <object id="1435" gid="2147483793" x="5139.26" y="968.98" width="384" height="384"/>
  <object id="1436" gid="3221225617" x="5227.26" y="1366.98" width="384" height="384"/>
  <object id="1437" gid="3221225617" x="5136.61" y="1342.06" width="384" height="384"/>
  <object id="1442" gid="134" x="5135.33" y="1714.84" width="358" height="358"/>
  <object id="1443" gid="137" x="5036.67" y="1382.49" width="372" height="372"/>
  <object id="1445" gid="141" x="5169.33" y="1362.67" width="384" height="384"/>
  <object id="1458" gid="1073741972" x="4041.58" y="2348.36" width="1894" height="532"/>
  <object id="1463" gid="149" x="3991.58" y="2558.97" width="1920" height="640"/>
  <object id="1464" gid="2147483807" x="4147.33" y="1924.67" width="960" height="640"/>
  <object id="1465" gid="160" x="4974.55" y="1926.06" width="928" height="580"/>
  <object id="1466" gid="148" x="4021.82" y="2892.12" width="1920" height="640"/>
  <object id="1467" gid="1073741972" x="-137.85" y="2191.25" width="1736.82" height="316.94"/>
  <object id="1468" gid="149" x="-137.85" y="2452.33" width="1592.82" height="576.94"/>
  <object id="1469" gid="159" x="-145.638" y="1884.35" width="868.411" height="578.94"/>
  <object id="1470" gid="160" x="720.583" y="1881.61" width="728.411" height="454.94"/>
  <object id="1471" gid="148" x="-141.251" y="2755.5" width="1736.82" height="578.94"/>
  <object id="1472" gid="159" x="-48" y="2566" width="960" height="640"/>
  <object id="1473" gid="160" x="442" y="2504" width="960" height="640"/>
  <object id="1474" gid="160" x="-54" y="2166" width="960" height="640"/>
  <object id="1476" gid="1073741984" x="378" y="2556" width="960" height="640"/>
  <object id="1477" gid="1073741984" x="4124" y="2558" width="960" height="640"/>
  <object id="1478" gid="159" x="4664" y="2320" width="960" height="640"/>
  <object id="1479" gid="159" x="4166" y="2336" width="960" height="640"/>
  <object id="1480" gid="3221225631" x="4856" y="2576" width="960" height="640"/>
  <object id="1481" gid="1073741972" x="3224.61" y="2339.27" width="1835.15" height="421.818"/>
  <object id="1482" gid="149" x="3207.94" y="2557.88" width="1920" height="640"/>
  <object id="1483" gid="159" x="3300.06" y="1923.88" width="960" height="521.818"/>
  <object id="1484" gid="148" x="3204.85" y="2883.03" width="1920" height="640"/>
  <object id="1485" gid="1073741984" x="3232.12" y="2598.79" width="960" height="640"/>
  <object id="1486" gid="2147483808" x="3238.18" y="2265.45" width="960" height="640"/>
  <object id="1493" gid="137" x="2997.28" y="2103" width="602.502" height="602.502"/>
  <object id="1494" gid="1073741961" x="2989.5" y="2695.5" width="602.502" height="602.502"/>
  <object id="1500" gid="138" x="3144.33" y="1919.67" width="384" height="384"/>
  <object id="1526" gid="137" x="2755.36" y="199.802" width="644.447" height="644.447"/>
  <object id="1527" gid="3221225609" x="2773.27" y="837.536" width="644.447" height="644.447"/>
  <object id="1528" gid="137" x="2978.97" y="454.385" width="644.447" height="644.447"/>
  <object id="1529" gid="3221225609" x="3014.88" y="1090.12" width="644.447" height="644.447"/>
  <object id="1530" gid="137" x="3212.31" y="687.719" width="644.447" height="644.447"/>
  <object id="1531" gid="3221225609" x="3244.22" y="1323.45" width="644.447" height="644.447"/>
  <object id="1534" gid="137" x="3646.43" y="1114.02" width="644.447" height="644.447"/>
  <object id="1535" gid="3221225609" x="3684.76" y="1573.93" width="489.902" height="489.902"/>
  <object id="1536" gid="1073741964" x="3921.15" y="1549.45" width="384" height="384"/>
  <object id="1539" gid="1073741966" x="4098" y="1530.67" width="384" height="384"/>
  <object id="1540" gid="1073741966" x="4360" y="1572" width="384" height="384"/>
  <object id="1541" gid="141" x="4430" y="1192" width="384" height="384"/>
  <object id="1543" gid="1073741965" x="4465" y="1471" width="384" height="384"/>
  <object id="1546" gid="2147483785" x="4498" y="1091" width="384" height="384"/>
  <object id="1547" gid="159" x="3960" y="1212" width="728" height="636"/>
  <object id="1548" gid="2147483807" x="3980" y="1182" width="728" height="636"/>
  <object id="1586" gid="2147483793" x="3736.71" y="653.926" width="384" height="384"/>
  <object id="1587" gid="1073741969" x="3738.35" y="1029.14" width="384" height="384"/>
  <object id="1588" gid="145" x="3643.29" y="762.926" width="384" height="384"/>
  <object id="1589" gid="3221225617" x="3641.65" y="1138.13" width="384" height="384"/>
  <object id="1590" gid="2147483793" x="3734.38" y="834.865" width="384" height="384"/>
  <object id="1591" gid="1073741969" x="3736.02" y="1210.07" width="384" height="384"/>
 </objectgroup>
 <objectgroup id="39" name="Fondo5-F">
  <properties>
   <property name="Draw" type="bool" value="true"/>
   <property name="Front" type="bool" value="true"/>
   <property name="Paralax" type="float" value="1.1"/>
  </properties>
  <object id="1197" gid="165" x="10752" y="2432" width="4204.59" height="2816"/>
  <object id="1338" gid="165" x="384" y="2432" width="3968" height="2432"/>
  <object id="1339" gid="2147483813" x="384" y="2432" width="3968" height="2432"/>
 </objectgroup>
 <objectgroup id="45" name="Fondo6-F">
  <properties>
   <property name="BG" type="bool" value="true"/>
   <property name="Draw" type="bool" value="true"/>
   <property name="Front" type="bool" value="true"/>
   <property name="Paralax" type="float" value="1"/>
  </properties>
  <object id="1559" gid="137" x="3728" y="168" width="658" height="658"/>
  <object id="1560" gid="1073741966" x="3704" y="842" width="700" height="700"/>
  <object id="1561" gid="140" x="4134" y="204" width="652" height="652"/>
  <object id="1562" gid="1073741965" x="4202" y="852" width="664" height="664"/>
  <object id="1563" gid="2147483793" x="3672" y="148" width="420" height="420"/>
  <object id="1564" gid="141" x="4477.82" y="455.576" width="384" height="384"/>
  <object id="1565" gid="3221225613" x="4477.82" y="839.576" width="384" height="384"/>
  <object id="1566" gid="2147483790" x="4414" y="976" width="384" height="384"/>
  <object id="1567" gid="1073741966" x="4414" y="1360" width="384" height="384"/>
  <object id="1570" gid="145" x="4453.58" y="794.545" width="384" height="384"/>
  <object id="1571" gid="3221225617" x="4449" y="1168" width="384" height="384"/>
  <object id="1574" gid="1073741969" x="4441.33" y="990.912" width="384" height="384"/>
  <object id="1575" gid="2147483793" x="4441.33" y="625.088" width="384" height="384"/>
  <object id="1576" gid="3221225617" x="4128.36" y="1095.21" width="384" height="384"/>
  <object id="1577" gid="145" x="4130" y="720" width="384" height="384"/>
  <object id="1578" gid="1073741969" x="4096" y="640" width="384" height="384"/>
  <object id="1579" gid="145" x="4126.18" y="1104.12" width="384" height="384"/>
  <object id="1580" gid="1073741969" x="4034.94" y="986.211" width="384" height="384"/>
  <object id="1581" gid="2147483793" x="4033.3" y="611.001" width="384" height="384"/>
  <object id="1584" gid="3221225617" x="4126.03" y="914.271" width="384" height="384"/>
  <object id="1585" gid="145" x="4127.67" y="539.062" width="384" height="384"/>
 </objectgroup>
 <objectgroup id="33" name="Rampas" visible="0">
  <properties>
   <property name="Polygon" type="bool" value="true"/>
  </properties>
  <object id="724" x="10240" y="2048">
   <polygon points="0,0 1024,-512 1024,384 0,384"/>
  </object>
  <object id="735" x="8320" y="1664">
   <polygon points="0,0 128,0 128,128"/>
  </object>
  <object id="736" x="8324" y="1528">
   <polygon points="124,-120 124,-120 124,-120 380,-248 380,-120"/>
  </object>
  <object id="789" x="17408" y="1792">
   <polygon points="0,0 0,-256 512,0"/>
  </object>
  <object id="898" x="17280" y="1792">
   <polygon points="0,0 640,640 640,0"/>
  </object>
  <object id="1144" x="10368" y="1280">
   <polygon points="-512,384 -768,512 -768,384"/>
  </object>
  <object id="1147" x="10624" y="1152">
   <polygon points="-256,0 -768,512 -768,0"/>
  </object>
  <object id="1340" x="1280" y="2432">
   <polygon points="0,0 0,-640 256,-512 256,0"/>
  </object>
  <object id="1341" x="2816" y="2432">
   <polygon points="384,0 384,-512 640,-640 640,0"/>
  </object>
  <object id="1446" x="4736" y="512">
   <polygon points="0,0 0,-128 128,-128"/>
  </object>
  <object id="1447" x="5120" y="640">
   <polygon points="0,0 128,128 128,0"/>
  </object>
  <object id="1449" x="4736" y="1152">
   <polygon points="0,0 0,-128 128,-128"/>
  </object>
  <object id="1450" x="5120" y="1280">
   <polygon points="0,0 128,0 128,128"/>
  </object>
 </objectgroup>
 <objectgroup color="#aa0000" id="19" name="Spikes" visible="0">
  <properties>
   <property name="Danger" type="bool" value="true"/>
   <property name="Square" type="bool" value="true"/>
  </properties>
  <object id="327" x="18176" y="1829.76" width="640" height="90.242"/>
  <object id="329" x="14080" y="2688" width="512" height="86"/>
  <object id="330" x="13184" y="2688" width="512" height="80"/>
  <object id="331" x="12288" y="2688" width="512" height="76"/>
  <object id="332" x="11392" y="2688" width="512" height="76"/>
  <object id="333" x="9216" y="2096" width="512" height="80"/>
  <object id="334" x="8576" y="2098" width="384" height="78"/>
  <object id="335" x="5888" y="2352.48" width="2176" height="79.5152"/>
  <object id="340" x="13752" y="1408" width="286" height="60.6667"/>
  <object id="342" x="12852" y="1664" width="292" height="57.3333"/>
  <object id="343" x="11946" y="1024" width="298" height="60.6667"/>
  <object id="1592" x="1280" y="2432" width="2176" height="79.5152"/>
 </objectgroup>
 <objectgroup id="13" name="Path" visible="0">
  <properties>
   <property name="Path" type="bool" value="true"/>
   <property name="Sensor" type="bool" value="true"/>
   <property name="Square" type="bool" value="true"/>
  </properties>
  <object id="691" x="16896" y="2560" width="896" height="128">
   <properties>
    <property name="TeleportTo" type="file" value="Catacombs_01_F.tmx"/>
   </properties>
  </object>
  <object id="692" x="19584" y="384" width="128" height="1408">
   <properties>
    <property name="TeleportTo" type="file" value="Forest_02.tmx"/>
   </properties>
  </object>
  <object id="695" x="4736" y="-128" width="512" height="128">
   <properties>
    <property name="TeleportTo" type="file" value="Forest_03.tmx"/>
   </properties>
  </object>
  <object id="696" x="-128" y="256" width="128" height="1536">
   <properties>
    <property name="TeleportTo" type="file" value="Forest_05.tmx"/>
   </properties>
  </object>
 </objectgroup>
 <objectgroup color="#000000" id="8" name="Map" visible="0">
  <properties>
   <property name="Map" type="bool" value="true"/>
   <property name="Square" type="bool" value="true"/>
  </properties>
  <object id="216" x="18816" y="1792" width="1152" height="640"/>
  <object id="217" x="18176" y="1920" width="640" height="512"/>
  <object id="218" x="17920" y="1792" width="256" height="640"/>
  <object id="244" x="18307" y="256" width="384" height="1280"/>
  <object id="245" x="14592" y="0" width="5248" height="256"/>
  <object id="247" x="14592" y="128" width="384" height="1024"/>
  <object id="248" x="5248" y="0" width="9344" height="128"/>
  <object id="249" x="5248" y="128" width="5120" height="128"/>
  <object id="250" x="8704" y="256" width="1664" height="768"/>
  <object id="251" x="8704" y="1024" width="1664" height="128"/>
  <object id="252" x="8704" y="1280" width="1152" height="128"/>
  <object id="253" x="8320" y="1408" width="1536" height="128"/>
  <object id="254" x="8320" y="1536" width="1536" height="128"/>
  <object id="255" x="8448" y="1664" width="1152" height="128"/>
  <object id="262" x="14976" y="2304" width="1920" height="256"/>
  <object id="266" x="15488" y="1536" width="1920" height="256"/>
  <object id="268" x="15488" y="1408" width="1024" height="128"/>
  <object id="269" x="15104" y="1920" width="128" height="128"/>
  <object id="270" x="14592" y="1536" width="384" height="896"/>
  <object id="271" x="13696" y="1792" width="384" height="640"/>
  <object id="272" x="13696" y="128" width="384" height="1280"/>
  <object id="273" x="12800" y="2048" width="384" height="384"/>
  <object id="274" x="12800" y="128" width="384" height="1536"/>
  <object id="275" x="11904" y="128" width="384" height="896"/>
  <object id="276" x="11904" y="1408" width="384" height="1024"/>
  <object id="281" x="8064" y="2176" width="2304" height="256"/>
  <object id="282" x="9728" y="2048" width="640" height="128"/>
  <object id="283" x="8960" y="2048" width="256" height="128"/>
  <object id="284" x="8064" y="2048" width="512" height="128"/>
  <object id="292" x="5376" y="640" width="512" height="256"/>
  <object id="293" x="5248" y="256" width="128" height="896"/>
  <object id="294" x="5376" y="896" width="256" height="256"/>
  <object id="295" x="5632" y="896" width="128" height="128"/>
  <object id="296" x="5248" y="1152" width="256" height="256"/>
  <object id="298" x="5382" y="1794" width="512" height="640"/>
  <object id="301" x="3456" y="1792" width="1920" height="640"/>
  <object id="303" x="-256" y="1792" width="1536" height="640"/>
  <object id="308" x="3968" y="0" width="768" height="1280"/>
  <object id="309" x="3456" y="0" width="512" height="768"/>
  <object id="310" x="-256" y="0" width="3712" height="256"/>
  <object id="311" x="3072" y="256" width="384" height="128"/>
  <object id="312" x="3200" y="384" width="256" height="128"/>
  <object id="313" x="3328" y="512" width="128" height="128"/>
  <object id="314" x="3584" y="768" width="384" height="128"/>
  <object id="315" x="3712" y="896" width="256" height="128"/>
  <object id="316" x="3840" y="1024" width="128" height="128"/>
  <object id="707" x="6784" y="2176" width="384" height="78"/>
  <object id="708" x="7424" y="1920" width="384" height="80"/>
  <object id="710" x="7808" y="1152" width="384" height="104.303"/>
  <object id="723" x="11264" y="1536" width="128" height="896"/>
  <object id="730" x="4864" y="1664" width="256" height="128"/>
  <object id="747" x="8704" y="1152" width="1152" height="128"/>
  <object id="795" x="18176" y="1280" width="128" height="256"/>
  <object id="796" x="18688" y="1280" width="128" height="256"/>
  <object id="1277" x="6784" y="1536" width="384" height="95.2121"/>
  <object id="1334" x="6142.42" y="1154.55" width="378.788" height="87.8788"/>
  <object id="1336" x="7296" y="768" width="384" height="97.697"/>
  <object id="1337" x="6144" y="1920" width="384" height="128"/>
  <object id="1342" x="1920" y="1536" width="896" height="256"/>
  <object id="1344" x="1664" y="1664" width="124" height="76"/>
  <object id="1345" x="2944" y="1664" width="124" height="68"/>
 </objectgroup>
 <objectgroup id="34" name="KeyGate">
  <properties>
   <property name="KeyGate" type="bool" value="true"/>
   <property name="KeyRegion" value="Bosque"/>
   <property name="Sensor" type="bool" value="false"/>
   <property name="Square" type="bool" value="true"/>
  </properties>
  <object id="725" x="4220" y="1268" width="308" height="532"/>
 </objectgroup>
 <layer id="31" name="GroundNavLayer" width="153" height="19" visible="0">
  <properties>
   <property name="Ground" type="bool" value="true"/>
   <property name="Navigation" type="bool" value="true"/>
  </properties>
  <data>
   <tile/>
   <tile/>
   <tile/>
   <tile/>
   <tile/>
   <tile/>
   <tile/>
   <tile/>
   <tile/>
   <tile/>
   <tile/>
   <tile/>
   <tile/>
   <tile/>
   <tile gid="129"/>
   <tile/>
   <tile/>
   <tile/>
   <tile gid="129"/>
   <tile/>
   <tile/>
   <tile/>
   <tile gid="129"/>
   <tile gid="129"/>
   <tile gid="129"/>
   <tile gid="129"/>
   <tile gid="129"/>
   <tile gid="129"/>
   <tile gid="129"/>
   <tile gid="129"/>
   <tile gid="129"/>
   <tile gid="129"/>
   <tile gid="129"/>
   <tile gid="129"/>
   <tile gid="129"/>
   <tile gid="129"/>
   <tile gid="129"/>
   <tile/>
   <tile/>
   <tile/>
   <tile/>
   <tile gid="129"/>
   <tile gid="129"/>
   <tile gid="129"/>
   <tile gid="129"/>
   <tile gid="129"/>
   <tile gid="129"/>
   <tile gid="129"/>
   <tile gid="129"/>
   <tile gid="129"/>
   <tile gid="129"/>
   <tile gid="129"/>
   <tile gid="129"/>
   <tile gid="129"/>
   <tile gid="129"/>
   <tile gid="129"/>
   <tile gid="129"/>
   <tile gid="129"/>
   <tile gid="129"/>
   <tile gid="129"/>
   <tile gid="129"/>
   <tile gid="129"/>
   <tile gid="129"/>
   <tile gid="129"/>
   <tile gid="129"/>
   <tile gid="129"/>
   <tile gid="129"/>
   <tile gid="129"/>
   <tile gid="129"/>
   <tile gid="129"/>
   <tile gid="129"/>
   <tile gid="129"/>
   <tile gid="129"/>
   <tile gid="129"/>
   <tile gid="129"/>
   <tile gid="129"/>
   <tile gid="129"/>
   <tile gid="129"/>
   <tile gid="129"/>
   <tile gid="129"/>
   <tile gid="129"/>
   <tile gid="129"/>
   <tile gid="129"/>
   <tile gid="129"/>
   <tile gid="129"/>
   <tile gid="129"/>
   <tile gid="129"/>
   <tile gid="129"/>
   <tile gid="129"/>
   <tile gid="129"/>
   <tile gid="129"/>
   <tile gid="129"/>
   <tile gid="129"/>
   <tile gid="129"/>
   <tile gid="129"/>
   <tile gid="129"/>
   <tile gid="129"/>
   <tile gid="129"/>
   <tile gid="129"/>
   <tile gid="129"/>
   <tile gid="129"/>
   <tile gid="129"/>
   <tile gid="129"/>
   <tile gid="129"/>
   <tile gid="129"/>
   <tile gid="129"/>
   <tile gid="129"/>
   <tile gid="129"/>
   <tile gid="129"/>
   <tile gid="129"/>
   <tile gid="129"/>
   <tile gid="129"/>
   <tile gid="129"/>
   <tile gid="129"/>
   <tile gid="129"/>
   <tile gid="129"/>
   <tile gid="129"/>
   <tile gid="129"/>
   <tile gid="129"/>
   <tile gid="129"/>
   <tile gid="129"/>
   <tile gid="129"/>
   <tile gid="129"/>
   <tile gid="129"/>
   <tile gid="129"/>
   <tile gid="129"/>
   <tile gid="129"/>
   <tile gid="129"/>
   <tile gid="129"/>
   <tile gid="129"/>
   <tile gid="129"/>
   <tile gid="129"/>
   <tile gid="129"/>
   <tile gid="129"/>
   <tile gid="129"/>
   <tile gid="129"/>
   <tile gid="129"/>
   <tile gid="129"/>
   <tile gid="129"/>
   <tile gid="129"/>
   <tile gid="129"/>
   <tile gid="129"/>
   <tile gid="129"/>
   <tile gid="129"/>
   <tile gid="129"/>
   <tile gid="129"/>
   <tile gid="129"/>
   <tile gid="129"/>
   <tile gid="129"/>
   <tile gid="129"/>
   <tile gid="129"/>
   <tile gid="129"/>
   <tile gid="129"/>
   <tile/>
   <tile/>
   <tile/>
   <tile/>
   <tile/>
   <tile/>
   <tile/>
   <tile/>
   <tile/>
   <tile/>
   <tile/>
   <tile/>
   <tile/>
   <tile/>
   <tile gid="129"/>
   <tile/>
   <tile/>
   <tile/>
   <tile gid="129"/>
   <tile/>
   <tile/>
   <tile/>
   <tile gid="129"/>
   <tile gid="129"/>
   <tile gid="129"/>
   <tile gid="129"/>
   <tile gid="129"/>
   <tile gid="129"/>
   <tile gid="129"/>
   <tile gid="129"/>
   <tile gid="129"/>
   <tile gid="129"/>
   <tile gid="129"/>
   <tile gid="129"/>
   <tile gid="129"/>
   <tile gid="129"/>
   <tile gid="129"/>
   <tile/>
   <tile/>
   <tile/>
   <tile/>
   <tile gid="129"/>
   <tile gid="129"/>
   <tile gid="129"/>
   <tile gid="129"/>
   <tile gid="129"/>
   <tile gid="129"/>
   <tile gid="129"/>
   <tile gid="129"/>
   <tile gid="129"/>
   <tile gid="129"/>
   <tile gid="129"/>
   <tile gid="129"/>
   <tile gid="129"/>
   <tile gid="129"/>
   <tile gid="129"/>
   <tile gid="129"/>
   <tile gid="129"/>
   <tile gid="129"/>
   <tile gid="129"/>
   <tile gid="129"/>
   <tile gid="129"/>
   <tile gid="129"/>
   <tile gid="129"/>
   <tile gid="129"/>
   <tile gid="129"/>
   <tile gid="129"/>
   <tile gid="129"/>
   <tile gid="129"/>
   <tile gid="129"/>
   <tile gid="129"/>
   <tile gid="129"/>
   <tile gid="129"/>
   <tile gid="129"/>
   <tile gid="129"/>
   <tile gid="129"/>
   <tile gid="129"/>
   <tile gid="129"/>
   <tile gid="129"/>
   <tile gid="129"/>
   <tile gid="129"/>
   <tile/>
   <tile/>
   <tile/>
   <tile/>
   <tile/>
   <tile/>
   <tile/>
   <tile/>
   <tile/>
   <tile/>
   <tile/>
   <tile/>
   <tile gid="129"/>
   <tile gid="129"/>
   <tile gid="129"/>
   <tile/>
   <tile/>
   <tile/>
   <tile/>
   <tile gid="129"/>
   <tile gid="129"/>
   <tile gid="129"/>
   <tile/>
   <tile/>
   <tile/>
   <tile/>
   <tile gid="129"/>
   <tile gid="129"/>
   <tile gid="129"/>
   <tile/>
   <tile/>
   <tile/>
   <tile/>
   <tile gid="129"/>
   <tile gid="129"/>
   <tile gid="129"/>
   <tile gid="129"/>
   <tile gid="129"/>
   <tile gid="129"/>
   <tile gid="129"/>
   <tile gid="129"/>
   <tile gid="129"/>
   <tile gid="129"/>
   <tile gid="129"/>
   <tile gid="129"/>
   <tile gid="129"/>
   <tile gid="129"/>
   <tile gid="129"/>
   <tile gid="129"/>
   <tile gid="129"/>
   <tile gid="129"/>
   <tile gid="129"/>
   <tile gid="129"/>
   <tile gid="129"/>
   <tile gid="129"/>
   <tile gid="129"/>
   <tile gid="129"/>
   <tile gid="129"/>
   <tile gid="129"/>
   <tile gid="129"/>
   <tile gid="129"/>
   <tile gid="129"/>
   <tile gid="129"/>
   <tile gid="129"/>
   <tile gid="129"/>
   <tile gid="129"/>
   <tile gid="129"/>
   <tile gid="129"/>
   <tile gid="129"/>
   <tile gid="129"/>
   <tile gid="129"/>
   <tile gid="129"/>
   <tile/>
   <tile/>
   <tile/>
   <tile/>
   <tile/>
   <tile/>
   <tile/>
   <tile/>
   <tile/>
   <tile/>
   <tile/>
   <tile/>
   <tile/>
   <tile/>
   <tile gid="129"/>
   <tile/>
   <tile/>
   <tile/>
   <tile gid="129"/>
   <tile/>
   <tile/>
   <tile/>
   <tile/>
   <tile gid="129"/>
   <tile gid="129"/>
   <tile gid="129"/>
   <tile gid="129"/>
   <tile gid="129"/>
   <tile gid="129"/>
   <tile gid="129"/>
   <tile gid="129"/>
   <tile gid="129"/>
   <tile gid="129"/>
   <tile gid="129"/>
   <tile gid="129"/>
   <tile gid="129"/>
   <tile gid="129"/>
   <tile/>
   <tile/>
   <tile/>
   <tile/>
   <tile gid="129"/>
   <tile/>
   <tile/>
   <tile/>
   <tile/>
   <tile/>
   <tile/>
   <tile/>
   <tile/>
   <tile/>
   <tile/>
   <tile/>
   <tile/>
   <tile/>
   <tile/>
   <tile/>
   <tile/>
   <tile/>
   <tile/>
   <tile/>
   <tile/>
   <tile/>
   <tile/>
   <tile/>
   <tile/>
   <tile/>
   <tile gid="129"/>
   <tile gid="129"/>
   <tile gid="129"/>
   <tile gid="129"/>
   <tile gid="129"/>
   <tile gid="129"/>
   <tile gid="129"/>
   <tile gid="129"/>
   <tile gid="129"/>
   <tile gid="129"/>
   <tile gid="129"/>
   <tile gid="129"/>
   <tile gid="129"/>
   <tile gid="129"/>
   <tile/>
   <tile/>
   <tile/>
   <tile/>
   <tile/>
   <tile/>
   <tile/>
   <tile/>
   <tile/>
   <tile/>
   <tile/>
   <tile/>
   <tile gid="129"/>
   <tile gid="129"/>
   <tile gid="129"/>
   <tile/>
   <tile/>
   <tile/>
   <tile/>
   <tile gid="129"/>
   <tile gid="129"/>
   <tile gid="129"/>
   <tile/>
   <tile/>
   <tile/>
   <tile/>
   <tile gid="129"/>
   <tile gid="129"/>
   <tile gid="129"/>
   <tile/>
   <tile/>
   <tile/>
   <tile/>
   <tile gid="129"/>
   <tile gid="129"/>
   <tile gid="129"/>
   <tile gid="129"/>
   <tile gid="129"/>
   <tile gid="129"/>
   <tile gid="129"/>
   <tile gid="129"/>
   <tile gid="129"/>
   <tile gid="129"/>
   <tile gid="129"/>
   <tile gid="129"/>
   <tile gid="129"/>
   <tile gid="129"/>
   <tile gid="129"/>
   <tile gid="129"/>
   <tile gid="129"/>
   <tile gid="129"/>
   <tile gid="129"/>
   <tile gid="129"/>
   <tile gid="129"/>
   <tile gid="129"/>
   <tile gid="129"/>
   <tile gid="129"/>
   <tile gid="129"/>
   <tile gid="129"/>
   <tile gid="129"/>
   <tile gid="129"/>
   <tile gid="129"/>
   <tile gid="129"/>
   <tile gid="129"/>
   <tile gid="129"/>
   <tile gid="129"/>
   <tile gid="129"/>
   <tile gid="129"/>
   <tile gid="129"/>
   <tile gid="129"/>
   <tile gid="129"/>
   <tile gid="129"/>
   <tile/>
   <tile/>
   <tile/>
   <tile/>
   <tile/>
   <tile/>
   <tile/>
   <tile/>
   <tile/>
   <tile/>
   <tile/>
   <tile/>
   <tile/>
   <tile/>
   <tile gid="129"/>
   <tile/>
   <tile/>
   <tile/>
   <tile gid="129"/>
   <tile/>
   <tile/>
   <tile/>
   <tile/>
   <tile/>
   <tile/>
   <tile gid="129"/>
   <tile gid="129"/>
   <tile gid="129"/>
   <tile gid="129"/>
   <tile gid="129"/>
   <tile gid="129"/>
   <tile gid="129"/>
   <tile gid="129"/>
   <tile gid="129"/>
   <tile gid="129"/>
   <tile gid="129"/>
   <tile gid="129"/>
   <tile/>
   <tile/>
   <tile/>
   <tile/>
   <tile gid="129"/>
   <tile/>
   <tile/>
   <tile/>
   <tile/>
   <tile/>
   <tile/>
   <tile/>
   <tile/>
   <tile/>
   <tile/>
   <tile/>
   <tile/>
   <tile/>
   <tile/>
   <tile/>
   <tile/>
   <tile/>
   <tile/>
   <tile/>
   <tile/>
   <tile/>
   <tile/>
   <tile/>
   <tile/>
   <tile/>
   <tile gid="129"/>
   <tile gid="129"/>
   <tile gid="129"/>
   <tile gid="129"/>
   <tile gid="129"/>
   <tile gid="129"/>
   <tile gid="129"/>
   <tile gid="129"/>
   <tile gid="129"/>
   <tile gid="129"/>
   <tile gid="129"/>
   <tile gid="129"/>
   <tile gid="129"/>
   <tile gid="129"/>
   <tile/>
   <tile/>
   <tile/>
   <tile/>
   <tile/>
   <tile/>
   <tile/>
   <tile/>
   <tile/>
   <tile/>
   <tile/>
   <tile/>
   <tile gid="129"/>
   <tile gid="129"/>
   <tile gid="129"/>
   <tile/>
   <tile/>
   <tile/>
   <tile/>
   <tile gid="129"/>
   <tile gid="129"/>
   <tile gid="129"/>
   <tile/>
   <tile/>
   <tile/>
   <tile/>
   <tile gid="129"/>
   <tile gid="129"/>
   <tile gid="129"/>
   <tile/>
   <tile/>
   <tile/>
   <tile/>
   <tile gid="129"/>
   <tile gid="129"/>
   <tile gid="129"/>
   <tile/>
   <tile/>
   <tile/>
   <tile gid="129"/>
   <tile/>
   <tile/>
   <tile/>
   <tile/>
   <tile/>
   <tile/>
   <tile/>
   <tile/>
   <tile/>
   <tile/>
   <tile/>
   <tile/>
   <tile/>
   <tile/>
   <tile/>
   <tile/>
   <tile/>
   <tile/>
   <tile/>
   <tile/>
   <tile/>
   <tile/>
   <tile gid="129"/>
   <tile gid="129"/>
   <tile gid="129"/>
   <tile/>
   <tile/>
   <tile/>
   <tile/>
   <tile/>
   <tile/>
   <tile/>
   <tile/>
   <tile/>
   <tile/>
   <tile/>
   <tile/>
   <tile/>
   <tile/>
   <tile/>
   <tile/>
   <tile/>
   <tile/>
   <tile/>
   <tile/>
   <tile/>
   <tile gid="129"/>
   <tile/>
   <tile/>
   <tile/>
   <tile gid="129"/>
   <tile/>
   <tile/>
   <tile/>
   <tile/>
   <tile/>
   <tile/>
   <tile/>
   <tile gid="129"/>
   <tile gid="129"/>
   <tile gid="129"/>
   <tile gid="129"/>
   <tile gid="129"/>
   <tile gid="129"/>
   <tile gid="129"/>
   <tile gid="129"/>
   <tile gid="129"/>
   <tile gid="129"/>
   <tile gid="129"/>
   <tile/>
   <tile/>
   <tile/>
   <tile/>
   <tile gid="129"/>
   <tile/>
   <tile/>
   <tile/>
   <tile/>
   <tile/>
   <tile/>
   <tile/>
   <tile/>
   <tile/>
   <tile/>
   <tile/>
   <tile/>
   <tile/>
   <tile/>
   <tile/>
   <tile/>
   <tile/>
   <tile/>
   <tile/>
   <tile/>
   <tile/>
   <tile/>
   <tile/>
   <tile/>
   <tile/>
   <tile gid="129"/>
   <tile gid="129"/>
   <tile gid="129"/>
   <tile gid="129"/>
   <tile gid="129"/>
   <tile gid="129"/>
   <tile gid="129"/>
   <tile gid="129"/>
   <tile gid="129"/>
   <tile gid="129"/>
   <tile gid="129"/>
   <tile gid="129"/>
   <tile gid="129"/>
   <tile gid="129"/>
   <tile/>
   <tile/>
   <tile/>
   <tile/>
   <tile/>
   <tile/>
   <tile/>
   <tile/>
   <tile/>
   <tile/>
   <tile/>
   <tile/>
   <tile gid="129"/>
   <tile gid="129"/>
   <tile gid="129"/>
   <tile/>
   <tile/>
   <tile/>
   <tile/>
   <tile gid="129"/>
   <tile gid="129"/>
   <tile gid="129"/>
   <tile/>
   <tile/>
   <tile/>
   <tile/>
   <tile gid="129"/>
   <tile gid="129"/>
   <tile gid="129"/>
   <tile/>
   <tile/>
   <tile/>
   <tile/>
   <tile gid="129"/>
   <tile gid="129"/>
   <tile gid="129"/>
   <tile/>
   <tile/>
   <tile/>
   <tile gid="129"/>
   <tile/>
   <tile/>
   <tile/>
   <tile/>
   <tile/>
   <tile/>
   <tile/>
   <tile/>
   <tile/>
   <tile/>
   <tile/>
   <tile/>
   <tile/>
   <tile/>
   <tile/>
   <tile/>
   <tile/>
   <tile/>
   <tile/>
   <tile/>
   <tile/>
   <tile/>
   <tile gid="129"/>
   <tile gid="129"/>
   <tile gid="129"/>
   <tile/>
   <tile/>
   <tile/>
   <tile/>
   <tile/>
   <tile/>
   <tile/>
   <tile/>
   <tile/>
   <tile/>
   <tile/>
   <tile/>
   <tile/>
   <tile/>
   <tile/>
   <tile/>
   <tile/>
   <tile/>
   <tile/>
   <tile/>
   <tile/>
   <tile gid="129"/>
   <tile/>
   <tile/>
   <tile/>
   <tile gid="129"/>
   <tile/>
   <tile/>
   <tile/>
   <tile/>
   <tile/>
   <tile/>
   <tile/>
   <tile/>
   <tile gid="129"/>
   <tile gid="129"/>
   <tile gid="129"/>
   <tile gid="129"/>
   <tile gid="129"/>
   <tile gid="129"/>
   <tile gid="129"/>
   <tile gid="129"/>
   <tile gid="129"/>
   <tile gid="129"/>
   <tile/>
   <tile/>
   <tile/>
   <tile/>
   <tile gid="129"/>
   <tile gid="129"/>
   <tile gid="129"/>
   <tile gid="129"/>
   <tile gid="129"/>
   <tile/>
   <tile/>
   <tile/>
   <tile/>
   <tile/>
   <tile/>
   <tile/>
   <tile/>
   <tile/>
   <tile/>
   <tile/>
   <tile/>
   <tile/>
   <tile/>
   <tile/>
   <tile/>
   <tile/>
   <tile/>
   <tile/>
   <tile/>
   <tile/>
   <tile gid="129"/>
   <tile gid="129"/>
   <tile gid="129"/>
   <tile gid="129"/>
   <tile gid="129"/>
   <tile gid="129"/>
   <tile gid="129"/>
   <tile gid="129"/>
   <tile gid="129"/>
   <tile gid="129"/>
   <tile gid="129"/>
   <tile gid="129"/>
   <tile gid="129"/>
   <tile gid="129"/>
   <tile/>
   <tile/>
   <tile/>
   <tile/>
   <tile/>
   <tile/>
   <tile/>
   <tile/>
   <tile/>
   <tile/>
   <tile/>
   <tile/>
   <tile gid="129"/>
   <tile gid="129"/>
   <tile gid="129"/>
   <tile/>
   <tile/>
   <tile/>
   <tile/>
   <tile gid="129"/>
   <tile gid="129"/>
   <tile gid="129"/>
   <tile/>
   <tile/>
   <tile/>
   <tile/>
   <tile gid="129"/>
   <tile gid="129"/>
   <tile gid="129"/>
   <tile/>
   <tile/>
   <tile/>
   <tile/>
   <tile gid="129"/>
   <tile gid="129"/>
   <tile gid="129"/>
   <tile/>
   <tile/>
   <tile/>
   <tile gid="129"/>
   <tile/>
   <tile/>
   <tile/>
   <tile/>
   <tile/>
   <tile/>
   <tile/>
   <tile/>
   <tile/>
   <tile/>
   <tile/>
   <tile/>
   <tile/>
   <tile/>
   <tile/>
   <tile/>
   <tile/>
   <tile/>
   <tile/>
   <tile/>
   <tile/>
   <tile/>
   <tile gid="129"/>
   <tile gid="129"/>
   <tile gid="129"/>
   <tile/>
   <tile/>
   <tile/>
   <tile/>
   <tile/>
   <tile/>
   <tile/>
   <tile/>
   <tile/>
   <tile/>
   <tile/>
   <tile/>
   <tile/>
   <tile/>
   <tile/>
   <tile/>
   <tile/>
   <tile/>
   <tile/>
   <tile/>
   <tile/>
   <tile gid="129"/>
   <tile/>
   <tile/>
   <tile/>
   <tile gid="129"/>
   <tile/>
   <tile/>
   <tile/>
   <tile/>
   <tile/>
   <tile/>
   <tile/>
   <tile/>
   <tile/>
   <tile gid="129"/>
   <tile gid="129"/>
   <tile gid="129"/>
   <tile gid="129"/>
   <tile gid="129"/>
   <tile gid="129"/>
   <tile gid="129"/>
   <tile gid="129"/>
   <tile gid="129"/>
   <tile/>
   <tile/>
   <tile/>
   <tile/>
   <tile gid="129"/>
   <tile gid="129"/>
   <tile gid="129"/>
   <tile gid="129"/>
   <tile gid="129"/>
   <tile/>
   <tile/>
   <tile/>
   <tile/>
   <tile/>
   <tile/>
   <tile gid="129"/>
   <tile gid="129"/>
   <tile gid="129"/>
   <tile/>
   <tile/>
   <tile/>
   <tile/>
   <tile/>
   <tile/>
   <tile/>
   <tile/>
   <tile/>
   <tile/>
   <tile/>
   <tile/>
   <tile gid="129"/>
   <tile gid="129"/>
   <tile gid="129"/>
   <tile gid="129"/>
   <tile gid="129"/>
   <tile gid="129"/>
   <tile gid="129"/>
   <tile gid="129"/>
   <tile gid="129"/>
   <tile gid="129"/>
   <tile gid="129"/>
   <tile gid="129"/>
   <tile gid="129"/>
   <tile gid="129"/>
   <tile/>
   <tile/>
   <tile/>
   <tile/>
   <tile/>
   <tile/>
   <tile/>
   <tile/>
   <tile/>
   <tile/>
   <tile/>
   <tile/>
   <tile gid="129"/>
   <tile gid="129"/>
   <tile gid="129"/>
   <tile/>
   <tile/>
   <tile/>
   <tile/>
   <tile gid="129"/>
   <tile gid="129"/>
   <tile gid="129"/>
   <tile/>
   <tile/>
   <tile/>
   <tile/>
   <tile gid="129"/>
   <tile gid="129"/>
   <tile gid="129"/>
   <tile/>
   <tile/>
   <tile/>
   <tile/>
   <tile gid="129"/>
   <tile gid="129"/>
   <tile gid="129"/>
   <tile/>
   <tile/>
   <tile/>
   <tile gid="129"/>
   <tile/>
   <tile/>
   <tile/>
   <tile/>
   <tile/>
   <tile/>
   <tile/>
   <tile/>
   <tile/>
   <tile/>
   <tile/>
   <tile/>
   <tile/>
   <tile/>
   <tile/>
   <tile/>
   <tile/>
   <tile/>
   <tile/>
   <tile/>
   <tile/>
   <tile/>
   <tile gid="129"/>
   <tile gid="129"/>
   <tile gid="129"/>
   <tile/>
   <tile/>
   <tile/>
   <tile/>
   <tile/>
   <tile/>
   <tile/>
   <tile/>
   <tile/>
   <tile/>
   <tile/>
   <tile/>
   <tile/>
   <tile/>
   <tile/>
   <tile/>
   <tile/>
   <tile/>
   <tile/>
   <tile/>
   <tile/>
   <tile gid="129"/>
   <tile/>
   <tile/>
   <tile/>
   <tile gid="129"/>
   <tile/>
   <tile/>
   <tile/>
   <tile/>
   <tile/>
   <tile/>
   <tile/>
   <tile/>
   <tile/>
   <tile/>
   <tile gid="129"/>
   <tile gid="129"/>
   <tile gid="129"/>
   <tile gid="129"/>
   <tile gid="129"/>
   <tile gid="129"/>
   <tile gid="129"/>
   <tile gid="129"/>
   <tile/>
   <tile/>
   <tile/>
   <tile/>
   <tile gid="129"/>
   <tile gid="129"/>
   <tile gid="129"/>
   <tile gid="129"/>
   <tile gid="129"/>
   <tile/>
   <tile/>
   <tile/>
   <tile/>
   <tile/>
   <tile/>
   <tile/>
   <tile/>
   <tile/>
   <tile/>
   <tile/>
   <tile/>
   <tile/>
   <tile/>
   <tile/>
   <tile/>
   <tile/>
   <tile/>
   <tile/>
   <tile/>
   <tile/>
   <tile gid="129"/>
   <tile gid="129"/>
   <tile gid="129"/>
   <tile gid="129"/>
   <tile gid="129"/>
   <tile gid="129"/>
   <tile gid="129"/>
   <tile gid="129"/>
   <tile gid="129"/>
   <tile gid="129"/>
   <tile gid="129"/>
   <tile gid="129"/>
   <tile gid="129"/>
   <tile gid="129"/>
   <tile/>
   <tile/>
   <tile/>
   <tile/>
   <tile/>
   <tile/>
   <tile/>
   <tile/>
   <tile/>
   <tile/>
   <tile/>
   <tile/>
   <tile gid="129"/>
   <tile gid="129"/>
   <tile gid="129"/>
   <tile/>
   <tile/>
   <tile/>
   <tile/>
   <tile gid="129"/>
   <tile gid="129"/>
   <tile gid="129"/>
   <tile/>
   <tile/>
   <tile/>
   <tile/>
   <tile gid="129"/>
   <tile gid="129"/>
   <tile gid="129"/>
   <tile/>
   <tile/>
   <tile/>
   <tile/>
   <tile gid="129"/>
   <tile gid="129"/>
   <tile gid="129"/>
   <tile/>
   <tile/>
   <tile/>
   <tile gid="129"/>
   <tile/>
   <tile/>
   <tile/>
   <tile/>
   <tile/>
   <tile/>
   <tile/>
   <tile/>
   <tile/>
   <tile/>
   <tile/>
   <tile/>
   <tile/>
   <tile/>
   <tile/>
   <tile/>
   <tile/>
   <tile/>
   <tile/>
   <tile/>
   <tile/>
   <tile/>
   <tile gid="129"/>
   <tile gid="129"/>
   <tile gid="129"/>
   <tile/>
   <tile/>
   <tile/>
   <tile/>
   <tile/>
   <tile/>
   <tile/>
   <tile/>
   <tile/>
   <tile/>
   <tile/>
   <tile/>
   <tile/>
   <tile/>
   <tile/>
   <tile/>
   <tile/>
   <tile/>
   <tile/>
   <tile/>
   <tile/>
   <tile gid="129"/>
   <tile/>
   <tile/>
   <tile/>
   <tile gid="129"/>
   <tile/>
   <tile/>
   <tile/>
   <tile/>
   <tile/>
   <tile/>
   <tile/>
   <tile/>
   <tile/>
   <tile/>
   <tile/>
   <tile gid="129"/>
   <tile gid="129"/>
   <tile gid="129"/>
   <tile gid="129"/>
   <tile gid="129"/>
   <tile gid="129"/>
   <tile gid="129"/>
   <tile/>
   <tile/>
   <tile/>
   <tile/>
   <tile gid="129"/>
   <tile gid="129"/>
   <tile gid="129"/>
   <tile/>
   <tile gid="129"/>
   <tile/>
   <tile/>
   <tile/>
   <tile/>
   <tile/>
   <tile/>
   <tile/>
   <tile/>
   <tile/>
   <tile/>
   <tile/>
   <tile/>
   <tile/>
   <tile/>
   <tile gid="129"/>
   <tile gid="129"/>
   <tile gid="129"/>
   <tile/>
   <tile/>
   <tile/>
   <tile/>
   <tile gid="129"/>
   <tile gid="129"/>
   <tile gid="129"/>
   <tile gid="129"/>
   <tile gid="129"/>
   <tile gid="129"/>
   <tile gid="129"/>
   <tile gid="129"/>
   <tile gid="129"/>
   <tile gid="129"/>
   <tile gid="129"/>
   <tile gid="129"/>
   <tile gid="129"/>
   <tile gid="129"/>
   <tile/>
   <tile/>
   <tile/>
   <tile/>
   <tile/>
   <tile/>
   <tile/>
   <tile/>
   <tile/>
   <tile/>
   <tile/>
   <tile/>
   <tile gid="129"/>
   <tile gid="129"/>
   <tile gid="129"/>
   <tile/>
   <tile/>
   <tile/>
   <tile/>
   <tile gid="129"/>
   <tile gid="129"/>
   <tile gid="129"/>
   <tile/>
   <tile/>
   <tile/>
   <tile/>
   <tile gid="129"/>
   <tile gid="129"/>
   <tile gid="129"/>
   <tile/>
   <tile/>
   <tile/>
   <tile/>
   <tile gid="129"/>
   <tile gid="129"/>
   <tile gid="129"/>
   <tile/>
   <tile/>
   <tile/>
   <tile gid="129"/>
   <tile/>
   <tile/>
   <tile/>
   <tile/>
   <tile/>
   <tile/>
   <tile/>
   <tile/>
   <tile/>
   <tile/>
   <tile/>
   <tile/>
   <tile/>
   <tile/>
   <tile/>
   <tile/>
   <tile/>
   <tile/>
   <tile/>
   <tile/>
   <tile/>
   <tile/>
   <tile gid="129"/>
   <tile gid="129"/>
   <tile gid="129"/>
   <tile/>
   <tile/>
   <tile/>
   <tile/>
   <tile/>
   <tile/>
   <tile/>
   <tile/>
   <tile/>
   <tile/>
   <tile/>
   <tile/>
   <tile/>
   <tile/>
   <tile/>
   <tile/>
   <tile/>
   <tile/>
   <tile/>
   <tile/>
   <tile/>
   <tile gid="129"/>
   <tile/>
   <tile/>
   <tile/>
   <tile gid="129"/>
   <tile/>
   <tile/>
   <tile/>
   <tile/>
   <tile/>
   <tile/>
   <tile/>
   <tile/>
   <tile/>
   <tile/>
   <tile/>
   <tile/>
   <tile gid="129"/>
   <tile gid="129"/>
   <tile gid="129"/>
   <tile gid="129"/>
   <tile gid="129"/>
   <tile gid="129"/>
   <tile/>
   <tile/>
   <tile/>
   <tile/>
   <tile gid="129"/>
   <tile gid="129"/>
   <tile/>
   <tile/>
   <tile gid="129"/>
   <tile/>
   <tile/>
   <tile/>
   <tile/>
   <tile/>
   <tile/>
   <tile/>
   <tile/>
   <tile/>
   <tile/>
   <tile/>
   <tile/>
   <tile/>
   <tile/>
   <tile/>
   <tile/>
   <tile/>
   <tile/>
   <tile/>
   <tile/>
   <tile/>
   <tile gid="129"/>
   <tile gid="129"/>
   <tile gid="129"/>
   <tile gid="129"/>
   <tile gid="129"/>
   <tile gid="129"/>
   <tile gid="129"/>
   <tile gid="129"/>
   <tile gid="129"/>
   <tile gid="129"/>
   <tile gid="129"/>
   <tile gid="129"/>
   <tile gid="129"/>
   <tile/>
   <tile/>
   <tile/>
   <tile/>
   <tile/>
   <tile/>
   <tile/>
   <tile/>
   <tile/>
   <tile/>
   <tile/>
   <tile/>
   <tile/>
   <tile/>
   <tile/>
   <tile/>
   <tile/>
   <tile/>
   <tile/>
   <tile/>
   <tile gid="129"/>
   <tile gid="129"/>
   <tile gid="129"/>
   <tile/>
   <tile/>
   <tile/>
   <tile/>
   <tile gid="129"/>
   <tile gid="129"/>
   <tile gid="129"/>
   <tile/>
   <tile/>
   <tile/>
   <tile/>
   <tile gid="129"/>
   <tile gid="129"/>
   <tile gid="129"/>
   <tile/>
   <tile/>
   <tile/>
   <tile gid="129"/>
   <tile/>
   <tile/>
   <tile/>
   <tile/>
   <tile/>
   <tile/>
   <tile/>
   <tile/>
   <tile/>
   <tile/>
   <tile/>
   <tile/>
   <tile/>
   <tile/>
   <tile/>
   <tile/>
   <tile/>
   <tile/>
   <tile/>
   <tile/>
   <tile/>
   <tile/>
   <tile gid="129"/>
   <tile gid="129"/>
   <tile gid="129"/>
   <tile/>
   <tile/>
   <tile/>
   <tile/>
   <tile/>
   <tile/>
   <tile/>
   <tile/>
   <tile/>
   <tile/>
   <tile/>
   <tile/>
   <tile/>
   <tile/>
   <tile/>
   <tile/>
   <tile/>
   <tile/>
   <tile/>
   <tile/>
   <tile/>
   <tile gid="129"/>
   <tile/>
   <tile/>
   <tile/>
   <tile gid="129"/>
   <tile/>
   <tile/>
   <tile/>
   <tile/>
   <tile/>
   <tile/>
   <tile/>
   <tile/>
   <tile/>
   <tile/>
   <tile/>
   <tile/>
   <tile/>
   <tile gid="129"/>
   <tile gid="129"/>
   <tile gid="129"/>
   <tile gid="129"/>
   <tile gid="129"/>
   <tile/>
   <tile/>
   <tile/>
   <tile/>
   <tile gid="129"/>
   <tile gid="129"/>
   <tile/>
   <tile/>
   <tile gid="129"/>
   <tile/>
   <tile/>
   <tile/>
   <tile/>
   <tile/>
   <tile/>
   <tile/>
   <tile/>
   <tile/>
   <tile/>
   <tile/>
   <tile/>
   <tile/>
   <tile/>
   <tile/>
   <tile/>
   <tile/>
   <tile/>
   <tile/>
   <tile/>
   <tile/>
   <tile gid="129"/>
   <tile gid="129"/>
   <tile gid="129"/>
   <tile gid="129"/>
   <tile gid="129"/>
   <tile gid="129"/>
   <tile gid="129"/>
   <tile gid="129"/>
   <tile gid="129"/>
   <tile gid="129"/>
   <tile gid="129"/>
   <tile gid="129"/>
   <tile/>
   <tile/>
   <tile/>
   <tile/>
   <tile/>
   <tile/>
   <tile/>
   <tile/>
   <tile/>
   <tile/>
   <tile/>
   <tile/>
   <tile/>
   <tile/>
   <tile/>
   <tile/>
   <tile/>
   <tile/>
   <tile/>
   <tile/>
   <tile/>
   <tile gid="129"/>
   <tile gid="129"/>
   <tile gid="129"/>
   <tile/>
   <tile/>
   <tile/>
   <tile/>
   <tile gid="129"/>
   <tile gid="129"/>
   <tile gid="129"/>
   <tile/>
   <tile/>
   <tile/>
   <tile/>
   <tile/>
   <tile/>
   <tile/>
   <tile/>
   <tile/>
   <tile/>
   <tile gid="129"/>
   <tile/>
   <tile/>
   <tile/>
   <tile/>
   <tile/>
   <tile/>
   <tile/>
   <tile/>
   <tile/>
   <tile/>
   <tile/>
   <tile/>
   <tile/>
   <tile/>
   <tile/>
   <tile/>
   <tile/>
   <tile/>
   <tile/>
   <tile/>
   <tile/>
   <tile/>
   <tile gid="129"/>
   <tile gid="129"/>
   <tile gid="129"/>
   <tile/>
   <tile/>
   <tile/>
   <tile/>
   <tile/>
   <tile/>
   <tile/>
   <tile/>
   <tile/>
   <tile/>
   <tile/>
   <tile/>
   <tile/>
   <tile/>
   <tile/>
   <tile/>
   <tile/>
   <tile/>
   <tile/>
   <tile/>
   <tile/>
   <tile gid="129"/>
   <tile/>
   <tile/>
   <tile/>
   <tile gid="129"/>
   <tile/>
   <tile/>
   <tile/>
   <tile/>
   <tile/>
   <tile/>
   <tile/>
   <tile/>
   <tile/>
   <tile/>
   <tile/>
   <tile/>
   <tile/>
   <tile/>
   <tile/>
   <tile/>
   <tile/>
   <tile/>
   <tile/>
   <tile/>
   <tile/>
   <tile/>
   <tile/>
   <tile/>
   <tile/>
   <tile/>
   <tile gid="129"/>
   <tile/>
   <tile/>
   <tile/>
   <tile/>
   <tile/>
   <tile/>
   <tile/>
   <tile/>
   <tile gid="129"/>
   <tile gid="129"/>
   <tile gid="129"/>
   <tile/>
   <tile/>
   <tile/>
   <tile/>
   <tile/>
   <tile/>
   <tile/>
   <tile/>
   <tile/>
   <tile/>
   <tile gid="129"/>
   <tile gid="129"/>
   <tile gid="129"/>
   <tile gid="129"/>
   <tile gid="129"/>
   <tile gid="129"/>
   <tile gid="129"/>
   <tile gid="129"/>
   <tile gid="129"/>
   <tile gid="129"/>
   <tile gid="129"/>
   <tile/>
   <tile/>
   <tile/>
   <tile/>
   <tile/>
   <tile/>
   <tile/>
   <tile/>
   <tile/>
   <tile/>
   <tile/>
   <tile/>
   <tile/>
   <tile/>
   <tile/>
   <tile gid="129"/>
   <tile gid="129"/>
   <tile gid="129"/>
   <tile/>
   <tile/>
   <tile/>
   <tile/>
   <tile gid="129"/>
   <tile gid="129"/>
   <tile gid="129"/>
   <tile/>
   <tile/>
   <tile/>
   <tile/>
   <tile gid="129"/>
   <tile gid="129"/>
   <tile gid="129"/>
   <tile/>
   <tile/>
   <tile/>
   <tile/>
   <tile/>
   <tile/>
   <tile/>
   <tile/>
   <tile/>
   <tile/>
   <tile/>
   <tile gid="129"/>
   <tile gid="129"/>
   <tile gid="129"/>
   <tile gid="129"/>
   <tile gid="129"/>
   <tile gid="129"/>
   <tile gid="129"/>
   <tile gid="129"/>
   <tile/>
   <tile/>
   <tile/>
   <tile/>
   <tile/>
   <tile/>
   <tile/>
   <tile/>
   <tile/>
   <tile/>
   <tile/>
   <tile/>
   <tile/>
   <tile/>
   <tile gid="129"/>
   <tile gid="129"/>
   <tile gid="129"/>
   <tile/>
   <tile/>
   <tile/>
   <tile/>
   <tile/>
   <tile/>
   <tile/>
   <tile/>
   <tile/>
   <tile/>
   <tile/>
   <tile/>
   <tile/>
   <tile/>
   <tile/>
   <tile/>
   <tile/>
   <tile/>
   <tile/>
   <tile/>
   <tile/>
   <tile gid="129"/>
   <tile/>
   <tile/>
   <tile/>
   <tile gid="129"/>
   <tile/>
   <tile/>
   <tile/>
   <tile/>
   <tile/>
   <tile/>
   <tile/>
   <tile/>
   <tile/>
   <tile/>
   <tile/>
   <tile/>
   <tile/>
   <tile/>
   <tile/>
   <tile/>
   <tile/>
   <tile/>
   <tile/>
   <tile/>
   <tile/>
   <tile/>
   <tile/>
   <tile/>
   <tile/>
   <tile/>
   <tile gid="129"/>
   <tile/>
   <tile/>
   <tile/>
   <tile/>
   <tile/>
   <tile/>
   <tile/>
   <tile/>
   <tile/>
   <tile/>
   <tile/>
   <tile/>
   <tile/>
   <tile/>
   <tile/>
   <tile/>
   <tile/>
   <tile/>
   <tile/>
   <tile/>
   <tile/>
   <tile gid="129"/>
   <tile gid="129"/>
   <tile gid="129"/>
   <tile gid="129"/>
   <tile gid="129"/>
   <tile gid="129"/>
   <tile gid="129"/>
   <tile gid="129"/>
   <tile gid="129"/>
   <tile gid="129"/>
   <tile/>
   <tile/>
   <tile/>
   <tile/>
   <tile/>
   <tile/>
   <tile/>
   <tile gid="129"/>
   <tile gid="129"/>
   <tile gid="129"/>
   <tile gid="129"/>
   <tile gid="129"/>
   <tile/>
   <tile/>
   <tile/>
   <tile/>
   <tile gid="129"/>
   <tile gid="129"/>
   <tile gid="129"/>
   <tile/>
   <tile/>
   <tile/>
   <tile/>
   <tile gid="129"/>
   <tile gid="129"/>
   <tile gid="129"/>
   <tile/>
   <tile/>
   <tile/>
   <tile/>
   <tile/>
   <tile/>
   <tile/>
   <tile/>
   <tile/>
   <tile/>
   <tile/>
   <tile gid="129"/>
   <tile gid="129"/>
   <tile gid="129"/>
   <tile/>
   <tile/>
   <tile/>
   <tile/>
   <tile gid="129"/>
   <tile gid="129"/>
   <tile gid="129"/>
   <tile gid="129"/>
   <tile gid="129"/>
   <tile gid="129"/>
   <tile gid="129"/>
   <tile gid="129"/>
   <tile gid="129"/>
   <tile gid="129"/>
   <tile gid="129"/>
   <tile gid="129"/>
   <tile gid="129"/>
   <tile gid="129"/>
   <tile gid="129"/>
   <tile/>
   <tile/>
   <tile/>
   <tile/>
   <tile/>
   <tile/>
   <tile/>
   <tile gid="129"/>
   <tile gid="129"/>
   <tile gid="129"/>
   <tile/>
   <tile/>
   <tile/>
   <tile/>
   <tile/>
   <tile/>
   <tile/>
   <tile/>
   <tile/>
   <tile/>
   <tile/>
   <tile/>
   <tile/>
   <tile/>
   <tile/>
   <tile/>
   <tile/>
   <tile/>
   <tile/>
   <tile/>
   <tile/>
   <tile gid="129"/>
   <tile/>
   <tile/>
   <tile/>
   <tile gid="129"/>
   <tile/>
   <tile/>
   <tile/>
   <tile/>
   <tile/>
   <tile/>
   <tile/>
   <tile/>
   <tile/>
   <tile/>
   <tile/>
   <tile/>
   <tile/>
   <tile/>
   <tile/>
   <tile/>
   <tile/>
   <tile/>
   <tile/>
   <tile/>
   <tile/>
   <tile/>
   <tile/>
   <tile/>
   <tile/>
   <tile/>
   <tile gid="129"/>
   <tile/>
   <tile/>
   <tile/>
   <tile/>
   <tile/>
   <tile/>
   <tile/>
   <tile/>
   <tile/>
   <tile/>
   <tile/>
   <tile/>
   <tile/>
   <tile/>
   <tile/>
   <tile/>
   <tile/>
   <tile/>
   <tile/>
   <tile/>
   <tile/>
   <tile gid="129"/>
   <tile gid="129"/>
   <tile gid="129"/>
   <tile gid="129"/>
   <tile gid="129"/>
   <tile gid="129"/>
   <tile gid="129"/>
   <tile gid="129"/>
   <tile gid="129"/>
   <tile gid="129"/>
   <tile/>
   <tile/>
   <tile/>
   <tile/>
   <tile/>
   <tile/>
   <tile gid="129"/>
   <tile gid="129"/>
   <tile gid="129"/>
   <tile gid="129"/>
   <tile gid="129"/>
   <tile gid="129"/>
   <tile/>
   <tile/>
   <tile/>
   <tile/>
   <tile gid="129"/>
   <tile gid="129"/>
   <tile gid="129"/>
   <tile/>
   <tile/>
   <tile/>
   <tile/>
   <tile gid="129"/>
   <tile gid="129"/>
   <tile gid="129"/>
   <tile/>
   <tile/>
   <tile/>
   <tile/>
   <tile/>
   <tile/>
   <tile/>
   <tile/>
   <tile/>
   <tile/>
   <tile/>
   <tile gid="129"/>
   <tile gid="129"/>
   <tile gid="129"/>
   <tile/>
   <tile/>
   <tile/>
   <tile/>
   <tile gid="129"/>
   <tile gid="129"/>
   <tile gid="129"/>
   <tile gid="129"/>
   <tile gid="129"/>
   <tile gid="129"/>
   <tile gid="129"/>
   <tile gid="129"/>
   <tile gid="129"/>
   <tile gid="129"/>
   <tile gid="129"/>
   <tile gid="129"/>
   <tile gid="129"/>
   <tile gid="129"/>
   <tile gid="129"/>
   <tile gid="129"/>
   <tile gid="129"/>
   <tile gid="129"/>
   <tile/>
   <tile/>
   <tile/>
   <tile/>
   <tile gid="129"/>
   <tile gid="129"/>
   <tile gid="129"/>
   <tile/>
   <tile/>
   <tile/>
   <tile/>
   <tile/>
   <tile/>
   <tile/>
   <tile gid="129"/>
   <tile gid="129"/>
   <tile gid="129"/>
   <tile gid="129"/>
   <tile gid="129"/>
   <tile gid="129"/>
   <tile gid="129"/>
   <tile gid="129"/>
   <tile gid="129"/>
   <tile gid="129"/>
   <tile gid="129"/>
   <tile gid="129"/>
   <tile gid="129"/>
   <tile gid="129"/>
   <tile gid="129"/>
   <tile/>
   <tile/>
   <tile/>
   <tile gid="129"/>
   <tile gid="129"/>
   <tile gid="129"/>
   <tile gid="129"/>
   <tile gid="129"/>
   <tile gid="129"/>
   <tile gid="129"/>
   <tile gid="129"/>
   <tile gid="129"/>
   <tile gid="129"/>
   <tile gid="129"/>
   <tile gid="129"/>
   <tile gid="129"/>
   <tile gid="129"/>
   <tile gid="129"/>
   <tile gid="129"/>
   <tile gid="129"/>
   <tile gid="129"/>
   <tile gid="129"/>
   <tile gid="129"/>
   <tile gid="129"/>
   <tile gid="129"/>
   <tile gid="129"/>
   <tile gid="129"/>
   <tile gid="129"/>
   <tile gid="129"/>
   <tile gid="129"/>
   <tile gid="129"/>
   <tile/>
   <tile/>
   <tile/>
   <tile gid="129"/>
   <tile gid="129"/>
   <tile gid="129"/>
   <tile/>
   <tile/>
   <tile/>
   <tile/>
   <tile/>
   <tile/>
   <tile/>
   <tile/>
   <tile/>
   <tile/>
   <tile/>
   <tile/>
   <tile/>
   <tile/>
   <tile/>
   <tile gid="129"/>
   <tile/>
   <tile/>
   <tile/>
   <tile/>
   <tile/>
   <tile/>
   <tile/>
   <tile/>
   <tile gid="129"/>
   <tile/>
   <tile/>
   <tile/>
   <tile/>
   <tile/>
   <tile gid="129"/>
   <tile gid="129"/>
   <tile gid="129"/>
   <tile gid="129"/>
   <tile gid="129"/>
   <tile gid="129"/>
   <tile gid="129"/>
   <tile/>
   <tile/>
   <tile/>
   <tile/>
   <tile gid="129"/>
   <tile gid="129"/>
   <tile gid="129"/>
   <tile/>
   <tile/>
   <tile/>
   <tile/>
   <tile/>
   <tile/>
   <tile/>
   <tile/>
   <tile/>
   <tile/>
   <tile/>
   <tile gid="129"/>
   <tile gid="129"/>
   <tile gid="129"/>
   <tile/>
   <tile/>
   <tile/>
   <tile/>
   <tile gid="129"/>
   <tile gid="129"/>
   <tile gid="129"/>
   <tile gid="129"/>
   <tile/>
   <tile/>
   <tile/>
   <tile gid="129"/>
   <tile/>
   <tile/>
   <tile/>
   <tile/>
   <tile/>
   <tile/>
   <tile/>
   <tile/>
   <tile/>
   <tile/>
   <tile gid="129"/>
   <tile gid="129"/>
   <tile gid="129"/>
   <tile gid="129"/>
   <tile gid="129"/>
   <tile gid="129"/>
   <tile gid="129"/>
   <tile gid="129"/>
   <tile gid="129"/>
   <tile gid="129"/>
   <tile gid="129"/>
   <tile gid="129"/>
   <tile gid="129"/>
   <tile gid="129"/>
   <tile gid="129"/>
   <tile gid="129"/>
   <tile gid="129"/>
   <tile gid="129"/>
   <tile gid="129"/>
   <tile gid="129"/>
   <tile gid="129"/>
   <tile gid="129"/>
   <tile gid="129"/>
   <tile gid="129"/>
   <tile gid="129"/>
   <tile gid="129"/>
   <tile gid="129"/>
   <tile gid="129"/>
   <tile gid="129"/>
   <tile gid="129"/>
   <tile gid="129"/>
   <tile gid="129"/>
   <tile gid="129"/>
   <tile gid="129"/>
   <tile gid="129"/>
   <tile gid="129"/>
   <tile/>
   <tile/>
   <tile/>
   <tile/>
   <tile/>
   <tile/>
   <tile/>
   <tile gid="129"/>
   <tile gid="129"/>
   <tile gid="129"/>
   <tile gid="129"/>
   <tile gid="129"/>
   <tile gid="129"/>
   <tile gid="129"/>
   <tile gid="129"/>
   <tile gid="129"/>
   <tile gid="129"/>
   <tile gid="129"/>
   <tile gid="129"/>
   <tile gid="129"/>
   <tile gid="129"/>
   <tile gid="129"/>
   <tile gid="129"/>
   <tile gid="129"/>
   <tile gid="129"/>
   <tile gid="129"/>
   <tile gid="129"/>
   <tile gid="129"/>
   <tile gid="129"/>
   <tile gid="129"/>
   <tile/>
   <tile/>
   <tile/>
   <tile/>
   <tile/>
   <tile/>
   <tile/>
   <tile/>
   <tile/>
   <tile/>
   <tile/>
   <tile/>
   <tile/>
   <tile gid="129"/>
   <tile gid="129"/>
   <tile gid="129"/>
   <tile/>
   <tile/>
   <tile/>
   <tile/>
   <tile/>
   <tile/>
   <tile gid="129"/>
   <tile/>
   <tile/>
   <tile/>
   <tile/>
   <tile/>
   <tile/>
   <tile/>
   <tile/>
   <tile gid="129"/>
   <tile/>
   <tile/>
   <tile/>
   <tile/>
   <tile gid="129"/>
   <tile gid="129"/>
   <tile gid="129"/>
   <tile gid="129"/>
   <tile gid="129"/>
   <tile gid="129"/>
   <tile gid="129"/>
   <tile gid="129"/>
   <tile/>
   <tile/>
   <tile/>
   <tile/>
   <tile gid="129"/>
   <tile gid="129"/>
   <tile gid="129"/>
   <tile/>
   <tile/>
   <tile/>
   <tile/>
   <tile/>
   <tile/>
   <tile/>
   <tile/>
   <tile/>
   <tile/>
   <tile/>
   <tile gid="129"/>
   <tile gid="129"/>
   <tile gid="129"/>
   <tile/>
   <tile/>
   <tile/>
   <tile/>
   <tile gid="129"/>
   <tile gid="129"/>
   <tile gid="129"/>
   <tile gid="129"/>
   <tile gid="129"/>
   <tile/>
   <tile/>
   <tile gid="129"/>
   <tile/>
   <tile/>
   <tile/>
   <tile/>
   <tile/>
   <tile/>
   <tile/>
   <tile/>
   <tile/>
   <tile/>
   <tile gid="129"/>
   <tile gid="129"/>
   <tile gid="129"/>
   <tile gid="129"/>
   <tile gid="129"/>
   <tile gid="129"/>
   <tile gid="129"/>
   <tile gid="129"/>
   <tile gid="129"/>
   <tile gid="129"/>
   <tile gid="129"/>
   <tile gid="129"/>
   <tile gid="129"/>
   <tile gid="129"/>
   <tile gid="129"/>
   <tile gid="129"/>
   <tile gid="129"/>
   <tile gid="129"/>
   <tile gid="129"/>
   <tile gid="129"/>
   <tile gid="129"/>
   <tile gid="129"/>
   <tile gid="129"/>
   <tile gid="129"/>
   <tile gid="129"/>
   <tile gid="129"/>
   <tile gid="129"/>
   <tile gid="129"/>
   <tile gid="129"/>
   <tile gid="129"/>
   <tile gid="129"/>
   <tile gid="129"/>
   <tile gid="129"/>
   <tile gid="129"/>
   <tile gid="129"/>
   <tile gid="129"/>
   <tile gid="129"/>
   <tile/>
   <tile/>
   <tile/>
   <tile/>
   <tile/>
   <tile/>
   <tile gid="129"/>
   <tile gid="129"/>
   <tile gid="129"/>
   <tile gid="129"/>
   <tile gid="129"/>
   <tile gid="129"/>
   <tile gid="129"/>
   <tile gid="129"/>
   <tile gid="129"/>
   <tile gid="129"/>
   <tile gid="129"/>
   <tile gid="129"/>
   <tile gid="129"/>
   <tile gid="129"/>
   <tile gid="129"/>
   <tile gid="129"/>
   <tile gid="129"/>
   <tile gid="129"/>
   <tile gid="129"/>
   <tile gid="129"/>
   <tile/>
   <tile/>
   <tile/>
   <tile/>
   <tile/>
   <tile/>
   <tile/>
   <tile/>
   <tile/>
   <tile/>
   <tile/>
   <tile/>
   <tile/>
   <tile/>
   <tile/>
   <tile/>
   <tile/>
   <tile/>
   <tile/>
   <tile/>
   <tile/>
   <tile gid="129"/>
   <tile gid="129"/>
   <tile gid="129"/>
   <tile gid="129"/>
   <tile gid="129"/>
   <tile gid="129"/>
   <tile gid="129"/>
   <tile gid="129"/>
   <tile gid="129"/>
   <tile gid="129"/>
   <tile gid="129"/>
   <tile gid="129"/>
   <tile gid="129"/>
   <tile gid="129"/>
   <tile gid="129"/>
   <tile gid="129"/>
   <tile gid="129"/>
   <tile gid="129"/>
   <tile gid="129"/>
   <tile gid="129"/>
   <tile gid="129"/>
   <tile gid="129"/>
   <tile gid="129"/>
   <tile gid="129"/>
   <tile gid="129"/>
   <tile gid="129"/>
   <tile/>
   <tile/>
   <tile/>
   <tile/>
   <tile gid="129"/>
   <tile gid="129"/>
   <tile gid="129"/>
   <tile/>
   <tile/>
   <tile/>
   <tile/>
   <tile gid="129"/>
   <tile gid="129"/>
   <tile gid="129"/>
   <tile/>
   <tile/>
   <tile/>
   <tile/>
   <tile gid="129"/>
   <tile gid="129"/>
   <tile gid="129"/>
   <tile/>
   <tile/>
   <tile/>
   <tile/>
   <tile gid="129"/>
   <tile gid="129"/>
   <tile gid="129"/>
   <tile gid="129"/>
   <tile gid="129"/>
   <tile/>
   <tile/>
   <tile gid="129"/>
   <tile/>
   <tile/>
   <tile/>
   <tile/>
   <tile/>
   <tile/>
   <tile/>
   <tile/>
   <tile/>
   <tile/>
   <tile gid="129"/>
   <tile gid="129"/>
   <tile gid="129"/>
   <tile gid="129"/>
   <tile gid="129"/>
   <tile gid="129"/>
   <tile gid="129"/>
   <tile gid="129"/>
   <tile gid="129"/>
   <tile gid="129"/>
   <tile gid="129"/>
   <tile gid="129"/>
   <tile gid="129"/>
   <tile gid="129"/>
   <tile gid="129"/>
   <tile gid="129"/>
   <tile gid="129"/>
   <tile gid="129"/>
   <tile gid="129"/>
   <tile gid="129"/>
   <tile gid="129"/>
   <tile gid="129"/>
   <tile gid="129"/>
   <tile gid="129"/>
   <tile gid="129"/>
   <tile gid="129"/>
   <tile gid="129"/>
   <tile gid="129"/>
   <tile gid="129"/>
   <tile gid="129"/>
   <tile gid="129"/>
   <tile gid="129"/>
   <tile gid="129"/>
   <tile gid="129"/>
   <tile gid="129"/>
   <tile gid="129"/>
   <tile/>
   <tile/>
   <tile/>
   <tile/>
   <tile/>
   <tile/>
   <tile/>
   <tile gid="129"/>
   <tile gid="129"/>
   <tile gid="129"/>
   <tile gid="129"/>
   <tile gid="129"/>
   <tile gid="129"/>
   <tile gid="129"/>
   <tile gid="129"/>
   <tile gid="129"/>
   <tile gid="129"/>
   <tile gid="129"/>
   <tile gid="129"/>
   <tile gid="129"/>
   <tile gid="129"/>
   <tile gid="129"/>
   <tile gid="129"/>
   <tile gid="129"/>
   <tile gid="129"/>
   <tile gid="129"/>
   <tile gid="129"/>
   <tile/>
   <tile/>
   <tile/>
   <tile/>
   <tile/>
   <tile/>
   <tile/>
   <tile/>
   <tile/>
   <tile/>
   <tile/>
   <tile gid="129"/>
   <tile gid="129"/>
   <tile gid="129"/>
   <tile/>
   <tile/>
   <tile/>
   <tile/>
   <tile/>
   <tile/>
   <tile/>
   <tile gid="129"/>
   <tile gid="129"/>
   <tile gid="129"/>
   <tile gid="129"/>
   <tile gid="129"/>
   <tile gid="129"/>
   <tile gid="129"/>
   <tile gid="129"/>
   <tile gid="129"/>
   <tile gid="129"/>
   <tile gid="129"/>
   <tile gid="129"/>
   <tile gid="129"/>
   <tile gid="129"/>
   <tile gid="129"/>
   <tile gid="129"/>
   <tile gid="129"/>
   <tile gid="129"/>
   <tile gid="129"/>
   <tile gid="129"/>
   <tile gid="129"/>
   <tile gid="129"/>
   <tile gid="129"/>
   <tile gid="129"/>
   <tile gid="129"/>
   <tile gid="129"/>
   <tile/>
   <tile/>
   <tile/>
   <tile/>
   <tile gid="129"/>
   <tile gid="129"/>
   <tile gid="129"/>
   <tile/>
   <tile/>
   <tile/>
   <tile/>
   <tile gid="129"/>
   <tile gid="129"/>
   <tile gid="129"/>
   <tile/>
   <tile/>
   <tile/>
   <tile/>
   <tile gid="129"/>
   <tile gid="129"/>
   <tile gid="129"/>
   <tile/>
   <tile/>
   <tile/>
   <tile/>
   <tile gid="129"/>
   <tile gid="129"/>
   <tile gid="129"/>
   <tile gid="129"/>
   <tile gid="129"/>
   <tile/>
   <tile/>
   <tile gid="129"/>
   <tile/>
   <tile/>
   <tile/>
   <tile/>
   <tile/>
   <tile/>
   <tile/>
   <tile/>
   <tile/>
   <tile/>
   <tile gid="129"/>
   <tile gid="129"/>
   <tile gid="129"/>
   <tile gid="129"/>
   <tile gid="129"/>
   <tile gid="129"/>
   <tile gid="129"/>
   <tile gid="129"/>
   <tile gid="129"/>
   <tile gid="129"/>
   <tile gid="129"/>
   <tile gid="129"/>
   <tile gid="129"/>
   <tile gid="129"/>
   <tile gid="129"/>
   <tile gid="129"/>
   <tile gid="129"/>
   <tile gid="129"/>
   <tile gid="129"/>
   <tile gid="129"/>
   <tile gid="129"/>
   <tile gid="129"/>
   <tile gid="129"/>
   <tile gid="129"/>
   <tile gid="129"/>
   <tile gid="129"/>
   <tile gid="129"/>
   <tile gid="129"/>
   <tile gid="129"/>
   <tile gid="129"/>
   <tile gid="129"/>
   <tile gid="129"/>
   <tile gid="129"/>
   <tile gid="129"/>
   <tile gid="129"/>
   <tile gid="129"/>
   <tile gid="129"/>
   <tile gid="129"/>
   <tile gid="129"/>
   <tile gid="129"/>
   <tile gid="129"/>
   <tile gid="129"/>
   <tile gid="129"/>
   <tile gid="129"/>
   <tile gid="129"/>
   <tile gid="129"/>
   <tile gid="129"/>
   <tile gid="129"/>
   <tile gid="129"/>
   <tile gid="129"/>
   <tile gid="129"/>
   <tile gid="129"/>
   <tile gid="129"/>
   <tile gid="129"/>
   <tile gid="129"/>
   <tile gid="129"/>
   <tile gid="129"/>
   <tile gid="129"/>
   <tile gid="129"/>
   <tile gid="129"/>
   <tile gid="129"/>
   <tile gid="129"/>
   <tile gid="129"/>
   <tile gid="129"/>
   <tile gid="129"/>
   <tile gid="129"/>
   <tile gid="129"/>
   <tile gid="129"/>
   <tile gid="129"/>
   <tile gid="129"/>
   <tile gid="129"/>
   <tile gid="129"/>
   <tile gid="129"/>
   <tile gid="129"/>
   <tile gid="129"/>
   <tile gid="129"/>
   <tile gid="129"/>
   <tile gid="129"/>
   <tile gid="129"/>
   <tile gid="129"/>
   <tile gid="129"/>
   <tile gid="129"/>
   <tile gid="129"/>
   <tile gid="129"/>
   <tile gid="129"/>
   <tile gid="129"/>
   <tile gid="129"/>
   <tile gid="129"/>
   <tile gid="129"/>
   <tile gid="129"/>
   <tile gid="129"/>
   <tile gid="129"/>
   <tile gid="129"/>
   <tile gid="129"/>
   <tile gid="129"/>
   <tile gid="129"/>
   <tile gid="129"/>
   <tile gid="129"/>
   <tile gid="129"/>
   <tile gid="129"/>
   <tile gid="129"/>
   <tile gid="129"/>
   <tile gid="129"/>
   <tile gid="129"/>
   <tile gid="129"/>
   <tile gid="129"/>
   <tile gid="129"/>
   <tile gid="129"/>
   <tile gid="129"/>
   <tile gid="129"/>
   <tile gid="129"/>
   <tile gid="129"/>
   <tile gid="129"/>
   <tile gid="129"/>
   <tile gid="129"/>
   <tile gid="129"/>
   <tile gid="129"/>
   <tile gid="129"/>
   <tile gid="129"/>
   <tile gid="129"/>
   <tile gid="129"/>
   <tile gid="129"/>
   <tile gid="129"/>
   <tile gid="129"/>
   <tile gid="129"/>
   <tile gid="129"/>
   <tile gid="129"/>
   <tile gid="129"/>
   <tile gid="129"/>
   <tile gid="129"/>
   <tile gid="129"/>
   <tile gid="129"/>
   <tile gid="129"/>
   <tile gid="129"/>
   <tile gid="129"/>
   <tile gid="129"/>
   <tile gid="129"/>
   <tile gid="129"/>
   <tile gid="129"/>
   <tile gid="129"/>
   <tile gid="129"/>
   <tile gid="129"/>
   <tile gid="129"/>
   <tile gid="129"/>
   <tile gid="129"/>
   <tile gid="129"/>
   <tile gid="129"/>
   <tile gid="129"/>
   <tile gid="129"/>
   <tile gid="129"/>
   <tile gid="129"/>
   <tile gid="129"/>
   <tile gid="129"/>
   <tile gid="129"/>
   <tile gid="129"/>
   <tile gid="129"/>
   <tile gid="129"/>
   <tile gid="129"/>
   <tile gid="129"/>
   <tile gid="129"/>
   <tile gid="129"/>
   <tile gid="129"/>
   <tile gid="129"/>
   <tile gid="129"/>
   <tile gid="129"/>
   <tile gid="129"/>
   <tile gid="129"/>
   <tile gid="129"/>
   <tile gid="129"/>
   <tile gid="129"/>
   <tile gid="129"/>
   <tile gid="129"/>
   <tile gid="129"/>
   <tile gid="129"/>
  </data>
 </layer>
 <layer id="32" name="AirNavLayer" width="153" height="19" visible="0">
  <properties>
   <property name="Air" type="bool" value="true"/>
   <property name="Navigation" type="bool" value="true"/>
  </properties>
  <data>
   <tile/>
   <tile/>
   <tile/>
   <tile/>
   <tile/>
   <tile/>
   <tile/>
   <tile/>
   <tile/>
   <tile/>
   <tile/>
   <tile/>
   <tile/>
   <tile/>
   <tile/>
   <tile/>
   <tile/>
   <tile/>
   <tile/>
   <tile/>
   <tile/>
   <tile/>
   <tile gid="129"/>
   <tile gid="129"/>
   <tile gid="129"/>
   <tile gid="129"/>
   <tile gid="129"/>
   <tile gid="129"/>
   <tile gid="129"/>
   <tile gid="129"/>
   <tile gid="129"/>
   <tile gid="129"/>
   <tile gid="129"/>
   <tile gid="129"/>
   <tile gid="129"/>
   <tile gid="129"/>
   <tile gid="129"/>
   <tile/>
   <tile/>
   <tile/>
   <tile/>
   <tile gid="129"/>
   <tile gid="129"/>
   <tile gid="129"/>
   <tile gid="129"/>
   <tile gid="129"/>
   <tile gid="129"/>
   <tile gid="129"/>
   <tile gid="129"/>
   <tile gid="129"/>
   <tile gid="129"/>
   <tile gid="129"/>
   <tile gid="129"/>
   <tile gid="129"/>
   <tile gid="129"/>
   <tile gid="129"/>
   <tile gid="129"/>
   <tile gid="129"/>
   <tile gid="129"/>
   <tile gid="129"/>
   <tile gid="129"/>
   <tile gid="129"/>
   <tile gid="129"/>
   <tile gid="129"/>
   <tile gid="129"/>
   <tile gid="129"/>
   <tile gid="129"/>
   <tile gid="129"/>
   <tile gid="129"/>
   <tile gid="129"/>
   <tile gid="129"/>
   <tile gid="129"/>
   <tile gid="129"/>
   <tile gid="129"/>
   <tile gid="129"/>
   <tile gid="129"/>
   <tile gid="129"/>
   <tile gid="129"/>
   <tile gid="129"/>
   <tile gid="129"/>
   <tile gid="129"/>
   <tile gid="129"/>
   <tile gid="129"/>
   <tile gid="129"/>
   <tile gid="129"/>
   <tile gid="129"/>
   <tile gid="129"/>
   <tile gid="129"/>
   <tile gid="129"/>
   <tile gid="129"/>
   <tile gid="129"/>
   <tile gid="129"/>
   <tile gid="129"/>
   <tile gid="129"/>
   <tile gid="129"/>
   <tile gid="129"/>
   <tile gid="129"/>
   <tile gid="129"/>
   <tile gid="129"/>
   <tile gid="129"/>
   <tile gid="129"/>
   <tile gid="129"/>
   <tile gid="129"/>
   <tile gid="129"/>
   <tile gid="129"/>
   <tile gid="129"/>
   <tile gid="129"/>
   <tile gid="129"/>
   <tile gid="129"/>
   <tile gid="129"/>
   <tile gid="129"/>
   <tile gid="129"/>
   <tile gid="129"/>
   <tile gid="129"/>
   <tile gid="129"/>
   <tile gid="129"/>
   <tile gid="129"/>
   <tile gid="129"/>
   <tile gid="129"/>
   <tile gid="129"/>
   <tile gid="129"/>
   <tile gid="129"/>
   <tile gid="129"/>
   <tile gid="129"/>
   <tile gid="129"/>
   <tile gid="129"/>
   <tile gid="129"/>
   <tile gid="129"/>
   <tile gid="129"/>
   <tile gid="129"/>
   <tile gid="129"/>
   <tile gid="129"/>
   <tile gid="129"/>
   <tile gid="129"/>
   <tile gid="129"/>
   <tile gid="129"/>
   <tile gid="129"/>
   <tile gid="129"/>
   <tile gid="129"/>
   <tile gid="129"/>
   <tile gid="129"/>
   <tile gid="129"/>
   <tile gid="129"/>
   <tile gid="129"/>
   <tile gid="129"/>
   <tile gid="129"/>
   <tile gid="129"/>
   <tile gid="129"/>
   <tile gid="129"/>
   <tile gid="129"/>
   <tile gid="129"/>
   <tile gid="129"/>
   <tile gid="129"/>
   <tile/>
   <tile/>
   <tile/>
   <tile/>
   <tile/>
   <tile/>
   <tile/>
   <tile/>
   <tile/>
   <tile/>
   <tile/>
   <tile/>
   <tile/>
   <tile/>
   <tile/>
   <tile/>
   <tile/>
   <tile/>
   <tile/>
   <tile/>
   <tile/>
   <tile/>
   <tile gid="129"/>
   <tile gid="129"/>
   <tile gid="129"/>
   <tile gid="129"/>
   <tile gid="129"/>
   <tile gid="129"/>
   <tile gid="129"/>
   <tile gid="129"/>
   <tile gid="129"/>
   <tile gid="129"/>
   <tile gid="129"/>
   <tile gid="129"/>
   <tile gid="129"/>
   <tile gid="129"/>
   <tile gid="129"/>
   <tile/>
   <tile/>
   <tile/>
   <tile/>
   <tile gid="129"/>
   <tile gid="129"/>
   <tile gid="129"/>
   <tile gid="129"/>
   <tile gid="129"/>
   <tile gid="129"/>
   <tile gid="129"/>
   <tile gid="129"/>
   <tile gid="129"/>
   <tile gid="129"/>
   <tile gid="129"/>
   <tile gid="129"/>
   <tile gid="129"/>
   <tile gid="129"/>
   <tile gid="129"/>
   <tile gid="129"/>
   <tile gid="129"/>
   <tile gid="129"/>
   <tile gid="129"/>
   <tile gid="129"/>
   <tile gid="129"/>
   <tile gid="129"/>
   <tile gid="129"/>
   <tile gid="129"/>
   <tile gid="129"/>
   <tile gid="129"/>
   <tile gid="129"/>
   <tile gid="129"/>
   <tile gid="129"/>
   <tile gid="129"/>
   <tile gid="129"/>
   <tile gid="129"/>
   <tile gid="129"/>
   <tile gid="129"/>
   <tile gid="129"/>
   <tile gid="129"/>
   <tile gid="129"/>
   <tile gid="129"/>
   <tile gid="129"/>
   <tile gid="129"/>
   <tile/>
   <tile/>
   <tile/>
   <tile/>
   <tile/>
   <tile/>
   <tile/>
   <tile/>
   <tile/>
   <tile/>
   <tile/>
   <tile/>
   <tile gid="129"/>
   <tile gid="129"/>
   <tile gid="129"/>
   <tile/>
   <tile/>
   <tile/>
   <tile/>
   <tile gid="129"/>
   <tile gid="129"/>
   <tile gid="129"/>
   <tile/>
   <tile/>
   <tile/>
   <tile/>
   <tile gid="129"/>
   <tile gid="129"/>
   <tile gid="129"/>
   <tile/>
   <tile/>
   <tile/>
   <tile/>
   <tile gid="129"/>
   <tile gid="129"/>
   <tile gid="129"/>
   <tile gid="129"/>
   <tile gid="129"/>
   <tile gid="129"/>
   <tile gid="129"/>
   <tile gid="129"/>
   <tile gid="129"/>
   <tile gid="129"/>
   <tile gid="129"/>
   <tile gid="129"/>
   <tile gid="129"/>
   <tile gid="129"/>
   <tile gid="129"/>
   <tile gid="129"/>
   <tile gid="129"/>
   <tile gid="129"/>
   <tile gid="129"/>
   <tile gid="129"/>
   <tile gid="129"/>
   <tile gid="129"/>
   <tile gid="129"/>
   <tile gid="129"/>
   <tile gid="129"/>
   <tile gid="129"/>
   <tile gid="129"/>
   <tile gid="129"/>
   <tile gid="129"/>
   <tile gid="129"/>
   <tile gid="129"/>
   <tile gid="129"/>
   <tile gid="129"/>
   <tile gid="129"/>
   <tile gid="129"/>
   <tile gid="129"/>
   <tile gid="129"/>
   <tile gid="129"/>
   <tile gid="129"/>
   <tile/>
   <tile/>
   <tile/>
   <tile/>
   <tile/>
   <tile/>
   <tile/>
   <tile/>
   <tile/>
   <tile/>
   <tile/>
   <tile/>
   <tile/>
   <tile/>
   <tile/>
   <tile/>
   <tile/>
   <tile/>
   <tile/>
   <tile/>
   <tile/>
   <tile/>
   <tile/>
   <tile gid="129"/>
   <tile gid="129"/>
   <tile gid="129"/>
   <tile gid="129"/>
   <tile gid="129"/>
   <tile gid="129"/>
   <tile gid="129"/>
   <tile gid="129"/>
   <tile gid="129"/>
   <tile gid="129"/>
   <tile gid="129"/>
   <tile gid="129"/>
   <tile gid="129"/>
   <tile gid="129"/>
   <tile/>
   <tile/>
   <tile/>
   <tile/>
   <tile gid="129"/>
   <tile/>
   <tile/>
   <tile/>
   <tile/>
   <tile/>
   <tile/>
   <tile/>
   <tile/>
   <tile/>
   <tile/>
   <tile/>
   <tile/>
   <tile/>
   <tile/>
   <tile/>
   <tile/>
   <tile/>
   <tile/>
   <tile/>
   <tile/>
   <tile/>
   <tile/>
   <tile/>
   <tile/>
   <tile/>
   <tile/>
   <tile gid="129"/>
   <tile gid="129"/>
   <tile gid="129"/>
   <tile gid="129"/>
   <tile gid="129"/>
   <tile gid="129"/>
   <tile gid="129"/>
   <tile gid="129"/>
   <tile gid="129"/>
   <tile gid="129"/>
   <tile gid="129"/>
   <tile gid="129"/>
   <tile gid="129"/>
   <tile/>
   <tile/>
   <tile/>
   <tile/>
   <tile/>
   <tile/>
   <tile/>
   <tile/>
   <tile/>
   <tile/>
   <tile/>
   <tile/>
   <tile gid="129"/>
   <tile gid="129"/>
   <tile gid="129"/>
   <tile/>
   <tile/>
   <tile/>
   <tile/>
   <tile gid="129"/>
   <tile gid="129"/>
   <tile gid="129"/>
   <tile/>
   <tile/>
   <tile/>
   <tile/>
   <tile gid="129"/>
   <tile gid="129"/>
   <tile gid="129"/>
   <tile/>
   <tile/>
   <tile/>
   <tile/>
   <tile gid="129"/>
   <tile gid="129"/>
   <tile gid="129"/>
   <tile gid="129"/>
   <tile gid="129"/>
   <tile gid="129"/>
   <tile gid="129"/>
   <tile gid="129"/>
   <tile gid="129"/>
   <tile gid="129"/>
   <tile gid="129"/>
   <tile gid="129"/>
   <tile gid="129"/>
   <tile gid="129"/>
   <tile gid="129"/>
   <tile gid="129"/>
   <tile gid="129"/>
   <tile gid="129"/>
   <tile gid="129"/>
   <tile gid="129"/>
   <tile gid="129"/>
   <tile gid="129"/>
   <tile gid="129"/>
   <tile gid="129"/>
   <tile gid="129"/>
   <tile gid="129"/>
   <tile gid="129"/>
   <tile gid="129"/>
   <tile gid="129"/>
   <tile gid="129"/>
   <tile gid="129"/>
   <tile gid="129"/>
   <tile gid="129"/>
   <tile gid="129"/>
   <tile gid="129"/>
   <tile gid="129"/>
   <tile gid="129"/>
   <tile gid="129"/>
   <tile gid="129"/>
   <tile/>
   <tile/>
   <tile/>
   <tile/>
   <tile/>
   <tile/>
   <tile/>
   <tile/>
   <tile/>
   <tile/>
   <tile/>
   <tile/>
   <tile/>
   <tile/>
   <tile/>
   <tile/>
   <tile/>
   <tile/>
   <tile/>
   <tile/>
   <tile/>
   <tile/>
   <tile/>
   <tile/>
   <tile/>
   <tile gid="129"/>
   <tile gid="129"/>
   <tile gid="129"/>
   <tile gid="129"/>
   <tile gid="129"/>
   <tile gid="129"/>
   <tile gid="129"/>
   <tile gid="129"/>
   <tile gid="129"/>
   <tile gid="129"/>
   <tile gid="129"/>
   <tile gid="129"/>
   <tile/>
   <tile/>
   <tile/>
   <tile/>
   <tile gid="129"/>
   <tile/>
   <tile/>
   <tile/>
   <tile/>
   <tile/>
   <tile/>
   <tile/>
   <tile/>
   <tile/>
   <tile/>
   <tile/>
   <tile/>
   <tile/>
   <tile/>
   <tile/>
   <tile/>
   <tile/>
   <tile/>
   <tile/>
   <tile/>
   <tile/>
   <tile/>
   <tile/>
   <tile/>
   <tile/>
   <tile/>
   <tile gid="129"/>
   <tile gid="129"/>
   <tile gid="129"/>
   <tile gid="129"/>
   <tile gid="129"/>
   <tile gid="129"/>
   <tile gid="129"/>
   <tile gid="129"/>
   <tile gid="129"/>
   <tile gid="129"/>
   <tile gid="129"/>
   <tile gid="129"/>
   <tile gid="129"/>
   <tile/>
   <tile/>
   <tile/>
   <tile/>
   <tile/>
   <tile/>
   <tile/>
   <tile/>
   <tile/>
   <tile/>
   <tile/>
   <tile/>
   <tile gid="129"/>
   <tile gid="129"/>
   <tile gid="129"/>
   <tile/>
   <tile/>
   <tile/>
   <tile/>
   <tile gid="129"/>
   <tile gid="129"/>
   <tile gid="129"/>
   <tile/>
   <tile/>
   <tile/>
   <tile/>
   <tile gid="129"/>
   <tile gid="129"/>
   <tile gid="129"/>
   <tile/>
   <tile/>
   <tile/>
   <tile/>
   <tile gid="129"/>
   <tile gid="129"/>
   <tile gid="129"/>
   <tile/>
   <tile/>
   <tile/>
   <tile/>
   <tile/>
   <tile/>
   <tile/>
   <tile/>
   <tile/>
   <tile/>
   <tile/>
   <tile/>
   <tile/>
   <tile/>
   <tile/>
   <tile/>
   <tile/>
   <tile/>
   <tile/>
   <tile/>
   <tile/>
   <tile/>
   <tile/>
   <tile/>
   <tile/>
   <tile/>
   <tile gid="129"/>
   <tile gid="129"/>
   <tile gid="129"/>
   <tile/>
   <tile/>
   <tile/>
   <tile/>
   <tile/>
   <tile/>
   <tile/>
   <tile/>
   <tile/>
   <tile/>
   <tile/>
   <tile/>
   <tile/>
   <tile/>
   <tile/>
   <tile/>
   <tile/>
   <tile/>
   <tile/>
   <tile/>
   <tile/>
   <tile/>
   <tile/>
   <tile/>
   <tile/>
   <tile/>
   <tile/>
   <tile/>
   <tile/>
   <tile/>
   <tile/>
   <tile/>
   <tile/>
   <tile gid="129"/>
   <tile gid="129"/>
   <tile gid="129"/>
   <tile gid="129"/>
   <tile gid="129"/>
   <tile gid="129"/>
   <tile gid="129"/>
   <tile gid="129"/>
   <tile gid="129"/>
   <tile gid="129"/>
   <tile gid="129"/>
   <tile/>
   <tile/>
   <tile/>
   <tile/>
   <tile gid="129"/>
   <tile/>
   <tile/>
   <tile/>
   <tile/>
   <tile/>
   <tile/>
   <tile/>
   <tile/>
   <tile/>
   <tile/>
   <tile/>
   <tile/>
   <tile/>
   <tile/>
   <tile/>
   <tile/>
   <tile/>
   <tile/>
   <tile/>
   <tile/>
   <tile/>
   <tile/>
   <tile/>
   <tile/>
   <tile/>
   <tile/>
   <tile gid="129"/>
   <tile gid="129"/>
   <tile gid="129"/>
   <tile gid="129"/>
   <tile gid="129"/>
   <tile gid="129"/>
   <tile gid="129"/>
   <tile gid="129"/>
   <tile gid="129"/>
   <tile gid="129"/>
   <tile gid="129"/>
   <tile gid="129"/>
   <tile gid="129"/>
   <tile/>
   <tile/>
   <tile/>
   <tile/>
   <tile/>
   <tile/>
   <tile/>
   <tile/>
   <tile/>
   <tile/>
   <tile/>
   <tile/>
   <tile gid="129"/>
   <tile gid="129"/>
   <tile gid="129"/>
   <tile/>
   <tile/>
   <tile/>
   <tile/>
   <tile gid="129"/>
   <tile gid="129"/>
   <tile gid="129"/>
   <tile/>
   <tile/>
   <tile/>
   <tile/>
   <tile gid="129"/>
   <tile gid="129"/>
   <tile gid="129"/>
   <tile/>
   <tile/>
   <tile/>
   <tile/>
   <tile gid="129"/>
   <tile gid="129"/>
   <tile gid="129"/>
   <tile/>
   <tile/>
   <tile/>
   <tile/>
   <tile/>
   <tile/>
   <tile/>
   <tile/>
   <tile/>
   <tile/>
   <tile/>
   <tile/>
   <tile/>
   <tile/>
   <tile/>
   <tile/>
   <tile/>
   <tile/>
   <tile/>
   <tile/>
   <tile/>
   <tile/>
   <tile/>
   <tile/>
   <tile/>
   <tile/>
   <tile gid="129"/>
   <tile gid="129"/>
   <tile gid="129"/>
   <tile/>
   <tile/>
   <tile/>
   <tile/>
   <tile/>
   <tile/>
   <tile/>
   <tile/>
   <tile/>
   <tile/>
   <tile/>
   <tile/>
   <tile/>
   <tile/>
   <tile/>
   <tile/>
   <tile/>
   <tile/>
   <tile/>
   <tile/>
   <tile/>
   <tile/>
   <tile/>
   <tile/>
   <tile/>
   <tile/>
   <tile/>
   <tile/>
   <tile/>
   <tile/>
   <tile/>
   <tile/>
   <tile/>
   <tile/>
   <tile gid="129"/>
   <tile gid="129"/>
   <tile gid="129"/>
   <tile gid="129"/>
   <tile gid="129"/>
   <tile gid="129"/>
   <tile gid="129"/>
   <tile gid="129"/>
   <tile gid="129"/>
   <tile gid="129"/>
   <tile/>
   <tile/>
   <tile/>
   <tile/>
   <tile gid="129"/>
   <tile gid="129"/>
   <tile gid="129"/>
   <tile gid="129"/>
   <tile gid="129"/>
   <tile/>
   <tile/>
   <tile/>
   <tile/>
   <tile/>
   <tile/>
   <tile/>
   <tile/>
   <tile/>
   <tile/>
   <tile/>
   <tile/>
   <tile/>
   <tile/>
   <tile/>
   <tile/>
   <tile/>
   <tile/>
   <tile/>
   <tile/>
   <tile/>
   <tile/>
   <tile gid="129"/>
   <tile gid="129"/>
   <tile gid="129"/>
   <tile gid="129"/>
   <tile gid="129"/>
   <tile gid="129"/>
   <tile gid="129"/>
   <tile gid="129"/>
   <tile gid="129"/>
   <tile gid="129"/>
   <tile gid="129"/>
   <tile gid="129"/>
   <tile gid="129"/>
   <tile/>
   <tile/>
   <tile/>
   <tile/>
   <tile/>
   <tile/>
   <tile/>
   <tile/>
   <tile/>
   <tile/>
   <tile/>
   <tile/>
   <tile gid="129"/>
   <tile gid="129"/>
   <tile gid="129"/>
   <tile/>
   <tile/>
   <tile/>
   <tile/>
   <tile gid="129"/>
   <tile gid="129"/>
   <tile gid="129"/>
   <tile/>
   <tile/>
   <tile/>
   <tile/>
   <tile gid="129"/>
   <tile gid="129"/>
   <tile gid="129"/>
   <tile/>
   <tile/>
   <tile/>
   <tile/>
   <tile gid="129"/>
   <tile gid="129"/>
   <tile gid="129"/>
   <tile/>
   <tile/>
   <tile/>
   <tile/>
   <tile/>
   <tile/>
   <tile/>
   <tile/>
   <tile/>
   <tile/>
   <tile/>
   <tile/>
   <tile/>
   <tile/>
   <tile/>
   <tile/>
   <tile/>
   <tile/>
   <tile/>
   <tile/>
   <tile/>
   <tile/>
   <tile/>
   <tile/>
   <tile/>
   <tile/>
   <tile gid="129"/>
   <tile gid="129"/>
   <tile gid="129"/>
   <tile/>
   <tile/>
   <tile/>
   <tile/>
   <tile/>
   <tile/>
   <tile/>
   <tile/>
   <tile/>
   <tile/>
   <tile/>
   <tile/>
   <tile/>
   <tile/>
   <tile/>
   <tile/>
   <tile/>
   <tile/>
   <tile/>
   <tile/>
   <tile/>
   <tile/>
   <tile/>
   <tile/>
   <tile/>
   <tile/>
   <tile/>
   <tile/>
   <tile/>
   <tile/>
   <tile/>
   <tile/>
   <tile/>
   <tile/>
   <tile/>
   <tile gid="129"/>
   <tile gid="129"/>
   <tile gid="129"/>
   <tile gid="129"/>
   <tile gid="129"/>
   <tile gid="129"/>
   <tile gid="129"/>
   <tile gid="129"/>
   <tile gid="129"/>
   <tile/>
   <tile/>
   <tile/>
   <tile/>
   <tile gid="129"/>
   <tile gid="129"/>
   <tile gid="129"/>
   <tile gid="129"/>
   <tile gid="129"/>
   <tile/>
   <tile/>
   <tile/>
   <tile/>
   <tile/>
   <tile/>
   <tile gid="129"/>
   <tile gid="129"/>
   <tile gid="129"/>
   <tile/>
   <tile/>
   <tile/>
   <tile/>
   <tile/>
   <tile/>
   <tile/>
   <tile/>
   <tile/>
   <tile/>
   <tile/>
   <tile/>
   <tile/>
   <tile gid="129"/>
   <tile gid="129"/>
   <tile gid="129"/>
   <tile gid="129"/>
   <tile gid="129"/>
   <tile gid="129"/>
   <tile gid="129"/>
   <tile gid="129"/>
   <tile gid="129"/>
   <tile gid="129"/>
   <tile gid="129"/>
   <tile gid="129"/>
   <tile gid="129"/>
   <tile/>
   <tile/>
   <tile/>
   <tile/>
   <tile/>
   <tile/>
   <tile/>
   <tile/>
   <tile/>
   <tile/>
   <tile/>
   <tile/>
   <tile gid="129"/>
   <tile gid="129"/>
   <tile gid="129"/>
   <tile/>
   <tile/>
   <tile/>
   <tile/>
   <tile gid="129"/>
   <tile gid="129"/>
   <tile gid="129"/>
   <tile/>
   <tile/>
   <tile/>
   <tile/>
   <tile gid="129"/>
   <tile gid="129"/>
   <tile gid="129"/>
   <tile/>
   <tile/>
   <tile/>
   <tile/>
   <tile gid="129"/>
   <tile gid="129"/>
   <tile gid="129"/>
   <tile/>
   <tile/>
   <tile/>
   <tile/>
   <tile/>
   <tile/>
   <tile/>
   <tile/>
   <tile/>
   <tile/>
   <tile/>
   <tile/>
   <tile/>
   <tile/>
   <tile/>
   <tile/>
   <tile/>
   <tile/>
   <tile/>
   <tile/>
   <tile/>
   <tile/>
   <tile/>
   <tile/>
   <tile/>
   <tile/>
   <tile gid="129"/>
   <tile gid="129"/>
   <tile gid="129"/>
   <tile/>
   <tile/>
   <tile/>
   <tile/>
   <tile/>
   <tile/>
   <tile/>
   <tile/>
   <tile/>
   <tile/>
   <tile/>
   <tile/>
   <tile/>
   <tile/>
   <tile/>
   <tile/>
   <tile/>
   <tile/>
   <tile/>
   <tile/>
   <tile/>
   <tile/>
   <tile/>
   <tile/>
   <tile/>
   <tile/>
   <tile/>
   <tile/>
   <tile/>
   <tile/>
   <tile/>
   <tile/>
   <tile/>
   <tile/>
   <tile/>
   <tile/>
   <tile gid="129"/>
   <tile gid="129"/>
   <tile gid="129"/>
   <tile gid="129"/>
   <tile gid="129"/>
   <tile gid="129"/>
   <tile gid="129"/>
   <tile gid="129"/>
   <tile/>
   <tile/>
   <tile/>
   <tile/>
   <tile gid="129"/>
   <tile gid="129"/>
   <tile gid="129"/>
   <tile gid="129"/>
   <tile/>
   <tile/>
   <tile/>
   <tile/>
   <tile/>
   <tile/>
   <tile/>
   <tile/>
   <tile/>
   <tile/>
   <tile/>
   <tile/>
   <tile/>
   <tile/>
   <tile/>
   <tile/>
   <tile/>
   <tile/>
   <tile/>
   <tile/>
   <tile/>
   <tile/>
   <tile/>
   <tile gid="129"/>
   <tile gid="129"/>
   <tile gid="129"/>
   <tile gid="129"/>
   <tile gid="129"/>
   <tile gid="129"/>
   <tile gid="129"/>
   <tile gid="129"/>
   <tile gid="129"/>
   <tile gid="129"/>
   <tile gid="129"/>
   <tile gid="129"/>
   <tile gid="129"/>
   <tile/>
   <tile/>
   <tile/>
   <tile/>
   <tile/>
   <tile/>
   <tile/>
   <tile/>
   <tile/>
   <tile/>
   <tile/>
   <tile/>
   <tile gid="129"/>
   <tile gid="129"/>
   <tile gid="129"/>
   <tile/>
   <tile/>
   <tile/>
   <tile/>
   <tile gid="129"/>
   <tile gid="129"/>
   <tile gid="129"/>
   <tile/>
   <tile/>
   <tile/>
   <tile/>
   <tile gid="129"/>
   <tile gid="129"/>
   <tile gid="129"/>
   <tile/>
   <tile/>
   <tile/>
   <tile/>
   <tile gid="129"/>
   <tile gid="129"/>
   <tile gid="129"/>
   <tile/>
   <tile/>
   <tile/>
   <tile/>
   <tile/>
   <tile/>
   <tile/>
   <tile/>
   <tile/>
   <tile/>
   <tile/>
   <tile/>
   <tile/>
   <tile/>
   <tile/>
   <tile/>
   <tile/>
   <tile/>
   <tile/>
   <tile/>
   <tile/>
   <tile/>
   <tile/>
   <tile/>
   <tile/>
   <tile/>
   <tile gid="129"/>
   <tile gid="129"/>
   <tile gid="129"/>
   <tile/>
   <tile/>
   <tile/>
   <tile/>
   <tile/>
   <tile/>
   <tile/>
   <tile/>
   <tile/>
   <tile/>
   <tile/>
   <tile/>
   <tile/>
   <tile/>
   <tile/>
   <tile/>
   <tile/>
   <tile/>
   <tile/>
   <tile/>
   <tile/>
   <tile/>
   <tile/>
   <tile/>
   <tile/>
   <tile/>
   <tile/>
   <tile/>
   <tile/>
   <tile/>
   <tile/>
   <tile/>
   <tile/>
   <tile/>
   <tile/>
   <tile/>
   <tile/>
   <tile gid="129"/>
   <tile gid="129"/>
   <tile gid="129"/>
   <tile gid="129"/>
   <tile gid="129"/>
   <tile gid="129"/>
   <tile gid="129"/>
   <tile/>
   <tile/>
   <tile/>
   <tile/>
   <tile gid="129"/>
   <tile gid="129"/>
   <tile gid="129"/>
   <tile/>
   <tile/>
   <tile/>
   <tile/>
   <tile/>
   <tile/>
   <tile/>
   <tile/>
   <tile/>
   <tile/>
   <tile/>
   <tile/>
   <tile/>
   <tile/>
   <tile/>
   <tile/>
   <tile gid="129"/>
   <tile gid="129"/>
   <tile gid="129"/>
   <tile/>
   <tile/>
   <tile/>
   <tile/>
   <tile/>
   <tile gid="129"/>
   <tile gid="129"/>
   <tile gid="129"/>
   <tile gid="129"/>
   <tile gid="129"/>
   <tile gid="129"/>
   <tile gid="129"/>
   <tile gid="129"/>
   <tile gid="129"/>
   <tile gid="129"/>
   <tile gid="129"/>
   <tile gid="129"/>
   <tile gid="129"/>
   <tile/>
   <tile/>
   <tile/>
   <tile/>
   <tile/>
   <tile/>
   <tile/>
   <tile/>
   <tile/>
   <tile/>
   <tile/>
   <tile/>
   <tile gid="129"/>
   <tile gid="129"/>
   <tile gid="129"/>
   <tile/>
   <tile/>
   <tile/>
   <tile/>
   <tile gid="129"/>
   <tile gid="129"/>
   <tile gid="129"/>
   <tile/>
   <tile/>
   <tile/>
   <tile/>
   <tile gid="129"/>
   <tile gid="129"/>
   <tile gid="129"/>
   <tile/>
   <tile/>
   <tile/>
   <tile/>
   <tile gid="129"/>
   <tile gid="129"/>
   <tile gid="129"/>
   <tile/>
   <tile/>
   <tile/>
   <tile/>
   <tile/>
   <tile/>
   <tile/>
   <tile/>
   <tile/>
   <tile/>
   <tile/>
   <tile/>
   <tile/>
   <tile/>
   <tile/>
   <tile/>
   <tile/>
   <tile/>
   <tile/>
   <tile/>
   <tile/>
   <tile/>
   <tile/>
   <tile/>
   <tile/>
   <tile/>
   <tile gid="129"/>
   <tile gid="129"/>
   <tile gid="129"/>
   <tile/>
   <tile/>
   <tile/>
   <tile/>
   <tile/>
   <tile/>
   <tile/>
   <tile/>
   <tile/>
   <tile/>
   <tile/>
   <tile/>
   <tile/>
   <tile/>
   <tile/>
   <tile/>
   <tile/>
   <tile/>
   <tile/>
   <tile/>
   <tile/>
   <tile/>
   <tile/>
   <tile/>
   <tile/>
   <tile/>
   <tile/>
   <tile/>
   <tile/>
   <tile/>
   <tile/>
   <tile/>
   <tile/>
   <tile/>
   <tile/>
   <tile/>
   <tile/>
   <tile/>
   <tile gid="129"/>
   <tile gid="129"/>
   <tile gid="129"/>
   <tile gid="129"/>
   <tile gid="129"/>
   <tile gid="129"/>
   <tile/>
   <tile/>
   <tile/>
   <tile/>
   <tile gid="129"/>
   <tile gid="129"/>
   <tile/>
   <tile/>
   <tile/>
   <tile/>
   <tile/>
   <tile/>
   <tile/>
   <tile/>
   <tile/>
   <tile/>
   <tile/>
   <tile/>
   <tile/>
   <tile/>
   <tile/>
   <tile/>
   <tile/>
   <tile/>
   <tile/>
   <tile/>
   <tile/>
   <tile/>
   <tile/>
   <tile/>
   <tile/>
   <tile gid="129"/>
   <tile gid="129"/>
   <tile gid="129"/>
   <tile gid="129"/>
   <tile gid="129"/>
   <tile gid="129"/>
   <tile gid="129"/>
   <tile gid="129"/>
   <tile gid="129"/>
   <tile gid="129"/>
   <tile gid="129"/>
   <tile gid="129"/>
   <tile/>
   <tile/>
   <tile/>
   <tile/>
   <tile/>
   <tile/>
   <tile/>
   <tile/>
   <tile/>
   <tile/>
   <tile/>
   <tile/>
   <tile/>
   <tile/>
   <tile/>
   <tile/>
   <tile/>
   <tile/>
   <tile/>
   <tile/>
   <tile gid="129"/>
   <tile gid="129"/>
   <tile gid="129"/>
   <tile/>
   <tile/>
   <tile/>
   <tile/>
   <tile gid="129"/>
   <tile gid="129"/>
   <tile gid="129"/>
   <tile/>
   <tile/>
   <tile/>
   <tile/>
   <tile gid="129"/>
   <tile gid="129"/>
   <tile gid="129"/>
   <tile/>
   <tile/>
   <tile/>
   <tile/>
   <tile/>
   <tile/>
   <tile/>
   <tile/>
   <tile/>
   <tile/>
   <tile/>
   <tile/>
   <tile/>
   <tile/>
   <tile/>
   <tile/>
   <tile/>
   <tile/>
   <tile/>
   <tile/>
   <tile/>
   <tile/>
   <tile/>
   <tile/>
   <tile/>
   <tile/>
   <tile gid="129"/>
   <tile gid="129"/>
   <tile gid="129"/>
   <tile/>
   <tile/>
   <tile/>
   <tile/>
   <tile/>
   <tile/>
   <tile/>
   <tile/>
   <tile/>
   <tile/>
   <tile/>
   <tile/>
   <tile/>
   <tile/>
   <tile/>
   <tile/>
   <tile/>
   <tile/>
   <tile/>
   <tile/>
   <tile/>
   <tile/>
   <tile/>
   <tile/>
   <tile/>
   <tile/>
   <tile/>
   <tile/>
   <tile/>
   <tile/>
   <tile/>
   <tile/>
   <tile/>
   <tile/>
   <tile/>
   <tile/>
   <tile/>
   <tile/>
   <tile/>
   <tile gid="129"/>
   <tile gid="129"/>
   <tile gid="129"/>
   <tile gid="129"/>
   <tile gid="129"/>
   <tile/>
   <tile/>
   <tile/>
   <tile/>
   <tile gid="129"/>
   <tile gid="129"/>
   <tile/>
   <tile/>
   <tile/>
   <tile/>
   <tile/>
   <tile/>
   <tile/>
   <tile/>
   <tile/>
   <tile/>
   <tile/>
   <tile/>
   <tile/>
   <tile/>
   <tile/>
   <tile/>
   <tile/>
   <tile/>
   <tile/>
   <tile/>
   <tile/>
   <tile/>
   <tile/>
   <tile/>
   <tile/>
   <tile gid="129"/>
   <tile gid="129"/>
   <tile gid="129"/>
   <tile gid="129"/>
   <tile gid="129"/>
   <tile gid="129"/>
   <tile gid="129"/>
   <tile gid="129"/>
   <tile gid="129"/>
   <tile gid="129"/>
   <tile gid="129"/>
   <tile/>
   <tile/>
   <tile/>
   <tile/>
   <tile/>
   <tile/>
   <tile/>
   <tile/>
   <tile/>
   <tile/>
   <tile/>
   <tile/>
   <tile/>
   <tile/>
   <tile/>
   <tile/>
   <tile/>
   <tile/>
   <tile/>
   <tile/>
   <tile/>
   <tile gid="129"/>
   <tile gid="129"/>
   <tile gid="129"/>
   <tile/>
   <tile/>
   <tile/>
   <tile/>
   <tile gid="129"/>
   <tile gid="129"/>
   <tile gid="129"/>
   <tile/>
   <tile/>
   <tile/>
   <tile/>
   <tile/>
   <tile/>
   <tile/>
   <tile/>
   <tile/>
   <tile/>
   <tile/>
   <tile/>
   <tile/>
   <tile/>
   <tile/>
   <tile/>
   <tile/>
   <tile/>
   <tile/>
   <tile/>
   <tile/>
   <tile/>
   <tile/>
   <tile/>
   <tile/>
   <tile/>
   <tile/>
   <tile/>
   <tile/>
   <tile/>
   <tile/>
   <tile/>
   <tile/>
   <tile gid="129"/>
   <tile gid="129"/>
   <tile gid="129"/>
   <tile/>
   <tile/>
   <tile/>
   <tile/>
   <tile/>
   <tile/>
   <tile/>
   <tile/>
   <tile/>
   <tile/>
   <tile/>
   <tile/>
   <tile/>
   <tile/>
   <tile/>
   <tile/>
   <tile/>
   <tile/>
   <tile/>
   <tile/>
   <tile/>
   <tile/>
   <tile/>
   <tile/>
   <tile/>
   <tile/>
   <tile/>
   <tile/>
   <tile/>
   <tile/>
   <tile/>
   <tile/>
   <tile/>
   <tile/>
   <tile/>
   <tile/>
   <tile/>
   <tile/>
   <tile/>
   <tile/>
   <tile/>
   <tile/>
   <tile/>
   <tile/>
   <tile/>
   <tile/>
   <tile/>
   <tile/>
   <tile/>
   <tile/>
   <tile/>
   <tile/>
   <tile/>
   <tile/>
   <tile/>
   <tile/>
   <tile/>
   <tile/>
   <tile/>
   <tile/>
   <tile/>
   <tile gid="129"/>
   <tile gid="129"/>
   <tile gid="129"/>
   <tile/>
   <tile/>
   <tile/>
   <tile/>
   <tile/>
   <tile/>
   <tile/>
   <tile/>
   <tile/>
   <tile/>
   <tile/>
   <tile gid="129"/>
   <tile gid="129"/>
   <tile gid="129"/>
   <tile gid="129"/>
   <tile gid="129"/>
   <tile gid="129"/>
   <tile gid="129"/>
   <tile gid="129"/>
   <tile gid="129"/>
   <tile gid="129"/>
   <tile/>
   <tile/>
   <tile/>
   <tile/>
   <tile/>
   <tile/>
   <tile/>
   <tile/>
   <tile/>
   <tile/>
   <tile/>
   <tile/>
   <tile/>
   <tile/>
   <tile/>
   <tile gid="129"/>
   <tile gid="129"/>
   <tile gid="129"/>
   <tile/>
   <tile/>
   <tile/>
   <tile/>
   <tile gid="129"/>
   <tile gid="129"/>
   <tile gid="129"/>
   <tile/>
   <tile/>
   <tile/>
   <tile/>
   <tile gid="129"/>
   <tile gid="129"/>
   <tile gid="129"/>
   <tile/>
   <tile/>
   <tile/>
   <tile/>
   <tile/>
   <tile/>
   <tile/>
   <tile/>
   <tile/>
   <tile/>
   <tile/>
   <tile gid="129"/>
   <tile gid="129"/>
   <tile gid="129"/>
   <tile gid="129"/>
   <tile gid="129"/>
   <tile gid="129"/>
   <tile gid="129"/>
   <tile gid="129"/>
   <tile/>
   <tile/>
   <tile/>
   <tile/>
   <tile/>
   <tile/>
   <tile/>
   <tile/>
   <tile/>
   <tile/>
   <tile/>
   <tile/>
   <tile/>
   <tile/>
   <tile gid="129"/>
   <tile gid="129"/>
   <tile gid="129"/>
   <tile/>
   <tile/>
   <tile/>
   <tile/>
   <tile/>
   <tile/>
   <tile/>
   <tile/>
   <tile/>
   <tile/>
   <tile/>
   <tile/>
   <tile/>
   <tile/>
   <tile/>
   <tile/>
   <tile/>
   <tile/>
   <tile/>
   <tile/>
   <tile/>
   <tile/>
   <tile/>
   <tile/>
   <tile/>
   <tile/>
   <tile/>
   <tile/>
   <tile/>
   <tile/>
   <tile/>
   <tile/>
   <tile/>
   <tile/>
   <tile/>
   <tile/>
   <tile/>
   <tile/>
   <tile/>
   <tile/>
   <tile/>
   <tile/>
   <tile/>
   <tile/>
   <tile/>
   <tile/>
   <tile/>
   <tile/>
   <tile/>
   <tile/>
   <tile/>
   <tile/>
   <tile/>
   <tile/>
   <tile/>
   <tile/>
   <tile/>
   <tile/>
   <tile/>
   <tile/>
   <tile/>
   <tile/>
   <tile/>
   <tile/>
   <tile/>
   <tile/>
   <tile/>
   <tile/>
   <tile/>
   <tile/>
   <tile/>
   <tile/>
   <tile/>
   <tile/>
   <tile/>
   <tile gid="129"/>
   <tile gid="129"/>
   <tile gid="129"/>
   <tile gid="129"/>
   <tile gid="129"/>
   <tile gid="129"/>
   <tile gid="129"/>
   <tile gid="129"/>
   <tile gid="129"/>
   <tile/>
   <tile/>
   <tile/>
   <tile/>
   <tile/>
   <tile/>
   <tile/>
   <tile gid="129"/>
   <tile gid="129"/>
   <tile gid="129"/>
   <tile gid="129"/>
   <tile gid="129"/>
   <tile/>
   <tile/>
   <tile/>
   <tile/>
   <tile gid="129"/>
   <tile gid="129"/>
   <tile gid="129"/>
   <tile/>
   <tile/>
   <tile/>
   <tile/>
   <tile gid="129"/>
   <tile gid="129"/>
   <tile gid="129"/>
   <tile/>
   <tile/>
   <tile/>
   <tile/>
   <tile/>
   <tile/>
   <tile/>
   <tile/>
   <tile/>
   <tile/>
   <tile/>
   <tile gid="129"/>
   <tile gid="129"/>
   <tile gid="129"/>
   <tile/>
   <tile/>
   <tile/>
   <tile/>
   <tile gid="129"/>
   <tile gid="129"/>
   <tile gid="129"/>
   <tile gid="129"/>
   <tile gid="129"/>
   <tile gid="129"/>
   <tile gid="129"/>
   <tile gid="129"/>
   <tile gid="129"/>
   <tile gid="129"/>
   <tile gid="129"/>
   <tile gid="129"/>
   <tile gid="129"/>
   <tile gid="129"/>
   <tile gid="129"/>
   <tile/>
   <tile/>
   <tile/>
   <tile/>
   <tile/>
   <tile/>
   <tile/>
   <tile/>
   <tile/>
   <tile/>
   <tile/>
   <tile/>
   <tile/>
   <tile/>
   <tile/>
   <tile/>
   <tile/>
   <tile/>
   <tile/>
   <tile/>
   <tile/>
   <tile/>
   <tile/>
   <tile/>
   <tile/>
   <tile/>
   <tile/>
   <tile/>
   <tile/>
   <tile/>
   <tile/>
   <tile/>
   <tile/>
   <tile/>
   <tile/>
   <tile/>
   <tile/>
   <tile/>
   <tile/>
   <tile/>
   <tile/>
   <tile/>
   <tile/>
   <tile/>
   <tile/>
   <tile/>
   <tile/>
   <tile/>
   <tile/>
   <tile/>
   <tile/>
   <tile/>
   <tile/>
   <tile/>
   <tile/>
   <tile/>
   <tile/>
   <tile/>
   <tile/>
   <tile/>
   <tile/>
   <tile/>
   <tile/>
   <tile/>
   <tile/>
   <tile/>
   <tile/>
   <tile/>
   <tile/>
   <tile/>
   <tile/>
   <tile/>
   <tile/>
   <tile/>
   <tile/>
   <tile/>
   <tile/>
   <tile/>
   <tile/>
   <tile/>
   <tile/>
   <tile/>
   <tile/>
   <tile/>
   <tile/>
   <tile gid="129"/>
   <tile gid="129"/>
   <tile gid="129"/>
   <tile gid="129"/>
   <tile gid="129"/>
   <tile gid="129"/>
   <tile gid="129"/>
   <tile gid="129"/>
   <tile/>
   <tile/>
   <tile/>
   <tile/>
   <tile/>
   <tile/>
   <tile/>
   <tile gid="129"/>
   <tile gid="129"/>
   <tile gid="129"/>
   <tile gid="129"/>
   <tile gid="129"/>
   <tile gid="129"/>
   <tile/>
   <tile/>
   <tile/>
   <tile/>
   <tile gid="129"/>
   <tile gid="129"/>
   <tile gid="129"/>
   <tile/>
   <tile/>
   <tile/>
   <tile/>
   <tile gid="129"/>
   <tile gid="129"/>
   <tile gid="129"/>
   <tile/>
   <tile/>
   <tile/>
   <tile/>
   <tile/>
   <tile/>
   <tile/>
   <tile/>
   <tile/>
   <tile/>
   <tile/>
   <tile gid="129"/>
   <tile gid="129"/>
   <tile gid="129"/>
   <tile/>
   <tile/>
   <tile/>
   <tile/>
   <tile gid="129"/>
   <tile gid="129"/>
   <tile gid="129"/>
   <tile gid="129"/>
   <tile gid="129"/>
   <tile gid="129"/>
   <tile gid="129"/>
   <tile gid="129"/>
   <tile gid="129"/>
   <tile gid="129"/>
   <tile gid="129"/>
   <tile gid="129"/>
   <tile gid="129"/>
   <tile gid="129"/>
   <tile gid="129"/>
   <tile gid="129"/>
   <tile gid="129"/>
   <tile gid="129"/>
   <tile/>
   <tile/>
   <tile/>
   <tile/>
   <tile/>
   <tile/>
   <tile/>
   <tile/>
   <tile/>
   <tile/>
   <tile/>
   <tile/>
   <tile/>
   <tile/>
   <tile gid="129"/>
   <tile gid="129"/>
   <tile gid="129"/>
   <tile gid="129"/>
   <tile gid="129"/>
   <tile gid="129"/>
   <tile gid="129"/>
   <tile gid="129"/>
   <tile gid="129"/>
   <tile gid="129"/>
   <tile gid="129"/>
   <tile gid="129"/>
   <tile gid="129"/>
   <tile gid="129"/>
   <tile/>
   <tile/>
   <tile/>
   <tile/>
   <tile gid="129"/>
   <tile gid="129"/>
   <tile gid="129"/>
   <tile gid="129"/>
   <tile gid="129"/>
   <tile gid="129"/>
   <tile gid="129"/>
   <tile gid="129"/>
   <tile gid="129"/>
   <tile gid="129"/>
   <tile gid="129"/>
   <tile gid="129"/>
   <tile gid="129"/>
   <tile gid="129"/>
   <tile gid="129"/>
   <tile gid="129"/>
   <tile gid="129"/>
   <tile gid="129"/>
   <tile gid="129"/>
   <tile gid="129"/>
   <tile gid="129"/>
   <tile gid="129"/>
   <tile gid="129"/>
   <tile gid="129"/>
   <tile gid="129"/>
   <tile gid="129"/>
   <tile gid="129"/>
   <tile gid="129"/>
   <tile/>
   <tile/>
   <tile/>
   <tile gid="129"/>
   <tile gid="129"/>
   <tile gid="129"/>
   <tile/>
   <tile/>
   <tile/>
   <tile/>
   <tile/>
   <tile/>
   <tile/>
   <tile/>
   <tile/>
   <tile/>
   <tile/>
   <tile/>
   <tile/>
   <tile/>
   <tile/>
   <tile/>
   <tile/>
   <tile/>
   <tile/>
   <tile/>
   <tile/>
   <tile/>
   <tile/>
   <tile/>
   <tile/>
   <tile/>
   <tile/>
   <tile/>
   <tile/>
   <tile/>
   <tile gid="129"/>
   <tile gid="129"/>
   <tile gid="129"/>
   <tile gid="129"/>
   <tile gid="129"/>
   <tile gid="129"/>
   <tile gid="129"/>
   <tile/>
   <tile/>
   <tile/>
   <tile/>
   <tile gid="129"/>
   <tile gid="129"/>
   <tile gid="129"/>
   <tile/>
   <tile/>
   <tile/>
   <tile/>
   <tile/>
   <tile/>
   <tile/>
   <tile/>
   <tile/>
   <tile/>
   <tile/>
   <tile gid="129"/>
   <tile gid="129"/>
   <tile gid="129"/>
   <tile/>
   <tile/>
   <tile/>
   <tile/>
   <tile gid="129"/>
   <tile gid="129"/>
   <tile gid="129"/>
   <tile gid="129"/>
   <tile/>
   <tile/>
   <tile/>
   <tile gid="129"/>
   <tile/>
   <tile/>
   <tile/>
   <tile/>
   <tile/>
   <tile/>
   <tile/>
   <tile/>
   <tile/>
   <tile/>
   <tile gid="129"/>
   <tile gid="129"/>
   <tile gid="129"/>
   <tile gid="129"/>
   <tile gid="129"/>
   <tile gid="129"/>
   <tile gid="129"/>
   <tile gid="129"/>
   <tile gid="129"/>
   <tile gid="129"/>
   <tile gid="129"/>
   <tile gid="129"/>
   <tile gid="129"/>
   <tile gid="129"/>
   <tile gid="129"/>
   <tile gid="129"/>
   <tile gid="129"/>
   <tile gid="129"/>
   <tile gid="129"/>
   <tile gid="129"/>
   <tile gid="129"/>
   <tile gid="129"/>
   <tile gid="129"/>
   <tile gid="129"/>
   <tile gid="129"/>
   <tile gid="129"/>
   <tile gid="129"/>
   <tile gid="129"/>
   <tile gid="129"/>
   <tile gid="129"/>
   <tile gid="129"/>
   <tile gid="129"/>
   <tile gid="129"/>
   <tile gid="129"/>
   <tile gid="129"/>
   <tile/>
   <tile/>
   <tile/>
   <tile/>
   <tile/>
   <tile/>
   <tile/>
   <tile/>
   <tile gid="129"/>
   <tile gid="129"/>
   <tile gid="129"/>
   <tile gid="129"/>
   <tile gid="129"/>
   <tile gid="129"/>
   <tile gid="129"/>
   <tile gid="129"/>
   <tile gid="129"/>
   <tile gid="129"/>
   <tile gid="129"/>
   <tile gid="129"/>
   <tile gid="129"/>
   <tile gid="129"/>
   <tile gid="129"/>
   <tile gid="129"/>
   <tile gid="129"/>
   <tile gid="129"/>
   <tile gid="129"/>
   <tile gid="129"/>
   <tile gid="129"/>
   <tile gid="129"/>
   <tile gid="129"/>
   <tile/>
   <tile/>
   <tile/>
   <tile/>
   <tile/>
   <tile/>
   <tile/>
   <tile/>
   <tile/>
   <tile/>
   <tile/>
   <tile/>
   <tile/>
   <tile gid="129"/>
   <tile gid="129"/>
   <tile gid="129"/>
   <tile/>
   <tile/>
   <tile/>
   <tile/>
   <tile/>
   <tile/>
   <tile/>
   <tile/>
   <tile/>
   <tile/>
   <tile/>
   <tile/>
   <tile/>
   <tile/>
   <tile/>
   <tile/>
   <tile/>
   <tile/>
   <tile/>
   <tile/>
   <tile gid="129"/>
   <tile gid="129"/>
   <tile gid="129"/>
   <tile gid="129"/>
   <tile gid="129"/>
   <tile gid="129"/>
   <tile gid="129"/>
   <tile gid="129"/>
   <tile/>
   <tile/>
   <tile/>
   <tile/>
   <tile gid="129"/>
   <tile gid="129"/>
   <tile gid="129"/>
   <tile/>
   <tile/>
   <tile/>
   <tile/>
   <tile/>
   <tile/>
   <tile/>
   <tile/>
   <tile/>
   <tile/>
   <tile/>
   <tile gid="129"/>
   <tile gid="129"/>
   <tile gid="129"/>
   <tile/>
   <tile/>
   <tile/>
   <tile/>
   <tile gid="129"/>
   <tile gid="129"/>
   <tile gid="129"/>
   <tile gid="129"/>
   <tile gid="129"/>
   <tile/>
   <tile/>
   <tile gid="129"/>
   <tile/>
   <tile/>
   <tile/>
   <tile/>
   <tile/>
   <tile/>
   <tile/>
   <tile/>
   <tile/>
   <tile/>
   <tile gid="129"/>
   <tile gid="129"/>
   <tile gid="129"/>
   <tile gid="129"/>
   <tile gid="129"/>
   <tile gid="129"/>
   <tile gid="129"/>
   <tile gid="129"/>
   <tile gid="129"/>
   <tile gid="129"/>
   <tile gid="129"/>
   <tile gid="129"/>
   <tile gid="129"/>
   <tile gid="129"/>
   <tile gid="129"/>
   <tile gid="129"/>
   <tile gid="129"/>
   <tile gid="129"/>
   <tile gid="129"/>
   <tile gid="129"/>
   <tile gid="129"/>
   <tile gid="129"/>
   <tile gid="129"/>
   <tile gid="129"/>
   <tile gid="129"/>
   <tile gid="129"/>
   <tile gid="129"/>
   <tile gid="129"/>
   <tile gid="129"/>
   <tile gid="129"/>
   <tile gid="129"/>
   <tile gid="129"/>
   <tile gid="129"/>
   <tile gid="129"/>
   <tile gid="129"/>
   <tile gid="129"/>
   <tile gid="129"/>
   <tile/>
   <tile/>
   <tile/>
   <tile/>
   <tile/>
   <tile/>
   <tile gid="129"/>
   <tile gid="129"/>
   <tile gid="129"/>
   <tile gid="129"/>
   <tile gid="129"/>
   <tile gid="129"/>
   <tile gid="129"/>
   <tile gid="129"/>
   <tile gid="129"/>
   <tile gid="129"/>
   <tile gid="129"/>
   <tile gid="129"/>
   <tile gid="129"/>
   <tile gid="129"/>
   <tile gid="129"/>
   <tile gid="129"/>
   <tile gid="129"/>
   <tile gid="129"/>
   <tile gid="129"/>
   <tile gid="129"/>
   <tile/>
   <tile/>
   <tile/>
   <tile/>
   <tile/>
   <tile/>
   <tile/>
   <tile/>
   <tile/>
   <tile/>
   <tile/>
   <tile/>
   <tile/>
   <tile/>
   <tile/>
   <tile/>
   <tile/>
   <tile/>
   <tile/>
   <tile/>
   <tile/>
   <tile gid="129"/>
   <tile gid="129"/>
   <tile gid="129"/>
   <tile gid="129"/>
   <tile gid="129"/>
   <tile gid="129"/>
   <tile gid="129"/>
   <tile gid="129"/>
   <tile gid="129"/>
   <tile gid="129"/>
   <tile gid="129"/>
   <tile gid="129"/>
   <tile gid="129"/>
   <tile gid="129"/>
   <tile gid="129"/>
   <tile gid="129"/>
   <tile gid="129"/>
   <tile gid="129"/>
   <tile gid="129"/>
   <tile gid="129"/>
   <tile gid="129"/>
   <tile gid="129"/>
   <tile gid="129"/>
   <tile gid="129"/>
   <tile gid="129"/>
   <tile gid="129"/>
   <tile/>
   <tile/>
   <tile/>
   <tile/>
   <tile gid="129"/>
   <tile gid="129"/>
   <tile gid="129"/>
   <tile/>
   <tile/>
   <tile/>
   <tile/>
   <tile gid="129"/>
   <tile gid="129"/>
   <tile gid="129"/>
   <tile/>
   <tile/>
   <tile/>
   <tile/>
   <tile gid="129"/>
   <tile gid="129"/>
   <tile gid="129"/>
   <tile/>
   <tile/>
   <tile/>
   <tile/>
   <tile gid="129"/>
   <tile gid="129"/>
   <tile gid="129"/>
   <tile gid="129"/>
   <tile gid="129"/>
   <tile/>
   <tile/>
   <tile gid="129"/>
   <tile/>
   <tile/>
   <tile/>
   <tile/>
   <tile/>
   <tile/>
   <tile/>
   <tile/>
   <tile/>
   <tile/>
   <tile gid="129"/>
   <tile gid="129"/>
   <tile gid="129"/>
   <tile gid="129"/>
   <tile gid="129"/>
   <tile gid="129"/>
   <tile gid="129"/>
   <tile gid="129"/>
   <tile gid="129"/>
   <tile gid="129"/>
   <tile gid="129"/>
   <tile gid="129"/>
   <tile gid="129"/>
   <tile gid="129"/>
   <tile gid="129"/>
   <tile gid="129"/>
   <tile gid="129"/>
   <tile gid="129"/>
   <tile gid="129"/>
   <tile gid="129"/>
   <tile gid="129"/>
   <tile gid="129"/>
   <tile gid="129"/>
   <tile gid="129"/>
   <tile gid="129"/>
   <tile gid="129"/>
   <tile gid="129"/>
   <tile gid="129"/>
   <tile gid="129"/>
   <tile gid="129"/>
   <tile gid="129"/>
   <tile gid="129"/>
   <tile gid="129"/>
   <tile gid="129"/>
   <tile gid="129"/>
   <tile gid="129"/>
   <tile/>
   <tile/>
   <tile/>
   <tile/>
   <tile/>
   <tile/>
   <tile/>
   <tile gid="129"/>
   <tile gid="129"/>
   <tile gid="129"/>
   <tile gid="129"/>
   <tile gid="129"/>
   <tile gid="129"/>
   <tile gid="129"/>
   <tile gid="129"/>
   <tile gid="129"/>
   <tile gid="129"/>
   <tile gid="129"/>
   <tile gid="129"/>
   <tile gid="129"/>
   <tile gid="129"/>
   <tile gid="129"/>
   <tile gid="129"/>
   <tile gid="129"/>
   <tile gid="129"/>
   <tile gid="129"/>
   <tile gid="129"/>
   <tile/>
   <tile/>
   <tile/>
   <tile/>
   <tile/>
   <tile/>
   <tile/>
   <tile/>
   <tile/>
   <tile/>
   <tile/>
   <tile gid="129"/>
   <tile gid="129"/>
   <tile gid="129"/>
   <tile/>
   <tile/>
   <tile/>
   <tile/>
   <tile/>
   <tile/>
   <tile/>
   <tile gid="129"/>
   <tile gid="129"/>
   <tile gid="129"/>
   <tile gid="129"/>
   <tile gid="129"/>
   <tile gid="129"/>
   <tile gid="129"/>
   <tile gid="129"/>
   <tile gid="129"/>
   <tile gid="129"/>
   <tile gid="129"/>
   <tile gid="129"/>
   <tile gid="129"/>
   <tile gid="129"/>
   <tile gid="129"/>
   <tile gid="129"/>
   <tile gid="129"/>
   <tile gid="129"/>
   <tile gid="129"/>
   <tile gid="129"/>
   <tile gid="129"/>
   <tile gid="129"/>
   <tile gid="129"/>
   <tile gid="129"/>
   <tile gid="129"/>
   <tile gid="129"/>
   <tile/>
   <tile/>
   <tile/>
   <tile/>
   <tile gid="129"/>
   <tile gid="129"/>
   <tile gid="129"/>
   <tile/>
   <tile/>
   <tile/>
   <tile/>
   <tile gid="129"/>
   <tile gid="129"/>
   <tile gid="129"/>
   <tile/>
   <tile/>
   <tile/>
   <tile/>
   <tile gid="129"/>
   <tile gid="129"/>
   <tile gid="129"/>
   <tile/>
   <tile/>
   <tile/>
   <tile/>
   <tile gid="129"/>
   <tile gid="129"/>
   <tile gid="129"/>
   <tile gid="129"/>
   <tile gid="129"/>
   <tile/>
   <tile/>
   <tile gid="129"/>
   <tile/>
   <tile/>
   <tile/>
   <tile/>
   <tile/>
   <tile/>
   <tile/>
   <tile/>
   <tile/>
   <tile/>
   <tile gid="129"/>
   <tile gid="129"/>
   <tile gid="129"/>
   <tile gid="129"/>
   <tile gid="129"/>
   <tile gid="129"/>
   <tile gid="129"/>
   <tile gid="129"/>
   <tile gid="129"/>
   <tile gid="129"/>
   <tile gid="129"/>
   <tile gid="129"/>
   <tile gid="129"/>
   <tile gid="129"/>
   <tile gid="129"/>
   <tile gid="129"/>
   <tile gid="129"/>
   <tile gid="129"/>
   <tile gid="129"/>
   <tile gid="129"/>
   <tile gid="129"/>
   <tile gid="129"/>
   <tile gid="129"/>
   <tile gid="129"/>
   <tile gid="129"/>
   <tile gid="129"/>
   <tile gid="129"/>
   <tile gid="129"/>
   <tile gid="129"/>
   <tile gid="129"/>
   <tile gid="129"/>
   <tile gid="129"/>
   <tile gid="129"/>
   <tile gid="129"/>
   <tile gid="129"/>
   <tile gid="129"/>
   <tile gid="129"/>
   <tile gid="129"/>
   <tile gid="129"/>
   <tile gid="129"/>
   <tile gid="129"/>
   <tile gid="129"/>
   <tile gid="129"/>
   <tile gid="129"/>
   <tile gid="129"/>
   <tile gid="129"/>
   <tile gid="129"/>
   <tile gid="129"/>
   <tile gid="129"/>
   <tile gid="129"/>
   <tile gid="129"/>
   <tile gid="129"/>
   <tile gid="129"/>
   <tile gid="129"/>
   <tile gid="129"/>
   <tile gid="129"/>
   <tile gid="129"/>
   <tile gid="129"/>
   <tile gid="129"/>
   <tile gid="129"/>
   <tile gid="129"/>
   <tile gid="129"/>
   <tile gid="129"/>
   <tile gid="129"/>
   <tile gid="129"/>
   <tile gid="129"/>
   <tile gid="129"/>
   <tile gid="129"/>
   <tile gid="129"/>
   <tile gid="129"/>
   <tile gid="129"/>
   <tile gid="129"/>
   <tile gid="129"/>
   <tile gid="129"/>
   <tile gid="129"/>
   <tile gid="129"/>
   <tile gid="129"/>
   <tile gid="129"/>
   <tile gid="129"/>
   <tile gid="129"/>
   <tile gid="129"/>
   <tile gid="129"/>
   <tile gid="129"/>
   <tile gid="129"/>
   <tile gid="129"/>
   <tile gid="129"/>
   <tile gid="129"/>
   <tile gid="129"/>
   <tile gid="129"/>
   <tile gid="129"/>
   <tile gid="129"/>
   <tile gid="129"/>
   <tile gid="129"/>
   <tile gid="129"/>
   <tile gid="129"/>
   <tile gid="129"/>
   <tile gid="129"/>
   <tile gid="129"/>
   <tile gid="129"/>
   <tile gid="129"/>
   <tile gid="129"/>
   <tile gid="129"/>
   <tile gid="129"/>
   <tile gid="129"/>
   <tile gid="129"/>
   <tile gid="129"/>
   <tile gid="129"/>
   <tile gid="129"/>
   <tile gid="129"/>
   <tile gid="129"/>
   <tile gid="129"/>
   <tile gid="129"/>
   <tile gid="129"/>
   <tile gid="129"/>
   <tile gid="129"/>
   <tile gid="129"/>
   <tile gid="129"/>
   <tile gid="129"/>
   <tile gid="129"/>
   <tile gid="129"/>
   <tile gid="129"/>
   <tile gid="129"/>
   <tile gid="129"/>
   <tile gid="129"/>
   <tile gid="129"/>
   <tile gid="129"/>
   <tile gid="129"/>
   <tile gid="129"/>
   <tile gid="129"/>
   <tile gid="129"/>
   <tile gid="129"/>
   <tile gid="129"/>
   <tile gid="129"/>
   <tile gid="129"/>
   <tile gid="129"/>
   <tile gid="129"/>
   <tile gid="129"/>
   <tile gid="129"/>
   <tile gid="129"/>
   <tile gid="129"/>
   <tile gid="129"/>
   <tile gid="129"/>
   <tile gid="129"/>
   <tile gid="129"/>
   <tile gid="129"/>
   <tile gid="129"/>
   <tile gid="129"/>
   <tile gid="129"/>
   <tile gid="129"/>
   <tile gid="129"/>
   <tile gid="129"/>
   <tile gid="129"/>
   <tile gid="129"/>
   <tile gid="129"/>
   <tile gid="129"/>
   <tile gid="129"/>
   <tile gid="129"/>
   <tile gid="129"/>
   <tile gid="129"/>
   <tile gid="129"/>
   <tile gid="129"/>
   <tile gid="129"/>
   <tile gid="129"/>
   <tile gid="129"/>
   <tile gid="129"/>
   <tile gid="129"/>
   <tile gid="129"/>
   <tile gid="129"/>
   <tile gid="129"/>
   <tile gid="129"/>
   <tile gid="129"/>
   <tile gid="129"/>
   <tile gid="129"/>
   <tile gid="129"/>
  </data>
 </layer>
 <objectgroup id="11" name="EntitiesSpawnPoints" visible="0">
  <object id="528" name="Ninfa" type="Ninfa" x="16384" y="1024">
   <point/>
  </object>
  <object id="533" name="Ninfa" type="Ninfa" x="7936" y="768">
   <point/>
  </object>
  <object id="534" name="Ninfa" type="Ninfa" x="6316.24" y="1557.21">
   <point/>
  </object>
  <object id="546" name="Ninfa" type="Ninfa" x="10752" y="1280">
   <point/>
  </object>
  <object id="549" name="SkillPointOrb" type="SkillPointOrb" x="5628.97" y="445.333">
   <point/>
  </object>
  <object id="552" name="SavePoint" type="SavePoint" x="2356.48" y="1417.94">
   <point/>
  </object>
  <object id="700" name="Player" type="Player" x="19200" y="1536">
   <point/>
  </object>
  <object id="712" name="Ninfa" type="Ninfa" x="6982.79" y="1951.52">
   <point/>
  </object>
 </objectgroup>
 <objectgroup id="15" name="PlayerSpawns" visible="0">
  <properties>
   <property name="PlayerSpawns" type="bool" value="true"/>
  </properties>
  <object id="690" name="Player" type="Player" x="16640" y="2176">
   <properties>
    <property name="FromRoom" type="file" value="Catacombs_01_F.tmx"/>
   </properties>
   <point/>
  </object>
  <object id="698" name="Player" type="Player" x="19200" y="1664">
   <properties>
    <property name="FromRoom" type="file" value="Forest_02.tmx"/>
   </properties>
   <point/>
  </object>
  <object id="699" name="Player" type="Player" x="256" y="1664">
   <properties>
    <property name="FromRoom" type="file" value="Forest_05.tmx"/>
   </properties>
   <point/>
  </object>
  <object id="702" name="Player" type="Player" x="4980" y="180">
   <properties>
    <property name="FromRoom" type="file" value="Forest_03.tmx"/>
   </properties>
   <point/>
  </object>
 </objectgroup>
</map>
