<?xml version="1.0" encoding="UTF-8"?>
<map version="1.10" tiledversion="1.10.2" orientation="orthogonal" renderorder="right-down" width="176" height="21" tilewidth="128" tileheight="128" infinite="0" nextlayerid="45" nextobjectid="1379">
 <properties>
  <property name="Ground" type="bool" value="true"/>
  <property name="Navigation" type="bool" value="true"/>
 </properties>
 <tileset firstgid="1" name="Atlas_Bosque_V2" tilewidth="128" tileheight="128" tilecount="64" columns="8">
  <image source="Forest/Atlas_Forest.png" width="1024" height="1024"/>
  <wangsets>
   <wangset name="MixTierra" type="mixed" tile="-1">
    <wangcolor name="Tierra" color="#ff0000" tile="-1" probability="1"/>
    <wangtile tileid="30" wangid="1,1,1,1,1,1,1,1"/>
    <wangtile tileid="31" wangid="1,1,1,1,1,1,1,1"/>
    <wangtile tileid="36" wangid="1,1,1,1,1,1,1,1"/>
    <wangtile tileid="38" wangid="1,1,1,1,1,1,1,1"/>
    <wangtile tileid="39" wangid="1,1,1,1,1,1,1,1"/>
   </wangset>
  </wangsets>
 </tileset>
 <tileset firstgid="65" name="Espinas" tilewidth="128" tileheight="128" tilecount="64" columns="8">
  <image source="Forest/Archivo PSD Espinas.png" width="1024" height="1024"/>
 </tileset>
 <tileset firstgid="129" name="MapMetadata" tilewidth="128" tileheight="128" tilecount="2" columns="2">
  <image source="Pathfinding/MapMetadata.png" trans="ffffff" width="256" height="128"/>
 </tileset>
 <tileset firstgid="131" name="F_Bosque_V2_01" tilewidth="2304" tileheight="1444" tilecount="1" columns="1">
  <image source="Forest/Fondo_Vigente/02_F_Repeticion/F_Bosque_V2_01.png" width="2304" height="1444"/>
 </tileset>
 <tileset firstgid="132" name="F_Bosque_V2_02" tilewidth="2304" tileheight="1444" tilecount="1" columns="1">
  <image source="Forest/Fondo_Vigente/02_F_Repeticion/F_Bosque_V2_02.png" width="2304" height="1444"/>
 </tileset>
 <tileset firstgid="133" name="F_Bosque_V2_03" tilewidth="2304" tileheight="1444" tilecount="1" columns="1">
  <image source="Forest/Fondo_Vigente/02_F_Repeticion/F_Bosque_V2_03.png" width="2304" height="1444"/>
 </tileset>
 <tileset firstgid="134" name="F_Bosque_V2_05" tilewidth="2304" tileheight="1444" tilecount="1" columns="1">
  <image source="Forest/Fondo_Vigente/02_F_Repeticion/F_Bosque_V2_05.png" width="2304" height="1444"/>
 </tileset>
 <tileset firstgid="135" name="F_Bosque_V6_03" tilewidth="2304" tileheight="1444" tilecount="1" columns="1">
  <image source="Forest/Fondo_Vigente/06_F_Ninfas/F_Bosque_V6_03.png" width="2304" height="1444"/>
 </tileset>
 <tileset firstgid="136" name="Sprite Sheet_Agua_Transparente" tilewidth="128" tileheight="128" tilecount="64" columns="8">
  <image source="Forest/Aguas/Sprite Sheet_Agua_Transparente.png" width="1024" height="1024"/>
  <tile id="0">
   <animation>
    <frame tileid="0" duration="250"/>
    <frame tileid="3" duration="250"/>
    <frame tileid="6" duration="250"/>
    <frame tileid="24" duration="250"/>
    <frame tileid="27" duration="250"/>
   </animation>
  </tile>
  <tile id="1">
   <animation>
    <frame tileid="1" duration="250"/>
    <frame tileid="4" duration="250"/>
    <frame tileid="7" duration="250"/>
    <frame tileid="25" duration="250"/>
    <frame tileid="28" duration="250"/>
   </animation>
  </tile>
  <tile id="8">
   <animation>
    <frame tileid="8" duration="250"/>
    <frame tileid="11" duration="250"/>
    <frame tileid="14" duration="250"/>
    <frame tileid="32" duration="250"/>
    <frame tileid="35" duration="250"/>
   </animation>
  </tile>
  <tile id="9">
   <animation>
    <frame tileid="9" duration="250"/>
    <frame tileid="12" duration="250"/>
    <frame tileid="15" duration="250"/>
    <frame tileid="33" duration="250"/>
    <frame tileid="36" duration="250"/>
   </animation>
  </tile>
 </tileset>
 <tileset firstgid="200" name="SS_cascada_Transparente" tilewidth="768" tileheight="768" tilecount="6" columns="3">
  <image source="Forest/Aguas/SS_cascada_Transparente.png" width="2304" height="2048"/>
  <tile id="0">
   <animation>
    <frame tileid="0" duration="200"/>
    <frame tileid="1" duration="200"/>
    <frame tileid="2" duration="200"/>
    <frame tileid="3" duration="200"/>
    <frame tileid="4" duration="200"/>
    <frame tileid="5" duration="200"/>
   </animation>
  </tile>
 </tileset>
 <tileset firstgid="206" name="t_Fila_Arbustos" tilewidth="1920" tileheight="640" tilecount="4" columns="1">
  <image source="Forest/Fondo_Vigente/Arbustos/t_Fila_Arbustos.png" width="1920" height="2560"/>
 </tileset>
 <tileset firstgid="210" name="t_Sueltos_Arbustos_Esquinas" tilewidth="384" tileheight="384" tilecount="12" columns="3">
  <image source="Forest/Fondo_Vigente/Arbustos/t_Sueltos_Arbustos_Esquinas.png" width="1152" height="1536"/>
 </tileset>
 <tileset firstgid="222" name="t_Fila_Arbustos_02" tilewidth="1920" tileheight="640" tilecount="4" columns="1">
  <image source="Forest/Fondo_Vigente/Arbustos/t_Fila_Arbustos_02.png" width="1920" height="2560"/>
 </tileset>
 <tileset firstgid="226" name="F_Bosque_05" tilewidth="2304" tileheight="1444" tilecount="1" columns="1">
  <image source="Forest/Fondo_Vigente/01_F_Inicio/F_Bosque_05.png" width="2304" height="1444"/>
 </tileset>
 <tileset firstgid="227" name="F_Bosque_02" tilewidth="2304" tileheight="1444" tilecount="1" columns="1">
  <image source="Forest/Fondo_Vigente/01_F_Inicio/F_Bosque_02.png" width="2304" height="1444"/>
 </tileset>
 <objectgroup id="18" name="Fondo1">
  <properties>
   <property name="BG" type="bool" value="true"/>
   <property name="Draw" type="bool" value="true"/>
   <property name="Paralax" type="float" value="0.8"/>
  </properties>
  <object id="598" gid="131" x="19840" y="2688" width="2600" height="2696"/>
  <object id="599" gid="131" x="17536" y="2688" width="2332" height="2680"/>
  <object id="658" gid="131" x="11648" y="2688" width="5920" height="2716"/>
  <object id="666" gid="131" x="7563.3" y="2688" width="4108.65" height="2688"/>
  <object id="667" gid="131" x="3467.3" y="2688" width="4119.8" height="2688"/>
  <object id="668" gid="131" x="-640" y="2688" width="4124" height="2695.11"/>
  <object id="733" gid="131" x="22400" y="2688" width="2600" height="2694.42"/>
  <object id="735" gid="131" x="24960" y="2688" width="2560" height="2694.42"/>
 </objectgroup>
 <objectgroup id="20" name="Fondo2">
  <properties>
   <property name="BG" type="bool" value="true"/>
   <property name="Draw" type="bool" value="true"/>
   <property name="Paralax" type="float" value="0.9"/>
  </properties>
  <object id="657" gid="133" x="11652" y="2724" width="5908" height="2752"/>
  <object id="725" gid="133" x="3584" y="2688" width="3992" height="2688"/>
  <object id="726" gid="133" x="248" y="2716" width="3344" height="2816"/>
  <object id="727" gid="133" x="7548" y="2744" width="4116" height="2816"/>
  <object id="728" gid="133" x="17536" y="2688" width="2052" height="2712"/>
  <object id="731" gid="133" x="19584" y="2688" width="2844" height="2688"/>
  <object id="732" gid="133" x="22400" y="2688" width="2816" height="2704"/>
 </objectgroup>
 <objectgroup id="44" name="Fondo2-Agua">
  <properties>
   <property name="BG" type="bool" value="true"/>
   <property name="Draw" type="bool" value="true"/>
   <property name="Paralax" type="float" value="0.9"/>
  </properties>
  <object id="1352" gid="135" x="11650" y="2712" width="2304" height="1444"/>
  <object id="1353" gid="1073741959" x="11652" y="1270.67" width="2304" height="1444"/>
  <object id="1358" gid="135" x="9090" y="2712" width="2304" height="1444"/>
  <object id="1359" gid="1073741959" x="9091.33" y="1270" width="2304" height="1444"/>
  <object id="1360" gid="135" x="6786" y="2712" width="2304" height="1444"/>
  <object id="1361" gid="1073741959" x="6786" y="1272" width="2304" height="1444"/>
  <object id="1364" gid="135" x="5634" y="2712" width="2304" height="1444"/>
  <object id="1365" gid="1073741959" x="5633.33" y="1270.67" width="2304" height="1444"/>
 </objectgroup>
 <objectgroup id="21" name="Fondo3">
  <properties>
   <property name="BG" type="bool" value="true"/>
   <property name="Draw" type="bool" value="true"/>
   <property name="Paralax" type="float" value="0.95"/>
  </properties>
  <object id="775" gid="227" x="20992" y="1476" width="2304" height="1444"/>
  <object id="776" gid="132" x="17280" y="1524" width="2304" height="1444"/>
  <object id="777" gid="227" x="14888" y="1416" width="2304" height="1444"/>
  <object id="1087" gid="227" x="12160" y="1792" width="3024" height="1708"/>
  <object id="1088" gid="132" x="8416" y="1986" width="2936" height="1988"/>
  <object id="1296" gid="132" x="6144" y="1440" width="2304" height="1444"/>
  <object id="1297" gid="227" x="2048" y="1408" width="2304" height="1444"/>
  <object id="1298" gid="2147483875" x="2816" y="1408" width="2304" height="1444"/>
  <object id="1340" gid="227" x="512" y="1536" width="2304" height="1444"/>
  <object id="1341" gid="227" x="-256" y="1536" width="2304" height="1444"/>
  <object id="1342" gid="227" x="1280" y="1536" width="2304" height="1444"/>
  <object id="1366" gid="227" x="4480" y="1408" width="2304" height="1444"/>
  <object id="1368" gid="2147483875" x="4992" y="1408" width="2304" height="1444"/>
  <object id="1369" gid="227" x="15904" y="1400" width="2304" height="1444"/>
  <object id="1370" gid="227" x="20096" y="1408" width="2304" height="1444"/>
  <object id="1371" gid="227" x="18944" y="1536" width="2304" height="1444"/>
  <object id="1372" gid="227" x="512" y="1536" width="2304" height="1444"/>
 </objectgroup>
 <objectgroup id="38" name="Fondo4">
  <properties>
   <property name="BG" type="bool" value="true"/>
   <property name="Draw" type="bool" value="true"/>
   <property name="Paralax" type="float" value="1"/>
  </properties>
  <object id="851" gid="212" x="20662" y="1742" width="520" height="520"/>
  <object id="852" gid="2147483860" x="20390" y="1896" width="594" height="594"/>
  <object id="853" gid="1073742042" x="20652" y="1934" width="362" height="504"/>
  <object id="890" gid="1073742037" x="20774.2" y="2591.84" width="358.314" height="358.314"/>
  <object id="891" gid="2147483861" x="20887" y="2224.51" width="308.172" height="308.172"/>
  <object id="892" gid="2147483865" x="20832.1" y="2226.4" width="232.79" height="232.79"/>
  <object id="897" gid="217" x="21184" y="1976" width="384" height="384"/>
  <object id="898" gid="1073742038" x="21186" y="2414" width="366" height="379"/>
  <object id="899" gid="221" x="21630" y="1690" width="278" height="278"/>
  <object id="900" gid="3221225693" x="22001" y="1785" width="278" height="278"/>
  <object id="908" gid="3221225689" x="21562.5" y="2119.27" width="384" height="384"/>
  <object id="910" gid="220" x="22023.2" y="1443.52" width="290.061" height="356.727"/>
  <object id="911" gid="212" x="22047.7" y="1716.73" width="226.424" height="226.424"/>
  <object id="912" gid="212" x="21669.3" y="2061.33" width="216" height="318.667"/>
  <object id="915" gid="3221225686" x="20810" y="2672" width="384" height="384"/>
  <object id="917" gid="218" x="21484" y="1210" width="272" height="272"/>
  <object id="920" gid="3221225693" x="21466" y="1580" width="318" height="332"/>
  <object id="926" gid="221" x="18055.5" y="1305.36" width="278" height="278"/>
  <object id="927" gid="3221225689" x="17988" y="1734.63" width="384" height="384"/>
  <object id="928" gid="212" x="18216" y="1679.73" width="216" height="318.667"/>
  <object id="929" gid="217" x="18120" y="1330.67" width="384" height="384"/>
  <object id="931" gid="216" x="18759.5" y="1704.12" width="384" height="384"/>
  <object id="932" gid="219" x="19072.1" y="2608.06" width="384" height="384"/>
  <object id="936" gid="214" x="18205" y="2570.79" width="384" height="384"/>
  <object id="938" gid="216" x="20114.1" y="2582.91" width="384" height="384"/>
  <object id="941" gid="213" x="20250.4" y="1043.52" width="384" height="384"/>
  <object id="942" gid="2147483861" x="20723.2" y="1055.64" width="384" height="384"/>
  <object id="944" gid="214" x="20923.2" y="2570.79" width="384" height="384"/>
  <object id="956" gid="216" x="15350" y="2474" width="384" height="384"/>
  <object id="959" gid="214" x="15780" y="2440" width="384" height="384"/>
  <object id="978" gid="1073742037" x="15268" y="2902" width="384" height="384"/>
  <object id="979" gid="1073742037" x="15382" y="2906" width="384" height="384"/>
  <object id="980" gid="3221225685" x="15856" y="2880" width="384" height="384"/>
  <object id="981" gid="3221225685" x="14578" y="2894" width="384" height="384"/>
  <object id="983" gid="3221225689" x="13976" y="2892" width="384" height="384"/>
  <object id="984" gid="2147483865" x="13980" y="2522" width="384" height="384"/>
  <object id="985" gid="216" x="12742" y="2500" width="476" height="476"/>
  <object id="986" gid="1073742040" x="12736" y="2972" width="476" height="476"/>
  <object id="987" gid="217" x="13226" y="2470" width="384" height="384"/>
  <object id="989" gid="1073742045" x="13226" y="2902" width="384" height="384"/>
  <object id="991" gid="216" x="13478.3" y="2690" width="703.681" height="662"/>
  <object id="992" gid="2147483866" x="12460" y="2702" width="474" height="482"/>
  <object id="995" gid="217" x="14528" y="2468" width="384" height="384"/>
  <object id="1001" gid="221" x="14848" y="2688" width="384" height="384"/>
  <object id="1003" gid="216" x="15104" y="2688" width="384" height="384"/>
  <object id="1005" gid="217" x="15974" y="2684" width="474" height="474"/>
  <object id="1006" gid="215" x="13022" y="2438" width="384" height="384"/>
  <object id="1007" gid="215" x="14356" y="2436" width="384" height="384"/>
  <object id="1008" gid="213" x="19535.3" y="1731.39" width="384" height="384"/>
  <object id="1009" gid="214" x="20492.8" y="1022.3" width="384" height="384"/>
  <object id="1010" gid="213" x="14014.1" y="1716.24" width="384" height="384"/>
  <object id="1011" gid="218" x="14205" y="1698.06" width="384" height="384"/>
  <object id="1023" gid="210" x="14210" y="2192" width="384" height="384"/>
  <object id="1024" gid="2147483858" x="14330" y="2216" width="384" height="384"/>
  <object id="1025" gid="221" x="14978.5" y="2063.06" width="278" height="278"/>
  <object id="1026" gid="3221225689" x="14911" y="2492.33" width="384" height="384"/>
  <object id="1027" gid="212" x="15017.8" y="2434.39" width="216" height="318.667"/>
  <object id="1075" gid="223" x="15288" y="1076" width="1920" height="640"/>
  <object id="1076" gid="216" x="14904" y="1180" width="528" height="528"/>
  <object id="1077" gid="216" x="17244" y="1080" width="384" height="384"/>
  <object id="1078" gid="1073742040" x="17236" y="1456" width="384" height="384"/>
  <object id="1080" gid="218" x="16704" y="2692" width="384" height="384"/>
  <object id="1081" gid="2147483866" x="17472" y="2688" width="384" height="384"/>
  <object id="1083" gid="2147483866" x="17596" y="2612" width="384" height="384"/>
  <object id="1084" gid="2147483866" x="21156" y="2600" width="384" height="384"/>
  <object id="1142" gid="216" x="7136" y="2560" width="384" height="384"/>
  <object id="1144" gid="223" x="2756" y="2560" width="1920" height="640"/>
  <object id="1145" gid="2147483871" x="4576" y="2576" width="1920" height="640"/>
  <object id="1146" gid="218" x="6332" y="2592" width="384" height="384"/>
  <object id="1147" gid="216" x="6540" y="2592" width="384" height="384"/>
  <object id="1148" gid="217" x="6748" y="2584" width="384" height="384"/>
  <object id="1149" gid="217" x="7340" y="2576" width="384" height="384"/>
  <object id="1150" gid="217" x="7540" y="2600" width="384" height="384"/>
  <object id="1152" gid="219" x="7764" y="2584" width="384" height="384"/>
  <object id="1158" gid="2147483871" x="8320" y="2560" width="1920" height="640"/>
  <object id="1159" gid="2147483871" x="10150" y="2562" width="1820" height="698"/>
  <object id="1162" gid="217" x="6904" y="2580" width="384" height="384"/>
  <object id="1166" gid="1073742038" x="13630" y="2484" width="384" height="384"/>
  <object id="1169" gid="1073742037" x="13638" y="2446" width="384" height="384"/>
  <object id="1170" gid="216" x="8064" y="2560" width="384" height="384"/>
  <object id="1302" gid="218" x="4695.88" y="1195.03" width="384" height="384"/>
  <object id="1304" gid="218" x="4798.91" y="1234.42" width="384" height="384"/>
  <object id="1305" gid="1073742042" x="4808" y="1613.21" width="384" height="384"/>
  <object id="1306" gid="216" x="2911.03" y="1079.88" width="384" height="384"/>
  <object id="1307" gid="219" x="3429.21" y="1061.7" width="384" height="384"/>
  <object id="1308" gid="220" x="3768.61" y="1025.33" width="384" height="384"/>
  <object id="1309" gid="214" x="4150.42" y="1037.45" width="384" height="384"/>
  <object id="1310" gid="213" x="2214.06" y="1055.64" width="384" height="384"/>
  <object id="1311" gid="217" x="5951.39" y="1833.55" width="499.152" height="499.152"/>
  <object id="1312" gid="210" x="6009.89" y="2491.08" width="346.521" height="582.521"/>
  <object id="1313" gid="2147483858" x="6044.2" y="2493.08" width="346.521" height="584.521"/>
  <object id="1314" gid="214" x="6656" y="2048" width="384" height="384"/>
  <object id="1315" gid="1073742037" x="6568.84" y="2554.37" width="338" height="334"/>
  <object id="1316" gid="212" x="6656.8" y="2644.83" width="384" height="420.364"/>
  <object id="1343" gid="214" x="1152" y="2560" width="384" height="384"/>
  <object id="1348" gid="218" x="604" y="2592" width="384" height="384"/>
  <object id="1349" gid="218" x="2350.3" y="2603.15" width="384" height="384"/>
  <object id="1351" gid="218" x="1416" y="2612" width="384" height="384"/>
  <object id="1373" gid="216" x="5384" y="1572" width="384" height="384"/>
  <object id="1378" gid="1073742038" x="5310" y="2090" width="502" height="502"/>
 </objectgroup>
 <objectgroup id="41" name="Cascadas">
  <properties>
   <property name="BG" type="bool" value="true"/>
   <property name="Draw" type="bool" value="true"/>
   <property name="Paralax" type="float" value="1"/>
  </properties>
  <object id="1191" gid="200" x="8960" y="2607.41" width="1814.68" height="2603.55"/>
 </objectgroup>
 <objectgroup id="42" name="Deco-Cascadas-Front">
  <properties>
   <property name="BG" type="bool" value="true"/>
   <property name="Draw" type="bool" value="true"/>
   <property name="Paralax" type="float" value="1"/>
  </properties>
  <object id="1247" gid="213" x="10150.8" y="2211.03" width="384" height="384"/>
  <object id="1249" gid="214" x="9647.65" y="1803.88" width="547.636" height="577.939"/>
  <object id="1251" gid="217" x="9270.2" y="2204.97" width="384" height="384"/>
  <object id="1252" gid="213" x="9128.74" y="2202.85" width="384" height="384"/>
  <object id="1253" gid="215" x="10310.5" y="2182.55" width="384" height="384"/>
 </objectgroup>
 <layer id="1" name="Map" width="176" height="21">
  <properties>
   <property name="Draw" type="bool" value="true"/>
  </properties>
  <data>
   <tile gid="37"/>
   <tile gid="37"/>
   <tile gid="45"/>
   <tile gid="45"/>
   <tile gid="45"/>
   <tile gid="45"/>
   <tile gid="45"/>
   <tile gid="46"/>
   <tile/>
   <tile/>
   <tile/>
   <tile/>
   <tile/>
   <tile/>
   <tile/>
   <tile/>
   <tile/>
   <tile/>
   <tile/>
   <tile/>
   <tile/>
   <tile/>
   <tile/>
   <tile/>
   <tile/>
   <tile/>
   <tile/>
   <tile/>
   <tile/>
   <tile/>
   <tile/>
   <tile/>
   <tile/>
   <tile/>
   <tile/>
   <tile/>
   <tile/>
   <tile/>
   <tile/>
   <tile/>
   <tile/>
   <tile/>
   <tile/>
   <tile/>
   <tile/>
   <tile/>
   <tile/>
   <tile/>
   <tile/>
   <tile/>
   <tile/>
   <tile/>
   <tile/>
   <tile/>
   <tile/>
   <tile/>
   <tile/>
   <tile/>
   <tile/>
   <tile/>
   <tile/>
   <tile/>
   <tile/>
   <tile/>
   <tile/>
   <tile/>
   <tile/>
   <tile/>
   <tile/>
   <tile/>
   <tile/>
   <tile/>
   <tile/>
   <tile/>
   <tile/>
   <tile/>
   <tile/>
   <tile/>
   <tile/>
   <tile/>
   <tile/>
   <tile/>
   <tile/>
   <tile/>
   <tile/>
   <tile/>
   <tile/>
   <tile/>
   <tile/>
   <tile/>
   <tile/>
   <tile/>
   <tile/>
   <tile/>
   <tile/>
   <tile/>
   <tile/>
   <tile/>
   <tile/>
   <tile/>
   <tile/>
   <tile/>
   <tile/>
   <tile/>
   <tile/>
   <tile/>
   <tile/>
   <tile/>
   <tile/>
   <tile/>
   <tile/>
   <tile/>
   <tile/>
   <tile/>
   <tile/>
   <tile/>
   <tile/>
   <tile/>
   <tile/>
   <tile/>
   <tile/>
   <tile/>
   <tile/>
   <tile/>
   <tile/>
   <tile/>
   <tile/>
   <tile/>
   <tile/>
   <tile/>
   <tile/>
   <tile/>
   <tile/>
   <tile/>
   <tile gid="1610612820"/>
   <tile gid="36"/>
   <tile gid="38"/>
   <tile/>
   <tile/>
   <tile/>
   <tile/>
   <tile/>
   <tile/>
   <tile/>
   <tile/>
   <tile/>
   <tile/>
   <tile/>
   <tile/>
   <tile/>
   <tile/>
   <tile/>
   <tile/>
   <tile/>
   <tile/>
   <tile/>
   <tile/>
   <tile/>
   <tile/>
   <tile/>
   <tile/>
   <tile/>
   <tile/>
   <tile/>
   <tile/>
   <tile/>
   <tile/>
   <tile/>
   <tile/>
   <tile/>
   <tile/>
   <tile/>
   <tile/>
   <tile/>
   <tile/>
   <tile gid="36"/>
   <tile gid="39"/>
   <tile gid="38"/>
   <tile/>
   <tile/>
   <tile/>
   <tile/>
   <tile/>
   <tile/>
   <tile/>
   <tile/>
   <tile/>
   <tile/>
   <tile/>
   <tile/>
   <tile/>
   <tile/>
   <tile/>
   <tile/>
   <tile/>
   <tile/>
   <tile/>
   <tile/>
   <tile/>
   <tile/>
   <tile/>
   <tile/>
   <tile/>
   <tile/>
   <tile/>
   <tile/>
   <tile/>
   <tile/>
   <tile/>
   <tile/>
   <tile/>
   <tile/>
   <tile/>
   <tile/>
   <tile/>
   <tile/>
   <tile/>
   <tile/>
   <tile/>
   <tile/>
   <tile/>
   <tile/>
   <tile/>
   <tile/>
   <tile/>
   <tile/>
   <tile/>
   <tile/>
   <tile/>
   <tile/>
   <tile/>
   <tile/>
   <tile/>
   <tile/>
   <tile/>
   <tile/>
   <tile/>
   <tile/>
   <tile/>
   <tile/>
   <tile/>
   <tile/>
   <tile/>
   <tile/>
   <tile/>
   <tile/>
   <tile/>
   <tile/>
   <tile/>
   <tile/>
   <tile/>
   <tile/>
   <tile/>
   <tile/>
   <tile/>
   <tile/>
   <tile/>
   <tile/>
   <tile/>
   <tile/>
   <tile/>
   <tile/>
   <tile/>
   <tile/>
   <tile/>
   <tile/>
   <tile/>
   <tile/>
   <tile/>
   <tile/>
   <tile/>
   <tile/>
   <tile/>
   <tile/>
   <tile/>
   <tile/>
   <tile/>
   <tile/>
   <tile/>
   <tile/>
   <tile/>
   <tile/>
   <tile/>
   <tile/>
   <tile/>
   <tile/>
   <tile/>
   <tile/>
   <tile/>
   <tile/>
   <tile/>
   <tile/>
   <tile/>
   <tile/>
   <tile/>
   <tile/>
   <tile/>
   <tile/>
   <tile/>
   <tile/>
   <tile/>
   <tile/>
   <tile/>
   <tile/>
   <tile/>
   <tile/>
   <tile/>
   <tile/>
   <tile/>
   <tile/>
   <tile gid="1610612819"/>
   <tile gid="36"/>
   <tile gid="38"/>
   <tile/>
   <tile/>
   <tile/>
   <tile/>
   <tile/>
   <tile/>
   <tile/>
   <tile/>
   <tile/>
   <tile/>
   <tile/>
   <tile/>
   <tile/>
   <tile/>
   <tile/>
   <tile/>
   <tile/>
   <tile/>
   <tile/>
   <tile/>
   <tile/>
   <tile/>
   <tile/>
   <tile/>
   <tile/>
   <tile/>
   <tile/>
   <tile/>
   <tile/>
   <tile/>
   <tile/>
   <tile/>
   <tile/>
   <tile/>
   <tile/>
   <tile/>
   <tile/>
   <tile/>
   <tile gid="36"/>
   <tile gid="39"/>
   <tile gid="38"/>
   <tile/>
   <tile/>
   <tile/>
   <tile/>
   <tile/>
   <tile/>
   <tile/>
   <tile/>
   <tile/>
   <tile/>
   <tile/>
   <tile/>
   <tile/>
   <tile/>
   <tile/>
   <tile/>
   <tile/>
   <tile/>
   <tile/>
   <tile/>
   <tile/>
   <tile/>
   <tile/>
   <tile/>
   <tile/>
   <tile/>
   <tile/>
   <tile/>
   <tile/>
   <tile/>
   <tile/>
   <tile/>
   <tile/>
   <tile/>
   <tile/>
   <tile/>
   <tile/>
   <tile/>
   <tile/>
   <tile/>
   <tile/>
   <tile/>
   <tile/>
   <tile/>
   <tile/>
   <tile/>
   <tile/>
   <tile/>
   <tile/>
   <tile/>
   <tile/>
   <tile/>
   <tile/>
   <tile/>
   <tile/>
   <tile/>
   <tile/>
   <tile/>
   <tile/>
   <tile/>
   <tile/>
   <tile/>
   <tile/>
   <tile/>
   <tile/>
   <tile/>
   <tile/>
   <tile/>
   <tile/>
   <tile/>
   <tile/>
   <tile/>
   <tile/>
   <tile/>
   <tile/>
   <tile/>
   <tile/>
   <tile/>
   <tile/>
   <tile/>
   <tile/>
   <tile/>
   <tile/>
   <tile/>
   <tile/>
   <tile/>
   <tile/>
   <tile/>
   <tile/>
   <tile/>
   <tile/>
   <tile/>
   <tile/>
   <tile/>
   <tile/>
   <tile/>
   <tile/>
   <tile/>
   <tile/>
   <tile/>
   <tile/>
   <tile/>
   <tile/>
   <tile/>
   <tile/>
   <tile/>
   <tile/>
   <tile/>
   <tile/>
   <tile/>
   <tile/>
   <tile/>
   <tile/>
   <tile/>
   <tile/>
   <tile/>
   <tile/>
   <tile/>
   <tile/>
   <tile/>
   <tile/>
   <tile/>
   <tile/>
   <tile/>
   <tile/>
   <tile/>
   <tile/>
   <tile/>
   <tile/>
   <tile/>
   <tile/>
   <tile/>
   <tile gid="1610612821"/>
   <tile gid="36"/>
   <tile gid="38"/>
   <tile/>
   <tile/>
   <tile/>
   <tile/>
   <tile/>
   <tile/>
   <tile/>
   <tile/>
   <tile/>
   <tile/>
   <tile/>
   <tile/>
   <tile/>
   <tile/>
   <tile/>
   <tile/>
   <tile/>
   <tile/>
   <tile/>
   <tile/>
   <tile/>
   <tile/>
   <tile/>
   <tile/>
   <tile/>
   <tile/>
   <tile/>
   <tile/>
   <tile/>
   <tile/>
   <tile/>
   <tile/>
   <tile/>
   <tile/>
   <tile/>
   <tile/>
   <tile/>
   <tile/>
   <tile gid="36"/>
   <tile gid="37"/>
   <tile gid="38"/>
   <tile/>
   <tile/>
   <tile/>
   <tile/>
   <tile/>
   <tile/>
   <tile/>
   <tile/>
   <tile/>
   <tile/>
   <tile/>
   <tile/>
   <tile/>
   <tile/>
   <tile/>
   <tile/>
   <tile/>
   <tile/>
   <tile/>
   <tile/>
   <tile/>
   <tile/>
   <tile/>
   <tile/>
   <tile/>
   <tile/>
   <tile/>
   <tile/>
   <tile/>
   <tile/>
   <tile/>
   <tile/>
   <tile/>
   <tile/>
   <tile/>
   <tile/>
   <tile/>
   <tile/>
   <tile/>
   <tile/>
   <tile/>
   <tile/>
   <tile/>
   <tile/>
   <tile/>
   <tile/>
   <tile/>
   <tile/>
   <tile/>
   <tile/>
   <tile/>
   <tile/>
   <tile/>
   <tile/>
   <tile/>
   <tile/>
   <tile/>
   <tile/>
   <tile/>
   <tile/>
   <tile/>
   <tile/>
   <tile/>
   <tile/>
   <tile/>
   <tile/>
   <tile/>
   <tile/>
   <tile/>
   <tile/>
   <tile/>
   <tile/>
   <tile/>
   <tile/>
   <tile/>
   <tile/>
   <tile/>
   <tile/>
   <tile/>
   <tile/>
   <tile/>
   <tile/>
   <tile/>
   <tile/>
   <tile/>
   <tile/>
   <tile/>
   <tile/>
   <tile/>
   <tile/>
   <tile/>
   <tile/>
   <tile/>
   <tile/>
   <tile/>
   <tile/>
   <tile/>
   <tile/>
   <tile/>
   <tile/>
   <tile/>
   <tile/>
   <tile/>
   <tile/>
   <tile/>
   <tile/>
   <tile/>
   <tile/>
   <tile/>
   <tile/>
   <tile/>
   <tile/>
   <tile/>
   <tile/>
   <tile/>
   <tile/>
   <tile/>
   <tile/>
   <tile/>
   <tile/>
   <tile/>
   <tile/>
   <tile/>
   <tile/>
   <tile/>
   <tile/>
   <tile/>
   <tile/>
   <tile/>
   <tile/>
   <tile/>
   <tile/>
   <tile gid="1610612820"/>
   <tile gid="36"/>
   <tile gid="38"/>
   <tile/>
   <tile/>
   <tile/>
   <tile/>
   <tile/>
   <tile/>
   <tile/>
   <tile/>
   <tile/>
   <tile/>
   <tile/>
   <tile/>
   <tile/>
   <tile/>
   <tile/>
   <tile/>
   <tile/>
   <tile/>
   <tile/>
   <tile/>
   <tile/>
   <tile/>
   <tile/>
   <tile/>
   <tile/>
   <tile/>
   <tile/>
   <tile/>
   <tile/>
   <tile/>
   <tile/>
   <tile/>
   <tile/>
   <tile/>
   <tile/>
   <tile/>
   <tile/>
   <tile/>
   <tile gid="36"/>
   <tile gid="39"/>
   <tile gid="38"/>
   <tile/>
   <tile/>
   <tile/>
   <tile/>
   <tile/>
   <tile/>
   <tile/>
   <tile/>
   <tile/>
   <tile/>
   <tile/>
   <tile/>
   <tile/>
   <tile/>
   <tile/>
   <tile/>
   <tile/>
   <tile/>
   <tile/>
   <tile/>
   <tile/>
   <tile/>
   <tile/>
   <tile/>
   <tile/>
   <tile/>
   <tile/>
   <tile/>
   <tile/>
   <tile/>
   <tile/>
   <tile/>
   <tile/>
   <tile/>
   <tile/>
   <tile/>
   <tile/>
   <tile/>
   <tile/>
   <tile/>
   <tile/>
   <tile/>
   <tile/>
   <tile/>
   <tile/>
   <tile/>
   <tile/>
   <tile/>
   <tile/>
   <tile/>
   <tile/>
   <tile/>
   <tile/>
   <tile/>
   <tile/>
   <tile/>
   <tile/>
   <tile/>
   <tile/>
   <tile/>
   <tile/>
   <tile/>
   <tile/>
   <tile/>
   <tile/>
   <tile/>
   <tile/>
   <tile/>
   <tile/>
   <tile/>
   <tile/>
   <tile/>
   <tile/>
   <tile/>
   <tile/>
   <tile/>
   <tile/>
   <tile/>
   <tile/>
   <tile/>
   <tile/>
   <tile/>
   <tile/>
   <tile/>
   <tile/>
   <tile/>
   <tile/>
   <tile/>
   <tile/>
   <tile/>
   <tile/>
   <tile/>
   <tile/>
   <tile/>
   <tile/>
   <tile/>
   <tile/>
   <tile/>
   <tile/>
   <tile/>
   <tile/>
   <tile/>
   <tile/>
   <tile/>
   <tile/>
   <tile/>
   <tile/>
   <tile/>
   <tile/>
   <tile/>
   <tile/>
   <tile/>
   <tile/>
   <tile/>
   <tile/>
   <tile/>
   <tile/>
   <tile/>
   <tile/>
   <tile/>
   <tile/>
   <tile/>
   <tile/>
   <tile/>
   <tile/>
   <tile/>
   <tile/>
   <tile/>
   <tile/>
   <tile/>
   <tile/>
   <tile/>
   <tile gid="1610612819"/>
   <tile gid="36"/>
   <tile gid="38"/>
   <tile/>
   <tile/>
   <tile/>
   <tile/>
   <tile/>
   <tile/>
   <tile/>
   <tile/>
   <tile/>
   <tile/>
   <tile/>
   <tile/>
   <tile/>
   <tile/>
   <tile/>
   <tile/>
   <tile/>
   <tile/>
   <tile/>
   <tile/>
   <tile/>
   <tile/>
   <tile/>
   <tile/>
   <tile/>
   <tile/>
   <tile/>
   <tile/>
   <tile/>
   <tile/>
   <tile/>
   <tile/>
   <tile/>
   <tile/>
   <tile/>
   <tile/>
   <tile/>
   <tile/>
   <tile gid="36"/>
   <tile gid="31"/>
   <tile gid="38"/>
   <tile/>
   <tile/>
   <tile/>
   <tile/>
   <tile/>
   <tile/>
   <tile/>
   <tile/>
   <tile/>
   <tile/>
   <tile/>
   <tile/>
   <tile/>
   <tile/>
   <tile/>
   <tile/>
   <tile/>
   <tile/>
   <tile/>
   <tile/>
   <tile/>
   <tile/>
   <tile/>
   <tile/>
   <tile/>
   <tile/>
   <tile/>
   <tile/>
   <tile/>
   <tile/>
   <tile/>
   <tile/>
   <tile/>
   <tile/>
   <tile/>
   <tile/>
   <tile/>
   <tile/>
   <tile/>
   <tile/>
   <tile/>
   <tile/>
   <tile/>
   <tile/>
   <tile/>
   <tile/>
   <tile/>
   <tile/>
   <tile/>
   <tile/>
   <tile/>
   <tile/>
   <tile/>
   <tile/>
   <tile/>
   <tile/>
   <tile/>
   <tile/>
   <tile/>
   <tile/>
   <tile/>
   <tile/>
   <tile/>
   <tile/>
   <tile/>
   <tile/>
   <tile/>
   <tile/>
   <tile/>
   <tile/>
   <tile/>
   <tile/>
   <tile/>
   <tile/>
   <tile/>
   <tile/>
   <tile/>
   <tile/>
   <tile/>
   <tile/>
   <tile/>
   <tile/>
   <tile/>
   <tile/>
   <tile/>
   <tile/>
   <tile/>
   <tile/>
   <tile/>
   <tile/>
   <tile/>
   <tile/>
   <tile/>
   <tile/>
   <tile/>
   <tile/>
   <tile/>
   <tile/>
   <tile/>
   <tile/>
   <tile/>
   <tile/>
   <tile/>
   <tile/>
   <tile/>
   <tile/>
   <tile/>
   <tile/>
   <tile/>
   <tile/>
   <tile/>
   <tile/>
   <tile/>
   <tile/>
   <tile/>
   <tile/>
   <tile/>
   <tile/>
   <tile/>
   <tile/>
   <tile/>
   <tile/>
   <tile/>
   <tile/>
   <tile/>
   <tile/>
   <tile/>
   <tile/>
   <tile/>
   <tile/>
   <tile/>
   <tile/>
   <tile gid="1610612821"/>
   <tile gid="36"/>
   <tile gid="38"/>
   <tile/>
   <tile/>
   <tile/>
   <tile/>
   <tile/>
   <tile/>
   <tile/>
   <tile/>
   <tile/>
   <tile/>
   <tile/>
   <tile/>
   <tile/>
   <tile/>
   <tile/>
   <tile/>
   <tile/>
   <tile/>
   <tile/>
   <tile/>
   <tile/>
   <tile/>
   <tile/>
   <tile/>
   <tile/>
   <tile/>
   <tile/>
   <tile/>
   <tile/>
   <tile/>
   <tile/>
   <tile/>
   <tile/>
   <tile/>
   <tile/>
   <tile/>
   <tile/>
   <tile/>
   <tile gid="36"/>
   <tile gid="32"/>
   <tile gid="38"/>
   <tile/>
   <tile/>
   <tile/>
   <tile/>
   <tile/>
   <tile/>
   <tile/>
   <tile/>
   <tile/>
   <tile/>
   <tile/>
   <tile/>
   <tile/>
   <tile/>
   <tile/>
   <tile/>
   <tile/>
   <tile/>
   <tile/>
   <tile/>
   <tile/>
   <tile/>
   <tile/>
   <tile/>
   <tile/>
   <tile/>
   <tile/>
   <tile/>
   <tile/>
   <tile/>
   <tile/>
   <tile/>
   <tile/>
   <tile/>
   <tile/>
   <tile/>
   <tile/>
   <tile/>
   <tile/>
   <tile/>
   <tile/>
   <tile/>
   <tile/>
   <tile/>
   <tile/>
   <tile/>
   <tile/>
   <tile/>
   <tile/>
   <tile/>
   <tile/>
   <tile/>
   <tile/>
   <tile/>
   <tile/>
   <tile/>
   <tile/>
   <tile/>
   <tile/>
   <tile/>
   <tile/>
   <tile/>
   <tile/>
   <tile/>
   <tile/>
   <tile/>
   <tile/>
   <tile/>
   <tile/>
   <tile/>
   <tile/>
   <tile/>
   <tile/>
   <tile/>
   <tile/>
   <tile/>
   <tile/>
   <tile/>
   <tile/>
   <tile/>
   <tile/>
   <tile/>
   <tile/>
   <tile/>
   <tile/>
   <tile/>
   <tile/>
   <tile/>
   <tile/>
   <tile/>
   <tile/>
   <tile/>
   <tile/>
   <tile/>
   <tile/>
   <tile/>
   <tile/>
   <tile/>
   <tile/>
   <tile/>
   <tile/>
   <tile/>
   <tile/>
   <tile/>
   <tile/>
   <tile/>
   <tile/>
   <tile/>
   <tile/>
   <tile/>
   <tile/>
   <tile/>
   <tile/>
   <tile/>
   <tile/>
   <tile/>
   <tile/>
   <tile/>
   <tile/>
   <tile/>
   <tile/>
   <tile/>
   <tile/>
   <tile/>
   <tile/>
   <tile/>
   <tile/>
   <tile/>
   <tile/>
   <tile/>
   <tile/>
   <tile/>
   <tile gid="1610612820"/>
   <tile gid="36"/>
   <tile gid="38"/>
   <tile/>
   <tile/>
   <tile/>
   <tile/>
   <tile/>
   <tile/>
   <tile/>
   <tile/>
   <tile/>
   <tile/>
   <tile/>
   <tile/>
   <tile/>
   <tile/>
   <tile/>
   <tile/>
   <tile/>
   <tile/>
   <tile/>
   <tile/>
   <tile/>
   <tile/>
   <tile/>
   <tile/>
   <tile/>
   <tile/>
   <tile/>
   <tile/>
   <tile/>
   <tile/>
   <tile/>
   <tile/>
   <tile/>
   <tile/>
   <tile/>
   <tile/>
   <tile/>
   <tile/>
   <tile gid="36"/>
   <tile gid="37"/>
   <tile gid="38"/>
   <tile/>
   <tile gid="23"/>
   <tile gid="23"/>
   <tile/>
   <tile/>
   <tile/>
   <tile/>
   <tile/>
   <tile/>
   <tile/>
   <tile/>
   <tile/>
   <tile/>
   <tile/>
   <tile/>
   <tile/>
   <tile/>
   <tile/>
   <tile/>
   <tile/>
   <tile/>
   <tile/>
   <tile/>
   <tile/>
   <tile/>
   <tile/>
   <tile/>
   <tile/>
   <tile/>
   <tile/>
   <tile/>
   <tile/>
   <tile/>
   <tile/>
   <tile/>
   <tile/>
   <tile/>
   <tile/>
   <tile/>
   <tile/>
   <tile/>
   <tile/>
   <tile/>
   <tile/>
   <tile/>
   <tile/>
   <tile/>
   <tile/>
   <tile/>
   <tile/>
   <tile/>
   <tile/>
   <tile/>
   <tile/>
   <tile/>
   <tile/>
   <tile/>
   <tile/>
   <tile/>
   <tile/>
   <tile/>
   <tile/>
   <tile/>
   <tile/>
   <tile/>
   <tile/>
   <tile/>
   <tile/>
   <tile/>
   <tile/>
   <tile/>
   <tile/>
   <tile/>
   <tile/>
   <tile/>
   <tile/>
   <tile/>
   <tile/>
   <tile/>
   <tile/>
   <tile/>
   <tile/>
   <tile/>
   <tile/>
   <tile/>
   <tile/>
   <tile/>
   <tile/>
   <tile/>
   <tile/>
   <tile/>
   <tile/>
   <tile/>
   <tile/>
   <tile/>
   <tile/>
   <tile/>
   <tile/>
   <tile/>
   <tile/>
   <tile/>
   <tile/>
   <tile/>
   <tile/>
   <tile/>
   <tile/>
   <tile/>
   <tile/>
   <tile/>
   <tile/>
   <tile/>
   <tile/>
   <tile/>
   <tile/>
   <tile/>
   <tile/>
   <tile/>
   <tile/>
   <tile/>
   <tile/>
   <tile/>
   <tile/>
   <tile/>
   <tile/>
   <tile/>
   <tile/>
   <tile/>
   <tile/>
   <tile/>
   <tile/>
   <tile/>
   <tile/>
   <tile gid="1610612819"/>
   <tile gid="36"/>
   <tile gid="38"/>
   <tile/>
   <tile/>
   <tile/>
   <tile/>
   <tile/>
   <tile/>
   <tile/>
   <tile/>
   <tile/>
   <tile/>
   <tile/>
   <tile/>
   <tile/>
   <tile/>
   <tile/>
   <tile/>
   <tile/>
   <tile/>
   <tile/>
   <tile/>
   <tile/>
   <tile/>
   <tile/>
   <tile/>
   <tile/>
   <tile/>
   <tile/>
   <tile/>
   <tile/>
   <tile/>
   <tile/>
   <tile/>
   <tile/>
   <tile/>
   <tile/>
   <tile/>
   <tile/>
   <tile/>
   <tile gid="36"/>
   <tile gid="32"/>
   <tile gid="38"/>
   <tile/>
   <tile gid="23"/>
   <tile/>
   <tile/>
   <tile/>
   <tile/>
   <tile/>
   <tile/>
   <tile/>
   <tile/>
   <tile/>
   <tile/>
   <tile/>
   <tile/>
   <tile/>
   <tile/>
   <tile gid="28"/>
   <tile gid="29"/>
   <tile gid="29"/>
   <tile gid="29"/>
   <tile gid="29"/>
   <tile gid="29"/>
   <tile gid="29"/>
   <tile gid="29"/>
   <tile gid="29"/>
   <tile gid="29"/>
   <tile gid="29"/>
   <tile gid="29"/>
   <tile gid="29"/>
   <tile gid="29"/>
   <tile gid="29"/>
   <tile gid="29"/>
   <tile gid="29"/>
   <tile gid="29"/>
   <tile gid="2147483652"/>
   <tile gid="2147483650"/>
   <tile/>
   <tile/>
   <tile/>
   <tile/>
   <tile/>
   <tile/>
   <tile/>
   <tile/>
   <tile/>
   <tile/>
   <tile/>
   <tile/>
   <tile/>
   <tile/>
   <tile/>
   <tile/>
   <tile/>
   <tile/>
   <tile/>
   <tile/>
   <tile/>
   <tile/>
   <tile/>
   <tile/>
   <tile/>
   <tile/>
   <tile/>
   <tile/>
   <tile/>
   <tile/>
   <tile/>
   <tile/>
   <tile/>
   <tile/>
   <tile/>
   <tile/>
   <tile/>
   <tile/>
   <tile/>
   <tile/>
   <tile/>
   <tile/>
   <tile/>
   <tile/>
   <tile/>
   <tile/>
   <tile/>
   <tile/>
   <tile/>
   <tile/>
   <tile/>
   <tile/>
   <tile/>
   <tile/>
   <tile/>
   <tile/>
   <tile/>
   <tile/>
   <tile/>
   <tile/>
   <tile/>
   <tile/>
   <tile/>
   <tile/>
   <tile/>
   <tile/>
   <tile/>
   <tile/>
   <tile/>
   <tile/>
   <tile/>
   <tile/>
   <tile/>
   <tile/>
   <tile/>
   <tile/>
   <tile/>
   <tile/>
   <tile/>
   <tile gid="2"/>
   <tile gid="4"/>
   <tile gid="29"/>
   <tile gid="29"/>
   <tile gid="24"/>
   <tile gid="29"/>
   <tile gid="29"/>
   <tile gid="29"/>
   <tile gid="24"/>
   <tile gid="29"/>
   <tile gid="29"/>
   <tile gid="29"/>
   <tile gid="29"/>
   <tile gid="29"/>
   <tile gid="24"/>
   <tile gid="29"/>
   <tile gid="24"/>
   <tile gid="29"/>
   <tile gid="7"/>
   <tile gid="38"/>
   <tile/>
   <tile/>
   <tile/>
   <tile/>
   <tile/>
   <tile/>
   <tile/>
   <tile/>
   <tile/>
   <tile/>
   <tile/>
   <tile/>
   <tile/>
   <tile/>
   <tile/>
   <tile/>
   <tile/>
   <tile/>
   <tile/>
   <tile/>
   <tile/>
   <tile gid="28"/>
   <tile gid="24"/>
   <tile gid="2147483672"/>
   <tile gid="29"/>
   <tile gid="29"/>
   <tile gid="29"/>
   <tile gid="24"/>
   <tile gid="30"/>
   <tile/>
   <tile/>
   <tile/>
   <tile/>
   <tile/>
   <tile/>
   <tile/>
   <tile/>
   <tile/>
   <tile gid="36"/>
   <tile gid="31"/>
   <tile gid="38"/>
   <tile/>
   <tile/>
   <tile gid="23"/>
   <tile/>
   <tile/>
   <tile/>
   <tile/>
   <tile/>
   <tile/>
   <tile/>
   <tile/>
   <tile/>
   <tile/>
   <tile/>
   <tile/>
   <tile/>
   <tile gid="33"/>
   <tile gid="45"/>
   <tile gid="37"/>
   <tile gid="37"/>
   <tile gid="32"/>
   <tile gid="32"/>
   <tile gid="37"/>
   <tile gid="40"/>
   <tile gid="32"/>
   <tile gid="32"/>
   <tile gid="37"/>
   <tile gid="37"/>
   <tile gid="37"/>
   <tile gid="37"/>
   <tile gid="37"/>
   <tile gid="39"/>
   <tile gid="31"/>
   <tile gid="37"/>
   <tile gid="31"/>
   <tile gid="2147483649"/>
   <tile gid="29"/>
   <tile gid="30"/>
   <tile/>
   <tile/>
   <tile/>
   <tile/>
   <tile/>
   <tile/>
   <tile/>
   <tile/>
   <tile/>
   <tile/>
   <tile/>
   <tile/>
   <tile/>
   <tile/>
   <tile/>
   <tile/>
   <tile/>
   <tile/>
   <tile/>
   <tile/>
   <tile/>
   <tile/>
   <tile/>
   <tile/>
   <tile/>
   <tile/>
   <tile/>
   <tile/>
   <tile/>
   <tile/>
   <tile/>
   <tile/>
   <tile/>
   <tile/>
   <tile/>
   <tile/>
   <tile/>
   <tile/>
   <tile/>
   <tile/>
   <tile/>
   <tile/>
   <tile/>
   <tile/>
   <tile/>
   <tile/>
   <tile/>
   <tile/>
   <tile/>
   <tile/>
   <tile/>
   <tile/>
   <tile/>
   <tile/>
   <tile/>
   <tile/>
   <tile/>
   <tile/>
   <tile/>
   <tile/>
   <tile/>
   <tile/>
   <tile/>
   <tile/>
   <tile/>
   <tile/>
   <tile/>
   <tile/>
   <tile/>
   <tile/>
   <tile/>
   <tile/>
   <tile/>
   <tile/>
   <tile/>
   <tile gid="2"/>
   <tile gid="4"/>
   <tile gid="1"/>
   <tile gid="31"/>
   <tile gid="37"/>
   <tile gid="31"/>
   <tile gid="37"/>
   <tile gid="39"/>
   <tile gid="37"/>
   <tile gid="31"/>
   <tile gid="37"/>
   <tile gid="39"/>
   <tile gid="39"/>
   <tile gid="31"/>
   <tile gid="40"/>
   <tile gid="37"/>
   <tile gid="31"/>
   <tile gid="39"/>
   <tile gid="40"/>
   <tile gid="32"/>
   <tile gid="32"/>
   <tile gid="35"/>
   <tile/>
   <tile/>
   <tile/>
   <tile/>
   <tile/>
   <tile/>
   <tile/>
   <tile/>
   <tile/>
   <tile/>
   <tile/>
   <tile/>
   <tile/>
   <tile/>
   <tile/>
   <tile/>
   <tile/>
   <tile/>
   <tile/>
   <tile/>
   <tile/>
   <tile gid="41"/>
   <tile gid="39"/>
   <tile gid="39"/>
   <tile gid="39"/>
   <tile gid="39"/>
   <tile gid="39"/>
   <tile gid="39"/>
   <tile gid="35"/>
   <tile/>
   <tile/>
   <tile gid="57"/>
   <tile gid="2147483705"/>
   <tile/>
   <tile/>
   <tile/>
   <tile/>
   <tile/>
   <tile gid="36"/>
   <tile gid="39"/>
   <tile gid="38"/>
   <tile/>
   <tile/>
   <tile gid="23"/>
   <tile gid="23"/>
   <tile/>
   <tile/>
   <tile/>
   <tile/>
   <tile/>
   <tile/>
   <tile/>
   <tile/>
   <tile/>
   <tile/>
   <tile/>
   <tile/>
   <tile/>
   <tile/>
   <tile gid="41"/>
   <tile gid="37"/>
   <tile gid="40"/>
   <tile gid="31"/>
   <tile gid="39"/>
   <tile gid="37"/>
   <tile gid="37"/>
   <tile gid="37"/>
   <tile gid="37"/>
   <tile gid="32"/>
   <tile gid="37"/>
   <tile gid="37"/>
   <tile gid="37"/>
   <tile gid="39"/>
   <tile gid="37"/>
   <tile gid="31"/>
   <tile gid="37"/>
   <tile gid="37"/>
   <tile gid="31"/>
   <tile gid="35"/>
   <tile/>
   <tile/>
   <tile/>
   <tile/>
   <tile/>
   <tile/>
   <tile/>
   <tile/>
   <tile/>
   <tile/>
   <tile/>
   <tile/>
   <tile/>
   <tile/>
   <tile/>
   <tile/>
   <tile/>
   <tile/>
   <tile/>
   <tile/>
   <tile/>
   <tile/>
   <tile/>
   <tile/>
   <tile/>
   <tile/>
   <tile/>
   <tile/>
   <tile/>
   <tile/>
   <tile/>
   <tile/>
   <tile/>
   <tile/>
   <tile/>
   <tile/>
   <tile/>
   <tile/>
   <tile/>
   <tile/>
   <tile/>
   <tile/>
   <tile/>
   <tile/>
   <tile/>
   <tile/>
   <tile/>
   <tile/>
   <tile/>
   <tile/>
   <tile/>
   <tile/>
   <tile/>
   <tile/>
   <tile/>
   <tile/>
   <tile/>
   <tile/>
   <tile/>
   <tile/>
   <tile/>
   <tile/>
   <tile/>
   <tile/>
   <tile/>
   <tile/>
   <tile/>
   <tile/>
   <tile/>
   <tile/>
   <tile/>
   <tile/>
   <tile/>
   <tile/>
   <tile/>
   <tile gid="41"/>
   <tile gid="37"/>
   <tile gid="37"/>
   <tile gid="45"/>
   <tile gid="45"/>
   <tile gid="45"/>
   <tile gid="45"/>
   <tile gid="45"/>
   <tile gid="45"/>
   <tile gid="45"/>
   <tile gid="45"/>
   <tile gid="45"/>
   <tile gid="45"/>
   <tile gid="45"/>
   <tile gid="45"/>
   <tile gid="45"/>
   <tile gid="45"/>
   <tile gid="45"/>
   <tile gid="45"/>
   <tile gid="45"/>
   <tile gid="43"/>
   <tile/>
   <tile/>
   <tile/>
   <tile/>
   <tile/>
   <tile gid="57"/>
   <tile gid="58"/>
   <tile gid="59"/>
   <tile/>
   <tile/>
   <tile/>
   <tile/>
   <tile/>
   <tile/>
   <tile/>
   <tile/>
   <tile/>
   <tile/>
   <tile/>
   <tile/>
   <tile/>
   <tile/>
   <tile/>
   <tile gid="41"/>
   <tile gid="39"/>
   <tile gid="39"/>
   <tile gid="39"/>
   <tile gid="39"/>
   <tile gid="35"/>
   <tile/>
   <tile/>
   <tile/>
   <tile/>
   <tile/>
   <tile/>
   <tile/>
   <tile/>
   <tile/>
   <tile/>
   <tile gid="36"/>
   <tile gid="39"/>
   <tile gid="38"/>
   <tile/>
   <tile/>
   <tile/>
   <tile/>
   <tile/>
   <tile/>
   <tile/>
   <tile/>
   <tile/>
   <tile/>
   <tile/>
   <tile/>
   <tile/>
   <tile/>
   <tile/>
   <tile/>
   <tile/>
   <tile/>
   <tile/>
   <tile gid="2147483683"/>
   <tile gid="45"/>
   <tile gid="45"/>
   <tile gid="45"/>
   <tile gid="45"/>
   <tile gid="45"/>
   <tile gid="45"/>
   <tile gid="45"/>
   <tile gid="45"/>
   <tile gid="45"/>
   <tile gid="45"/>
   <tile gid="45"/>
   <tile gid="45"/>
   <tile gid="45"/>
   <tile gid="45"/>
   <tile gid="45"/>
   <tile gid="45"/>
   <tile gid="43"/>
   <tile/>
   <tile/>
   <tile/>
   <tile/>
   <tile/>
   <tile/>
   <tile/>
   <tile/>
   <tile/>
   <tile/>
   <tile/>
   <tile/>
   <tile/>
   <tile/>
   <tile/>
   <tile/>
   <tile/>
   <tile/>
   <tile/>
   <tile/>
   <tile/>
   <tile/>
   <tile/>
   <tile/>
   <tile/>
   <tile/>
   <tile/>
   <tile/>
   <tile/>
   <tile/>
   <tile/>
   <tile/>
   <tile/>
   <tile/>
   <tile/>
   <tile/>
   <tile/>
   <tile/>
   <tile/>
   <tile/>
   <tile/>
   <tile/>
   <tile/>
   <tile/>
   <tile/>
   <tile/>
   <tile/>
   <tile/>
   <tile/>
   <tile/>
   <tile/>
   <tile/>
   <tile/>
   <tile/>
   <tile/>
   <tile/>
   <tile/>
   <tile/>
   <tile/>
   <tile/>
   <tile/>
   <tile/>
   <tile/>
   <tile/>
   <tile/>
   <tile/>
   <tile/>
   <tile/>
   <tile/>
   <tile/>
   <tile/>
   <tile/>
   <tile/>
   <tile/>
   <tile/>
   <tile/>
   <tile/>
   <tile/>
   <tile/>
   <tile/>
   <tile/>
   <tile/>
   <tile/>
   <tile/>
   <tile/>
   <tile/>
   <tile/>
   <tile/>
   <tile/>
   <tile/>
   <tile/>
   <tile/>
   <tile/>
   <tile/>
   <tile/>
   <tile/>
   <tile/>
   <tile/>
   <tile/>
   <tile/>
   <tile/>
   <tile/>
   <tile/>
   <tile/>
   <tile/>
   <tile/>
   <tile/>
   <tile/>
   <tile/>
   <tile/>
   <tile/>
   <tile/>
   <tile/>
   <tile/>
   <tile/>
   <tile/>
   <tile gid="26"/>
   <tile/>
   <tile/>
   <tile/>
   <tile/>
   <tile gid="33"/>
   <tile gid="45"/>
   <tile gid="45"/>
   <tile gid="35"/>
   <tile/>
   <tile/>
   <tile/>
   <tile/>
   <tile/>
   <tile/>
   <tile/>
   <tile/>
   <tile gid="2147483707"/>
   <tile gid="59"/>
   <tile/>
   <tile gid="36"/>
   <tile gid="40"/>
   <tile gid="32"/>
   <tile gid="29"/>
   <tile gid="30"/>
   <tile/>
   <tile/>
   <tile/>
   <tile/>
   <tile/>
   <tile/>
   <tile/>
   <tile/>
   <tile/>
   <tile/>
   <tile/>
   <tile/>
   <tile/>
   <tile/>
   <tile/>
   <tile/>
   <tile/>
   <tile/>
   <tile/>
   <tile/>
   <tile/>
   <tile/>
   <tile/>
   <tile/>
   <tile/>
   <tile/>
   <tile/>
   <tile/>
   <tile/>
   <tile/>
   <tile/>
   <tile/>
   <tile/>
   <tile/>
   <tile/>
   <tile/>
   <tile/>
   <tile/>
   <tile gid="20"/>
   <tile gid="21"/>
   <tile gid="22"/>
   <tile/>
   <tile/>
   <tile/>
   <tile/>
   <tile/>
   <tile/>
   <tile/>
   <tile/>
   <tile/>
   <tile/>
   <tile/>
   <tile/>
   <tile/>
   <tile/>
   <tile/>
   <tile/>
   <tile/>
   <tile/>
   <tile/>
   <tile/>
   <tile/>
   <tile/>
   <tile/>
   <tile/>
   <tile/>
   <tile/>
   <tile/>
   <tile/>
   <tile/>
   <tile/>
   <tile/>
   <tile/>
   <tile/>
   <tile/>
   <tile/>
   <tile/>
   <tile/>
   <tile/>
   <tile/>
   <tile/>
   <tile/>
   <tile/>
   <tile/>
   <tile/>
   <tile/>
   <tile/>
   <tile/>
   <tile/>
   <tile/>
   <tile/>
   <tile/>
   <tile/>
   <tile/>
   <tile/>
   <tile/>
   <tile/>
   <tile/>
   <tile/>
   <tile/>
   <tile/>
   <tile/>
   <tile/>
   <tile/>
   <tile/>
   <tile/>
   <tile/>
   <tile/>
   <tile/>
   <tile/>
   <tile/>
   <tile/>
   <tile/>
   <tile/>
   <tile/>
   <tile/>
   <tile/>
   <tile/>
   <tile/>
   <tile/>
   <tile/>
   <tile/>
   <tile/>
   <tile/>
   <tile/>
   <tile/>
   <tile/>
   <tile/>
   <tile/>
   <tile/>
   <tile/>
   <tile/>
   <tile/>
   <tile/>
   <tile/>
   <tile/>
   <tile/>
   <tile/>
   <tile/>
   <tile/>
   <tile/>
   <tile/>
   <tile/>
   <tile/>
   <tile/>
   <tile/>
   <tile/>
   <tile/>
   <tile/>
   <tile/>
   <tile/>
   <tile gid="34"/>
   <tile/>
   <tile/>
   <tile/>
   <tile/>
   <tile/>
   <tile/>
   <tile/>
   <tile/>
   <tile/>
   <tile/>
   <tile/>
   <tile/>
   <tile/>
   <tile/>
   <tile/>
   <tile/>
   <tile/>
   <tile/>
   <tile/>
   <tile gid="36"/>
   <tile gid="39"/>
   <tile gid="39"/>
   <tile gid="37"/>
   <tile gid="38"/>
   <tile/>
   <tile/>
   <tile/>
   <tile/>
   <tile/>
   <tile/>
   <tile/>
   <tile/>
   <tile/>
   <tile/>
   <tile/>
   <tile/>
   <tile/>
   <tile/>
   <tile/>
   <tile/>
   <tile/>
   <tile/>
   <tile/>
   <tile/>
   <tile/>
   <tile/>
   <tile/>
   <tile/>
   <tile/>
   <tile/>
   <tile/>
   <tile/>
   <tile/>
   <tile/>
   <tile/>
   <tile/>
   <tile/>
   <tile/>
   <tile/>
   <tile/>
   <tile/>
   <tile/>
   <tile/>
   <tile/>
   <tile/>
   <tile/>
   <tile/>
   <tile/>
   <tile/>
   <tile/>
   <tile/>
   <tile/>
   <tile/>
   <tile/>
   <tile/>
   <tile/>
   <tile/>
   <tile/>
   <tile/>
   <tile/>
   <tile/>
   <tile/>
   <tile/>
   <tile/>
   <tile/>
   <tile/>
   <tile/>
   <tile/>
   <tile/>
   <tile/>
   <tile/>
   <tile/>
   <tile/>
   <tile/>
   <tile/>
   <tile/>
   <tile/>
   <tile/>
   <tile/>
   <tile/>
   <tile/>
   <tile/>
   <tile/>
   <tile/>
   <tile/>
   <tile/>
   <tile/>
   <tile/>
   <tile/>
   <tile/>
   <tile/>
   <tile/>
   <tile/>
   <tile/>
   <tile/>
   <tile/>
   <tile/>
   <tile/>
   <tile/>
   <tile/>
   <tile/>
   <tile/>
   <tile/>
   <tile/>
   <tile/>
   <tile/>
   <tile/>
   <tile/>
   <tile/>
   <tile/>
   <tile gid="57"/>
   <tile gid="29"/>
   <tile gid="29"/>
   <tile gid="24"/>
   <tile gid="29"/>
   <tile gid="2147483705"/>
   <tile/>
   <tile/>
   <tile/>
   <tile/>
   <tile/>
   <tile/>
   <tile/>
   <tile/>
   <tile/>
   <tile/>
   <tile/>
   <tile/>
   <tile/>
   <tile/>
   <tile/>
   <tile/>
   <tile/>
   <tile/>
   <tile/>
   <tile/>
   <tile/>
   <tile/>
   <tile/>
   <tile/>
   <tile/>
   <tile/>
   <tile/>
   <tile/>
   <tile gid="28"/>
   <tile gid="29"/>
   <tile gid="29"/>
   <tile gid="24"/>
   <tile gid="29"/>
   <tile gid="29"/>
   <tile gid="24"/>
   <tile gid="29"/>
   <tile gid="30"/>
   <tile gid="21"/>
   <tile gid="22"/>
   <tile gid="42"/>
   <tile/>
   <tile/>
   <tile/>
   <tile/>
   <tile/>
   <tile/>
   <tile/>
   <tile/>
   <tile/>
   <tile/>
   <tile/>
   <tile/>
   <tile/>
   <tile gid="57"/>
   <tile gid="2147483705"/>
   <tile/>
   <tile/>
   <tile/>
   <tile/>
   <tile gid="36"/>
   <tile gid="32"/>
   <tile gid="37"/>
   <tile gid="31"/>
   <tile gid="38"/>
   <tile/>
   <tile/>
   <tile/>
   <tile/>
   <tile/>
   <tile/>
   <tile/>
   <tile/>
   <tile/>
   <tile/>
   <tile/>
   <tile/>
   <tile/>
   <tile/>
   <tile/>
   <tile/>
   <tile/>
   <tile/>
   <tile/>
   <tile/>
   <tile/>
   <tile/>
   <tile/>
   <tile/>
   <tile/>
   <tile/>
   <tile/>
   <tile/>
   <tile/>
   <tile/>
   <tile/>
   <tile/>
   <tile/>
   <tile/>
   <tile/>
   <tile/>
   <tile/>
   <tile/>
   <tile/>
   <tile/>
   <tile/>
   <tile/>
   <tile/>
   <tile gid="28"/>
   <tile gid="24"/>
   <tile gid="30"/>
   <tile/>
   <tile/>
   <tile/>
   <tile/>
   <tile/>
   <tile/>
   <tile/>
   <tile/>
   <tile/>
   <tile/>
   <tile/>
   <tile/>
   <tile/>
   <tile/>
   <tile/>
   <tile/>
   <tile/>
   <tile/>
   <tile/>
   <tile/>
   <tile/>
   <tile/>
   <tile/>
   <tile/>
   <tile/>
   <tile/>
   <tile gid="20"/>
   <tile gid="21"/>
   <tile gid="22"/>
   <tile/>
   <tile/>
   <tile/>
   <tile/>
   <tile/>
   <tile/>
   <tile/>
   <tile/>
   <tile/>
   <tile/>
   <tile/>
   <tile/>
   <tile/>
   <tile/>
   <tile/>
   <tile/>
   <tile/>
   <tile/>
   <tile/>
   <tile/>
   <tile/>
   <tile/>
   <tile/>
   <tile/>
   <tile/>
   <tile/>
   <tile/>
   <tile/>
   <tile/>
   <tile/>
   <tile/>
   <tile/>
   <tile gid="33"/>
   <tile gid="45"/>
   <tile gid="45"/>
   <tile gid="35"/>
   <tile/>
   <tile/>
   <tile/>
   <tile/>
   <tile/>
   <tile/>
   <tile/>
   <tile/>
   <tile/>
   <tile/>
   <tile/>
   <tile/>
   <tile/>
   <tile/>
   <tile/>
   <tile/>
   <tile/>
   <tile/>
   <tile/>
   <tile/>
   <tile/>
   <tile/>
   <tile/>
   <tile/>
   <tile/>
   <tile/>
   <tile/>
   <tile/>
   <tile/>
   <tile gid="33"/>
   <tile gid="45"/>
   <tile gid="45"/>
   <tile gid="45"/>
   <tile gid="45"/>
   <tile gid="45"/>
   <tile gid="45"/>
   <tile gid="45"/>
   <tile gid="35"/>
   <tile/>
   <tile/>
   <tile/>
   <tile/>
   <tile/>
   <tile/>
   <tile/>
   <tile/>
   <tile/>
   <tile/>
   <tile/>
   <tile/>
   <tile/>
   <tile/>
   <tile/>
   <tile/>
   <tile/>
   <tile/>
   <tile/>
   <tile/>
   <tile/>
   <tile/>
   <tile gid="36"/>
   <tile gid="31"/>
   <tile gid="32"/>
   <tile gid="40"/>
   <tile gid="38"/>
   <tile/>
   <tile/>
   <tile/>
   <tile/>
   <tile/>
   <tile/>
   <tile/>
   <tile/>
   <tile/>
   <tile/>
   <tile/>
   <tile/>
   <tile/>
   <tile/>
   <tile/>
   <tile/>
   <tile/>
   <tile/>
   <tile/>
   <tile/>
   <tile/>
   <tile/>
   <tile/>
   <tile/>
   <tile/>
   <tile/>
   <tile/>
   <tile/>
   <tile/>
   <tile/>
   <tile/>
   <tile/>
   <tile/>
   <tile/>
   <tile/>
   <tile/>
   <tile/>
   <tile/>
   <tile/>
   <tile/>
   <tile/>
   <tile/>
   <tile/>
   <tile gid="33"/>
   <tile gid="45"/>
   <tile gid="35"/>
   <tile/>
   <tile/>
   <tile/>
   <tile/>
   <tile/>
   <tile/>
   <tile/>
   <tile/>
   <tile/>
   <tile/>
   <tile/>
   <tile/>
   <tile/>
   <tile/>
   <tile/>
   <tile/>
   <tile/>
   <tile/>
   <tile/>
   <tile/>
   <tile/>
   <tile/>
   <tile/>
   <tile/>
   <tile/>
   <tile/>
   <tile/>
   <tile/>
   <tile/>
   <tile/>
   <tile/>
   <tile/>
   <tile/>
   <tile/>
   <tile/>
   <tile/>
   <tile/>
   <tile/>
   <tile/>
   <tile/>
   <tile/>
   <tile/>
   <tile/>
   <tile/>
   <tile/>
   <tile/>
   <tile/>
   <tile/>
   <tile/>
   <tile/>
   <tile/>
   <tile/>
   <tile/>
   <tile/>
   <tile/>
   <tile/>
   <tile/>
   <tile/>
   <tile/>
   <tile/>
   <tile/>
   <tile/>
   <tile/>
   <tile/>
   <tile/>
   <tile/>
   <tile/>
   <tile/>
   <tile/>
   <tile/>
   <tile/>
   <tile/>
   <tile/>
   <tile/>
   <tile/>
   <tile/>
   <tile/>
   <tile/>
   <tile/>
   <tile/>
   <tile/>
   <tile/>
   <tile/>
   <tile/>
   <tile/>
   <tile/>
   <tile/>
   <tile/>
   <tile/>
   <tile/>
   <tile/>
   <tile/>
   <tile/>
   <tile/>
   <tile/>
   <tile/>
   <tile/>
   <tile/>
   <tile/>
   <tile/>
   <tile/>
   <tile/>
   <tile/>
   <tile/>
   <tile/>
   <tile/>
   <tile/>
   <tile/>
   <tile/>
   <tile/>
   <tile/>
   <tile/>
   <tile/>
   <tile/>
   <tile/>
   <tile/>
   <tile gid="57"/>
   <tile gid="2147483705"/>
   <tile/>
   <tile/>
   <tile/>
   <tile/>
   <tile/>
   <tile/>
   <tile/>
   <tile gid="36"/>
   <tile gid="39"/>
   <tile gid="32"/>
   <tile gid="37"/>
   <tile gid="38"/>
   <tile/>
   <tile/>
   <tile/>
   <tile/>
   <tile/>
   <tile/>
   <tile/>
   <tile/>
   <tile/>
   <tile/>
   <tile/>
   <tile/>
   <tile/>
   <tile/>
   <tile/>
   <tile/>
   <tile/>
   <tile/>
   <tile/>
   <tile/>
   <tile/>
   <tile/>
   <tile/>
   <tile/>
   <tile/>
   <tile/>
   <tile/>
   <tile/>
   <tile/>
   <tile/>
   <tile/>
   <tile/>
   <tile/>
   <tile/>
   <tile/>
   <tile/>
   <tile/>
   <tile/>
   <tile/>
   <tile/>
   <tile/>
   <tile/>
   <tile/>
   <tile/>
   <tile/>
   <tile/>
   <tile/>
   <tile/>
   <tile gid="28"/>
   <tile gid="24"/>
   <tile gid="30"/>
   <tile/>
   <tile/>
   <tile/>
   <tile/>
   <tile/>
   <tile/>
   <tile/>
   <tile/>
   <tile/>
   <tile/>
   <tile/>
   <tile/>
   <tile/>
   <tile/>
   <tile/>
   <tile/>
   <tile/>
   <tile/>
   <tile/>
   <tile/>
   <tile/>
   <tile/>
   <tile/>
   <tile/>
   <tile/>
   <tile/>
   <tile/>
   <tile/>
   <tile/>
   <tile/>
   <tile/>
   <tile/>
   <tile/>
   <tile/>
   <tile/>
   <tile/>
   <tile/>
   <tile/>
   <tile/>
   <tile/>
   <tile/>
   <tile/>
   <tile/>
   <tile/>
   <tile/>
   <tile/>
   <tile/>
   <tile/>
   <tile/>
   <tile/>
   <tile/>
   <tile/>
   <tile gid="20"/>
   <tile gid="22"/>
   <tile/>
   <tile/>
   <tile/>
   <tile/>
   <tile/>
   <tile/>
   <tile/>
   <tile/>
   <tile gid="2147483707"/>
   <tile gid="59"/>
   <tile/>
   <tile/>
   <tile/>
   <tile/>
   <tile/>
   <tile/>
   <tile/>
   <tile/>
   <tile/>
   <tile/>
   <tile/>
   <tile/>
   <tile/>
   <tile/>
   <tile/>
   <tile/>
   <tile/>
   <tile/>
   <tile/>
   <tile/>
   <tile/>
   <tile/>
   <tile/>
   <tile/>
   <tile/>
   <tile/>
   <tile/>
   <tile/>
   <tile/>
   <tile/>
   <tile/>
   <tile/>
   <tile/>
   <tile/>
   <tile/>
   <tile/>
   <tile/>
   <tile/>
   <tile/>
   <tile/>
   <tile/>
   <tile/>
   <tile/>
   <tile/>
   <tile/>
   <tile/>
   <tile/>
   <tile/>
   <tile/>
   <tile/>
   <tile/>
   <tile/>
   <tile/>
   <tile/>
   <tile/>
   <tile/>
   <tile gid="36"/>
   <tile gid="39"/>
   <tile gid="37"/>
   <tile gid="37"/>
   <tile gid="38"/>
   <tile/>
   <tile/>
   <tile/>
   <tile/>
   <tile/>
   <tile/>
   <tile/>
   <tile/>
   <tile/>
   <tile/>
   <tile/>
   <tile/>
   <tile/>
   <tile/>
   <tile/>
   <tile/>
   <tile/>
   <tile/>
   <tile/>
   <tile/>
   <tile/>
   <tile/>
   <tile/>
   <tile/>
   <tile/>
   <tile/>
   <tile/>
   <tile/>
   <tile/>
   <tile/>
   <tile/>
   <tile/>
   <tile/>
   <tile/>
   <tile/>
   <tile/>
   <tile/>
   <tile/>
   <tile/>
   <tile/>
   <tile/>
   <tile/>
   <tile/>
   <tile/>
   <tile/>
   <tile/>
   <tile/>
   <tile/>
   <tile gid="33"/>
   <tile gid="45"/>
   <tile gid="35"/>
   <tile/>
   <tile/>
   <tile/>
   <tile/>
   <tile/>
   <tile/>
   <tile/>
   <tile/>
   <tile/>
   <tile/>
   <tile/>
   <tile/>
   <tile/>
   <tile/>
   <tile/>
   <tile/>
   <tile/>
   <tile gid="20"/>
   <tile gid="21"/>
   <tile gid="22"/>
   <tile/>
   <tile/>
   <tile/>
   <tile/>
   <tile/>
   <tile gid="20"/>
   <tile gid="21"/>
   <tile gid="22"/>
   <tile/>
   <tile/>
   <tile/>
   <tile/>
   <tile/>
   <tile/>
   <tile/>
   <tile/>
   <tile/>
   <tile/>
   <tile/>
   <tile/>
   <tile/>
   <tile/>
   <tile/>
   <tile/>
   <tile/>
   <tile/>
   <tile/>
   <tile/>
   <tile/>
   <tile/>
   <tile/>
   <tile/>
   <tile/>
   <tile/>
   <tile/>
   <tile/>
   <tile/>
   <tile/>
   <tile/>
   <tile/>
   <tile/>
   <tile/>
   <tile/>
   <tile/>
   <tile/>
   <tile/>
   <tile/>
   <tile/>
   <tile/>
   <tile/>
   <tile/>
   <tile/>
   <tile/>
   <tile/>
   <tile/>
   <tile/>
   <tile/>
   <tile/>
   <tile/>
   <tile/>
   <tile/>
   <tile/>
   <tile/>
   <tile/>
   <tile/>
   <tile/>
   <tile/>
   <tile/>
   <tile/>
   <tile/>
   <tile/>
   <tile/>
   <tile/>
   <tile/>
   <tile/>
   <tile/>
   <tile/>
   <tile/>
   <tile/>
   <tile/>
   <tile/>
   <tile/>
   <tile/>
   <tile/>
   <tile/>
   <tile/>
   <tile/>
   <tile/>
   <tile gid="2147483707"/>
   <tile gid="59"/>
   <tile/>
   <tile/>
   <tile/>
   <tile/>
   <tile/>
   <tile/>
   <tile/>
   <tile/>
   <tile/>
   <tile/>
   <tile gid="36"/>
   <tile gid="40"/>
   <tile gid="39"/>
   <tile gid="37"/>
   <tile gid="38"/>
   <tile/>
   <tile/>
   <tile/>
   <tile/>
   <tile/>
   <tile/>
   <tile/>
   <tile/>
   <tile/>
   <tile/>
   <tile/>
   <tile/>
   <tile/>
   <tile/>
   <tile/>
   <tile/>
   <tile/>
   <tile/>
   <tile/>
   <tile/>
   <tile/>
   <tile/>
   <tile/>
   <tile/>
   <tile/>
   <tile/>
   <tile/>
   <tile/>
   <tile/>
   <tile/>
   <tile/>
   <tile/>
   <tile/>
   <tile/>
   <tile/>
   <tile/>
   <tile/>
   <tile/>
   <tile/>
   <tile/>
   <tile/>
   <tile/>
   <tile/>
   <tile/>
   <tile/>
   <tile/>
   <tile/>
   <tile/>
   <tile/>
   <tile/>
   <tile/>
   <tile/>
   <tile/>
   <tile/>
   <tile/>
   <tile/>
   <tile/>
   <tile/>
   <tile/>
   <tile/>
   <tile/>
   <tile/>
   <tile/>
   <tile/>
   <tile/>
   <tile/>
   <tile/>
   <tile/>
   <tile/>
   <tile/>
   <tile/>
   <tile/>
   <tile/>
   <tile/>
   <tile/>
   <tile/>
   <tile/>
   <tile/>
   <tile/>
   <tile/>
   <tile/>
   <tile/>
   <tile/>
   <tile/>
   <tile/>
   <tile/>
   <tile/>
   <tile/>
   <tile/>
   <tile/>
   <tile/>
   <tile/>
   <tile/>
   <tile/>
   <tile/>
   <tile/>
   <tile/>
   <tile/>
   <tile/>
   <tile/>
   <tile/>
   <tile/>
   <tile/>
   <tile/>
   <tile/>
   <tile/>
   <tile/>
   <tile/>
   <tile/>
   <tile/>
   <tile/>
   <tile/>
   <tile/>
   <tile/>
   <tile/>
   <tile/>
   <tile/>
   <tile/>
   <tile/>
   <tile/>
   <tile/>
   <tile/>
   <tile/>
   <tile/>
   <tile/>
   <tile/>
   <tile/>
   <tile/>
   <tile/>
   <tile/>
   <tile/>
   <tile/>
   <tile/>
   <tile/>
   <tile/>
   <tile/>
   <tile/>
   <tile/>
   <tile/>
   <tile/>
   <tile/>
   <tile/>
   <tile/>
   <tile/>
   <tile/>
   <tile/>
   <tile/>
   <tile/>
   <tile/>
   <tile/>
   <tile/>
   <tile/>
   <tile/>
   <tile/>
   <tile/>
   <tile/>
   <tile/>
   <tile/>
   <tile/>
   <tile/>
   <tile/>
   <tile/>
   <tile/>
   <tile/>
   <tile/>
   <tile/>
   <tile/>
   <tile/>
   <tile/>
   <tile/>
   <tile/>
   <tile gid="36"/>
   <tile gid="31"/>
   <tile gid="40"/>
   <tile gid="31"/>
   <tile gid="38"/>
   <tile/>
   <tile/>
   <tile/>
   <tile/>
   <tile/>
   <tile/>
   <tile/>
   <tile/>
   <tile/>
   <tile/>
   <tile/>
   <tile/>
   <tile/>
   <tile/>
   <tile/>
   <tile/>
   <tile/>
   <tile gid="26"/>
   <tile/>
   <tile/>
   <tile/>
   <tile/>
   <tile/>
   <tile/>
   <tile/>
   <tile/>
   <tile/>
   <tile/>
   <tile/>
   <tile/>
   <tile/>
   <tile/>
   <tile/>
   <tile/>
   <tile/>
   <tile/>
   <tile/>
   <tile/>
   <tile/>
   <tile/>
   <tile/>
   <tile/>
   <tile/>
   <tile/>
   <tile/>
   <tile/>
   <tile/>
   <tile/>
   <tile/>
   <tile/>
   <tile/>
   <tile/>
   <tile gid="2"/>
   <tile gid="4"/>
   <tile gid="30"/>
   <tile/>
   <tile/>
   <tile/>
   <tile/>
   <tile/>
   <tile/>
   <tile gid="26"/>
   <tile/>
   <tile/>
   <tile/>
   <tile/>
   <tile/>
   <tile/>
   <tile/>
   <tile/>
   <tile/>
   <tile/>
   <tile/>
   <tile/>
   <tile/>
   <tile/>
   <tile/>
   <tile/>
   <tile/>
   <tile/>
   <tile/>
   <tile/>
   <tile/>
   <tile/>
   <tile/>
   <tile/>
   <tile gid="28"/>
   <tile gid="2147483652"/>
   <tile gid="2147483650"/>
   <tile/>
   <tile/>
   <tile/>
   <tile/>
   <tile/>
   <tile/>
   <tile/>
   <tile gid="57"/>
   <tile gid="58"/>
   <tile gid="29"/>
   <tile gid="29"/>
   <tile gid="2147483706"/>
   <tile gid="2147483705"/>
   <tile/>
   <tile/>
   <tile/>
   <tile/>
   <tile gid="2147483707"/>
   <tile gid="24"/>
   <tile gid="58"/>
   <tile gid="24"/>
   <tile gid="58"/>
   <tile gid="59"/>
   <tile/>
   <tile/>
   <tile/>
   <tile/>
   <tile gid="2147483707"/>
   <tile gid="2147483706"/>
   <tile gid="58"/>
   <tile gid="2147483706"/>
   <tile gid="58"/>
   <tile gid="59"/>
   <tile/>
   <tile/>
   <tile/>
   <tile/>
   <tile/>
   <tile/>
   <tile/>
   <tile/>
   <tile/>
   <tile/>
   <tile/>
   <tile/>
   <tile/>
   <tile/>
   <tile/>
   <tile/>
   <tile/>
   <tile/>
   <tile/>
   <tile/>
   <tile/>
   <tile/>
   <tile/>
   <tile/>
   <tile/>
   <tile/>
   <tile/>
   <tile/>
   <tile/>
   <tile/>
   <tile/>
   <tile/>
   <tile/>
   <tile/>
   <tile/>
   <tile/>
   <tile/>
   <tile/>
   <tile/>
   <tile/>
   <tile/>
   <tile/>
   <tile/>
   <tile/>
   <tile/>
   <tile/>
   <tile/>
   <tile/>
   <tile/>
   <tile gid="36"/>
   <tile gid="36"/>
   <tile gid="32"/>
   <tile gid="31"/>
   <tile gid="39"/>
   <tile gid="29"/>
   <tile gid="29"/>
   <tile gid="29"/>
   <tile gid="29"/>
   <tile gid="29"/>
   <tile gid="29"/>
   <tile gid="29"/>
   <tile gid="29"/>
   <tile gid="29"/>
   <tile gid="30"/>
   <tile/>
   <tile/>
   <tile/>
   <tile/>
   <tile gid="28"/>
   <tile gid="29"/>
   <tile gid="29"/>
   <tile gid="15"/>
   <tile/>
   <tile/>
   <tile/>
   <tile/>
   <tile/>
   <tile/>
   <tile/>
   <tile/>
   <tile/>
   <tile/>
   <tile/>
   <tile/>
   <tile/>
   <tile/>
   <tile/>
   <tile/>
   <tile/>
   <tile/>
   <tile/>
   <tile/>
   <tile/>
   <tile/>
   <tile/>
   <tile/>
   <tile/>
   <tile/>
   <tile/>
   <tile/>
   <tile/>
   <tile/>
   <tile/>
   <tile/>
   <tile/>
   <tile/>
   <tile gid="41"/>
   <tile gid="45"/>
   <tile gid="2147483655"/>
   <tile gid="29"/>
   <tile gid="24"/>
   <tile gid="24"/>
   <tile gid="24"/>
   <tile gid="24"/>
   <tile gid="29"/>
   <tile gid="15"/>
   <tile/>
   <tile/>
   <tile/>
   <tile/>
   <tile/>
   <tile/>
   <tile/>
   <tile/>
   <tile/>
   <tile/>
   <tile/>
   <tile/>
   <tile/>
   <tile/>
   <tile/>
   <tile/>
   <tile/>
   <tile/>
   <tile/>
   <tile/>
   <tile/>
   <tile/>
   <tile/>
   <tile/>
   <tile gid="36"/>
   <tile gid="39"/>
   <tile gid="2147483649"/>
   <tile gid="29"/>
   <tile gid="29"/>
   <tile gid="29"/>
   <tile gid="24"/>
   <tile gid="30"/>
   <tile gid="73"/>
   <tile gid="74"/>
   <tile gid="75"/>
   <tile gid="75"/>
   <tile gid="75"/>
   <tile gid="75"/>
   <tile gid="75"/>
   <tile gid="75"/>
   <tile gid="75"/>
   <tile gid="75"/>
   <tile gid="75"/>
   <tile gid="75"/>
   <tile gid="75"/>
   <tile gid="75"/>
   <tile gid="75"/>
   <tile gid="75"/>
   <tile gid="75"/>
   <tile gid="75"/>
   <tile gid="75"/>
   <tile gid="75"/>
   <tile gid="75"/>
   <tile gid="75"/>
   <tile gid="75"/>
   <tile gid="75"/>
   <tile gid="75"/>
   <tile gid="75"/>
   <tile gid="75"/>
   <tile gid="75"/>
   <tile gid="76"/>
   <tile gid="77"/>
   <tile gid="28"/>
   <tile gid="24"/>
   <tile gid="29"/>
   <tile gid="24"/>
   <tile gid="30"/>
   <tile/>
   <tile/>
   <tile/>
   <tile/>
   <tile gid="28"/>
   <tile gid="29"/>
   <tile gid="29"/>
   <tile gid="29"/>
   <tile gid="24"/>
   <tile gid="29"/>
   <tile gid="29"/>
   <tile gid="29"/>
   <tile gid="29"/>
   <tile gid="24"/>
   <tile gid="29"/>
   <tile gid="29"/>
   <tile gid="29"/>
   <tile gid="29"/>
   <tile gid="29"/>
   <tile gid="24"/>
   <tile gid="29"/>
   <tile gid="29"/>
   <tile gid="29"/>
   <tile gid="24"/>
   <tile gid="24"/>
   <tile gid="29"/>
   <tile gid="29"/>
   <tile gid="29"/>
   <tile gid="24"/>
   <tile gid="29"/>
   <tile gid="29"/>
   <tile gid="24"/>
   <tile gid="29"/>
   <tile gid="29"/>
   <tile gid="24"/>
   <tile gid="29"/>
   <tile gid="29"/>
   <tile gid="24"/>
   <tile gid="29"/>
   <tile gid="24"/>
   <tile gid="29"/>
   <tile gid="29"/>
   <tile gid="7"/>
  </data>
 </layer>
 <layer id="33" name="Agua-Front" width="176" height="21" locked="1">
  <properties>
   <property name="Draw" type="bool" value="true"/>
   <property name="Front" type="bool" value="true"/>
  </properties>
  <data>
   <tile/>
   <tile/>
   <tile/>
   <tile/>
   <tile/>
   <tile/>
   <tile/>
   <tile/>
   <tile/>
   <tile/>
   <tile/>
   <tile/>
   <tile/>
   <tile/>
   <tile/>
   <tile/>
   <tile/>
   <tile/>
   <tile/>
   <tile/>
   <tile/>
   <tile/>
   <tile/>
   <tile/>
   <tile/>
   <tile/>
   <tile/>
   <tile/>
   <tile/>
   <tile/>
   <tile/>
   <tile/>
   <tile/>
   <tile/>
   <tile/>
   <tile/>
   <tile/>
   <tile/>
   <tile/>
   <tile/>
   <tile/>
   <tile/>
   <tile/>
   <tile/>
   <tile/>
   <tile/>
   <tile/>
   <tile/>
   <tile/>
   <tile/>
   <tile/>
   <tile/>
   <tile/>
   <tile/>
   <tile/>
   <tile/>
   <tile/>
   <tile/>
   <tile/>
   <tile/>
   <tile/>
   <tile/>
   <tile/>
   <tile/>
   <tile/>
   <tile/>
   <tile/>
   <tile/>
   <tile/>
   <tile/>
   <tile/>
   <tile/>
   <tile/>
   <tile/>
   <tile/>
   <tile/>
   <tile/>
   <tile/>
   <tile/>
   <tile/>
   <tile/>
   <tile/>
   <tile/>
   <tile/>
   <tile/>
   <tile/>
   <tile/>
   <tile/>
   <tile/>
   <tile/>
   <tile/>
   <tile/>
   <tile/>
   <tile/>
   <tile/>
   <tile/>
   <tile/>
   <tile/>
   <tile/>
   <tile/>
   <tile/>
   <tile/>
   <tile/>
   <tile/>
   <tile/>
   <tile/>
   <tile/>
   <tile/>
   <tile/>
   <tile/>
   <tile/>
   <tile/>
   <tile/>
   <tile/>
   <tile/>
   <tile/>
   <tile/>
   <tile/>
   <tile/>
   <tile/>
   <tile/>
   <tile/>
   <tile/>
   <tile/>
   <tile/>
   <tile/>
   <tile/>
   <tile/>
   <tile/>
   <tile/>
   <tile/>
   <tile/>
   <tile/>
   <tile/>
   <tile/>
   <tile/>
   <tile/>
   <tile/>
   <tile/>
   <tile/>
   <tile/>
   <tile/>
   <tile/>
   <tile/>
   <tile/>
   <tile/>
   <tile/>
   <tile/>
   <tile/>
   <tile/>
   <tile/>
   <tile/>
   <tile/>
   <tile/>
   <tile/>
   <tile/>
   <tile/>
   <tile/>
   <tile/>
   <tile/>
   <tile/>
   <tile/>
   <tile/>
   <tile/>
   <tile/>
   <tile/>
   <tile/>
   <tile/>
   <tile/>
   <tile/>
   <tile/>
   <tile/>
   <tile/>
   <tile/>
   <tile/>
   <tile/>
   <tile/>
   <tile/>
   <tile/>
   <tile/>
   <tile/>
   <tile/>
   <tile/>
   <tile/>
   <tile/>
   <tile/>
   <tile/>
   <tile/>
   <tile/>
   <tile/>
   <tile/>
   <tile/>
   <tile/>
   <tile/>
   <tile/>
   <tile/>
   <tile/>
   <tile/>
   <tile/>
   <tile/>
   <tile/>
   <tile/>
   <tile/>
   <tile/>
   <tile/>
   <tile/>
   <tile/>
   <tile/>
   <tile/>
   <tile/>
   <tile/>
   <tile/>
   <tile/>
   <tile/>
   <tile/>
   <tile/>
   <tile/>
   <tile/>
   <tile/>
   <tile/>
   <tile/>
   <tile/>
   <tile/>
   <tile/>
   <tile/>
   <tile/>
   <tile/>
   <tile/>
   <tile/>
   <tile/>
   <tile/>
   <tile/>
   <tile/>
   <tile/>
   <tile/>
   <tile/>
   <tile/>
   <tile/>
   <tile/>
   <tile/>
   <tile/>
   <tile/>
   <tile/>
   <tile/>
   <tile/>
   <tile/>
   <tile/>
   <tile/>
   <tile/>
   <tile/>
   <tile/>
   <tile/>
   <tile/>
   <tile/>
   <tile/>
   <tile/>
   <tile/>
   <tile/>
   <tile/>
   <tile/>
   <tile/>
   <tile/>
   <tile/>
   <tile/>
   <tile/>
   <tile/>
   <tile/>
   <tile/>
   <tile/>
   <tile/>
   <tile/>
   <tile/>
   <tile/>
   <tile/>
   <tile/>
   <tile/>
   <tile/>
   <tile/>
   <tile/>
   <tile/>
   <tile/>
   <tile/>
   <tile/>
   <tile/>
   <tile/>
   <tile/>
   <tile/>
   <tile/>
   <tile/>
   <tile/>
   <tile/>
   <tile/>
   <tile/>
   <tile/>
   <tile/>
   <tile/>
   <tile/>
   <tile/>
   <tile/>
   <tile/>
   <tile/>
   <tile/>
   <tile/>
   <tile/>
   <tile/>
   <tile/>
   <tile/>
   <tile/>
   <tile/>
   <tile/>
   <tile/>
   <tile/>
   <tile/>
   <tile/>
   <tile/>
   <tile/>
   <tile/>
   <tile/>
   <tile/>
   <tile/>
   <tile/>
   <tile/>
   <tile/>
   <tile/>
   <tile/>
   <tile/>
   <tile/>
   <tile/>
   <tile/>
   <tile/>
   <tile/>
   <tile/>
   <tile/>
   <tile/>
   <tile/>
   <tile/>
   <tile/>
   <tile/>
   <tile/>
   <tile/>
   <tile/>
   <tile/>
   <tile/>
   <tile/>
   <tile/>
   <tile/>
   <tile/>
   <tile/>
   <tile/>
   <tile/>
   <tile/>
   <tile/>
   <tile/>
   <tile/>
   <tile/>
   <tile/>
   <tile/>
   <tile/>
   <tile/>
   <tile/>
   <tile/>
   <tile/>
   <tile/>
   <tile/>
   <tile/>
   <tile/>
   <tile/>
   <tile/>
   <tile/>
   <tile/>
   <tile/>
   <tile/>
   <tile/>
   <tile/>
   <tile/>
   <tile/>
   <tile/>
   <tile/>
   <tile/>
   <tile/>
   <tile/>
   <tile/>
   <tile/>
   <tile/>
   <tile/>
   <tile/>
   <tile/>
   <tile/>
   <tile/>
   <tile/>
   <tile/>
   <tile/>
   <tile/>
   <tile/>
   <tile/>
   <tile/>
   <tile/>
   <tile/>
   <tile/>
   <tile/>
   <tile/>
   <tile/>
   <tile/>
   <tile/>
   <tile/>
   <tile/>
   <tile/>
   <tile/>
   <tile/>
   <tile/>
   <tile/>
   <tile/>
   <tile/>
   <tile/>
   <tile/>
   <tile/>
   <tile/>
   <tile/>
   <tile/>
   <tile/>
   <tile/>
   <tile/>
   <tile/>
   <tile/>
   <tile/>
   <tile/>
   <tile/>
   <tile/>
   <tile/>
   <tile/>
   <tile/>
   <tile/>
   <tile/>
   <tile/>
   <tile/>
   <tile/>
   <tile/>
   <tile/>
   <tile/>
   <tile/>
   <tile/>
   <tile/>
   <tile/>
   <tile/>
   <tile/>
   <tile/>
   <tile/>
   <tile/>
   <tile/>
   <tile/>
   <tile/>
   <tile/>
   <tile/>
   <tile/>
   <tile/>
   <tile/>
   <tile/>
   <tile/>
   <tile/>
   <tile/>
   <tile/>
   <tile/>
   <tile/>
   <tile/>
   <tile/>
   <tile/>
   <tile/>
   <tile/>
   <tile/>
   <tile/>
   <tile/>
   <tile/>
   <tile/>
   <tile/>
   <tile/>
   <tile/>
   <tile/>
   <tile/>
   <tile/>
   <tile/>
   <tile/>
   <tile/>
   <tile/>
   <tile/>
   <tile/>
   <tile/>
   <tile/>
   <tile/>
   <tile/>
   <tile/>
   <tile/>
   <tile/>
   <tile/>
   <tile/>
   <tile/>
   <tile/>
   <tile/>
   <tile/>
   <tile/>
   <tile/>
   <tile/>
   <tile/>
   <tile/>
   <tile/>
   <tile/>
   <tile/>
   <tile/>
   <tile/>
   <tile/>
   <tile/>
   <tile/>
   <tile/>
   <tile/>
   <tile/>
   <tile/>
   <tile/>
   <tile/>
   <tile/>
   <tile/>
   <tile/>
   <tile/>
   <tile/>
   <tile/>
   <tile/>
   <tile/>
   <tile/>
   <tile/>
   <tile/>
   <tile/>
   <tile/>
   <tile/>
   <tile/>
   <tile/>
   <tile/>
   <tile/>
   <tile/>
   <tile/>
   <tile/>
   <tile/>
   <tile/>
   <tile/>
   <tile/>
   <tile/>
   <tile/>
   <tile/>
   <tile/>
   <tile/>
   <tile/>
   <tile/>
   <tile/>
   <tile/>
   <tile/>
   <tile/>
   <tile/>
   <tile/>
   <tile/>
   <tile/>
   <tile/>
   <tile/>
   <tile/>
   <tile/>
   <tile/>
   <tile/>
   <tile/>
   <tile/>
   <tile/>
   <tile/>
   <tile/>
   <tile/>
   <tile/>
   <tile/>
   <tile/>
   <tile/>
   <tile/>
   <tile/>
   <tile/>
   <tile/>
   <tile/>
   <tile/>
   <tile/>
   <tile/>
   <tile/>
   <tile/>
   <tile/>
   <tile/>
   <tile/>
   <tile/>
   <tile/>
   <tile/>
   <tile/>
   <tile/>
   <tile/>
   <tile/>
   <tile/>
   <tile/>
   <tile/>
   <tile/>
   <tile/>
   <tile/>
   <tile/>
   <tile/>
   <tile/>
   <tile/>
   <tile/>
   <tile/>
   <tile/>
   <tile/>
   <tile/>
   <tile/>
   <tile/>
   <tile/>
   <tile/>
   <tile/>
   <tile/>
   <tile/>
   <tile/>
   <tile/>
   <tile/>
   <tile/>
   <tile/>
   <tile/>
   <tile/>
   <tile/>
   <tile/>
   <tile/>
   <tile/>
   <tile/>
   <tile/>
   <tile/>
   <tile/>
   <tile/>
   <tile/>
   <tile/>
   <tile/>
   <tile/>
   <tile/>
   <tile/>
   <tile/>
   <tile/>
   <tile/>
   <tile/>
   <tile/>
   <tile/>
   <tile/>
   <tile/>
   <tile/>
   <tile/>
   <tile/>
   <tile/>
   <tile/>
   <tile/>
   <tile/>
   <tile/>
   <tile/>
   <tile/>
   <tile/>
   <tile/>
   <tile/>
   <tile/>
   <tile/>
   <tile/>
   <tile/>
   <tile/>
   <tile/>
   <tile/>
   <tile/>
   <tile/>
   <tile/>
   <tile/>
   <tile/>
   <tile/>
   <tile/>
   <tile/>
   <tile/>
   <tile/>
   <tile/>
   <tile/>
   <tile/>
   <tile/>
   <tile/>
   <tile/>
   <tile/>
   <tile/>
   <tile/>
   <tile/>
   <tile/>
   <tile/>
   <tile/>
   <tile/>
   <tile/>
   <tile/>
   <tile/>
   <tile/>
   <tile/>
   <tile/>
   <tile/>
   <tile/>
   <tile/>
   <tile/>
   <tile/>
   <tile/>
   <tile/>
   <tile/>
   <tile/>
   <tile/>
   <tile/>
   <tile/>
   <tile/>
   <tile/>
   <tile/>
   <tile/>
   <tile/>
   <tile/>
   <tile/>
   <tile/>
   <tile/>
   <tile/>
   <tile/>
   <tile/>
   <tile/>
   <tile/>
   <tile/>
   <tile/>
   <tile/>
   <tile/>
   <tile/>
   <tile/>
   <tile/>
   <tile/>
   <tile/>
   <tile/>
   <tile/>
   <tile/>
   <tile/>
   <tile/>
   <tile/>
   <tile/>
   <tile/>
   <tile/>
   <tile/>
   <tile/>
   <tile/>
   <tile/>
   <tile/>
   <tile/>
   <tile/>
   <tile/>
   <tile/>
   <tile/>
   <tile/>
   <tile/>
   <tile/>
   <tile/>
   <tile/>
   <tile/>
   <tile/>
   <tile/>
   <tile/>
   <tile/>
   <tile/>
   <tile/>
   <tile/>
   <tile/>
   <tile/>
   <tile/>
   <tile/>
   <tile/>
   <tile/>
   <tile/>
   <tile/>
   <tile/>
   <tile/>
   <tile/>
   <tile/>
   <tile/>
   <tile/>
   <tile/>
   <tile/>
   <tile/>
   <tile/>
   <tile/>
   <tile/>
   <tile/>
   <tile/>
   <tile/>
   <tile/>
   <tile/>
   <tile/>
   <tile/>
   <tile/>
   <tile/>
   <tile/>
   <tile/>
   <tile/>
   <tile/>
   <tile/>
   <tile/>
   <tile/>
   <tile/>
   <tile/>
   <tile/>
   <tile/>
   <tile/>
   <tile/>
   <tile/>
   <tile/>
   <tile/>
   <tile/>
   <tile/>
   <tile/>
   <tile/>
   <tile/>
   <tile/>
   <tile/>
   <tile/>
   <tile/>
   <tile/>
   <tile/>
   <tile/>
   <tile/>
   <tile/>
   <tile/>
   <tile/>
   <tile/>
   <tile/>
   <tile/>
   <tile/>
   <tile/>
   <tile/>
   <tile/>
   <tile/>
   <tile/>
   <tile/>
   <tile/>
   <tile/>
   <tile/>
   <tile/>
   <tile/>
   <tile/>
   <tile/>
   <tile/>
   <tile/>
   <tile/>
   <tile/>
   <tile/>
   <tile/>
   <tile/>
   <tile/>
   <tile/>
   <tile/>
   <tile/>
   <tile/>
   <tile/>
   <tile/>
   <tile/>
   <tile/>
   <tile/>
   <tile/>
   <tile/>
   <tile/>
   <tile/>
   <tile/>
   <tile/>
   <tile/>
   <tile/>
   <tile/>
   <tile/>
   <tile/>
   <tile/>
   <tile/>
   <tile/>
   <tile/>
   <tile/>
   <tile/>
   <tile/>
   <tile/>
   <tile/>
   <tile/>
   <tile/>
   <tile/>
   <tile/>
   <tile/>
   <tile/>
   <tile/>
   <tile/>
   <tile/>
   <tile/>
   <tile/>
   <tile/>
   <tile/>
   <tile/>
   <tile/>
   <tile/>
   <tile/>
   <tile/>
   <tile/>
   <tile/>
   <tile/>
   <tile/>
   <tile/>
   <tile/>
   <tile/>
   <tile/>
   <tile/>
   <tile/>
   <tile/>
   <tile/>
   <tile/>
   <tile/>
   <tile/>
   <tile/>
   <tile/>
   <tile/>
   <tile/>
   <tile/>
   <tile/>
   <tile/>
   <tile/>
   <tile/>
   <tile/>
   <tile/>
   <tile/>
   <tile/>
   <tile/>
   <tile/>
   <tile/>
   <tile/>
   <tile/>
   <tile/>
   <tile/>
   <tile/>
   <tile/>
   <tile/>
   <tile/>
   <tile/>
   <tile/>
   <tile/>
   <tile/>
   <tile/>
   <tile/>
   <tile/>
   <tile/>
   <tile/>
   <tile/>
   <tile/>
   <tile/>
   <tile/>
   <tile/>
   <tile/>
   <tile/>
   <tile/>
   <tile/>
   <tile/>
   <tile/>
   <tile/>
   <tile/>
   <tile/>
   <tile/>
   <tile/>
   <tile/>
   <tile/>
   <tile/>
   <tile/>
   <tile/>
   <tile/>
   <tile/>
   <tile/>
   <tile/>
   <tile/>
   <tile/>
   <tile/>
   <tile/>
   <tile/>
   <tile/>
   <tile/>
   <tile/>
   <tile/>
   <tile/>
   <tile/>
   <tile/>
   <tile/>
   <tile/>
   <tile/>
   <tile/>
   <tile/>
   <tile/>
   <tile/>
   <tile/>
   <tile/>
   <tile/>
   <tile/>
   <tile/>
   <tile/>
   <tile/>
   <tile/>
   <tile/>
   <tile/>
   <tile/>
   <tile/>
   <tile/>
   <tile/>
   <tile/>
   <tile/>
   <tile/>
   <tile/>
   <tile/>
   <tile/>
   <tile/>
   <tile/>
   <tile/>
   <tile/>
   <tile/>
   <tile/>
   <tile/>
   <tile/>
   <tile/>
   <tile/>
   <tile/>
   <tile/>
   <tile/>
   <tile/>
   <tile/>
   <tile/>
   <tile/>
   <tile/>
   <tile/>
   <tile/>
   <tile/>
   <tile/>
   <tile/>
   <tile/>
   <tile/>
   <tile/>
   <tile/>
   <tile/>
   <tile/>
   <tile/>
   <tile/>
   <tile/>
   <tile/>
   <tile/>
   <tile/>
   <tile/>
   <tile/>
   <tile/>
   <tile/>
   <tile/>
   <tile/>
   <tile/>
   <tile/>
   <tile/>
   <tile/>
   <tile/>
   <tile/>
   <tile/>
   <tile/>
   <tile/>
   <tile/>
   <tile/>
   <tile/>
   <tile/>
   <tile/>
   <tile/>
   <tile/>
   <tile/>
   <tile/>
   <tile/>
   <tile/>
   <tile/>
   <tile/>
   <tile/>
   <tile/>
   <tile/>
   <tile/>
   <tile/>
   <tile/>
   <tile/>
   <tile/>
   <tile/>
   <tile/>
   <tile/>
   <tile/>
   <tile/>
   <tile/>
   <tile/>
   <tile/>
   <tile/>
   <tile/>
   <tile/>
   <tile/>
   <tile/>
   <tile/>
   <tile/>
   <tile/>
   <tile/>
   <tile/>
   <tile/>
   <tile/>
   <tile/>
   <tile/>
   <tile/>
   <tile/>
   <tile/>
   <tile/>
   <tile/>
   <tile/>
   <tile/>
   <tile/>
   <tile/>
   <tile/>
   <tile/>
   <tile/>
   <tile/>
   <tile/>
   <tile/>
   <tile/>
   <tile/>
   <tile/>
   <tile/>
   <tile/>
   <tile/>
   <tile/>
   <tile/>
   <tile/>
   <tile/>
   <tile/>
   <tile/>
   <tile/>
   <tile/>
   <tile/>
   <tile/>
   <tile/>
   <tile/>
   <tile/>
   <tile/>
   <tile/>
   <tile/>
   <tile/>
   <tile/>
   <tile/>
   <tile/>
   <tile/>
   <tile/>
   <tile/>
   <tile/>
   <tile/>
   <tile/>
   <tile/>
   <tile/>
   <tile/>
   <tile/>
   <tile/>
   <tile/>
   <tile/>
   <tile/>
   <tile/>
   <tile/>
   <tile/>
   <tile/>
   <tile/>
   <tile/>
   <tile/>
   <tile/>
   <tile/>
   <tile/>
   <tile/>
   <tile/>
   <tile/>
   <tile/>
   <tile/>
   <tile/>
   <tile/>
   <tile/>
   <tile/>
   <tile/>
   <tile/>
   <tile/>
   <tile/>
   <tile/>
   <tile/>
   <tile/>
   <tile/>
   <tile/>
   <tile/>
   <tile/>
   <tile/>
   <tile/>
   <tile/>
   <tile/>
   <tile/>
   <tile/>
   <tile/>
   <tile/>
   <tile/>
   <tile/>
   <tile/>
   <tile/>
   <tile/>
   <tile/>
   <tile/>
   <tile/>
   <tile/>
   <tile/>
   <tile/>
   <tile/>
   <tile/>
   <tile/>
   <tile/>
   <tile/>
   <tile/>
   <tile/>
   <tile/>
   <tile/>
   <tile/>
   <tile/>
   <tile/>
   <tile/>
   <tile/>
   <tile/>
   <tile/>
   <tile/>
   <tile/>
   <tile/>
   <tile/>
   <tile/>
   <tile/>
   <tile/>
   <tile/>
   <tile/>
   <tile/>
   <tile/>
   <tile/>
   <tile/>
   <tile/>
   <tile/>
   <tile/>
   <tile/>
   <tile/>
   <tile/>
   <tile/>
   <tile/>
   <tile/>
   <tile/>
   <tile/>
   <tile/>
   <tile/>
   <tile/>
   <tile/>
   <tile/>
   <tile/>
   <tile/>
   <tile/>
   <tile/>
   <tile/>
   <tile/>
   <tile/>
   <tile/>
   <tile/>
   <tile/>
   <tile/>
   <tile/>
   <tile/>
   <tile/>
   <tile/>
   <tile/>
   <tile/>
   <tile/>
   <tile/>
   <tile/>
   <tile/>
   <tile/>
   <tile/>
   <tile/>
   <tile/>
   <tile/>
   <tile/>
   <tile/>
   <tile/>
   <tile/>
   <tile/>
   <tile/>
   <tile/>
   <tile/>
   <tile/>
   <tile/>
   <tile/>
   <tile/>
   <tile/>
   <tile/>
   <tile/>
   <tile/>
   <tile/>
   <tile/>
   <tile/>
   <tile/>
   <tile/>
   <tile/>
   <tile/>
   <tile/>
   <tile/>
   <tile/>
   <tile/>
   <tile/>
   <tile/>
   <tile/>
   <tile/>
   <tile/>
   <tile/>
   <tile/>
   <tile/>
   <tile/>
   <tile/>
   <tile/>
   <tile/>
   <tile/>
   <tile/>
   <tile/>
   <tile/>
   <tile/>
   <tile/>
   <tile/>
   <tile/>
   <tile/>
   <tile/>
   <tile/>
   <tile/>
   <tile/>
   <tile/>
   <tile/>
   <tile/>
   <tile/>
   <tile/>
   <tile/>
   <tile/>
   <tile/>
   <tile/>
   <tile/>
   <tile/>
   <tile/>
   <tile/>
   <tile/>
   <tile/>
   <tile/>
   <tile/>
   <tile/>
   <tile/>
   <tile/>
   <tile/>
   <tile/>
   <tile/>
   <tile/>
   <tile/>
   <tile/>
   <tile/>
   <tile/>
   <tile/>
   <tile/>
   <tile/>
   <tile/>
   <tile/>
   <tile/>
   <tile/>
   <tile/>
   <tile/>
   <tile/>
   <tile/>
   <tile/>
   <tile/>
   <tile/>
   <tile/>
   <tile/>
   <tile/>
   <tile/>
   <tile/>
   <tile/>
   <tile/>
   <tile/>
   <tile/>
   <tile/>
   <tile/>
   <tile/>
   <tile/>
   <tile/>
   <tile/>
   <tile/>
   <tile/>
   <tile/>
   <tile/>
   <tile/>
   <tile/>
   <tile/>
   <tile/>
   <tile/>
   <tile/>
   <tile/>
   <tile/>
   <tile/>
   <tile/>
   <tile/>
   <tile/>
   <tile/>
   <tile/>
   <tile/>
   <tile/>
   <tile/>
   <tile/>
   <tile/>
   <tile/>
   <tile/>
   <tile/>
   <tile/>
   <tile/>
   <tile/>
   <tile/>
   <tile/>
   <tile/>
   <tile/>
   <tile/>
   <tile/>
   <tile/>
   <tile/>
   <tile/>
   <tile/>
   <tile/>
   <tile/>
   <tile/>
   <tile/>
   <tile/>
   <tile/>
   <tile/>
   <tile/>
   <tile/>
   <tile/>
   <tile/>
   <tile/>
   <tile/>
   <tile/>
   <tile/>
   <tile/>
   <tile/>
   <tile/>
   <tile/>
   <tile/>
   <tile/>
   <tile/>
   <tile/>
   <tile/>
   <tile/>
   <tile/>
   <tile/>
   <tile/>
   <tile/>
   <tile/>
   <tile/>
   <tile/>
   <tile/>
   <tile/>
   <tile/>
   <tile/>
   <tile/>
   <tile/>
   <tile/>
   <tile/>
   <tile/>
   <tile/>
   <tile/>
   <tile/>
   <tile/>
   <tile/>
   <tile/>
   <tile/>
   <tile/>
   <tile/>
   <tile/>
   <tile/>
   <tile/>
   <tile/>
   <tile/>
   <tile/>
   <tile/>
   <tile/>
   <tile/>
   <tile/>
   <tile/>
   <tile/>
   <tile/>
   <tile/>
   <tile/>
   <tile/>
   <tile/>
   <tile/>
   <tile/>
   <tile/>
   <tile/>
   <tile/>
   <tile/>
   <tile/>
   <tile/>
   <tile/>
   <tile/>
   <tile/>
   <tile/>
   <tile/>
   <tile/>
   <tile/>
   <tile/>
   <tile/>
   <tile/>
   <tile/>
   <tile/>
   <tile/>
   <tile/>
   <tile/>
   <tile/>
   <tile/>
   <tile/>
   <tile/>
   <tile/>
   <tile/>
   <tile/>
   <tile/>
   <tile/>
   <tile/>
   <tile/>
   <tile/>
   <tile/>
   <tile/>
   <tile/>
   <tile/>
   <tile/>
   <tile/>
   <tile/>
   <tile/>
   <tile/>
   <tile/>
   <tile/>
   <tile/>
   <tile/>
   <tile/>
   <tile/>
   <tile/>
   <tile/>
   <tile/>
   <tile/>
   <tile/>
   <tile/>
   <tile/>
   <tile/>
   <tile/>
   <tile/>
   <tile/>
   <tile/>
   <tile/>
   <tile/>
   <tile/>
   <tile/>
   <tile/>
   <tile/>
   <tile/>
   <tile/>
   <tile/>
   <tile/>
   <tile/>
   <tile/>
   <tile/>
   <tile/>
   <tile/>
   <tile/>
   <tile/>
   <tile/>
   <tile/>
   <tile/>
   <tile/>
   <tile/>
   <tile/>
   <tile/>
   <tile/>
   <tile/>
   <tile/>
   <tile/>
   <tile/>
   <tile/>
   <tile/>
   <tile/>
   <tile/>
   <tile/>
   <tile/>
   <tile/>
   <tile/>
   <tile/>
   <tile/>
   <tile/>
   <tile/>
   <tile/>
   <tile/>
   <tile/>
   <tile/>
   <tile/>
   <tile/>
   <tile/>
   <tile/>
   <tile/>
   <tile/>
   <tile/>
   <tile/>
   <tile/>
   <tile/>
   <tile/>
   <tile/>
   <tile/>
   <tile/>
   <tile/>
   <tile/>
   <tile/>
   <tile/>
   <tile/>
   <tile/>
   <tile/>
   <tile/>
   <tile/>
   <tile/>
   <tile/>
   <tile/>
   <tile/>
   <tile/>
   <tile/>
   <tile/>
   <tile/>
   <tile/>
   <tile/>
   <tile/>
   <tile/>
   <tile/>
   <tile/>
   <tile/>
   <tile/>
   <tile/>
   <tile/>
   <tile/>
   <tile/>
   <tile/>
   <tile/>
   <tile/>
   <tile/>
   <tile/>
   <tile/>
   <tile/>
   <tile/>
   <tile/>
   <tile/>
   <tile/>
   <tile/>
   <tile/>
   <tile/>
   <tile/>
   <tile/>
   <tile/>
   <tile/>
   <tile/>
   <tile/>
   <tile/>
   <tile/>
   <tile/>
   <tile/>
   <tile/>
   <tile/>
   <tile/>
   <tile/>
   <tile/>
   <tile/>
   <tile/>
   <tile/>
   <tile/>
   <tile/>
   <tile/>
   <tile/>
   <tile/>
   <tile/>
   <tile/>
   <tile/>
   <tile/>
   <tile/>
   <tile/>
   <tile/>
   <tile/>
   <tile/>
   <tile/>
   <tile/>
   <tile/>
   <tile/>
   <tile/>
   <tile/>
   <tile/>
   <tile/>
   <tile/>
   <tile/>
   <tile/>
   <tile/>
   <tile/>
   <tile/>
   <tile/>
   <tile/>
   <tile/>
   <tile/>
   <tile/>
   <tile/>
   <tile/>
   <tile/>
   <tile/>
   <tile/>
   <tile/>
   <tile/>
   <tile/>
   <tile/>
   <tile/>
   <tile/>
   <tile/>
   <tile/>
   <tile/>
   <tile/>
   <tile/>
   <tile/>
   <tile/>
   <tile/>
   <tile/>
   <tile/>
   <tile/>
   <tile/>
   <tile/>
   <tile/>
   <tile/>
   <tile/>
   <tile/>
   <tile/>
   <tile/>
   <tile/>
   <tile/>
   <tile/>
   <tile/>
   <tile/>
   <tile/>
   <tile/>
   <tile/>
   <tile/>
   <tile/>
   <tile/>
   <tile/>
   <tile/>
   <tile/>
   <tile/>
   <tile/>
   <tile/>
   <tile/>
   <tile/>
   <tile/>
   <tile/>
   <tile/>
   <tile/>
   <tile/>
   <tile/>
   <tile/>
   <tile/>
   <tile/>
   <tile/>
   <tile/>
   <tile/>
   <tile/>
   <tile/>
   <tile/>
   <tile/>
   <tile/>
   <tile/>
   <tile/>
   <tile/>
   <tile/>
   <tile/>
   <tile/>
   <tile/>
   <tile/>
   <tile/>
   <tile/>
   <tile/>
   <tile/>
   <tile/>
   <tile/>
   <tile/>
   <tile/>
   <tile/>
   <tile/>
   <tile/>
   <tile/>
   <tile/>
   <tile/>
   <tile/>
   <tile/>
   <tile/>
   <tile/>
   <tile/>
   <tile/>
   <tile/>
   <tile/>
   <tile/>
   <tile/>
   <tile/>
   <tile/>
   <tile/>
   <tile/>
   <tile/>
   <tile/>
   <tile/>
   <tile/>
   <tile/>
   <tile/>
   <tile/>
   <tile/>
   <tile/>
   <tile/>
   <tile/>
   <tile/>
   <tile/>
   <tile/>
   <tile/>
   <tile/>
   <tile/>
   <tile/>
   <tile/>
   <tile/>
   <tile/>
   <tile/>
   <tile/>
   <tile/>
   <tile/>
   <tile/>
   <tile/>
   <tile/>
   <tile/>
   <tile/>
   <tile/>
   <tile/>
   <tile/>
   <tile/>
   <tile/>
   <tile/>
   <tile/>
   <tile/>
   <tile/>
   <tile/>
   <tile/>
   <tile/>
   <tile/>
   <tile/>
   <tile/>
   <tile/>
   <tile/>
   <tile/>
   <tile/>
   <tile/>
   <tile/>
   <tile/>
   <tile/>
   <tile/>
   <tile/>
   <tile/>
   <tile/>
   <tile/>
   <tile/>
   <tile/>
   <tile/>
   <tile/>
   <tile/>
   <tile/>
   <tile/>
   <tile/>
   <tile/>
   <tile/>
   <tile/>
   <tile/>
   <tile/>
   <tile/>
   <tile/>
   <tile/>
   <tile/>
   <tile/>
   <tile/>
   <tile/>
   <tile/>
   <tile/>
   <tile/>
   <tile/>
   <tile/>
   <tile/>
   <tile/>
   <tile/>
   <tile/>
   <tile/>
   <tile/>
   <tile/>
   <tile/>
   <tile/>
   <tile/>
   <tile/>
   <tile/>
   <tile/>
   <tile/>
   <tile/>
   <tile/>
   <tile/>
   <tile/>
   <tile/>
   <tile/>
   <tile/>
   <tile/>
   <tile/>
   <tile/>
   <tile/>
   <tile/>
   <tile/>
   <tile/>
   <tile/>
   <tile/>
   <tile/>
   <tile/>
   <tile/>
   <tile/>
   <tile/>
   <tile/>
   <tile/>
   <tile/>
   <tile/>
   <tile/>
   <tile/>
   <tile/>
   <tile/>
   <tile/>
   <tile/>
   <tile/>
   <tile/>
   <tile/>
   <tile/>
   <tile/>
   <tile/>
   <tile/>
   <tile/>
   <tile/>
   <tile/>
   <tile/>
   <tile/>
   <tile/>
   <tile/>
   <tile/>
   <tile/>
   <tile/>
   <tile/>
   <tile/>
   <tile/>
   <tile/>
   <tile/>
   <tile/>
   <tile/>
   <tile/>
   <tile/>
   <tile/>
   <tile/>
   <tile/>
   <tile/>
   <tile/>
   <tile/>
   <tile/>
   <tile/>
   <tile/>
   <tile/>
   <tile/>
   <tile/>
   <tile/>
   <tile/>
   <tile/>
   <tile/>
   <tile/>
   <tile/>
   <tile/>
   <tile/>
   <tile/>
   <tile/>
   <tile/>
   <tile/>
   <tile/>
   <tile/>
   <tile/>
   <tile/>
   <tile/>
   <tile/>
   <tile/>
   <tile/>
   <tile/>
   <tile/>
   <tile/>
   <tile/>
   <tile/>
   <tile/>
   <tile/>
   <tile/>
   <tile/>
   <tile/>
   <tile/>
   <tile/>
   <tile/>
   <tile/>
   <tile/>
   <tile/>
   <tile/>
   <tile/>
   <tile/>
   <tile/>
   <tile/>
   <tile/>
   <tile/>
   <tile/>
   <tile/>
   <tile/>
   <tile/>
   <tile/>
   <tile/>
   <tile/>
   <tile/>
   <tile/>
   <tile/>
   <tile/>
   <tile/>
   <tile/>
   <tile/>
   <tile/>
   <tile/>
   <tile/>
   <tile/>
   <tile/>
   <tile/>
   <tile/>
   <tile/>
   <tile/>
   <tile/>
   <tile/>
   <tile/>
   <tile/>
   <tile/>
   <tile/>
   <tile/>
   <tile/>
   <tile/>
   <tile/>
   <tile/>
   <tile/>
   <tile/>
   <tile/>
   <tile/>
   <tile/>
   <tile/>
   <tile/>
   <tile/>
   <tile/>
   <tile/>
   <tile/>
   <tile/>
   <tile/>
   <tile/>
   <tile/>
   <tile/>
   <tile/>
   <tile/>
   <tile/>
   <tile/>
   <tile/>
   <tile/>
   <tile/>
   <tile/>
   <tile/>
   <tile/>
   <tile/>
   <tile/>
   <tile/>
   <tile/>
   <tile/>
   <tile/>
   <tile/>
   <tile/>
   <tile/>
   <tile/>
   <tile/>
   <tile/>
   <tile/>
   <tile/>
   <tile/>
   <tile/>
   <tile/>
   <tile/>
   <tile/>
   <tile/>
   <tile/>
   <tile/>
   <tile/>
   <tile/>
   <tile/>
   <tile/>
   <tile/>
   <tile/>
   <tile/>
   <tile/>
   <tile/>
   <tile/>
   <tile/>
   <tile/>
   <tile/>
   <tile/>
   <tile/>
   <tile/>
   <tile/>
   <tile/>
   <tile/>
   <tile/>
   <tile/>
   <tile/>
   <tile/>
   <tile/>
   <tile/>
   <tile/>
   <tile/>
   <tile/>
   <tile/>
   <tile/>
   <tile/>
   <tile/>
   <tile/>
   <tile/>
   <tile/>
   <tile/>
   <tile/>
   <tile/>
   <tile/>
   <tile/>
   <tile/>
   <tile/>
   <tile/>
   <tile/>
   <tile/>
   <tile/>
   <tile/>
   <tile/>
   <tile/>
   <tile/>
   <tile/>
   <tile/>
   <tile/>
   <tile/>
   <tile/>
   <tile/>
   <tile/>
   <tile/>
   <tile/>
   <tile/>
   <tile/>
   <tile/>
   <tile/>
   <tile/>
   <tile/>
   <tile/>
   <tile/>
   <tile/>
   <tile/>
   <tile/>
   <tile/>
   <tile/>
   <tile/>
   <tile/>
   <tile/>
   <tile/>
   <tile/>
   <tile/>
   <tile/>
   <tile/>
   <tile/>
   <tile/>
   <tile/>
   <tile/>
   <tile/>
   <tile/>
   <tile/>
   <tile/>
   <tile/>
   <tile/>
   <tile/>
   <tile/>
   <tile/>
   <tile/>
   <tile/>
   <tile/>
   <tile/>
   <tile/>
   <tile/>
   <tile/>
   <tile/>
   <tile/>
   <tile/>
   <tile/>
   <tile/>
   <tile/>
   <tile/>
   <tile/>
   <tile/>
   <tile/>
   <tile/>
   <tile/>
   <tile/>
   <tile/>
   <tile/>
   <tile/>
   <tile/>
   <tile/>
   <tile/>
   <tile/>
   <tile/>
   <tile/>
   <tile/>
   <tile/>
   <tile/>
   <tile/>
   <tile/>
   <tile/>
   <tile/>
   <tile/>
   <tile/>
   <tile/>
   <tile/>
   <tile/>
   <tile/>
   <tile/>
   <tile/>
   <tile/>
   <tile/>
   <tile/>
   <tile/>
   <tile/>
   <tile/>
   <tile/>
   <tile/>
   <tile/>
   <tile/>
   <tile/>
   <tile/>
   <tile/>
   <tile/>
   <tile/>
   <tile/>
   <tile/>
   <tile/>
   <tile/>
   <tile/>
   <tile/>
   <tile/>
   <tile/>
   <tile/>
   <tile/>
   <tile/>
   <tile/>
   <tile/>
   <tile/>
   <tile/>
   <tile/>
   <tile/>
   <tile/>
   <tile/>
   <tile/>
   <tile/>
   <tile/>
   <tile/>
   <tile/>
   <tile/>
   <tile/>
   <tile/>
   <tile/>
   <tile/>
   <tile/>
   <tile/>
   <tile/>
   <tile/>
   <tile/>
   <tile/>
   <tile/>
   <tile/>
   <tile/>
   <tile/>
   <tile/>
   <tile/>
   <tile/>
   <tile/>
   <tile/>
   <tile/>
   <tile/>
   <tile/>
   <tile/>
   <tile/>
   <tile/>
   <tile/>
   <tile/>
   <tile/>
   <tile/>
   <tile/>
   <tile/>
   <tile/>
   <tile/>
   <tile/>
   <tile/>
   <tile/>
   <tile/>
   <tile/>
   <tile/>
   <tile/>
   <tile/>
   <tile/>
   <tile/>
   <tile/>
   <tile/>
   <tile/>
   <tile/>
   <tile/>
   <tile/>
   <tile/>
   <tile/>
   <tile/>
   <tile/>
   <tile/>
   <tile/>
   <tile/>
   <tile/>
   <tile/>
   <tile/>
   <tile/>
   <tile/>
   <tile/>
   <tile/>
   <tile/>
   <tile/>
   <tile/>
   <tile/>
   <tile/>
   <tile/>
   <tile/>
   <tile/>
   <tile/>
   <tile/>
   <tile/>
   <tile/>
   <tile/>
   <tile/>
   <tile/>
   <tile/>
   <tile/>
   <tile/>
   <tile/>
   <tile/>
   <tile/>
   <tile/>
   <tile/>
   <tile/>
   <tile/>
   <tile/>
   <tile/>
   <tile/>
   <tile/>
   <tile/>
   <tile/>
   <tile/>
   <tile/>
   <tile/>
   <tile/>
   <tile/>
   <tile/>
   <tile/>
   <tile/>
   <tile/>
   <tile/>
   <tile/>
   <tile/>
   <tile/>
   <tile/>
   <tile/>
   <tile/>
   <tile/>
   <tile/>
   <tile/>
   <tile/>
   <tile/>
   <tile/>
   <tile/>
   <tile/>
   <tile/>
   <tile/>
   <tile/>
   <tile/>
   <tile/>
   <tile/>
   <tile/>
   <tile/>
   <tile/>
   <tile/>
   <tile/>
   <tile/>
   <tile/>
   <tile/>
   <tile/>
   <tile/>
   <tile/>
   <tile/>
   <tile/>
   <tile/>
   <tile/>
   <tile/>
   <tile/>
   <tile/>
   <tile/>
   <tile/>
   <tile/>
   <tile/>
   <tile/>
   <tile/>
   <tile/>
   <tile/>
   <tile/>
   <tile/>
   <tile/>
   <tile/>
   <tile/>
   <tile/>
   <tile/>
   <tile/>
   <tile/>
   <tile/>
   <tile/>
   <tile/>
   <tile/>
   <tile/>
   <tile/>
   <tile/>
   <tile/>
   <tile/>
   <tile/>
   <tile/>
   <tile/>
   <tile/>
   <tile/>
   <tile/>
   <tile/>
   <tile/>
   <tile/>
   <tile/>
   <tile/>
   <tile/>
   <tile/>
   <tile/>
   <tile/>
   <tile/>
   <tile/>
   <tile/>
   <tile/>
   <tile/>
   <tile/>
   <tile/>
   <tile/>
   <tile/>
   <tile/>
   <tile/>
   <tile/>
   <tile/>
   <tile/>
   <tile/>
   <tile/>
   <tile/>
   <tile/>
   <tile/>
   <tile/>
   <tile/>
   <tile/>
   <tile/>
   <tile/>
   <tile/>
   <tile/>
   <tile/>
   <tile/>
   <tile/>
   <tile/>
   <tile/>
   <tile/>
   <tile/>
   <tile/>
   <tile/>
   <tile/>
   <tile/>
   <tile/>
   <tile/>
   <tile/>
   <tile/>
   <tile/>
   <tile/>
   <tile/>
   <tile/>
   <tile/>
   <tile/>
   <tile/>
   <tile/>
   <tile/>
   <tile/>
   <tile/>
   <tile/>
   <tile/>
   <tile/>
   <tile/>
   <tile/>
   <tile/>
   <tile/>
   <tile/>
   <tile/>
   <tile/>
   <tile/>
   <tile/>
   <tile/>
   <tile/>
   <tile/>
   <tile/>
   <tile/>
   <tile/>
   <tile/>
   <tile/>
   <tile/>
   <tile/>
   <tile/>
   <tile/>
   <tile/>
   <tile/>
   <tile/>
   <tile/>
   <tile/>
   <tile/>
   <tile/>
   <tile/>
   <tile/>
   <tile/>
   <tile/>
   <tile/>
   <tile/>
   <tile/>
   <tile/>
   <tile/>
   <tile/>
   <tile/>
   <tile/>
   <tile/>
   <tile/>
   <tile/>
   <tile/>
   <tile/>
   <tile/>
   <tile/>
   <tile/>
   <tile/>
   <tile/>
   <tile/>
   <tile/>
   <tile/>
   <tile/>
   <tile/>
   <tile/>
   <tile/>
   <tile/>
   <tile/>
   <tile/>
   <tile/>
   <tile/>
   <tile/>
   <tile/>
   <tile/>
   <tile/>
   <tile/>
   <tile/>
   <tile/>
   <tile/>
   <tile/>
   <tile/>
   <tile/>
   <tile/>
   <tile/>
   <tile/>
   <tile/>
   <tile/>
   <tile/>
   <tile/>
   <tile/>
   <tile/>
   <tile/>
   <tile/>
   <tile/>
   <tile/>
   <tile/>
   <tile/>
   <tile/>
   <tile/>
   <tile/>
   <tile/>
   <tile/>
   <tile/>
   <tile/>
   <tile/>
   <tile/>
   <tile/>
   <tile/>
   <tile/>
   <tile/>
   <tile/>
   <tile/>
   <tile/>
   <tile/>
   <tile/>
   <tile/>
   <tile/>
   <tile/>
   <tile/>
   <tile/>
   <tile/>
   <tile/>
   <tile/>
   <tile/>
   <tile/>
   <tile/>
   <tile/>
   <tile/>
   <tile/>
   <tile/>
   <tile/>
   <tile/>
   <tile/>
   <tile/>
   <tile/>
   <tile/>
   <tile/>
   <tile/>
   <tile/>
   <tile/>
   <tile/>
   <tile/>
   <tile/>
   <tile/>
   <tile/>
   <tile/>
   <tile/>
   <tile/>
   <tile/>
   <tile/>
   <tile/>
   <tile/>
   <tile/>
   <tile/>
   <tile/>
   <tile/>
   <tile/>
   <tile/>
   <tile/>
   <tile/>
   <tile/>
   <tile/>
   <tile/>
   <tile/>
   <tile/>
   <tile/>
   <tile/>
   <tile/>
   <tile/>
   <tile/>
   <tile/>
   <tile/>
   <tile/>
   <tile/>
   <tile/>
   <tile/>
   <tile/>
   <tile/>
   <tile/>
   <tile/>
   <tile/>
   <tile/>
   <tile/>
   <tile/>
   <tile/>
   <tile/>
   <tile/>
   <tile/>
   <tile/>
   <tile/>
   <tile/>
   <tile/>
   <tile/>
   <tile/>
   <tile/>
   <tile/>
   <tile/>
   <tile/>
   <tile/>
   <tile/>
   <tile/>
   <tile/>
   <tile/>
   <tile/>
   <tile/>
   <tile/>
   <tile/>
   <tile/>
   <tile/>
   <tile/>
   <tile/>
   <tile/>
   <tile/>
   <tile/>
   <tile/>
   <tile/>
   <tile/>
   <tile/>
   <tile/>
   <tile/>
   <tile/>
   <tile/>
   <tile/>
   <tile/>
   <tile/>
   <tile/>
   <tile/>
   <tile/>
   <tile/>
   <tile/>
   <tile/>
   <tile/>
   <tile/>
   <tile/>
   <tile/>
   <tile/>
   <tile/>
   <tile/>
   <tile/>
   <tile/>
   <tile/>
   <tile/>
   <tile/>
   <tile/>
   <tile/>
   <tile/>
   <tile/>
   <tile/>
   <tile/>
   <tile/>
   <tile/>
   <tile/>
   <tile/>
   <tile/>
   <tile/>
   <tile/>
   <tile/>
   <tile/>
   <tile/>
   <tile/>
   <tile/>
   <tile/>
   <tile/>
   <tile/>
   <tile/>
   <tile/>
   <tile/>
   <tile/>
   <tile/>
   <tile/>
   <tile/>
   <tile/>
   <tile/>
   <tile/>
   <tile/>
   <tile/>
   <tile/>
   <tile/>
   <tile/>
   <tile/>
   <tile/>
   <tile/>
   <tile/>
   <tile/>
   <tile/>
   <tile/>
   <tile/>
   <tile/>
   <tile/>
   <tile/>
   <tile/>
   <tile/>
   <tile/>
   <tile/>
   <tile/>
   <tile/>
   <tile/>
   <tile/>
   <tile/>
   <tile/>
   <tile/>
   <tile/>
   <tile/>
   <tile/>
   <tile/>
   <tile/>
   <tile/>
   <tile/>
   <tile/>
   <tile/>
   <tile/>
   <tile/>
   <tile/>
   <tile/>
   <tile/>
   <tile/>
   <tile/>
   <tile/>
   <tile/>
   <tile/>
   <tile/>
   <tile/>
   <tile/>
   <tile/>
   <tile/>
   <tile/>
   <tile/>
   <tile/>
   <tile/>
   <tile/>
   <tile/>
   <tile/>
   <tile/>
   <tile/>
   <tile/>
   <tile/>
   <tile/>
   <tile/>
   <tile/>
   <tile/>
   <tile/>
   <tile/>
   <tile/>
   <tile/>
   <tile/>
   <tile/>
   <tile/>
   <tile/>
   <tile/>
   <tile/>
   <tile/>
   <tile/>
   <tile/>
   <tile/>
   <tile/>
   <tile/>
   <tile/>
   <tile/>
   <tile/>
   <tile/>
   <tile/>
   <tile/>
   <tile/>
   <tile/>
   <tile/>
   <tile/>
   <tile/>
   <tile/>
   <tile/>
   <tile/>
   <tile/>
   <tile/>
   <tile/>
   <tile/>
   <tile/>
   <tile/>
   <tile/>
   <tile/>
   <tile/>
   <tile/>
   <tile/>
   <tile/>
   <tile/>
   <tile/>
   <tile/>
   <tile/>
   <tile/>
   <tile/>
   <tile/>
   <tile/>
   <tile/>
   <tile/>
   <tile/>
   <tile/>
   <tile/>
   <tile/>
   <tile/>
   <tile/>
   <tile/>
   <tile/>
   <tile/>
   <tile/>
   <tile/>
   <tile/>
   <tile/>
   <tile/>
   <tile/>
   <tile/>
   <tile/>
   <tile/>
   <tile/>
   <tile/>
   <tile/>
   <tile/>
   <tile/>
   <tile/>
   <tile/>
   <tile/>
   <tile/>
   <tile/>
   <tile/>
   <tile/>
   <tile/>
   <tile/>
   <tile/>
   <tile/>
   <tile/>
   <tile/>
   <tile/>
   <tile/>
   <tile/>
   <tile/>
   <tile/>
   <tile/>
   <tile/>
   <tile/>
   <tile/>
   <tile/>
   <tile/>
   <tile/>
   <tile/>
   <tile/>
   <tile/>
   <tile/>
   <tile/>
   <tile/>
   <tile/>
   <tile/>
   <tile/>
   <tile/>
   <tile/>
   <tile/>
   <tile/>
   <tile/>
   <tile/>
   <tile/>
   <tile/>
   <tile/>
   <tile/>
   <tile/>
   <tile/>
   <tile/>
   <tile/>
   <tile/>
   <tile/>
   <tile/>
   <tile/>
   <tile/>
   <tile/>
   <tile/>
   <tile/>
   <tile/>
   <tile/>
   <tile/>
   <tile/>
   <tile/>
   <tile/>
   <tile/>
   <tile/>
   <tile/>
   <tile/>
   <tile/>
   <tile/>
   <tile/>
   <tile/>
   <tile/>
   <tile/>
   <tile/>
   <tile/>
   <tile/>
   <tile/>
   <tile/>
   <tile/>
   <tile/>
   <tile/>
   <tile/>
   <tile/>
   <tile/>
   <tile/>
   <tile/>
   <tile/>
   <tile/>
   <tile/>
   <tile/>
   <tile/>
   <tile/>
   <tile/>
   <tile/>
   <tile/>
   <tile/>
   <tile/>
   <tile/>
   <tile/>
   <tile/>
   <tile/>
   <tile/>
   <tile/>
   <tile/>
   <tile/>
   <tile/>
   <tile/>
   <tile/>
   <tile/>
   <tile/>
   <tile/>
   <tile/>
   <tile/>
   <tile/>
   <tile/>
   <tile/>
   <tile/>
   <tile/>
   <tile/>
   <tile/>
   <tile/>
   <tile/>
   <tile/>
   <tile/>
   <tile/>
   <tile/>
   <tile/>
   <tile/>
   <tile/>
   <tile/>
   <tile/>
   <tile/>
   <tile/>
   <tile/>
   <tile/>
   <tile/>
   <tile/>
   <tile/>
   <tile/>
   <tile/>
   <tile/>
   <tile/>
   <tile/>
   <tile/>
   <tile/>
   <tile/>
   <tile/>
   <tile/>
   <tile/>
   <tile/>
   <tile/>
   <tile/>
   <tile/>
   <tile/>
   <tile/>
   <tile/>
   <tile/>
   <tile/>
   <tile/>
   <tile/>
   <tile/>
   <tile/>
   <tile/>
   <tile/>
   <tile/>
   <tile/>
   <tile/>
   <tile/>
   <tile/>
   <tile/>
   <tile/>
   <tile/>
   <tile/>
   <tile/>
   <tile/>
   <tile/>
   <tile/>
   <tile/>
   <tile/>
   <tile/>
   <tile/>
   <tile/>
   <tile/>
   <tile/>
   <tile/>
   <tile/>
   <tile/>
   <tile/>
   <tile/>
   <tile/>
   <tile/>
   <tile/>
   <tile/>
   <tile/>
   <tile/>
   <tile/>
   <tile/>
   <tile/>
   <tile/>
   <tile/>
   <tile/>
   <tile/>
   <tile/>
   <tile/>
   <tile/>
   <tile/>
   <tile/>
   <tile/>
   <tile/>
   <tile/>
   <tile/>
   <tile/>
   <tile/>
   <tile/>
   <tile/>
   <tile/>
   <tile/>
   <tile/>
   <tile/>
   <tile/>
   <tile/>
   <tile/>
   <tile/>
   <tile/>
   <tile/>
   <tile/>
   <tile/>
   <tile/>
   <tile/>
   <tile/>
   <tile/>
   <tile/>
   <tile/>
   <tile/>
   <tile/>
   <tile/>
   <tile/>
   <tile/>
   <tile/>
   <tile/>
   <tile/>
   <tile/>
   <tile/>
   <tile/>
   <tile/>
   <tile/>
   <tile/>
   <tile/>
   <tile/>
   <tile/>
   <tile/>
   <tile/>
   <tile/>
   <tile/>
   <tile/>
   <tile/>
   <tile/>
   <tile/>
   <tile/>
   <tile/>
   <tile/>
   <tile/>
   <tile/>
   <tile/>
   <tile/>
   <tile/>
   <tile/>
   <tile/>
   <tile/>
   <tile/>
   <tile/>
   <tile/>
   <tile/>
   <tile/>
   <tile/>
   <tile/>
   <tile/>
   <tile/>
   <tile/>
   <tile/>
   <tile/>
   <tile/>
   <tile/>
   <tile/>
   <tile/>
   <tile/>
   <tile/>
   <tile/>
   <tile/>
   <tile/>
   <tile/>
   <tile/>
   <tile/>
   <tile/>
   <tile/>
   <tile/>
   <tile/>
   <tile/>
   <tile/>
   <tile/>
   <tile/>
   <tile/>
   <tile/>
   <tile/>
   <tile/>
   <tile/>
   <tile/>
   <tile/>
   <tile/>
   <tile/>
   <tile/>
   <tile/>
   <tile/>
   <tile/>
   <tile/>
   <tile/>
   <tile/>
   <tile/>
   <tile/>
   <tile/>
   <tile/>
   <tile/>
   <tile/>
   <tile/>
   <tile/>
   <tile/>
   <tile/>
   <tile/>
   <tile/>
   <tile/>
   <tile/>
   <tile/>
   <tile/>
   <tile/>
   <tile/>
   <tile/>
   <tile/>
   <tile/>
   <tile/>
   <tile/>
   <tile/>
   <tile/>
   <tile/>
   <tile/>
   <tile/>
   <tile/>
   <tile/>
   <tile/>
   <tile/>
   <tile/>
   <tile/>
   <tile/>
   <tile/>
   <tile/>
   <tile/>
   <tile/>
   <tile/>
   <tile/>
   <tile/>
   <tile/>
   <tile/>
   <tile/>
   <tile/>
   <tile/>
   <tile/>
   <tile/>
   <tile/>
   <tile/>
   <tile/>
   <tile/>
   <tile/>
   <tile/>
   <tile/>
   <tile/>
   <tile/>
   <tile/>
   <tile/>
   <tile/>
   <tile/>
   <tile/>
   <tile/>
   <tile/>
   <tile/>
   <tile/>
   <tile/>
   <tile/>
   <tile/>
   <tile/>
   <tile/>
   <tile/>
   <tile/>
   <tile/>
   <tile/>
   <tile/>
   <tile/>
   <tile/>
   <tile/>
   <tile/>
   <tile/>
   <tile/>
   <tile/>
   <tile/>
   <tile/>
   <tile/>
   <tile/>
   <tile/>
   <tile/>
   <tile/>
   <tile/>
   <tile/>
   <tile/>
   <tile/>
   <tile/>
   <tile/>
   <tile/>
   <tile/>
   <tile/>
   <tile/>
   <tile/>
   <tile/>
   <tile/>
   <tile/>
   <tile/>
   <tile/>
   <tile/>
   <tile/>
   <tile/>
   <tile/>
   <tile/>
   <tile/>
   <tile/>
   <tile/>
   <tile/>
   <tile/>
   <tile/>
   <tile/>
   <tile/>
   <tile/>
   <tile/>
   <tile/>
   <tile/>
   <tile/>
   <tile/>
   <tile/>
   <tile/>
   <tile/>
   <tile/>
   <tile/>
   <tile gid="2147483784"/>
   <tile gid="136"/>
   <tile gid="137"/>
   <tile gid="2147483785"/>
   <tile gid="2147483784"/>
   <tile gid="136"/>
   <tile gid="137"/>
   <tile gid="2147483785"/>
   <tile gid="2147483784"/>
   <tile gid="136"/>
   <tile gid="137"/>
   <tile gid="2147483785"/>
   <tile gid="2147483784"/>
   <tile gid="136"/>
   <tile gid="137"/>
   <tile gid="2147483785"/>
   <tile gid="2147483784"/>
   <tile gid="136"/>
   <tile gid="137"/>
   <tile gid="2147483785"/>
   <tile gid="2147483784"/>
   <tile gid="136"/>
   <tile gid="137"/>
   <tile gid="2147483785"/>
   <tile gid="2147483784"/>
   <tile gid="136"/>
   <tile gid="137"/>
   <tile gid="2147483785"/>
   <tile gid="2147483784"/>
   <tile gid="136"/>
   <tile gid="137"/>
   <tile gid="2147483785"/>
   <tile gid="2147483784"/>
   <tile gid="136"/>
   <tile gid="137"/>
   <tile/>
   <tile/>
   <tile/>
   <tile/>
   <tile/>
   <tile/>
   <tile/>
   <tile/>
   <tile/>
   <tile gid="137"/>
   <tile gid="2147483785"/>
   <tile gid="2147483784"/>
   <tile gid="136"/>
   <tile gid="137"/>
   <tile gid="2147483785"/>
   <tile gid="2147483784"/>
   <tile gid="136"/>
   <tile gid="137"/>
   <tile gid="2147483785"/>
   <tile gid="2147483784"/>
   <tile gid="136"/>
   <tile gid="137"/>
   <tile gid="2147483785"/>
   <tile gid="2147483784"/>
   <tile gid="136"/>
   <tile gid="137"/>
   <tile gid="2147483785"/>
   <tile gid="2147483784"/>
   <tile gid="136"/>
   <tile gid="137"/>
   <tile gid="2147483785"/>
   <tile gid="2147483784"/>
   <tile gid="136"/>
   <tile/>
   <tile/>
   <tile/>
   <tile/>
   <tile/>
   <tile/>
   <tile/>
   <tile/>
   <tile/>
   <tile/>
   <tile/>
   <tile/>
   <tile/>
   <tile/>
   <tile/>
   <tile/>
   <tile/>
   <tile/>
   <tile/>
   <tile/>
   <tile/>
   <tile/>
   <tile/>
   <tile/>
   <tile/>
   <tile/>
   <tile/>
   <tile/>
   <tile/>
   <tile/>
   <tile/>
   <tile/>
   <tile/>
   <tile/>
   <tile/>
   <tile/>
   <tile/>
   <tile/>
   <tile/>
   <tile/>
   <tile/>
   <tile/>
   <tile/>
   <tile/>
   <tile/>
   <tile/>
   <tile/>
   <tile/>
   <tile/>
   <tile/>
   <tile/>
   <tile/>
   <tile/>
   <tile/>
   <tile/>
   <tile/>
   <tile/>
   <tile/>
   <tile/>
   <tile/>
   <tile/>
   <tile/>
   <tile/>
   <tile/>
   <tile/>
   <tile/>
   <tile/>
   <tile/>
   <tile/>
   <tile/>
   <tile/>
   <tile/>
   <tile/>
   <tile/>
   <tile/>
   <tile/>
   <tile/>
   <tile/>
   <tile/>
   <tile/>
   <tile/>
   <tile/>
   <tile/>
   <tile/>
   <tile/>
   <tile/>
   <tile/>
   <tile/>
   <tile/>
   <tile/>
   <tile/>
   <tile/>
   <tile/>
   <tile/>
   <tile/>
   <tile/>
   <tile/>
   <tile/>
   <tile/>
   <tile/>
   <tile/>
   <tile/>
   <tile/>
   <tile/>
   <tile/>
   <tile/>
   <tile/>
   <tile/>
   <tile gid="2147483792"/>
   <tile gid="144"/>
   <tile gid="145"/>
   <tile gid="2147483793"/>
   <tile gid="2147483792"/>
   <tile gid="144"/>
   <tile gid="145"/>
   <tile gid="2147483793"/>
   <tile gid="2147483792"/>
   <tile gid="144"/>
   <tile gid="145"/>
   <tile gid="2147483793"/>
   <tile gid="2147483792"/>
   <tile gid="144"/>
   <tile gid="145"/>
   <tile gid="2147483793"/>
   <tile gid="2147483792"/>
   <tile gid="144"/>
   <tile gid="145"/>
   <tile gid="2147483793"/>
   <tile gid="2147483792"/>
   <tile gid="144"/>
   <tile gid="145"/>
   <tile gid="2147483793"/>
   <tile gid="2147483792"/>
   <tile gid="144"/>
   <tile gid="145"/>
   <tile gid="2147483793"/>
   <tile gid="2147483792"/>
   <tile gid="144"/>
   <tile gid="145"/>
   <tile gid="2147483793"/>
   <tile gid="2147483792"/>
   <tile gid="144"/>
   <tile gid="145"/>
   <tile/>
   <tile/>
   <tile/>
   <tile/>
   <tile/>
   <tile/>
   <tile/>
   <tile/>
   <tile/>
   <tile gid="145"/>
   <tile gid="2147483793"/>
   <tile gid="2147483792"/>
   <tile gid="144"/>
   <tile gid="145"/>
   <tile gid="2147483793"/>
   <tile gid="2147483792"/>
   <tile gid="144"/>
   <tile gid="145"/>
   <tile gid="2147483793"/>
   <tile gid="2147483792"/>
   <tile gid="144"/>
   <tile gid="145"/>
   <tile gid="2147483793"/>
   <tile gid="2147483792"/>
   <tile gid="144"/>
   <tile gid="145"/>
   <tile gid="2147483793"/>
   <tile gid="2147483792"/>
   <tile gid="144"/>
   <tile gid="145"/>
   <tile gid="2147483793"/>
   <tile gid="2147483792"/>
   <tile gid="144"/>
   <tile/>
   <tile/>
   <tile/>
   <tile/>
   <tile/>
   <tile/>
   <tile/>
   <tile/>
   <tile/>
   <tile/>
   <tile/>
   <tile/>
   <tile/>
   <tile/>
   <tile/>
   <tile/>
   <tile/>
   <tile/>
   <tile/>
   <tile/>
   <tile/>
   <tile/>
   <tile/>
   <tile/>
   <tile/>
   <tile/>
   <tile/>
   <tile/>
   <tile/>
   <tile/>
   <tile/>
   <tile/>
   <tile/>
   <tile/>
   <tile/>
   <tile/>
   <tile/>
   <tile/>
   <tile/>
   <tile/>
   <tile/>
   <tile/>
   <tile/>
   <tile/>
   <tile/>
   <tile/>
   <tile/>
   <tile/>
   <tile/>
   <tile/>
   <tile/>
   <tile/>
   <tile/>
   <tile/>
   <tile/>
   <tile/>
   <tile/>
   <tile/>
   <tile/>
   <tile/>
   <tile/>
   <tile/>
   <tile/>
   <tile/>
   <tile/>
   <tile/>
   <tile/>
   <tile/>
   <tile/>
   <tile/>
   <tile/>
   <tile/>
   <tile/>
   <tile/>
   <tile/>
   <tile/>
   <tile/>
   <tile/>
   <tile/>
   <tile/>
   <tile/>
   <tile/>
   <tile/>
   <tile/>
   <tile/>
   <tile/>
  </data>
 </layer>
 <objectgroup id="43" name="Cascadas-F">
  <properties>
   <property name="BG" type="bool" value="true"/>
   <property name="Draw" type="bool" value="true"/>
   <property name="Front" type="bool" value="true"/>
   <property name="Paralax" type="float" value="1"/>
  </properties>
  <object id="1277" gid="200" x="3072" y="2688" width="1216.24" height="1250.14"/>
 </objectgroup>
 <objectgroup id="39" name="Fondo4-F">
  <properties>
   <property name="BG" type="bool" value="true"/>
   <property name="Draw" type="bool" value="true"/>
   <property name="Front" type="bool" value="true"/>
   <property name="Paralax" type="float" value="1"/>
  </properties>
  <object id="756" gid="216" x="21394.8" y="2787.29" width="754.935" height="754.935"/>
  <object id="757" gid="217" x="21284.6" y="2714.4" width="803.986" height="651.291"/>
  <object id="758" gid="221" x="21174.3" y="2678.07" width="834.037" height="834.037"/>
  <object id="759" gid="216" x="20421.2" y="2787.29" width="733.626" height="811.384"/>
  <object id="760" gid="218" x="19772.1" y="2787.29" width="666.011" height="666.011"/>
  <object id="761" gid="216" x="20853.9" y="2787.29" width="804.52" height="804.52"/>
  <object id="762" gid="218" x="19524.2" y="2637.91" width="487.855" height="638.965"/>
  <object id="763" gid="221" x="19109.4" y="2790.67" width="841.81" height="841.81"/>
  <object id="764" gid="221" x="19316.3" y="2787.29" width="871.62" height="871.62"/>
  <object id="765" gid="213" x="17824.7" y="2772.14" width="828.287" height="730.245"/>
  <object id="766" gid="2147483861" x="18189.9" y="2787.29" width="730.245" height="730.245"/>
  <object id="767" gid="2147483866" x="18653" y="2787.29" width="723.484" height="723.484"/>
  <object id="768" gid="218" x="17501" y="2694.93" width="723.484" height="723.484"/>
  <object id="769" gid="216" x="21827.6" y="2787.29" width="754.935" height="754.935"/>
  <object id="770" gid="217" x="21701.2" y="2660.92" width="936.675" height="936.675"/>
  <object id="771" gid="218" x="19988.4" y="2787.29" width="666.011" height="666.011"/>
  <object id="772" gid="217" x="18341.4" y="2700.32" width="900.822" height="900.822"/>
  <object id="773" gid="220" x="18149.3" y="2787.29" width="544.815" height="544.815"/>
  <object id="791" gid="2147483869" x="18308" y="1838.3" width="871.875" height="950.663"/>
  <object id="797" gid="218" x="18871.6" y="1828.36" width="787.03" height="787.03"/>
  <object id="801" gid="217" x="19712" y="1792" width="384" height="384"/>
  <object id="805" gid="1073742045" x="19763.9" y="2082.91" width="277.939" height="299.152"/>
  <object id="809" gid="216" x="16506.1" y="2692.5" width="421.6" height="421.6"/>
  <object id="810" gid="216" x="16360.4" y="2646.05" width="303.865" height="303.865"/>
  <object id="813" gid="216" x="16172.4" y="2719.89" width="303.865" height="303.865"/>
  <object id="814" gid="216" x="16730.3" y="2695.78" width="310.774" height="310.774"/>
  <object id="818" gid="213" x="16349.3" y="2581.67" width="360.006" height="382.673"/>
  <object id="819" gid="216" x="16698.6" y="2592.56" width="313.889" height="313.889"/>
  <object id="820" gid="1073742041" x="16743.5" y="2896.77" width="311.915" height="321.786"/>
  <object id="827" gid="2147483856" x="20143.6" y="811.645" width="2482.23" height="827.409"/>
  <object id="828" gid="206" x="17462.2" y="1294.69" width="2727.63" height="1313.59"/>
  <object id="838" gid="1073742040" x="20970.4" y="1455.07" width="346.204" height="346.204"/>
  <object id="839" gid="217" x="20104.5" y="1155.21" width="508.649" height="508.649"/>
  <object id="840" gid="218" x="20438.1" y="1096.55" width="327.443" height="327.443"/>
  <object id="841" gid="219" x="20650" y="1101.07" width="327.443" height="327.443"/>
  <object id="842" gid="222" x="20205.6" y="1750.64" width="1071.85" height="607.802"/>
  <object id="843" gid="220" x="20230.2" y="1152.72" width="1135.86" height="397.028"/>
  <object id="844" gid="2147483865" x="20888" y="1114.19" width="491.752" height="481.085"/>
  <object id="866" gid="206" x="18376" y="2466" width="1212" height="664"/>
  <object id="867" gid="2147483858" x="19482" y="2092" width="384" height="384"/>
  <object id="868" gid="214" x="19534" y="1716" width="422" height="416"/>
  <object id="921" gid="1073742040" x="21811.6" y="783.377" width="754.935" height="754.935"/>
  <object id="923" gid="1073742040" x="21911.1" y="953.074" width="754.935" height="754.935"/>
  <object id="925" gid="3221225693" x="22016" y="1024" width="693.091" height="693.091"/>
  <object id="946" gid="216" x="13375.7" y="2730.39" width="373.387" height="386.747"/>
  <object id="947" gid="218" x="13866" y="2698.09" width="442.35" height="422.35"/>
  <object id="948" gid="221" x="15115.3" y="2749.44" width="562.852" height="562.852"/>
  <object id="949" gid="216" x="14823.3" y="2770.78" width="451.717" height="451.717"/>
  <object id="950" gid="216" x="15518.2" y="2741.82" width="754.747" height="754.747"/>
  <object id="951" gid="219" x="14128.4" y="2714.12" width="550.477" height="456.781"/>
  <object id="952" gid="216" x="12782" y="2698" width="594.384" height="575.717"/>
  <object id="953" gid="217" x="12884" y="2706" width="740" height="657.778"/>
  <object id="954" gid="2147483869" x="12441.9" y="2705.64" width="440.667" height="420"/>
  <object id="955" gid="217" x="14534" y="2716" width="462" height="376"/>
  <object id="960" gid="216" x="12850.8" y="2618.14" width="594.384" height="575.717"/>
  <object id="961" gid="214" x="13616" y="2692" width="384" height="384"/>
  <object id="962" gid="216" x="16332.1" y="2702.07" width="303.865" height="303.865"/>
  <object id="963" gid="213" x="15475.6" y="2594.06" width="605.212" height="665.818"/>
  <object id="966" gid="216" x="14184" y="2604" width="518" height="518"/>
  <object id="968" gid="219" x="14118.8" y="2661.61" width="550.477" height="456.781"/>
  <object id="971" gid="213" x="14168" y="2490" width="384" height="384"/>
  <object id="972" gid="221" x="14416" y="2512" width="384" height="384"/>
  <object id="973" gid="2147483867" x="14392.8" y="2621.61" width="550.477" height="456.781"/>
  <object id="974" gid="217" x="14429" y="2670" width="462" height="376"/>
  <object id="975" gid="2147483868" x="13982" y="2610" width="384" height="384"/>
  <object id="977" gid="214" x="14036" y="2538" width="384" height="384"/>
  <object id="1016" gid="217" x="13976.7" y="1759.58" width="381.522" height="381.522"/>
  <object id="1017" gid="218" x="14226.9" y="1715.58" width="245.605" height="245.605"/>
  <object id="1018" gid="219" x="14385.9" y="1718.97" width="245.605" height="245.605"/>
  <object id="1019" gid="2147483870" x="14052.6" y="2200.2" width="789.294" height="455.893"/>
  <object id="1020" gid="220" x="14071" y="1757.72" width="851.973" height="297.798"/>
  <object id="1021" gid="2147483865" x="14539.1" y="1755.48" width="368.848" height="360.847"/>
  <object id="1037" gid="207" x="15627.9" y="1838.18" width="1920" height="640"/>
  <object id="1038" gid="207" x="14713.1" y="1913.09" width="1920" height="640"/>
  <object id="1040" gid="207" x="14824.8" y="2156.36" width="1920" height="821.818"/>
  <object id="1044" gid="1073742032" x="15558.2" y="1335.15" width="1920" height="640"/>
  <object id="1046" gid="218" x="14716" y="1281.33" width="384" height="384"/>
  <object id="1047" gid="217" x="14876" y="1284" width="708" height="708"/>
  <object id="1049" gid="213" x="15184" y="1192.97" width="756" height="768"/>
  <object id="1051" gid="2147483861" x="14980.1" y="1369.03" width="880.97" height="880.97"/>
  <object id="1052" gid="206" x="15524.8" y="2162.42" width="1913.94" height="873.333"/>
  <object id="1054" gid="216" x="17032" y="149.861" width="685.861" height="685.861"/>
  <object id="1055" gid="1073742040" x="17032" y="800" width="685.861" height="685.861"/>
  <object id="1056" gid="216" x="17077.1" y="504" width="685.861" height="685.861"/>
  <object id="1059" gid="1073742040" x="17045.1" y="1506.14" width="685.861" height="685.861"/>
  <object id="1060" gid="218" x="17076" y="828" width="632" height="632"/>
  <object id="1063" gid="1073742042" x="17052" y="1116" width="632" height="632"/>
  <object id="1070" gid="217" x="17230.5" y="1199.54" width="384" height="384"/>
  <object id="1071" gid="217" x="16121.5" y="1205.6" width="780.97" height="780.97"/>
  <object id="1072" gid="217" x="16635.1" y="1211" width="780.97" height="780.97"/>
  <object id="1086" gid="2147483869" x="16038.1" y="1172.12" width="559.758" height="559.758"/>
  <object id="1090" gid="2147483861" x="11348.3" y="2698" width="632.407" height="632.407"/>
  <object id="1091" gid="2147483866" x="11729.4" y="2726" width="626.552" height="626.552"/>
  <object id="1095" gid="218" x="11848.3" y="2781.63" width="626.552" height="626.552"/>
  <object id="1096" gid="2147483865" x="11991.5" y="2709.93" width="780.13" height="780.13"/>
  <object id="1097" gid="216" x="9650.95" y="2753.36" width="373.387" height="386.747"/>
  <object id="1098" gid="218" x="10113.3" y="2703.06" width="442.35" height="422.35"/>
  <object id="1099" gid="219" x="10669.6" y="2707.09" width="550.477" height="456.781"/>
  <object id="1100" gid="216" x="9039.25" y="2736.97" width="594.384" height="575.717"/>
  <object id="1101" gid="217" x="9141.25" y="2758.97" width="740" height="657.778"/>
  <object id="1102" gid="2147483869" x="8677.15" y="2716.61" width="507.435" height="483.636"/>
  <object id="1103" gid="216" x="9108.05" y="2671.11" width="594.384" height="575.717"/>
  <object id="1104" gid="214" x="9815.67" y="2697.03" width="574.909" height="574.909"/>
  <object id="1105" gid="216" x="10441.3" y="2656.97" width="518" height="518"/>
  <object id="1106" gid="219" x="10376" y="2714.58" width="550.477" height="456.781"/>
  <object id="1107" gid="2147483868" x="10239.3" y="2662.97" width="384" height="384"/>
  <object id="1108" gid="2147483865" x="8130.75" y="2712.9" width="780.13" height="780.13"/>
  <object id="1109" gid="218" x="11032.2" y="2698.06" width="641.576" height="520.364"/>
  <object id="1113" gid="216" x="3956.66" y="2740.21" width="373.387" height="386.747"/>
  <object id="1114" gid="218" x="4422.04" y="2705.06" width="442.35" height="422.35"/>
  <object id="1115" gid="219" x="4978.34" y="2709.09" width="550.477" height="456.781"/>
  <object id="1117" gid="217" x="3453.02" y="2745.82" width="740" height="657.778"/>
  <object id="1118" gid="2147483869" x="3015.89" y="2724.61" width="507.435" height="483.636"/>
  <object id="1119" gid="216" x="3353.15" y="2700.38" width="594.384" height="575.717"/>
  <object id="1120" gid="214" x="4124.41" y="2699.03" width="574.909" height="826.424"/>
  <object id="1121" gid="216" x="4750.04" y="2658.97" width="518" height="518"/>
  <object id="1122" gid="219" x="4684.74" y="2716.58" width="550.477" height="456.781"/>
  <object id="1123" gid="2147483868" x="4548.04" y="2664.97" width="384" height="384"/>
  <object id="1124" gid="2147483865" x="2509.49" y="2710.9" width="780.13" height="780.13"/>
  <object id="1125" gid="218" x="5325.79" y="2715.21" width="641.576" height="520.364"/>
  <object id="1129" gid="216" x="6216.53" y="2734.55" width="594.384" height="575.717"/>
  <object id="1132" gid="216" x="6870.18" y="2698.99" width="594.384" height="575.717"/>
  <object id="1137" gid="2147483865" x="5686.64" y="2730.17" width="780.13" height="780.13"/>
  <object id="1138" gid="218" x="6490.82" y="2724.61" width="641.576" height="520.364"/>
  <object id="1153" gid="2147483866" x="8054" y="2716" width="486" height="454"/>
  <object id="1154" gid="217" x="7851.33" y="2695.33" width="554" height="554"/>
  <object id="1155" gid="2147483869" x="7422" y="2698" width="610" height="610"/>
  <object id="1172" gid="2147483866" x="7237" y="2697" width="486" height="454"/>
  <object id="1262" gid="210" x="9217.09" y="2595.88" width="384" height="384"/>
  <object id="1264" gid="214" x="9168" y="2214.67" width="420" height="410.667"/>
  <object id="1265" gid="212" x="10240" y="2608" width="384" height="384"/>
  <object id="1266" gid="212" x="9752" y="2195" width="362" height="358"/>
  <object id="1267" gid="2147483860" x="9740" y="2197" width="359" height="362"/>
  <object id="1268" gid="214" x="10146.5" y="2226.5" width="518" height="430"/>
  <object id="1269" gid="215" x="10349" y="2231" width="384" height="384"/>
  <object id="1271" gid="215" x="9312" y="2214.67" width="384" height="384"/>
  <object id="1272" gid="214" x="9662" y="1841" width="384" height="384"/>
  <object id="1273" gid="2147483862" x="9801" y="1839" width="384" height="384"/>
  <object id="1278" gid="222" x="2712" y="2224" width="1720" height="800"/>
  <object id="1279" gid="2147483870" x="3237.33" y="2220" width="1720" height="800"/>
  <object id="1283" gid="1073742030" x="2700" y="1431.39" width="2260" height="753.333"/>
  <object id="1287" gid="1073742031" x="2794.67" y="1208" width="1920" height="640"/>
  <object id="1289" gid="216" x="2688" y="1408" width="980" height="980"/>
  <object id="1290" gid="216" x="3328" y="1423.15" width="980" height="980"/>
  <object id="1291" gid="216" x="3840" y="1408" width="980" height="980"/>
  <object id="1292" gid="216" x="4096" y="1408" width="808" height="868"/>
  <object id="1293" gid="221" x="4168.73" y="1353.45" width="863.971" height="860.686"/>
  <object id="1294" gid="1073742040" x="2289.07" y="1862.14" width="685.861" height="685.861"/>
  <object id="1295" gid="218" x="2319.97" y="1184" width="632" height="632"/>
  <object id="1300" gid="213" x="4745.48" y="1285.73" width="479.273" height="465.939"/>
  <object id="1301" gid="1073742037" x="4770.3" y="1721.09" width="444.606" height="444.606"/>
  <object id="1318" gid="207" x="14148" y="1048" width="3192" height="1064"/>
  <object id="1319" gid="209" x="11196" y="1000" width="3048" height="1016"/>
  <object id="1320" gid="207" x="8152" y="1052" width="3192" height="1064"/>
  <object id="1321" gid="209" x="5200" y="1004" width="3048" height="1016"/>
  <object id="1322" gid="2147483856" x="1544" y="728" width="2248" height="749.333"/>
  <object id="1323" gid="2147483855" x="3544" y="834.667" width="2528" height="842.667"/>
  <object id="1324" gid="208" x="-652" y="729.334" width="2248" height="749.333"/>
  <object id="1330" gid="1073742040" x="-207.333" y="2475.47" width="685.861" height="685.861"/>
  <object id="1331" gid="218" x="-171.767" y="1796.67" width="632" height="632"/>
  <object id="1332" gid="1073742040" x="-148.93" y="2796.14" width="685.861" height="685.861"/>
  <object id="1333" gid="218" x="-142.03" y="2126" width="632" height="632"/>
  <object id="1334" gid="216" x="-2.9305" y="2463.86" width="685.861" height="685.861"/>
  <object id="1335" gid="1073742042" x="0" y="3072" width="632" height="632"/>
  <object id="1336" gid="218" x="1172" y="2768" width="596" height="596"/>
  <object id="1337" gid="216" x="824" y="2772" width="584" height="584"/>
  <object id="1339" gid="217" x="0" y="1664" width="540" height="540"/>
  <object id="1345" gid="216" x="412" y="2712" width="584" height="584"/>
  <object id="1346" gid="213" x="776" y="2692" width="384" height="384"/>
  <object id="1347" gid="213" x="1160" y="2716" width="384" height="384"/>
  <object id="1350" gid="213" x="2177.21" y="2704.97" width="724" height="724"/>
 </objectgroup>
 <objectgroup id="28" name="Fondo5-F">
  <properties>
   <property name="Draw" type="bool" value="true"/>
   <property name="Front" type="bool" value="true"/>
   <property name="Paralax" type="float" value="1.1"/>
  </properties>
  <object id="704" gid="134" x="7424" y="2944" width="2291.05" height="2936"/>
  <object id="755" gid="2147483874" x="23688" y="2896" width="4624" height="3099.94"/>
  <object id="1317" gid="2147483874" x="-640" y="2688" width="3584" height="2688"/>
 </objectgroup>
 <objectgroup id="35" name="Rampas" visible="0">
  <properties>
   <property name="Polygon" type="bool" value="true"/>
  </properties>
  <object id="714" x="14720" y="1280">
   <properties>
    <property name="Polygon" type="bool" value="true"/>
   </properties>
   <polygon points="0,0 512,-256 512,0"/>
  </object>
  <object id="720" x="4608" y="1280">
   <polygon points="0,0 0,-256 512,0"/>
  </object>
  <object id="1112" x="7168" y="2560">
   <polygon points="0,0 256,-128 256,0"/>
  </object>
  <object id="1157" x="11648" y="2560">
   <polygon points="0,0 0,-128 256,0"/>
  </object>
 </objectgroup>
 <objectgroup color="#aa0000" id="19" name="Spikes" visible="0">
  <properties>
   <property name="Danger" type="bool" value="true"/>
   <property name="Square" type="bool" value="true"/>
  </properties>
  <object id="339" x="12544" y="2620" width="3840" height="196"/>
  <object id="382" x="17222.9" y="0" width="57.0909" height="987.879"/>
 </objectgroup>
 <objectgroup id="13" name="Path" visible="0">
  <properties>
   <property name="Path" type="bool" value="true"/>
   <property name="Sensor" type="bool" value="true"/>
   <property name="Square" type="bool" value="true"/>
  </properties>
  <object id="693" x="17024" y="2816" width="512" height="128">
   <properties>
    <property name="TeleportTo" type="file" value="Forest_02.tmx"/>
   </properties>
  </object>
  <object id="695" x="1792" y="3072" width="512" height="128">
   <properties>
    <property name="TeleportTo" type="file" value="Forest_04.tmx"/>
   </properties>
  </object>
 </objectgroup>
 <objectgroup color="#000000" id="8" name="Map" visible="0">
  <properties>
   <property name="Map" type="bool" value="true"/>
   <property name="Square" type="bool" value="true"/>
  </properties>
  <object id="219" x="17536" y="2560" width="4864" height="256"/>
  <object id="220" x="22400" y="0" width="128" height="2560"/>
  <object id="221" x="20864" y="2176" width="256" height="128"/>
  <object id="222" x="21248" y="1920" width="256" height="128"/>
  <object id="223" x="21632" y="1664" width="256" height="128"/>
  <object id="224" x="22016" y="1408" width="256" height="128"/>
  <object id="225" x="21504" y="1152" width="256" height="128"/>
  <object id="226" x="19840" y="1408" width="128" height="384"/>
  <object id="227" x="18048" y="1280" width="384" height="128"/>
  <object id="228" x="20224" y="1024" width="1024" height="256"/>
  <object id="229" x="18432" y="1664" width="1152" height="256"/>
  <object id="230" x="18432" y="1664" width="1152" height="256"/>
  <object id="233" x="15232" y="1024" width="2304" height="128"/>
  <object id="234" x="14976" y="1152" width="2560" height="128"/>
  <object id="235" x="14720" y="1280" width="2688" height="128"/>
  <object id="236" x="17280" y="0" width="256" height="1024"/>
  <object id="237" x="14976" y="2048" width="256" height="128"/>
  <object id="238" x="13696" y="2048" width="256" height="128"/>
  <object id="239" x="14080" y="1664" width="768" height="128"/>
  <object id="240" x="15360" y="2432" width="768" height="128"/>
  <object id="241" x="14080" y="2436" width="768" height="128"/>
  <object id="242" x="12800" y="2432" width="768" height="128"/>
  <object id="248" x="2304" y="2560" width="10240" height="256"/>
  <object id="249" x="2304" y="2816" width="128" height="512"/>
  <object id="256" x="11520" y="2432" width="128" height="128"/>
  <object id="257" x="8320" y="2432" width="128" height="128"/>
  <object id="258" x="7424" y="2432" width="128" height="128"/>
  <object id="259" x="6656" y="2048" width="384" height="256"/>
  <object id="260" x="6016" y="1792" width="384" height="256"/>
  <object id="261" x="5376" y="1536" width="384" height="66.6667"/>
  <object id="307" x="2688" y="2432" width="128" height="128"/>
  <object id="308" x="1024" y="2560" width="768" height="768"/>
  <object id="309" x="0" y="2560" width="1024" height="256"/>
  <object id="318" x="256" y="0" width="768" height="128"/>
  <object id="319" x="0" y="0" width="256" height="2560"/>
  <object id="320" x="256" y="1536" width="256" height="1024"/>
  <object id="322" x="2304" y="1024" width="2304" height="128"/>
  <object id="323" x="2432" y="1152" width="2176" height="128"/>
  <object id="324" x="2560" y="1280" width="2560" height="128"/>
  <object id="522" x="0" y="-128" width="22528" height="128"/>
  <object id="712" x="2688" y="1408" width="2304" height="128"/>
  <object id="713" x="14208" y="1792" width="512" height="128"/>
  <object id="715" x="20352" y="1280" width="768" height="128"/>
  <object id="717" x="20480" y="1408" width="512" height="128"/>
  <object id="798" x="19584" y="1664" width="256" height="73.4545"/>
  <object id="821" x="16384" y="2560" width="640" height="256"/>
  <object id="1186" x="9216" y="2176" width="388" height="64"/>
  <object id="1187" x="10240" y="2176" width="380" height="72"/>
  <object id="1188" x="9728" y="1792" width="388" height="68"/>
 </objectgroup>
 <layer id="31" name="GroundNavLayer" width="176" height="21" visible="0">
  <properties>
   <property name="Ground" type="bool" value="true"/>
   <property name="Navigation" type="bool" value="true"/>
  </properties>
  <data>
   <tile gid="129"/>
   <tile gid="129"/>
   <tile gid="129"/>
   <tile gid="129"/>
   <tile gid="129"/>
   <tile gid="129"/>
   <tile gid="129"/>
   <tile gid="129"/>
   <tile gid="129"/>
   <tile gid="129"/>
   <tile gid="129"/>
   <tile gid="129"/>
   <tile gid="129"/>
   <tile gid="129"/>
   <tile gid="129"/>
   <tile gid="129"/>
   <tile gid="129"/>
   <tile gid="129"/>
   <tile gid="129"/>
   <tile gid="129"/>
   <tile gid="129"/>
   <tile gid="129"/>
   <tile gid="129"/>
   <tile gid="129"/>
   <tile gid="129"/>
   <tile gid="129"/>
   <tile gid="129"/>
   <tile gid="129"/>
   <tile gid="129"/>
   <tile gid="129"/>
   <tile gid="129"/>
   <tile gid="129"/>
   <tile gid="129"/>
   <tile gid="129"/>
   <tile gid="129"/>
   <tile gid="129"/>
   <tile gid="129"/>
   <tile gid="129"/>
   <tile gid="129"/>
   <tile gid="129"/>
   <tile gid="129"/>
   <tile gid="129"/>
   <tile gid="129"/>
   <tile gid="129"/>
   <tile gid="129"/>
   <tile gid="129"/>
   <tile gid="129"/>
   <tile gid="129"/>
   <tile gid="129"/>
   <tile gid="129"/>
   <tile gid="129"/>
   <tile gid="129"/>
   <tile gid="129"/>
   <tile gid="129"/>
   <tile gid="129"/>
   <tile gid="129"/>
   <tile gid="129"/>
   <tile gid="129"/>
   <tile gid="129"/>
   <tile gid="129"/>
   <tile gid="129"/>
   <tile gid="129"/>
   <tile gid="129"/>
   <tile gid="129"/>
   <tile gid="129"/>
   <tile gid="129"/>
   <tile gid="129"/>
   <tile gid="129"/>
   <tile gid="129"/>
   <tile gid="129"/>
   <tile gid="129"/>
   <tile gid="129"/>
   <tile gid="129"/>
   <tile gid="129"/>
   <tile gid="129"/>
   <tile gid="129"/>
   <tile gid="129"/>
   <tile gid="129"/>
   <tile gid="129"/>
   <tile gid="129"/>
   <tile gid="129"/>
   <tile gid="129"/>
   <tile gid="129"/>
   <tile gid="129"/>
   <tile gid="129"/>
   <tile gid="129"/>
   <tile gid="129"/>
   <tile gid="129"/>
   <tile gid="129"/>
   <tile gid="129"/>
   <tile gid="129"/>
   <tile gid="129"/>
   <tile gid="129"/>
   <tile gid="129"/>
   <tile gid="129"/>
   <tile gid="129"/>
   <tile gid="129"/>
   <tile gid="129"/>
   <tile gid="129"/>
   <tile gid="129"/>
   <tile gid="129"/>
   <tile gid="129"/>
   <tile gid="129"/>
   <tile gid="129"/>
   <tile gid="129"/>
   <tile gid="129"/>
   <tile gid="129"/>
   <tile gid="129"/>
   <tile gid="129"/>
   <tile gid="129"/>
   <tile gid="129"/>
   <tile gid="129"/>
   <tile gid="129"/>
   <tile gid="129"/>
   <tile gid="129"/>
   <tile gid="129"/>
   <tile gid="129"/>
   <tile gid="129"/>
   <tile gid="129"/>
   <tile gid="129"/>
   <tile gid="129"/>
   <tile gid="129"/>
   <tile gid="129"/>
   <tile gid="129"/>
   <tile gid="129"/>
   <tile gid="129"/>
   <tile gid="129"/>
   <tile gid="129"/>
   <tile gid="129"/>
   <tile gid="129"/>
   <tile gid="129"/>
   <tile gid="129"/>
   <tile gid="129"/>
   <tile gid="129"/>
   <tile gid="129"/>
   <tile gid="129"/>
   <tile gid="129"/>
   <tile gid="129"/>
   <tile gid="129"/>
   <tile gid="129"/>
   <tile gid="129"/>
   <tile gid="129"/>
   <tile gid="129"/>
   <tile gid="129"/>
   <tile gid="129"/>
   <tile gid="129"/>
   <tile gid="129"/>
   <tile gid="129"/>
   <tile gid="129"/>
   <tile gid="129"/>
   <tile gid="129"/>
   <tile gid="129"/>
   <tile gid="129"/>
   <tile gid="129"/>
   <tile gid="129"/>
   <tile gid="129"/>
   <tile gid="129"/>
   <tile gid="129"/>
   <tile gid="129"/>
   <tile gid="129"/>
   <tile gid="129"/>
   <tile gid="129"/>
   <tile gid="129"/>
   <tile gid="129"/>
   <tile gid="129"/>
   <tile gid="129"/>
   <tile gid="129"/>
   <tile gid="129"/>
   <tile gid="129"/>
   <tile gid="129"/>
   <tile gid="129"/>
   <tile gid="129"/>
   <tile gid="129"/>
   <tile gid="129"/>
   <tile gid="129"/>
   <tile gid="129"/>
   <tile gid="129"/>
   <tile gid="129"/>
   <tile/>
   <tile/>
   <tile/>
   <tile/>
   <tile/>
   <tile gid="129"/>
   <tile/>
   <tile/>
   <tile/>
   <tile/>
   <tile/>
   <tile/>
   <tile/>
   <tile/>
   <tile/>
   <tile/>
   <tile gid="129"/>
   <tile/>
   <tile/>
   <tile/>
   <tile/>
   <tile/>
   <tile/>
   <tile/>
   <tile/>
   <tile/>
   <tile/>
   <tile/>
   <tile/>
   <tile/>
   <tile/>
   <tile/>
   <tile/>
   <tile/>
   <tile/>
   <tile/>
   <tile/>
   <tile/>
   <tile gid="129"/>
   <tile/>
   <tile/>
   <tile/>
   <tile/>
   <tile/>
   <tile/>
   <tile/>
   <tile/>
   <tile/>
   <tile/>
   <tile/>
   <tile/>
   <tile/>
   <tile/>
   <tile/>
   <tile/>
   <tile/>
   <tile/>
   <tile/>
   <tile/>
   <tile/>
   <tile/>
   <tile/>
   <tile/>
   <tile/>
   <tile/>
   <tile/>
   <tile/>
   <tile/>
   <tile/>
   <tile/>
   <tile/>
   <tile/>
   <tile/>
   <tile/>
   <tile/>
   <tile/>
   <tile/>
   <tile/>
   <tile/>
   <tile/>
   <tile/>
   <tile/>
   <tile/>
   <tile/>
   <tile/>
   <tile/>
   <tile/>
   <tile/>
   <tile/>
   <tile/>
   <tile/>
   <tile/>
   <tile/>
   <tile/>
   <tile/>
   <tile/>
   <tile/>
   <tile/>
   <tile/>
   <tile/>
   <tile/>
   <tile/>
   <tile/>
   <tile/>
   <tile/>
   <tile/>
   <tile/>
   <tile/>
   <tile/>
   <tile/>
   <tile/>
   <tile/>
   <tile/>
   <tile/>
   <tile/>
   <tile/>
   <tile/>
   <tile/>
   <tile/>
   <tile/>
   <tile/>
   <tile/>
   <tile/>
   <tile/>
   <tile/>
   <tile/>
   <tile/>
   <tile/>
   <tile/>
   <tile/>
   <tile/>
   <tile/>
   <tile/>
   <tile gid="129"/>
   <tile gid="129"/>
   <tile/>
   <tile/>
   <tile/>
   <tile/>
   <tile/>
   <tile/>
   <tile/>
   <tile/>
   <tile/>
   <tile/>
   <tile/>
   <tile/>
   <tile/>
   <tile/>
   <tile/>
   <tile/>
   <tile/>
   <tile/>
   <tile/>
   <tile/>
   <tile gid="129"/>
   <tile/>
   <tile/>
   <tile/>
   <tile/>
   <tile/>
   <tile/>
   <tile/>
   <tile/>
   <tile gid="129"/>
   <tile/>
   <tile/>
   <tile/>
   <tile/>
   <tile/>
   <tile/>
   <tile/>
   <tile/>
   <tile gid="129"/>
   <tile gid="129"/>
   <tile gid="129"/>
   <tile/>
   <tile/>
   <tile/>
   <tile/>
   <tile/>
   <tile gid="129"/>
   <tile/>
   <tile/>
   <tile/>
   <tile/>
   <tile/>
   <tile/>
   <tile/>
   <tile/>
   <tile/>
   <tile/>
   <tile gid="129"/>
   <tile/>
   <tile/>
   <tile/>
   <tile/>
   <tile/>
   <tile/>
   <tile/>
   <tile/>
   <tile/>
   <tile/>
   <tile/>
   <tile/>
   <tile/>
   <tile/>
   <tile/>
   <tile/>
   <tile/>
   <tile/>
   <tile/>
   <tile/>
   <tile/>
   <tile gid="129"/>
   <tile/>
   <tile/>
   <tile/>
   <tile/>
   <tile/>
   <tile/>
   <tile/>
   <tile/>
   <tile/>
   <tile/>
   <tile/>
   <tile/>
   <tile/>
   <tile/>
   <tile/>
   <tile/>
   <tile/>
   <tile/>
   <tile/>
   <tile/>
   <tile/>
   <tile/>
   <tile/>
   <tile/>
   <tile/>
   <tile/>
   <tile/>
   <tile/>
   <tile/>
   <tile/>
   <tile/>
   <tile/>
   <tile/>
   <tile/>
   <tile/>
   <tile/>
   <tile/>
   <tile/>
   <tile/>
   <tile/>
   <tile/>
   <tile/>
   <tile/>
   <tile/>
   <tile/>
   <tile/>
   <tile/>
   <tile/>
   <tile/>
   <tile/>
   <tile/>
   <tile/>
   <tile/>
   <tile/>
   <tile/>
   <tile/>
   <tile/>
   <tile/>
   <tile/>
   <tile/>
   <tile/>
   <tile/>
   <tile/>
   <tile/>
   <tile/>
   <tile/>
   <tile/>
   <tile/>
   <tile/>
   <tile/>
   <tile/>
   <tile/>
   <tile/>
   <tile/>
   <tile/>
   <tile/>
   <tile/>
   <tile/>
   <tile/>
   <tile/>
   <tile/>
   <tile/>
   <tile/>
   <tile/>
   <tile/>
   <tile/>
   <tile/>
   <tile/>
   <tile/>
   <tile/>
   <tile/>
   <tile/>
   <tile/>
   <tile/>
   <tile gid="129"/>
   <tile gid="129"/>
   <tile/>
   <tile/>
   <tile/>
   <tile/>
   <tile/>
   <tile/>
   <tile/>
   <tile/>
   <tile/>
   <tile/>
   <tile/>
   <tile/>
   <tile/>
   <tile/>
   <tile/>
   <tile/>
   <tile/>
   <tile/>
   <tile/>
   <tile/>
   <tile gid="129"/>
   <tile/>
   <tile/>
   <tile/>
   <tile/>
   <tile/>
   <tile/>
   <tile/>
   <tile/>
   <tile gid="129"/>
   <tile/>
   <tile/>
   <tile/>
   <tile/>
   <tile/>
   <tile/>
   <tile/>
   <tile/>
   <tile gid="129"/>
   <tile gid="129"/>
   <tile gid="129"/>
   <tile/>
   <tile/>
   <tile/>
   <tile/>
   <tile/>
   <tile gid="129"/>
   <tile/>
   <tile/>
   <tile/>
   <tile/>
   <tile/>
   <tile/>
   <tile/>
   <tile/>
   <tile/>
   <tile/>
   <tile gid="129"/>
   <tile/>
   <tile/>
   <tile/>
   <tile/>
   <tile/>
   <tile/>
   <tile/>
   <tile/>
   <tile/>
   <tile/>
   <tile/>
   <tile/>
   <tile/>
   <tile/>
   <tile/>
   <tile/>
   <tile/>
   <tile/>
   <tile/>
   <tile/>
   <tile/>
   <tile gid="129"/>
   <tile/>
   <tile/>
   <tile/>
   <tile/>
   <tile/>
   <tile/>
   <tile/>
   <tile/>
   <tile/>
   <tile/>
   <tile/>
   <tile/>
   <tile/>
   <tile/>
   <tile/>
   <tile/>
   <tile/>
   <tile/>
   <tile/>
   <tile/>
   <tile/>
   <tile/>
   <tile/>
   <tile/>
   <tile/>
   <tile/>
   <tile/>
   <tile/>
   <tile/>
   <tile/>
   <tile/>
   <tile/>
   <tile/>
   <tile/>
   <tile/>
   <tile/>
   <tile/>
   <tile/>
   <tile/>
   <tile/>
   <tile/>
   <tile/>
   <tile/>
   <tile/>
   <tile/>
   <tile/>
   <tile/>
   <tile/>
   <tile/>
   <tile/>
   <tile/>
   <tile/>
   <tile/>
   <tile/>
   <tile/>
   <tile/>
   <tile/>
   <tile/>
   <tile/>
   <tile/>
   <tile/>
   <tile/>
   <tile/>
   <tile/>
   <tile/>
   <tile/>
   <tile/>
   <tile/>
   <tile/>
   <tile/>
   <tile/>
   <tile/>
   <tile/>
   <tile/>
   <tile/>
   <tile/>
   <tile/>
   <tile/>
   <tile/>
   <tile/>
   <tile/>
   <tile/>
   <tile/>
   <tile/>
   <tile/>
   <tile/>
   <tile/>
   <tile/>
   <tile/>
   <tile/>
   <tile/>
   <tile/>
   <tile/>
   <tile/>
   <tile gid="129"/>
   <tile gid="129"/>
   <tile/>
   <tile/>
   <tile/>
   <tile/>
   <tile/>
   <tile/>
   <tile/>
   <tile/>
   <tile/>
   <tile/>
   <tile/>
   <tile/>
   <tile/>
   <tile/>
   <tile/>
   <tile/>
   <tile/>
   <tile/>
   <tile/>
   <tile/>
   <tile gid="129"/>
   <tile/>
   <tile/>
   <tile/>
   <tile/>
   <tile/>
   <tile/>
   <tile/>
   <tile/>
   <tile gid="129"/>
   <tile/>
   <tile/>
   <tile/>
   <tile/>
   <tile/>
   <tile/>
   <tile/>
   <tile/>
   <tile gid="129"/>
   <tile gid="129"/>
   <tile gid="129"/>
   <tile/>
   <tile/>
   <tile/>
   <tile/>
   <tile/>
   <tile gid="129"/>
   <tile/>
   <tile/>
   <tile/>
   <tile/>
   <tile/>
   <tile/>
   <tile/>
   <tile/>
   <tile/>
   <tile/>
   <tile gid="129"/>
   <tile/>
   <tile/>
   <tile/>
   <tile/>
   <tile/>
   <tile/>
   <tile/>
   <tile/>
   <tile/>
   <tile/>
   <tile/>
   <tile/>
   <tile/>
   <tile/>
   <tile/>
   <tile/>
   <tile/>
   <tile/>
   <tile/>
   <tile/>
   <tile/>
   <tile gid="129"/>
   <tile/>
   <tile/>
   <tile/>
   <tile/>
   <tile/>
   <tile/>
   <tile/>
   <tile/>
   <tile/>
   <tile/>
   <tile/>
   <tile/>
   <tile/>
   <tile/>
   <tile/>
   <tile/>
   <tile/>
   <tile/>
   <tile/>
   <tile/>
   <tile/>
   <tile/>
   <tile/>
   <tile/>
   <tile/>
   <tile/>
   <tile/>
   <tile/>
   <tile/>
   <tile/>
   <tile/>
   <tile/>
   <tile/>
   <tile/>
   <tile/>
   <tile/>
   <tile/>
   <tile/>
   <tile/>
   <tile/>
   <tile/>
   <tile/>
   <tile/>
   <tile/>
   <tile/>
   <tile/>
   <tile/>
   <tile/>
   <tile/>
   <tile/>
   <tile/>
   <tile/>
   <tile/>
   <tile/>
   <tile/>
   <tile/>
   <tile/>
   <tile/>
   <tile/>
   <tile/>
   <tile/>
   <tile/>
   <tile/>
   <tile/>
   <tile/>
   <tile/>
   <tile/>
   <tile/>
   <tile/>
   <tile/>
   <tile/>
   <tile/>
   <tile/>
   <tile/>
   <tile/>
   <tile/>
   <tile/>
   <tile/>
   <tile/>
   <tile/>
   <tile/>
   <tile/>
   <tile/>
   <tile/>
   <tile/>
   <tile/>
   <tile/>
   <tile/>
   <tile/>
   <tile/>
   <tile/>
   <tile/>
   <tile/>
   <tile gid="129"/>
   <tile gid="129"/>
   <tile gid="129"/>
   <tile/>
   <tile/>
   <tile/>
   <tile/>
   <tile/>
   <tile/>
   <tile/>
   <tile/>
   <tile/>
   <tile/>
   <tile/>
   <tile/>
   <tile/>
   <tile/>
   <tile/>
   <tile/>
   <tile/>
   <tile/>
   <tile/>
   <tile/>
   <tile gid="129"/>
   <tile/>
   <tile/>
   <tile/>
   <tile/>
   <tile/>
   <tile/>
   <tile/>
   <tile/>
   <tile gid="129"/>
   <tile/>
   <tile/>
   <tile/>
   <tile/>
   <tile/>
   <tile/>
   <tile/>
   <tile/>
   <tile gid="129"/>
   <tile gid="129"/>
   <tile gid="129"/>
   <tile/>
   <tile/>
   <tile/>
   <tile/>
   <tile/>
   <tile gid="129"/>
   <tile/>
   <tile/>
   <tile/>
   <tile/>
   <tile/>
   <tile/>
   <tile/>
   <tile/>
   <tile/>
   <tile/>
   <tile gid="129"/>
   <tile/>
   <tile/>
   <tile/>
   <tile/>
   <tile/>
   <tile/>
   <tile/>
   <tile/>
   <tile/>
   <tile/>
   <tile/>
   <tile/>
   <tile/>
   <tile/>
   <tile/>
   <tile/>
   <tile/>
   <tile/>
   <tile/>
   <tile/>
   <tile/>
   <tile gid="129"/>
   <tile/>
   <tile/>
   <tile/>
   <tile/>
   <tile/>
   <tile/>
   <tile/>
   <tile/>
   <tile/>
   <tile/>
   <tile/>
   <tile/>
   <tile/>
   <tile/>
   <tile/>
   <tile/>
   <tile/>
   <tile/>
   <tile/>
   <tile/>
   <tile/>
   <tile/>
   <tile/>
   <tile/>
   <tile/>
   <tile/>
   <tile/>
   <tile/>
   <tile/>
   <tile/>
   <tile/>
   <tile/>
   <tile/>
   <tile/>
   <tile/>
   <tile/>
   <tile/>
   <tile/>
   <tile/>
   <tile/>
   <tile/>
   <tile/>
   <tile/>
   <tile/>
   <tile/>
   <tile/>
   <tile/>
   <tile/>
   <tile/>
   <tile/>
   <tile/>
   <tile/>
   <tile/>
   <tile/>
   <tile/>
   <tile/>
   <tile/>
   <tile/>
   <tile/>
   <tile/>
   <tile/>
   <tile/>
   <tile/>
   <tile/>
   <tile/>
   <tile/>
   <tile/>
   <tile/>
   <tile/>
   <tile/>
   <tile/>
   <tile/>
   <tile/>
   <tile/>
   <tile/>
   <tile/>
   <tile/>
   <tile/>
   <tile/>
   <tile/>
   <tile/>
   <tile/>
   <tile/>
   <tile/>
   <tile/>
   <tile/>
   <tile/>
   <tile/>
   <tile/>
   <tile/>
   <tile/>
   <tile/>
   <tile/>
   <tile gid="129"/>
   <tile gid="129"/>
   <tile gid="129"/>
   <tile/>
   <tile/>
   <tile/>
   <tile/>
   <tile/>
   <tile/>
   <tile/>
   <tile/>
   <tile/>
   <tile/>
   <tile/>
   <tile/>
   <tile/>
   <tile/>
   <tile/>
   <tile/>
   <tile/>
   <tile/>
   <tile/>
   <tile/>
   <tile gid="129"/>
   <tile/>
   <tile/>
   <tile/>
   <tile/>
   <tile/>
   <tile/>
   <tile/>
   <tile/>
   <tile gid="129"/>
   <tile/>
   <tile/>
   <tile/>
   <tile/>
   <tile/>
   <tile/>
   <tile/>
   <tile/>
   <tile gid="129"/>
   <tile gid="129"/>
   <tile gid="129"/>
   <tile/>
   <tile/>
   <tile/>
   <tile/>
   <tile/>
   <tile gid="129"/>
   <tile/>
   <tile/>
   <tile/>
   <tile/>
   <tile/>
   <tile/>
   <tile/>
   <tile/>
   <tile/>
   <tile/>
   <tile gid="129"/>
   <tile/>
   <tile/>
   <tile/>
   <tile/>
   <tile/>
   <tile/>
   <tile/>
   <tile/>
   <tile/>
   <tile/>
   <tile/>
   <tile/>
   <tile/>
   <tile/>
   <tile/>
   <tile/>
   <tile/>
   <tile/>
   <tile/>
   <tile/>
   <tile/>
   <tile gid="129"/>
   <tile/>
   <tile/>
   <tile/>
   <tile/>
   <tile/>
   <tile/>
   <tile/>
   <tile/>
   <tile/>
   <tile/>
   <tile/>
   <tile/>
   <tile/>
   <tile/>
   <tile/>
   <tile/>
   <tile/>
   <tile/>
   <tile/>
   <tile/>
   <tile/>
   <tile/>
   <tile/>
   <tile/>
   <tile/>
   <tile/>
   <tile/>
   <tile/>
   <tile/>
   <tile/>
   <tile/>
   <tile/>
   <tile/>
   <tile/>
   <tile/>
   <tile/>
   <tile/>
   <tile/>
   <tile/>
   <tile/>
   <tile/>
   <tile/>
   <tile/>
   <tile/>
   <tile/>
   <tile/>
   <tile/>
   <tile/>
   <tile/>
   <tile/>
   <tile/>
   <tile/>
   <tile/>
   <tile/>
   <tile/>
   <tile/>
   <tile/>
   <tile/>
   <tile/>
   <tile/>
   <tile/>
   <tile/>
   <tile/>
   <tile/>
   <tile/>
   <tile/>
   <tile/>
   <tile/>
   <tile/>
   <tile/>
   <tile/>
   <tile/>
   <tile/>
   <tile/>
   <tile/>
   <tile/>
   <tile/>
   <tile/>
   <tile/>
   <tile/>
   <tile/>
   <tile/>
   <tile/>
   <tile/>
   <tile/>
   <tile/>
   <tile/>
   <tile/>
   <tile/>
   <tile/>
   <tile/>
   <tile/>
   <tile/>
   <tile gid="129"/>
   <tile gid="129"/>
   <tile gid="129"/>
   <tile/>
   <tile/>
   <tile/>
   <tile/>
   <tile/>
   <tile/>
   <tile/>
   <tile/>
   <tile/>
   <tile/>
   <tile/>
   <tile/>
   <tile/>
   <tile/>
   <tile/>
   <tile/>
   <tile/>
   <tile/>
   <tile/>
   <tile/>
   <tile gid="129"/>
   <tile/>
   <tile/>
   <tile/>
   <tile/>
   <tile/>
   <tile/>
   <tile/>
   <tile/>
   <tile gid="129"/>
   <tile/>
   <tile/>
   <tile/>
   <tile/>
   <tile/>
   <tile/>
   <tile/>
   <tile/>
   <tile gid="129"/>
   <tile gid="129"/>
   <tile gid="129"/>
   <tile/>
   <tile/>
   <tile/>
   <tile/>
   <tile/>
   <tile gid="129"/>
   <tile/>
   <tile/>
   <tile/>
   <tile/>
   <tile/>
   <tile/>
   <tile/>
   <tile/>
   <tile/>
   <tile/>
   <tile gid="129"/>
   <tile/>
   <tile/>
   <tile/>
   <tile/>
   <tile/>
   <tile/>
   <tile/>
   <tile/>
   <tile/>
   <tile/>
   <tile/>
   <tile/>
   <tile/>
   <tile/>
   <tile/>
   <tile/>
   <tile/>
   <tile/>
   <tile/>
   <tile/>
   <tile/>
   <tile gid="129"/>
   <tile/>
   <tile/>
   <tile/>
   <tile/>
   <tile/>
   <tile/>
   <tile/>
   <tile/>
   <tile/>
   <tile/>
   <tile/>
   <tile/>
   <tile/>
   <tile/>
   <tile/>
   <tile/>
   <tile/>
   <tile/>
   <tile/>
   <tile/>
   <tile/>
   <tile/>
   <tile/>
   <tile/>
   <tile/>
   <tile/>
   <tile/>
   <tile/>
   <tile/>
   <tile/>
   <tile/>
   <tile/>
   <tile/>
   <tile/>
   <tile/>
   <tile/>
   <tile/>
   <tile/>
   <tile/>
   <tile/>
   <tile/>
   <tile/>
   <tile/>
   <tile/>
   <tile/>
   <tile/>
   <tile/>
   <tile/>
   <tile/>
   <tile/>
   <tile/>
   <tile/>
   <tile/>
   <tile/>
   <tile/>
   <tile/>
   <tile/>
   <tile/>
   <tile/>
   <tile/>
   <tile/>
   <tile/>
   <tile/>
   <tile/>
   <tile/>
   <tile/>
   <tile/>
   <tile/>
   <tile/>
   <tile/>
   <tile/>
   <tile/>
   <tile/>
   <tile/>
   <tile/>
   <tile/>
   <tile/>
   <tile/>
   <tile/>
   <tile/>
   <tile/>
   <tile/>
   <tile/>
   <tile/>
   <tile/>
   <tile/>
   <tile/>
   <tile/>
   <tile/>
   <tile/>
   <tile/>
   <tile/>
   <tile/>
   <tile gid="129"/>
   <tile gid="129"/>
   <tile gid="129"/>
   <tile/>
   <tile/>
   <tile/>
   <tile/>
   <tile/>
   <tile/>
   <tile/>
   <tile/>
   <tile/>
   <tile/>
   <tile/>
   <tile/>
   <tile/>
   <tile/>
   <tile/>
   <tile/>
   <tile/>
   <tile/>
   <tile/>
   <tile/>
   <tile gid="129"/>
   <tile/>
   <tile/>
   <tile/>
   <tile/>
   <tile/>
   <tile/>
   <tile/>
   <tile/>
   <tile gid="129"/>
   <tile/>
   <tile/>
   <tile/>
   <tile/>
   <tile/>
   <tile/>
   <tile/>
   <tile/>
   <tile gid="129"/>
   <tile gid="129"/>
   <tile gid="129"/>
   <tile/>
   <tile/>
   <tile/>
   <tile gid="129"/>
   <tile gid="129"/>
   <tile gid="129"/>
   <tile gid="129"/>
   <tile gid="129"/>
   <tile gid="129"/>
   <tile gid="129"/>
   <tile gid="129"/>
   <tile gid="129"/>
   <tile gid="129"/>
   <tile gid="129"/>
   <tile gid="129"/>
   <tile gid="129"/>
   <tile gid="129"/>
   <tile gid="129"/>
   <tile gid="129"/>
   <tile gid="129"/>
   <tile gid="129"/>
   <tile gid="129"/>
   <tile gid="129"/>
   <tile gid="129"/>
   <tile gid="129"/>
   <tile gid="129"/>
   <tile gid="129"/>
   <tile gid="129"/>
   <tile gid="129"/>
   <tile gid="129"/>
   <tile gid="129"/>
   <tile gid="129"/>
   <tile gid="129"/>
   <tile gid="129"/>
   <tile/>
   <tile/>
   <tile/>
   <tile/>
   <tile gid="129"/>
   <tile/>
   <tile/>
   <tile/>
   <tile/>
   <tile/>
   <tile/>
   <tile/>
   <tile/>
   <tile/>
   <tile/>
   <tile/>
   <tile/>
   <tile/>
   <tile/>
   <tile/>
   <tile/>
   <tile/>
   <tile/>
   <tile/>
   <tile/>
   <tile/>
   <tile/>
   <tile/>
   <tile/>
   <tile/>
   <tile/>
   <tile/>
   <tile/>
   <tile/>
   <tile/>
   <tile/>
   <tile/>
   <tile/>
   <tile/>
   <tile/>
   <tile/>
   <tile/>
   <tile/>
   <tile/>
   <tile/>
   <tile/>
   <tile/>
   <tile/>
   <tile/>
   <tile/>
   <tile/>
   <tile/>
   <tile/>
   <tile/>
   <tile/>
   <tile/>
   <tile/>
   <tile/>
   <tile/>
   <tile/>
   <tile/>
   <tile/>
   <tile/>
   <tile/>
   <tile/>
   <tile/>
   <tile/>
   <tile/>
   <tile/>
   <tile/>
   <tile/>
   <tile/>
   <tile/>
   <tile/>
   <tile/>
   <tile/>
   <tile/>
   <tile/>
   <tile/>
   <tile/>
   <tile/>
   <tile/>
   <tile/>
   <tile gid="129"/>
   <tile gid="129"/>
   <tile gid="129"/>
   <tile gid="129"/>
   <tile gid="129"/>
   <tile gid="129"/>
   <tile gid="129"/>
   <tile gid="129"/>
   <tile gid="129"/>
   <tile gid="129"/>
   <tile gid="129"/>
   <tile gid="129"/>
   <tile gid="129"/>
   <tile gid="129"/>
   <tile gid="129"/>
   <tile gid="129"/>
   <tile gid="129"/>
   <tile gid="129"/>
   <tile/>
   <tile/>
   <tile/>
   <tile/>
   <tile/>
   <tile/>
   <tile/>
   <tile/>
   <tile/>
   <tile/>
   <tile/>
   <tile/>
   <tile/>
   <tile/>
   <tile/>
   <tile/>
   <tile/>
   <tile/>
   <tile/>
   <tile/>
   <tile/>
   <tile gid="129"/>
   <tile gid="129"/>
   <tile gid="129"/>
   <tile gid="129"/>
   <tile gid="129"/>
   <tile gid="129"/>
   <tile gid="129"/>
   <tile gid="129"/>
   <tile/>
   <tile/>
   <tile/>
   <tile/>
   <tile/>
   <tile/>
   <tile/>
   <tile/>
   <tile/>
   <tile gid="129"/>
   <tile gid="129"/>
   <tile gid="129"/>
   <tile/>
   <tile/>
   <tile/>
   <tile/>
   <tile/>
   <tile gid="129"/>
   <tile/>
   <tile/>
   <tile/>
   <tile/>
   <tile/>
   <tile gid="129"/>
   <tile/>
   <tile/>
   <tile/>
   <tile/>
   <tile gid="129"/>
   <tile gid="129"/>
   <tile gid="129"/>
   <tile gid="129"/>
   <tile gid="129"/>
   <tile gid="129"/>
   <tile gid="129"/>
   <tile gid="129"/>
   <tile gid="129"/>
   <tile gid="129"/>
   <tile gid="129"/>
   <tile gid="129"/>
   <tile gid="129"/>
   <tile gid="129"/>
   <tile gid="129"/>
   <tile gid="129"/>
   <tile gid="129"/>
   <tile gid="129"/>
   <tile gid="129"/>
   <tile gid="129"/>
   <tile/>
   <tile/>
   <tile gid="129"/>
   <tile/>
   <tile/>
   <tile/>
   <tile/>
   <tile/>
   <tile/>
   <tile/>
   <tile/>
   <tile/>
   <tile/>
   <tile/>
   <tile/>
   <tile/>
   <tile/>
   <tile/>
   <tile/>
   <tile/>
   <tile/>
   <tile/>
   <tile/>
   <tile/>
   <tile/>
   <tile/>
   <tile/>
   <tile/>
   <tile/>
   <tile/>
   <tile/>
   <tile/>
   <tile/>
   <tile/>
   <tile/>
   <tile/>
   <tile/>
   <tile/>
   <tile/>
   <tile/>
   <tile/>
   <tile/>
   <tile/>
   <tile/>
   <tile/>
   <tile/>
   <tile/>
   <tile/>
   <tile/>
   <tile/>
   <tile/>
   <tile/>
   <tile/>
   <tile/>
   <tile/>
   <tile/>
   <tile/>
   <tile/>
   <tile/>
   <tile/>
   <tile/>
   <tile/>
   <tile/>
   <tile/>
   <tile/>
   <tile/>
   <tile/>
   <tile/>
   <tile/>
   <tile/>
   <tile/>
   <tile gid="129"/>
   <tile/>
   <tile/>
   <tile/>
   <tile/>
   <tile/>
   <tile/>
   <tile/>
   <tile gid="129"/>
   <tile gid="129"/>
   <tile gid="129"/>
   <tile gid="129"/>
   <tile gid="129"/>
   <tile gid="129"/>
   <tile gid="129"/>
   <tile gid="129"/>
   <tile gid="129"/>
   <tile gid="129"/>
   <tile gid="129"/>
   <tile gid="129"/>
   <tile gid="129"/>
   <tile gid="129"/>
   <tile gid="129"/>
   <tile gid="129"/>
   <tile gid="129"/>
   <tile gid="129"/>
   <tile gid="129"/>
   <tile gid="129"/>
   <tile/>
   <tile/>
   <tile/>
   <tile/>
   <tile/>
   <tile/>
   <tile/>
   <tile/>
   <tile/>
   <tile/>
   <tile/>
   <tile/>
   <tile/>
   <tile/>
   <tile/>
   <tile/>
   <tile/>
   <tile/>
   <tile/>
   <tile/>
   <tile/>
   <tile gid="129"/>
   <tile gid="129"/>
   <tile gid="129"/>
   <tile gid="129"/>
   <tile gid="129"/>
   <tile gid="129"/>
   <tile gid="129"/>
   <tile gid="129"/>
   <tile/>
   <tile/>
   <tile gid="129"/>
   <tile gid="129"/>
   <tile/>
   <tile/>
   <tile/>
   <tile/>
   <tile/>
   <tile gid="129"/>
   <tile gid="129"/>
   <tile gid="129"/>
   <tile/>
   <tile/>
   <tile/>
   <tile/>
   <tile/>
   <tile gid="129"/>
   <tile/>
   <tile/>
   <tile/>
   <tile/>
   <tile/>
   <tile gid="129"/>
   <tile/>
   <tile/>
   <tile/>
   <tile/>
   <tile gid="129"/>
   <tile/>
   <tile gid="129"/>
   <tile gid="129"/>
   <tile gid="129"/>
   <tile gid="129"/>
   <tile gid="129"/>
   <tile gid="129"/>
   <tile gid="129"/>
   <tile gid="129"/>
   <tile gid="129"/>
   <tile gid="129"/>
   <tile gid="129"/>
   <tile gid="129"/>
   <tile gid="129"/>
   <tile gid="129"/>
   <tile gid="129"/>
   <tile gid="129"/>
   <tile gid="129"/>
   <tile gid="129"/>
   <tile gid="129"/>
   <tile gid="129"/>
   <tile/>
   <tile/>
   <tile/>
   <tile/>
   <tile/>
   <tile/>
   <tile/>
   <tile/>
   <tile/>
   <tile/>
   <tile/>
   <tile/>
   <tile/>
   <tile/>
   <tile/>
   <tile/>
   <tile/>
   <tile/>
   <tile/>
   <tile/>
   <tile/>
   <tile/>
   <tile/>
   <tile/>
   <tile/>
   <tile/>
   <tile/>
   <tile/>
   <tile/>
   <tile/>
   <tile/>
   <tile/>
   <tile/>
   <tile/>
   <tile/>
   <tile/>
   <tile/>
   <tile/>
   <tile/>
   <tile/>
   <tile/>
   <tile/>
   <tile/>
   <tile/>
   <tile/>
   <tile/>
   <tile/>
   <tile/>
   <tile/>
   <tile/>
   <tile/>
   <tile/>
   <tile/>
   <tile/>
   <tile/>
   <tile/>
   <tile/>
   <tile/>
   <tile/>
   <tile/>
   <tile/>
   <tile/>
   <tile/>
   <tile/>
   <tile/>
   <tile/>
   <tile/>
   <tile/>
   <tile/>
   <tile gid="129"/>
   <tile/>
   <tile/>
   <tile/>
   <tile/>
   <tile/>
   <tile gid="129"/>
   <tile gid="129"/>
   <tile gid="129"/>
   <tile gid="129"/>
   <tile gid="129"/>
   <tile gid="129"/>
   <tile gid="129"/>
   <tile gid="129"/>
   <tile gid="129"/>
   <tile gid="129"/>
   <tile gid="129"/>
   <tile gid="129"/>
   <tile gid="129"/>
   <tile gid="129"/>
   <tile gid="129"/>
   <tile gid="129"/>
   <tile gid="129"/>
   <tile gid="129"/>
   <tile gid="129"/>
   <tile gid="129"/>
   <tile gid="129"/>
   <tile/>
   <tile/>
   <tile/>
   <tile/>
   <tile/>
   <tile/>
   <tile gid="129"/>
   <tile gid="129"/>
   <tile/>
   <tile/>
   <tile/>
   <tile/>
   <tile/>
   <tile/>
   <tile/>
   <tile/>
   <tile/>
   <tile gid="129"/>
   <tile/>
   <tile/>
   <tile/>
   <tile/>
   <tile/>
   <tile gid="129"/>
   <tile gid="129"/>
   <tile gid="129"/>
   <tile gid="129"/>
   <tile gid="129"/>
   <tile gid="129"/>
   <tile/>
   <tile/>
   <tile/>
   <tile/>
   <tile/>
   <tile/>
   <tile/>
   <tile/>
   <tile/>
   <tile/>
   <tile gid="129"/>
   <tile gid="129"/>
   <tile gid="129"/>
   <tile/>
   <tile/>
   <tile/>
   <tile/>
   <tile/>
   <tile gid="129"/>
   <tile/>
   <tile/>
   <tile/>
   <tile/>
   <tile/>
   <tile gid="129"/>
   <tile/>
   <tile/>
   <tile/>
   <tile/>
   <tile gid="129"/>
   <tile/>
   <tile/>
   <tile gid="129"/>
   <tile gid="129"/>
   <tile gid="129"/>
   <tile gid="129"/>
   <tile gid="129"/>
   <tile gid="129"/>
   <tile gid="129"/>
   <tile gid="129"/>
   <tile gid="129"/>
   <tile gid="129"/>
   <tile gid="129"/>
   <tile gid="129"/>
   <tile gid="129"/>
   <tile gid="129"/>
   <tile gid="129"/>
   <tile gid="129"/>
   <tile gid="129"/>
   <tile gid="129"/>
   <tile/>
   <tile/>
   <tile/>
   <tile/>
   <tile/>
   <tile/>
   <tile/>
   <tile/>
   <tile/>
   <tile/>
   <tile/>
   <tile/>
   <tile/>
   <tile/>
   <tile/>
   <tile/>
   <tile/>
   <tile/>
   <tile/>
   <tile/>
   <tile/>
   <tile/>
   <tile/>
   <tile/>
   <tile/>
   <tile/>
   <tile/>
   <tile/>
   <tile/>
   <tile/>
   <tile/>
   <tile/>
   <tile/>
   <tile/>
   <tile/>
   <tile/>
   <tile/>
   <tile/>
   <tile/>
   <tile/>
   <tile/>
   <tile/>
   <tile/>
   <tile/>
   <tile/>
   <tile/>
   <tile/>
   <tile/>
   <tile/>
   <tile/>
   <tile/>
   <tile/>
   <tile/>
   <tile/>
   <tile/>
   <tile/>
   <tile/>
   <tile/>
   <tile/>
   <tile/>
   <tile/>
   <tile/>
   <tile/>
   <tile/>
   <tile/>
   <tile/>
   <tile/>
   <tile/>
   <tile/>
   <tile/>
   <tile gid="129"/>
   <tile/>
   <tile/>
   <tile/>
   <tile/>
   <tile/>
   <tile/>
   <tile gid="129"/>
   <tile/>
   <tile/>
   <tile gid="129"/>
   <tile/>
   <tile/>
   <tile/>
   <tile/>
   <tile/>
   <tile/>
   <tile gid="129"/>
   <tile/>
   <tile/>
   <tile/>
   <tile/>
   <tile/>
   <tile/>
   <tile/>
   <tile/>
   <tile/>
   <tile/>
   <tile/>
   <tile/>
   <tile/>
   <tile/>
   <tile/>
   <tile/>
   <tile gid="129"/>
   <tile/>
   <tile/>
   <tile/>
   <tile/>
   <tile/>
   <tile/>
   <tile/>
   <tile/>
   <tile/>
   <tile gid="129"/>
   <tile/>
   <tile gid="129"/>
   <tile/>
   <tile/>
   <tile/>
   <tile/>
   <tile gid="129"/>
   <tile gid="129"/>
   <tile gid="129"/>
   <tile gid="129"/>
   <tile/>
   <tile/>
   <tile/>
   <tile/>
   <tile/>
   <tile/>
   <tile/>
   <tile/>
   <tile gid="129"/>
   <tile gid="129"/>
   <tile/>
   <tile gid="129"/>
   <tile gid="129"/>
   <tile gid="129"/>
   <tile gid="129"/>
   <tile gid="129"/>
   <tile/>
   <tile/>
   <tile/>
   <tile gid="129"/>
   <tile/>
   <tile/>
   <tile/>
   <tile/>
   <tile/>
   <tile gid="129"/>
   <tile/>
   <tile/>
   <tile/>
   <tile/>
   <tile gid="129"/>
   <tile/>
   <tile/>
   <tile gid="129"/>
   <tile/>
   <tile/>
   <tile/>
   <tile/>
   <tile/>
   <tile/>
   <tile/>
   <tile/>
   <tile/>
   <tile/>
   <tile/>
   <tile/>
   <tile/>
   <tile/>
   <tile/>
   <tile/>
   <tile/>
   <tile/>
   <tile/>
   <tile/>
   <tile gid="129"/>
   <tile gid="129"/>
   <tile gid="129"/>
   <tile/>
   <tile/>
   <tile/>
   <tile/>
   <tile/>
   <tile/>
   <tile/>
   <tile/>
   <tile/>
   <tile/>
   <tile/>
   <tile/>
   <tile/>
   <tile/>
   <tile/>
   <tile/>
   <tile/>
   <tile/>
   <tile/>
   <tile/>
   <tile/>
   <tile/>
   <tile/>
   <tile/>
   <tile/>
   <tile/>
   <tile/>
   <tile/>
   <tile/>
   <tile/>
   <tile/>
   <tile/>
   <tile/>
   <tile/>
   <tile/>
   <tile/>
   <tile/>
   <tile/>
   <tile/>
   <tile/>
   <tile/>
   <tile/>
   <tile/>
   <tile/>
   <tile/>
   <tile/>
   <tile/>
   <tile/>
   <tile/>
   <tile/>
   <tile/>
   <tile/>
   <tile/>
   <tile/>
   <tile/>
   <tile/>
   <tile/>
   <tile/>
   <tile/>
   <tile/>
   <tile/>
   <tile/>
   <tile/>
   <tile/>
   <tile gid="129"/>
   <tile/>
   <tile/>
   <tile/>
   <tile/>
   <tile/>
   <tile/>
   <tile gid="129"/>
   <tile/>
   <tile/>
   <tile gid="129"/>
   <tile/>
   <tile/>
   <tile/>
   <tile/>
   <tile/>
   <tile/>
   <tile gid="129"/>
   <tile/>
   <tile/>
   <tile/>
   <tile/>
   <tile/>
   <tile/>
   <tile/>
   <tile/>
   <tile/>
   <tile/>
   <tile/>
   <tile/>
   <tile/>
   <tile/>
   <tile/>
   <tile/>
   <tile gid="129"/>
   <tile/>
   <tile/>
   <tile/>
   <tile/>
   <tile/>
   <tile/>
   <tile/>
   <tile/>
   <tile/>
   <tile gid="129"/>
   <tile/>
   <tile/>
   <tile/>
   <tile/>
   <tile/>
   <tile/>
   <tile/>
   <tile/>
   <tile/>
   <tile/>
   <tile/>
   <tile/>
   <tile/>
   <tile/>
   <tile/>
   <tile/>
   <tile/>
   <tile/>
   <tile/>
   <tile/>
   <tile/>
   <tile gid="129"/>
   <tile gid="129"/>
   <tile gid="129"/>
   <tile gid="129"/>
   <tile gid="129"/>
   <tile/>
   <tile/>
   <tile/>
   <tile gid="129"/>
   <tile/>
   <tile/>
   <tile/>
   <tile/>
   <tile/>
   <tile gid="129"/>
   <tile/>
   <tile/>
   <tile/>
   <tile/>
   <tile gid="129"/>
   <tile/>
   <tile/>
   <tile gid="129"/>
   <tile/>
   <tile/>
   <tile/>
   <tile/>
   <tile/>
   <tile/>
   <tile/>
   <tile/>
   <tile/>
   <tile/>
   <tile/>
   <tile/>
   <tile/>
   <tile/>
   <tile/>
   <tile/>
   <tile/>
   <tile/>
   <tile/>
   <tile/>
   <tile/>
   <tile/>
   <tile/>
   <tile/>
   <tile/>
   <tile/>
   <tile/>
   <tile/>
   <tile/>
   <tile/>
   <tile/>
   <tile/>
   <tile/>
   <tile/>
   <tile/>
   <tile/>
   <tile/>
   <tile/>
   <tile/>
   <tile/>
   <tile/>
   <tile/>
   <tile/>
   <tile/>
   <tile/>
   <tile/>
   <tile/>
   <tile/>
   <tile/>
   <tile/>
   <tile/>
   <tile/>
   <tile/>
   <tile/>
   <tile/>
   <tile/>
   <tile/>
   <tile/>
   <tile/>
   <tile/>
   <tile/>
   <tile/>
   <tile/>
   <tile/>
   <tile/>
   <tile/>
   <tile/>
   <tile/>
   <tile/>
   <tile/>
   <tile/>
   <tile/>
   <tile/>
   <tile/>
   <tile/>
   <tile/>
   <tile/>
   <tile/>
   <tile/>
   <tile/>
   <tile/>
   <tile/>
   <tile/>
   <tile/>
   <tile/>
   <tile/>
   <tile/>
   <tile gid="129"/>
   <tile gid="129"/>
   <tile gid="129"/>
   <tile gid="129"/>
   <tile gid="129"/>
   <tile gid="129"/>
   <tile gid="129"/>
   <tile gid="129"/>
   <tile/>
   <tile/>
   <tile gid="129"/>
   <tile/>
   <tile/>
   <tile/>
   <tile/>
   <tile/>
   <tile/>
   <tile gid="129"/>
   <tile/>
   <tile/>
   <tile/>
   <tile/>
   <tile/>
   <tile/>
   <tile/>
   <tile/>
   <tile/>
   <tile/>
   <tile/>
   <tile/>
   <tile/>
   <tile/>
   <tile/>
   <tile/>
   <tile/>
   <tile gid="129"/>
   <tile gid="129"/>
   <tile gid="129"/>
   <tile gid="129"/>
   <tile gid="129"/>
   <tile gid="129"/>
   <tile gid="129"/>
   <tile gid="129"/>
   <tile gid="129"/>
   <tile/>
   <tile/>
   <tile/>
   <tile/>
   <tile/>
   <tile/>
   <tile/>
   <tile/>
   <tile/>
   <tile/>
   <tile/>
   <tile/>
   <tile/>
   <tile/>
   <tile/>
   <tile/>
   <tile gid="129"/>
   <tile gid="129"/>
   <tile/>
   <tile/>
   <tile/>
   <tile/>
   <tile gid="129"/>
   <tile gid="129"/>
   <tile gid="129"/>
   <tile gid="129"/>
   <tile gid="129"/>
   <tile/>
   <tile/>
   <tile/>
   <tile gid="129"/>
   <tile/>
   <tile/>
   <tile/>
   <tile/>
   <tile/>
   <tile gid="129"/>
   <tile/>
   <tile/>
   <tile/>
   <tile/>
   <tile gid="129"/>
   <tile/>
   <tile/>
   <tile gid="129"/>
   <tile/>
   <tile/>
   <tile/>
   <tile/>
   <tile/>
   <tile/>
   <tile/>
   <tile/>
   <tile/>
   <tile/>
   <tile/>
   <tile/>
   <tile/>
   <tile/>
   <tile/>
   <tile/>
   <tile/>
   <tile/>
   <tile/>
   <tile/>
   <tile/>
   <tile/>
   <tile/>
   <tile/>
   <tile/>
   <tile gid="129"/>
   <tile gid="129"/>
   <tile gid="129"/>
   <tile/>
   <tile/>
   <tile/>
   <tile/>
   <tile/>
   <tile/>
   <tile/>
   <tile/>
   <tile/>
   <tile/>
   <tile/>
   <tile/>
   <tile/>
   <tile/>
   <tile/>
   <tile/>
   <tile/>
   <tile/>
   <tile/>
   <tile/>
   <tile/>
   <tile/>
   <tile/>
   <tile/>
   <tile/>
   <tile/>
   <tile/>
   <tile/>
   <tile/>
   <tile/>
   <tile/>
   <tile/>
   <tile/>
   <tile/>
   <tile/>
   <tile/>
   <tile/>
   <tile/>
   <tile/>
   <tile/>
   <tile/>
   <tile/>
   <tile/>
   <tile/>
   <tile/>
   <tile/>
   <tile/>
   <tile/>
   <tile/>
   <tile/>
   <tile/>
   <tile/>
   <tile/>
   <tile/>
   <tile/>
   <tile/>
   <tile gid="129"/>
   <tile/>
   <tile/>
   <tile gid="129"/>
   <tile/>
   <tile gid="129"/>
   <tile gid="129"/>
   <tile gid="129"/>
   <tile gid="129"/>
   <tile/>
   <tile gid="129"/>
   <tile/>
   <tile/>
   <tile gid="129"/>
   <tile/>
   <tile/>
   <tile/>
   <tile/>
   <tile/>
   <tile/>
   <tile gid="129"/>
   <tile/>
   <tile/>
   <tile/>
   <tile/>
   <tile/>
   <tile/>
   <tile/>
   <tile/>
   <tile/>
   <tile/>
   <tile/>
   <tile/>
   <tile/>
   <tile/>
   <tile/>
   <tile/>
   <tile/>
   <tile gid="129"/>
   <tile gid="129"/>
   <tile gid="129"/>
   <tile gid="129"/>
   <tile gid="129"/>
   <tile gid="129"/>
   <tile gid="129"/>
   <tile gid="129"/>
   <tile gid="129"/>
   <tile/>
   <tile/>
   <tile/>
   <tile/>
   <tile/>
   <tile/>
   <tile/>
   <tile/>
   <tile/>
   <tile/>
   <tile/>
   <tile/>
   <tile/>
   <tile/>
   <tile/>
   <tile/>
   <tile/>
   <tile/>
   <tile/>
   <tile/>
   <tile/>
   <tile/>
   <tile gid="129"/>
   <tile gid="129"/>
   <tile gid="129"/>
   <tile gid="129"/>
   <tile gid="129"/>
   <tile/>
   <tile/>
   <tile/>
   <tile gid="129"/>
   <tile/>
   <tile/>
   <tile/>
   <tile/>
   <tile/>
   <tile gid="129"/>
   <tile/>
   <tile/>
   <tile/>
   <tile/>
   <tile gid="129"/>
   <tile/>
   <tile/>
   <tile gid="129"/>
   <tile/>
   <tile/>
   <tile/>
   <tile/>
   <tile/>
   <tile/>
   <tile/>
   <tile/>
   <tile/>
   <tile/>
   <tile/>
   <tile/>
   <tile/>
   <tile/>
   <tile/>
   <tile/>
   <tile/>
   <tile/>
   <tile/>
   <tile/>
   <tile/>
   <tile/>
   <tile/>
   <tile/>
   <tile/>
   <tile/>
   <tile/>
   <tile/>
   <tile/>
   <tile/>
   <tile/>
   <tile/>
   <tile/>
   <tile/>
   <tile/>
   <tile/>
   <tile/>
   <tile/>
   <tile/>
   <tile/>
   <tile/>
   <tile/>
   <tile/>
   <tile/>
   <tile/>
   <tile/>
   <tile/>
   <tile/>
   <tile/>
   <tile/>
   <tile/>
   <tile/>
   <tile/>
   <tile/>
   <tile/>
   <tile/>
   <tile/>
   <tile/>
   <tile/>
   <tile/>
   <tile/>
   <tile/>
   <tile/>
   <tile/>
   <tile/>
   <tile/>
   <tile/>
   <tile/>
   <tile/>
   <tile/>
   <tile/>
   <tile/>
   <tile/>
   <tile/>
   <tile/>
   <tile/>
   <tile gid="129"/>
   <tile gid="129"/>
   <tile/>
   <tile/>
   <tile/>
   <tile/>
   <tile/>
   <tile/>
   <tile gid="129"/>
   <tile/>
   <tile/>
   <tile gid="129"/>
   <tile/>
   <tile/>
   <tile/>
   <tile/>
   <tile/>
   <tile/>
   <tile gid="129"/>
   <tile/>
   <tile/>
   <tile gid="129"/>
   <tile/>
   <tile/>
   <tile/>
   <tile/>
   <tile/>
   <tile/>
   <tile gid="129"/>
   <tile/>
   <tile/>
   <tile/>
   <tile/>
   <tile/>
   <tile/>
   <tile/>
   <tile/>
   <tile/>
   <tile/>
   <tile/>
   <tile/>
   <tile/>
   <tile/>
   <tile/>
   <tile/>
   <tile/>
   <tile/>
   <tile/>
   <tile/>
   <tile/>
   <tile/>
   <tile/>
   <tile/>
   <tile/>
   <tile/>
   <tile/>
   <tile/>
   <tile/>
   <tile/>
   <tile/>
   <tile/>
   <tile/>
   <tile/>
   <tile/>
   <tile/>
   <tile/>
   <tile/>
   <tile/>
   <tile gid="129"/>
   <tile gid="129"/>
   <tile/>
   <tile/>
   <tile/>
   <tile/>
   <tile/>
   <tile/>
   <tile/>
   <tile gid="129"/>
   <tile gid="129"/>
   <tile gid="129"/>
   <tile gid="129"/>
   <tile gid="129"/>
   <tile/>
   <tile/>
   <tile/>
   <tile gid="129"/>
   <tile/>
   <tile/>
   <tile/>
   <tile/>
   <tile/>
   <tile gid="129"/>
   <tile/>
   <tile/>
   <tile/>
   <tile/>
   <tile gid="129"/>
   <tile/>
   <tile/>
   <tile gid="129"/>
   <tile/>
   <tile/>
   <tile/>
   <tile/>
   <tile/>
   <tile/>
   <tile/>
   <tile/>
   <tile/>
   <tile/>
   <tile/>
   <tile/>
   <tile/>
   <tile/>
   <tile/>
   <tile/>
   <tile/>
   <tile/>
   <tile/>
   <tile/>
   <tile/>
   <tile/>
   <tile/>
   <tile/>
   <tile/>
   <tile/>
   <tile/>
   <tile/>
   <tile/>
   <tile/>
   <tile gid="129"/>
   <tile gid="129"/>
   <tile gid="129"/>
   <tile/>
   <tile/>
   <tile/>
   <tile/>
   <tile/>
   <tile/>
   <tile/>
   <tile/>
   <tile/>
   <tile/>
   <tile/>
   <tile/>
   <tile/>
   <tile/>
   <tile/>
   <tile/>
   <tile/>
   <tile/>
   <tile/>
   <tile/>
   <tile/>
   <tile/>
   <tile/>
   <tile/>
   <tile/>
   <tile/>
   <tile/>
   <tile/>
   <tile/>
   <tile/>
   <tile/>
   <tile/>
   <tile/>
   <tile/>
   <tile/>
   <tile/>
   <tile/>
   <tile/>
   <tile/>
   <tile/>
   <tile/>
   <tile/>
   <tile/>
   <tile gid="129"/>
   <tile gid="129"/>
   <tile/>
   <tile/>
   <tile/>
   <tile/>
   <tile/>
   <tile/>
   <tile gid="129"/>
   <tile gid="129"/>
   <tile gid="129"/>
   <tile gid="129"/>
   <tile/>
   <tile/>
   <tile/>
   <tile/>
   <tile/>
   <tile/>
   <tile gid="129"/>
   <tile gid="129"/>
   <tile gid="129"/>
   <tile gid="129"/>
   <tile/>
   <tile/>
   <tile/>
   <tile/>
   <tile/>
   <tile/>
   <tile gid="129"/>
   <tile/>
   <tile/>
   <tile/>
   <tile/>
   <tile/>
   <tile/>
   <tile/>
   <tile/>
   <tile/>
   <tile/>
   <tile/>
   <tile/>
   <tile/>
   <tile/>
   <tile/>
   <tile/>
   <tile/>
   <tile/>
   <tile/>
   <tile/>
   <tile/>
   <tile/>
   <tile/>
   <tile/>
   <tile/>
   <tile/>
   <tile/>
   <tile/>
   <tile/>
   <tile/>
   <tile/>
   <tile/>
   <tile/>
   <tile/>
   <tile/>
   <tile/>
   <tile/>
   <tile/>
   <tile/>
   <tile/>
   <tile/>
   <tile/>
   <tile/>
   <tile/>
   <tile/>
   <tile/>
   <tile/>
   <tile/>
   <tile gid="129"/>
   <tile gid="129"/>
   <tile gid="129"/>
   <tile gid="129"/>
   <tile gid="129"/>
   <tile/>
   <tile/>
   <tile/>
   <tile/>
   <tile/>
   <tile/>
   <tile/>
   <tile/>
   <tile/>
   <tile gid="129"/>
   <tile/>
   <tile/>
   <tile/>
   <tile/>
   <tile gid="129"/>
   <tile/>
   <tile/>
   <tile gid="129"/>
   <tile/>
   <tile/>
   <tile/>
   <tile/>
   <tile/>
   <tile/>
   <tile/>
   <tile/>
   <tile/>
   <tile/>
   <tile/>
   <tile/>
   <tile/>
   <tile/>
   <tile/>
   <tile/>
   <tile/>
   <tile/>
   <tile/>
   <tile/>
   <tile/>
   <tile/>
   <tile/>
   <tile/>
   <tile/>
   <tile/>
   <tile/>
   <tile/>
   <tile/>
   <tile/>
   <tile/>
   <tile/>
   <tile/>
   <tile/>
   <tile/>
   <tile/>
   <tile/>
   <tile/>
   <tile/>
   <tile/>
   <tile/>
   <tile/>
   <tile/>
   <tile/>
   <tile/>
   <tile/>
   <tile/>
   <tile/>
   <tile/>
   <tile/>
   <tile/>
   <tile/>
   <tile/>
   <tile/>
   <tile/>
   <tile/>
   <tile/>
   <tile/>
   <tile/>
   <tile/>
   <tile/>
   <tile/>
   <tile/>
   <tile/>
   <tile/>
   <tile/>
   <tile/>
   <tile/>
   <tile/>
   <tile/>
   <tile/>
   <tile/>
   <tile/>
   <tile/>
   <tile/>
   <tile/>
   <tile gid="129"/>
   <tile gid="129"/>
   <tile/>
   <tile/>
   <tile/>
   <tile/>
   <tile/>
   <tile/>
   <tile gid="129"/>
   <tile gid="129"/>
   <tile gid="129"/>
   <tile gid="129"/>
   <tile/>
   <tile/>
   <tile/>
   <tile/>
   <tile/>
   <tile/>
   <tile gid="129"/>
   <tile/>
   <tile/>
   <tile gid="129"/>
   <tile/>
   <tile/>
   <tile/>
   <tile/>
   <tile/>
   <tile/>
   <tile gid="129"/>
   <tile/>
   <tile/>
   <tile/>
   <tile/>
   <tile/>
   <tile/>
   <tile/>
   <tile/>
   <tile/>
   <tile/>
   <tile/>
   <tile/>
   <tile/>
   <tile/>
   <tile/>
   <tile/>
   <tile/>
   <tile/>
   <tile/>
   <tile/>
   <tile/>
   <tile/>
   <tile/>
   <tile/>
   <tile/>
   <tile/>
   <tile/>
   <tile/>
   <tile/>
   <tile/>
   <tile/>
   <tile/>
   <tile/>
   <tile/>
   <tile/>
   <tile/>
   <tile gid="129"/>
   <tile gid="129"/>
   <tile/>
   <tile/>
   <tile/>
   <tile/>
   <tile/>
   <tile/>
   <tile/>
   <tile/>
   <tile/>
   <tile/>
   <tile gid="129"/>
   <tile gid="129"/>
   <tile gid="129"/>
   <tile gid="129"/>
   <tile gid="129"/>
   <tile/>
   <tile/>
   <tile/>
   <tile/>
   <tile/>
   <tile/>
   <tile/>
   <tile/>
   <tile/>
   <tile gid="129"/>
   <tile/>
   <tile/>
   <tile/>
   <tile/>
   <tile gid="129"/>
   <tile/>
   <tile/>
   <tile gid="129"/>
   <tile/>
   <tile/>
   <tile/>
   <tile/>
   <tile/>
   <tile/>
   <tile/>
   <tile/>
   <tile/>
   <tile/>
   <tile/>
   <tile/>
   <tile/>
   <tile/>
   <tile/>
   <tile/>
   <tile/>
   <tile/>
   <tile/>
   <tile/>
   <tile/>
   <tile/>
   <tile/>
   <tile/>
   <tile/>
   <tile/>
   <tile/>
   <tile/>
   <tile/>
   <tile/>
   <tile/>
   <tile/>
   <tile/>
   <tile/>
   <tile/>
   <tile/>
   <tile/>
   <tile/>
   <tile/>
   <tile/>
   <tile/>
   <tile/>
   <tile/>
   <tile/>
   <tile/>
   <tile/>
   <tile/>
   <tile/>
   <tile/>
   <tile/>
   <tile/>
   <tile/>
   <tile/>
   <tile/>
   <tile/>
   <tile/>
   <tile/>
   <tile/>
   <tile/>
   <tile/>
   <tile/>
   <tile/>
   <tile/>
   <tile/>
   <tile/>
   <tile/>
   <tile/>
   <tile/>
   <tile/>
   <tile/>
   <tile/>
   <tile/>
   <tile/>
   <tile/>
   <tile/>
   <tile/>
   <tile gid="129"/>
   <tile gid="129"/>
   <tile/>
   <tile/>
   <tile/>
   <tile/>
   <tile/>
   <tile/>
   <tile gid="129"/>
   <tile gid="129"/>
   <tile gid="129"/>
   <tile gid="129"/>
   <tile/>
   <tile/>
   <tile/>
   <tile/>
   <tile/>
   <tile/>
   <tile gid="129"/>
   <tile/>
   <tile/>
   <tile gid="129"/>
   <tile/>
   <tile/>
   <tile/>
   <tile/>
   <tile/>
   <tile/>
   <tile gid="129"/>
   <tile/>
   <tile/>
   <tile/>
   <tile/>
   <tile/>
   <tile/>
   <tile/>
   <tile/>
   <tile/>
   <tile/>
   <tile/>
   <tile/>
   <tile/>
   <tile/>
   <tile/>
   <tile/>
   <tile/>
   <tile/>
   <tile/>
   <tile/>
   <tile/>
   <tile/>
   <tile/>
   <tile/>
   <tile/>
   <tile/>
   <tile/>
   <tile/>
   <tile/>
   <tile/>
   <tile/>
   <tile/>
   <tile/>
   <tile/>
   <tile/>
   <tile/>
   <tile/>
   <tile/>
   <tile/>
   <tile/>
   <tile/>
   <tile/>
   <tile/>
   <tile/>
   <tile/>
   <tile/>
   <tile/>
   <tile/>
   <tile gid="129"/>
   <tile gid="129"/>
   <tile gid="129"/>
   <tile gid="129"/>
   <tile gid="129"/>
   <tile/>
   <tile/>
   <tile/>
   <tile/>
   <tile/>
   <tile/>
   <tile/>
   <tile/>
   <tile/>
   <tile gid="129"/>
   <tile/>
   <tile/>
   <tile/>
   <tile/>
   <tile gid="129"/>
   <tile/>
   <tile/>
   <tile gid="129"/>
   <tile/>
   <tile/>
   <tile/>
   <tile/>
   <tile/>
   <tile/>
   <tile/>
   <tile/>
   <tile/>
   <tile/>
   <tile/>
   <tile/>
   <tile/>
   <tile/>
   <tile/>
   <tile/>
   <tile/>
   <tile/>
   <tile/>
   <tile/>
   <tile/>
   <tile/>
   <tile/>
   <tile/>
   <tile/>
   <tile/>
   <tile/>
   <tile/>
   <tile/>
   <tile/>
   <tile/>
   <tile/>
   <tile/>
   <tile/>
   <tile/>
   <tile gid="129"/>
   <tile gid="129"/>
   <tile/>
   <tile/>
   <tile/>
   <tile/>
   <tile/>
   <tile/>
   <tile gid="129"/>
   <tile/>
   <tile/>
   <tile/>
   <tile/>
   <tile/>
   <tile/>
   <tile/>
   <tile/>
   <tile/>
   <tile/>
   <tile/>
   <tile/>
   <tile/>
   <tile/>
   <tile/>
   <tile/>
   <tile/>
   <tile/>
   <tile/>
   <tile/>
   <tile/>
   <tile/>
   <tile/>
   <tile/>
   <tile gid="129"/>
   <tile/>
   <tile/>
   <tile/>
   <tile/>
   <tile/>
   <tile/>
   <tile/>
   <tile gid="129"/>
   <tile gid="129"/>
   <tile gid="129"/>
   <tile gid="129"/>
   <tile gid="129"/>
   <tile gid="129"/>
   <tile gid="129"/>
   <tile gid="129"/>
   <tile gid="129"/>
   <tile gid="129"/>
   <tile gid="129"/>
   <tile gid="129"/>
   <tile gid="129"/>
   <tile gid="129"/>
   <tile gid="129"/>
   <tile gid="129"/>
   <tile gid="129"/>
   <tile gid="129"/>
   <tile gid="129"/>
   <tile/>
   <tile/>
   <tile gid="129"/>
   <tile gid="129"/>
   <tile gid="129"/>
   <tile gid="129"/>
   <tile gid="129"/>
   <tile gid="129"/>
   <tile gid="129"/>
   <tile gid="129"/>
   <tile/>
   <tile/>
   <tile/>
   <tile/>
   <tile/>
   <tile/>
   <tile/>
   <tile/>
   <tile/>
   <tile/>
   <tile/>
   <tile/>
   <tile/>
   <tile/>
   <tile/>
   <tile/>
   <tile/>
   <tile/>
   <tile/>
   <tile/>
   <tile/>
   <tile/>
   <tile/>
   <tile/>
   <tile/>
   <tile/>
   <tile/>
   <tile/>
   <tile/>
   <tile/>
   <tile/>
   <tile/>
   <tile/>
   <tile/>
   <tile/>
   <tile/>
   <tile/>
   <tile/>
   <tile/>
   <tile/>
   <tile/>
   <tile/>
   <tile/>
   <tile/>
   <tile/>
   <tile/>
   <tile/>
   <tile/>
   <tile gid="129"/>
   <tile gid="129"/>
   <tile gid="129"/>
   <tile gid="129"/>
   <tile gid="129"/>
   <tile gid="129"/>
   <tile gid="129"/>
   <tile gid="129"/>
   <tile gid="129"/>
   <tile gid="129"/>
   <tile gid="129"/>
   <tile gid="129"/>
   <tile gid="129"/>
   <tile gid="129"/>
   <tile gid="129"/>
   <tile/>
   <tile/>
   <tile/>
   <tile/>
   <tile gid="129"/>
   <tile gid="129"/>
   <tile gid="129"/>
   <tile gid="129"/>
   <tile gid="129"/>
   <tile gid="129"/>
   <tile gid="129"/>
   <tile gid="129"/>
   <tile gid="129"/>
   <tile gid="129"/>
   <tile gid="129"/>
   <tile gid="129"/>
   <tile gid="129"/>
   <tile gid="129"/>
   <tile gid="129"/>
   <tile gid="129"/>
   <tile gid="129"/>
   <tile gid="129"/>
   <tile gid="129"/>
   <tile gid="129"/>
   <tile gid="129"/>
   <tile gid="129"/>
   <tile gid="129"/>
   <tile gid="129"/>
   <tile gid="129"/>
   <tile gid="129"/>
   <tile gid="129"/>
   <tile gid="129"/>
   <tile gid="129"/>
   <tile gid="129"/>
   <tile gid="129"/>
   <tile gid="129"/>
   <tile gid="129"/>
   <tile gid="129"/>
   <tile gid="129"/>
   <tile gid="129"/>
   <tile gid="129"/>
   <tile gid="129"/>
   <tile gid="129"/>
   <tile gid="129"/>
   <tile gid="129"/>
   <tile gid="129"/>
   <tile gid="129"/>
   <tile gid="129"/>
   <tile gid="129"/>
   <tile gid="129"/>
   <tile gid="129"/>
   <tile gid="129"/>
   <tile gid="129"/>
   <tile gid="129"/>
   <tile gid="129"/>
   <tile gid="129"/>
   <tile gid="129"/>
   <tile gid="129"/>
   <tile gid="129"/>
   <tile gid="129"/>
   <tile gid="129"/>
   <tile gid="129"/>
   <tile gid="129"/>
   <tile gid="129"/>
   <tile gid="129"/>
   <tile gid="129"/>
   <tile gid="129"/>
   <tile gid="129"/>
   <tile gid="129"/>
   <tile gid="129"/>
   <tile gid="129"/>
   <tile gid="129"/>
   <tile gid="129"/>
   <tile gid="129"/>
   <tile gid="129"/>
   <tile gid="129"/>
   <tile gid="129"/>
   <tile gid="129"/>
   <tile gid="129"/>
   <tile gid="129"/>
   <tile gid="129"/>
   <tile gid="129"/>
   <tile gid="129"/>
   <tile gid="129"/>
   <tile gid="129"/>
   <tile gid="129"/>
   <tile gid="129"/>
   <tile gid="129"/>
   <tile gid="129"/>
   <tile gid="129"/>
   <tile gid="129"/>
   <tile gid="129"/>
   <tile gid="129"/>
   <tile gid="129"/>
   <tile gid="129"/>
   <tile gid="129"/>
   <tile gid="129"/>
   <tile gid="129"/>
   <tile gid="129"/>
   <tile gid="129"/>
   <tile gid="129"/>
   <tile gid="129"/>
   <tile gid="129"/>
   <tile gid="129"/>
   <tile gid="129"/>
   <tile gid="129"/>
   <tile gid="129"/>
   <tile gid="129"/>
   <tile gid="129"/>
   <tile gid="129"/>
   <tile gid="129"/>
   <tile gid="129"/>
   <tile gid="129"/>
   <tile gid="129"/>
   <tile gid="129"/>
   <tile gid="129"/>
   <tile gid="129"/>
   <tile gid="129"/>
   <tile gid="129"/>
   <tile/>
   <tile/>
   <tile/>
   <tile/>
   <tile gid="129"/>
   <tile gid="129"/>
   <tile gid="129"/>
   <tile gid="129"/>
   <tile gid="129"/>
   <tile gid="129"/>
   <tile gid="129"/>
   <tile gid="129"/>
   <tile gid="129"/>
   <tile gid="129"/>
   <tile gid="129"/>
   <tile gid="129"/>
   <tile gid="129"/>
   <tile gid="129"/>
   <tile gid="129"/>
   <tile gid="129"/>
   <tile gid="129"/>
   <tile gid="129"/>
   <tile gid="129"/>
   <tile gid="129"/>
   <tile gid="129"/>
   <tile gid="129"/>
   <tile gid="129"/>
   <tile gid="129"/>
   <tile gid="129"/>
   <tile gid="129"/>
   <tile gid="129"/>
   <tile gid="129"/>
   <tile gid="129"/>
   <tile gid="129"/>
   <tile gid="129"/>
   <tile gid="129"/>
   <tile gid="129"/>
   <tile gid="129"/>
   <tile gid="129"/>
   <tile gid="129"/>
   <tile gid="129"/>
   <tile gid="129"/>
   <tile gid="129"/>
  </data>
 </layer>
 <layer id="32" name="AirNavLayer" width="176" height="21" visible="0">
  <properties>
   <property name="Air" type="bool" value="true"/>
   <property name="Navigation" type="bool" value="true"/>
  </properties>
  <data>
   <tile gid="129"/>
   <tile gid="129"/>
   <tile gid="129"/>
   <tile gid="129"/>
   <tile gid="129"/>
   <tile gid="129"/>
   <tile gid="129"/>
   <tile gid="129"/>
   <tile gid="129"/>
   <tile gid="129"/>
   <tile gid="129"/>
   <tile gid="129"/>
   <tile gid="129"/>
   <tile gid="129"/>
   <tile gid="129"/>
   <tile gid="129"/>
   <tile gid="129"/>
   <tile gid="129"/>
   <tile gid="129"/>
   <tile gid="129"/>
   <tile gid="129"/>
   <tile gid="129"/>
   <tile gid="129"/>
   <tile gid="129"/>
   <tile gid="129"/>
   <tile gid="129"/>
   <tile gid="129"/>
   <tile gid="129"/>
   <tile gid="129"/>
   <tile gid="129"/>
   <tile gid="129"/>
   <tile gid="129"/>
   <tile gid="129"/>
   <tile gid="129"/>
   <tile gid="129"/>
   <tile gid="129"/>
   <tile gid="129"/>
   <tile gid="129"/>
   <tile gid="129"/>
   <tile gid="129"/>
   <tile gid="129"/>
   <tile gid="129"/>
   <tile gid="129"/>
   <tile gid="129"/>
   <tile gid="129"/>
   <tile gid="129"/>
   <tile gid="129"/>
   <tile gid="129"/>
   <tile gid="129"/>
   <tile gid="129"/>
   <tile gid="129"/>
   <tile gid="129"/>
   <tile gid="129"/>
   <tile gid="129"/>
   <tile gid="129"/>
   <tile gid="129"/>
   <tile gid="129"/>
   <tile gid="129"/>
   <tile gid="129"/>
   <tile gid="129"/>
   <tile gid="129"/>
   <tile gid="129"/>
   <tile gid="129"/>
   <tile gid="129"/>
   <tile gid="129"/>
   <tile gid="129"/>
   <tile gid="129"/>
   <tile gid="129"/>
   <tile gid="129"/>
   <tile gid="129"/>
   <tile gid="129"/>
   <tile gid="129"/>
   <tile gid="129"/>
   <tile gid="129"/>
   <tile gid="129"/>
   <tile gid="129"/>
   <tile gid="129"/>
   <tile gid="129"/>
   <tile gid="129"/>
   <tile gid="129"/>
   <tile gid="129"/>
   <tile gid="129"/>
   <tile gid="129"/>
   <tile gid="129"/>
   <tile gid="129"/>
   <tile gid="129"/>
   <tile gid="129"/>
   <tile gid="129"/>
   <tile gid="129"/>
   <tile gid="129"/>
   <tile gid="129"/>
   <tile gid="129"/>
   <tile gid="129"/>
   <tile gid="129"/>
   <tile gid="129"/>
   <tile gid="129"/>
   <tile gid="129"/>
   <tile gid="129"/>
   <tile gid="129"/>
   <tile gid="129"/>
   <tile gid="129"/>
   <tile gid="129"/>
   <tile gid="129"/>
   <tile gid="129"/>
   <tile gid="129"/>
   <tile gid="129"/>
   <tile gid="129"/>
   <tile gid="129"/>
   <tile gid="129"/>
   <tile gid="129"/>
   <tile gid="129"/>
   <tile gid="129"/>
   <tile gid="129"/>
   <tile gid="129"/>
   <tile gid="129"/>
   <tile gid="129"/>
   <tile gid="129"/>
   <tile gid="129"/>
   <tile gid="129"/>
   <tile gid="129"/>
   <tile gid="129"/>
   <tile gid="129"/>
   <tile gid="129"/>
   <tile gid="129"/>
   <tile gid="129"/>
   <tile gid="129"/>
   <tile gid="129"/>
   <tile gid="129"/>
   <tile gid="129"/>
   <tile gid="129"/>
   <tile gid="129"/>
   <tile gid="129"/>
   <tile gid="129"/>
   <tile gid="129"/>
   <tile gid="129"/>
   <tile gid="129"/>
   <tile gid="129"/>
   <tile gid="129"/>
   <tile gid="129"/>
   <tile gid="129"/>
   <tile gid="129"/>
   <tile gid="129"/>
   <tile gid="129"/>
   <tile gid="129"/>
   <tile gid="129"/>
   <tile gid="129"/>
   <tile gid="129"/>
   <tile gid="129"/>
   <tile gid="129"/>
   <tile gid="129"/>
   <tile gid="129"/>
   <tile gid="129"/>
   <tile gid="129"/>
   <tile gid="129"/>
   <tile gid="129"/>
   <tile gid="129"/>
   <tile gid="129"/>
   <tile gid="129"/>
   <tile gid="129"/>
   <tile gid="129"/>
   <tile gid="129"/>
   <tile gid="129"/>
   <tile gid="129"/>
   <tile gid="129"/>
   <tile gid="129"/>
   <tile gid="129"/>
   <tile gid="129"/>
   <tile gid="129"/>
   <tile gid="129"/>
   <tile gid="129"/>
   <tile gid="129"/>
   <tile gid="129"/>
   <tile gid="129"/>
   <tile gid="129"/>
   <tile gid="129"/>
   <tile gid="129"/>
   <tile gid="129"/>
   <tile gid="129"/>
   <tile/>
   <tile/>
   <tile/>
   <tile/>
   <tile/>
   <tile gid="129"/>
   <tile/>
   <tile/>
   <tile/>
   <tile/>
   <tile/>
   <tile/>
   <tile/>
   <tile/>
   <tile/>
   <tile/>
   <tile/>
   <tile/>
   <tile/>
   <tile/>
   <tile/>
   <tile/>
   <tile/>
   <tile/>
   <tile/>
   <tile/>
   <tile/>
   <tile/>
   <tile/>
   <tile/>
   <tile/>
   <tile/>
   <tile/>
   <tile/>
   <tile/>
   <tile/>
   <tile/>
   <tile/>
   <tile/>
   <tile/>
   <tile/>
   <tile/>
   <tile/>
   <tile/>
   <tile/>
   <tile/>
   <tile/>
   <tile/>
   <tile/>
   <tile/>
   <tile/>
   <tile/>
   <tile/>
   <tile/>
   <tile/>
   <tile/>
   <tile/>
   <tile/>
   <tile/>
   <tile/>
   <tile/>
   <tile/>
   <tile/>
   <tile/>
   <tile/>
   <tile/>
   <tile/>
   <tile/>
   <tile/>
   <tile/>
   <tile/>
   <tile/>
   <tile/>
   <tile/>
   <tile/>
   <tile/>
   <tile/>
   <tile/>
   <tile/>
   <tile/>
   <tile/>
   <tile/>
   <tile/>
   <tile/>
   <tile/>
   <tile/>
   <tile/>
   <tile/>
   <tile/>
   <tile/>
   <tile/>
   <tile/>
   <tile/>
   <tile/>
   <tile/>
   <tile/>
   <tile/>
   <tile/>
   <tile/>
   <tile/>
   <tile/>
   <tile/>
   <tile/>
   <tile/>
   <tile/>
   <tile/>
   <tile/>
   <tile/>
   <tile/>
   <tile/>
   <tile/>
   <tile/>
   <tile/>
   <tile/>
   <tile/>
   <tile/>
   <tile/>
   <tile/>
   <tile/>
   <tile/>
   <tile/>
   <tile/>
   <tile/>
   <tile/>
   <tile/>
   <tile/>
   <tile/>
   <tile/>
   <tile/>
   <tile/>
   <tile/>
   <tile/>
   <tile/>
   <tile gid="129"/>
   <tile gid="129"/>
   <tile/>
   <tile/>
   <tile/>
   <tile/>
   <tile/>
   <tile/>
   <tile/>
   <tile/>
   <tile/>
   <tile/>
   <tile/>
   <tile/>
   <tile/>
   <tile/>
   <tile/>
   <tile/>
   <tile/>
   <tile/>
   <tile/>
   <tile/>
   <tile/>
   <tile/>
   <tile/>
   <tile/>
   <tile/>
   <tile/>
   <tile/>
   <tile/>
   <tile/>
   <tile/>
   <tile/>
   <tile/>
   <tile/>
   <tile/>
   <tile/>
   <tile/>
   <tile/>
   <tile/>
   <tile gid="129"/>
   <tile gid="129"/>
   <tile gid="129"/>
   <tile/>
   <tile/>
   <tile/>
   <tile/>
   <tile/>
   <tile gid="129"/>
   <tile/>
   <tile/>
   <tile/>
   <tile/>
   <tile/>
   <tile/>
   <tile/>
   <tile/>
   <tile/>
   <tile/>
   <tile/>
   <tile/>
   <tile/>
   <tile/>
   <tile/>
   <tile/>
   <tile/>
   <tile/>
   <tile/>
   <tile/>
   <tile/>
   <tile/>
   <tile/>
   <tile/>
   <tile/>
   <tile/>
   <tile/>
   <tile/>
   <tile/>
   <tile/>
   <tile/>
   <tile/>
   <tile/>
   <tile/>
   <tile/>
   <tile/>
   <tile/>
   <tile/>
   <tile/>
   <tile/>
   <tile/>
   <tile/>
   <tile/>
   <tile/>
   <tile/>
   <tile/>
   <tile/>
   <tile/>
   <tile/>
   <tile/>
   <tile/>
   <tile/>
   <tile/>
   <tile/>
   <tile/>
   <tile/>
   <tile/>
   <tile/>
   <tile/>
   <tile/>
   <tile/>
   <tile/>
   <tile/>
   <tile/>
   <tile/>
   <tile/>
   <tile/>
   <tile/>
   <tile/>
   <tile/>
   <tile/>
   <tile/>
   <tile/>
   <tile/>
   <tile/>
   <tile/>
   <tile/>
   <tile/>
   <tile/>
   <tile/>
   <tile/>
   <tile/>
   <tile/>
   <tile/>
   <tile/>
   <tile/>
   <tile/>
   <tile/>
   <tile/>
   <tile/>
   <tile/>
   <tile/>
   <tile/>
   <tile/>
   <tile/>
   <tile/>
   <tile/>
   <tile/>
   <tile/>
   <tile/>
   <tile/>
   <tile/>
   <tile/>
   <tile/>
   <tile/>
   <tile/>
   <tile/>
   <tile/>
   <tile/>
   <tile/>
   <tile/>
   <tile/>
   <tile/>
   <tile/>
   <tile/>
   <tile/>
   <tile/>
   <tile/>
   <tile/>
   <tile/>
   <tile/>
   <tile/>
   <tile/>
   <tile/>
   <tile/>
   <tile/>
   <tile/>
   <tile gid="129"/>
   <tile gid="129"/>
   <tile/>
   <tile/>
   <tile/>
   <tile/>
   <tile/>
   <tile/>
   <tile/>
   <tile/>
   <tile/>
   <tile/>
   <tile/>
   <tile/>
   <tile/>
   <tile/>
   <tile/>
   <tile/>
   <tile/>
   <tile/>
   <tile/>
   <tile/>
   <tile/>
   <tile/>
   <tile/>
   <tile/>
   <tile/>
   <tile/>
   <tile/>
   <tile/>
   <tile/>
   <tile/>
   <tile/>
   <tile/>
   <tile/>
   <tile/>
   <tile/>
   <tile/>
   <tile/>
   <tile/>
   <tile gid="129"/>
   <tile gid="129"/>
   <tile gid="129"/>
   <tile/>
   <tile/>
   <tile/>
   <tile/>
   <tile/>
   <tile gid="129"/>
   <tile/>
   <tile/>
   <tile/>
   <tile/>
   <tile/>
   <tile/>
   <tile/>
   <tile/>
   <tile/>
   <tile/>
   <tile/>
   <tile/>
   <tile/>
   <tile/>
   <tile/>
   <tile/>
   <tile/>
   <tile/>
   <tile/>
   <tile/>
   <tile/>
   <tile/>
   <tile/>
   <tile/>
   <tile/>
   <tile/>
   <tile/>
   <tile/>
   <tile/>
   <tile/>
   <tile/>
   <tile/>
   <tile/>
   <tile/>
   <tile/>
   <tile/>
   <tile/>
   <tile/>
   <tile/>
   <tile/>
   <tile/>
   <tile/>
   <tile/>
   <tile/>
   <tile/>
   <tile/>
   <tile/>
   <tile/>
   <tile/>
   <tile/>
   <tile/>
   <tile/>
   <tile/>
   <tile/>
   <tile/>
   <tile/>
   <tile/>
   <tile/>
   <tile/>
   <tile/>
   <tile/>
   <tile/>
   <tile/>
   <tile/>
   <tile/>
   <tile/>
   <tile/>
   <tile/>
   <tile/>
   <tile/>
   <tile/>
   <tile/>
   <tile/>
   <tile/>
   <tile/>
   <tile/>
   <tile/>
   <tile/>
   <tile/>
   <tile/>
   <tile/>
   <tile/>
   <tile/>
   <tile/>
   <tile/>
   <tile/>
   <tile/>
   <tile/>
   <tile/>
   <tile/>
   <tile/>
   <tile/>
   <tile/>
   <tile/>
   <tile/>
   <tile/>
   <tile/>
   <tile/>
   <tile/>
   <tile/>
   <tile/>
   <tile/>
   <tile/>
   <tile/>
   <tile/>
   <tile/>
   <tile/>
   <tile/>
   <tile/>
   <tile/>
   <tile/>
   <tile/>
   <tile/>
   <tile/>
   <tile/>
   <tile/>
   <tile/>
   <tile/>
   <tile/>
   <tile/>
   <tile/>
   <tile/>
   <tile/>
   <tile/>
   <tile/>
   <tile/>
   <tile/>
   <tile gid="129"/>
   <tile gid="129"/>
   <tile/>
   <tile/>
   <tile/>
   <tile/>
   <tile/>
   <tile/>
   <tile/>
   <tile/>
   <tile/>
   <tile/>
   <tile/>
   <tile/>
   <tile/>
   <tile/>
   <tile/>
   <tile/>
   <tile/>
   <tile/>
   <tile/>
   <tile/>
   <tile/>
   <tile/>
   <tile/>
   <tile/>
   <tile/>
   <tile/>
   <tile/>
   <tile/>
   <tile/>
   <tile/>
   <tile/>
   <tile/>
   <tile/>
   <tile/>
   <tile/>
   <tile/>
   <tile/>
   <tile/>
   <tile gid="129"/>
   <tile gid="129"/>
   <tile gid="129"/>
   <tile/>
   <tile/>
   <tile/>
   <tile/>
   <tile/>
   <tile gid="129"/>
   <tile/>
   <tile/>
   <tile/>
   <tile/>
   <tile/>
   <tile/>
   <tile/>
   <tile/>
   <tile/>
   <tile/>
   <tile/>
   <tile/>
   <tile/>
   <tile/>
   <tile/>
   <tile/>
   <tile/>
   <tile/>
   <tile/>
   <tile/>
   <tile/>
   <tile/>
   <tile/>
   <tile/>
   <tile/>
   <tile/>
   <tile/>
   <tile/>
   <tile/>
   <tile/>
   <tile/>
   <tile/>
   <tile/>
   <tile/>
   <tile/>
   <tile/>
   <tile/>
   <tile/>
   <tile/>
   <tile/>
   <tile/>
   <tile/>
   <tile/>
   <tile/>
   <tile/>
   <tile/>
   <tile/>
   <tile/>
   <tile/>
   <tile/>
   <tile/>
   <tile/>
   <tile/>
   <tile/>
   <tile/>
   <tile/>
   <tile/>
   <tile/>
   <tile/>
   <tile/>
   <tile/>
   <tile/>
   <tile/>
   <tile/>
   <tile/>
   <tile/>
   <tile/>
   <tile/>
   <tile/>
   <tile/>
   <tile/>
   <tile/>
   <tile/>
   <tile/>
   <tile/>
   <tile/>
   <tile/>
   <tile/>
   <tile/>
   <tile/>
   <tile/>
   <tile/>
   <tile/>
   <tile/>
   <tile/>
   <tile/>
   <tile/>
   <tile/>
   <tile/>
   <tile/>
   <tile/>
   <tile/>
   <tile/>
   <tile/>
   <tile/>
   <tile/>
   <tile/>
   <tile/>
   <tile/>
   <tile/>
   <tile/>
   <tile/>
   <tile/>
   <tile/>
   <tile/>
   <tile/>
   <tile/>
   <tile/>
   <tile/>
   <tile/>
   <tile/>
   <tile/>
   <tile/>
   <tile/>
   <tile/>
   <tile/>
   <tile/>
   <tile/>
   <tile/>
   <tile/>
   <tile/>
   <tile/>
   <tile/>
   <tile/>
   <tile/>
   <tile/>
   <tile gid="129"/>
   <tile gid="129"/>
   <tile gid="129"/>
   <tile/>
   <tile/>
   <tile/>
   <tile/>
   <tile/>
   <tile/>
   <tile/>
   <tile/>
   <tile/>
   <tile/>
   <tile/>
   <tile/>
   <tile/>
   <tile/>
   <tile/>
   <tile/>
   <tile/>
   <tile/>
   <tile/>
   <tile/>
   <tile/>
   <tile/>
   <tile/>
   <tile/>
   <tile/>
   <tile/>
   <tile/>
   <tile/>
   <tile/>
   <tile/>
   <tile/>
   <tile/>
   <tile/>
   <tile/>
   <tile/>
   <tile/>
   <tile/>
   <tile/>
   <tile gid="129"/>
   <tile gid="129"/>
   <tile gid="129"/>
   <tile/>
   <tile/>
   <tile/>
   <tile/>
   <tile/>
   <tile gid="129"/>
   <tile/>
   <tile/>
   <tile/>
   <tile/>
   <tile/>
   <tile/>
   <tile/>
   <tile/>
   <tile/>
   <tile/>
   <tile/>
   <tile/>
   <tile/>
   <tile/>
   <tile/>
   <tile/>
   <tile/>
   <tile/>
   <tile/>
   <tile/>
   <tile/>
   <tile/>
   <tile/>
   <tile/>
   <tile/>
   <tile/>
   <tile/>
   <tile/>
   <tile/>
   <tile/>
   <tile/>
   <tile/>
   <tile/>
   <tile/>
   <tile/>
   <tile/>
   <tile/>
   <tile/>
   <tile/>
   <tile/>
   <tile/>
   <tile/>
   <tile/>
   <tile/>
   <tile/>
   <tile/>
   <tile/>
   <tile/>
   <tile/>
   <tile/>
   <tile/>
   <tile/>
   <tile/>
   <tile/>
   <tile/>
   <tile/>
   <tile/>
   <tile/>
   <tile/>
   <tile/>
   <tile/>
   <tile/>
   <tile/>
   <tile/>
   <tile/>
   <tile/>
   <tile/>
   <tile/>
   <tile/>
   <tile/>
   <tile/>
   <tile/>
   <tile/>
   <tile/>
   <tile/>
   <tile/>
   <tile/>
   <tile/>
   <tile/>
   <tile/>
   <tile/>
   <tile/>
   <tile/>
   <tile/>
   <tile/>
   <tile/>
   <tile/>
   <tile/>
   <tile/>
   <tile/>
   <tile/>
   <tile/>
   <tile/>
   <tile/>
   <tile/>
   <tile/>
   <tile/>
   <tile/>
   <tile/>
   <tile/>
   <tile/>
   <tile/>
   <tile/>
   <tile/>
   <tile/>
   <tile/>
   <tile/>
   <tile/>
   <tile/>
   <tile/>
   <tile/>
   <tile/>
   <tile/>
   <tile/>
   <tile/>
   <tile/>
   <tile/>
   <tile/>
   <tile/>
   <tile/>
   <tile/>
   <tile/>
   <tile/>
   <tile/>
   <tile/>
   <tile/>
   <tile gid="129"/>
   <tile gid="129"/>
   <tile gid="129"/>
   <tile/>
   <tile/>
   <tile/>
   <tile/>
   <tile/>
   <tile/>
   <tile/>
   <tile/>
   <tile/>
   <tile/>
   <tile/>
   <tile/>
   <tile/>
   <tile/>
   <tile/>
   <tile/>
   <tile/>
   <tile/>
   <tile/>
   <tile/>
   <tile/>
   <tile/>
   <tile/>
   <tile/>
   <tile/>
   <tile/>
   <tile/>
   <tile/>
   <tile/>
   <tile/>
   <tile/>
   <tile/>
   <tile/>
   <tile/>
   <tile/>
   <tile/>
   <tile/>
   <tile/>
   <tile gid="129"/>
   <tile gid="129"/>
   <tile gid="129"/>
   <tile/>
   <tile/>
   <tile/>
   <tile/>
   <tile/>
   <tile gid="129"/>
   <tile/>
   <tile/>
   <tile/>
   <tile/>
   <tile/>
   <tile/>
   <tile/>
   <tile/>
   <tile/>
   <tile/>
   <tile/>
   <tile/>
   <tile/>
   <tile/>
   <tile/>
   <tile/>
   <tile/>
   <tile/>
   <tile/>
   <tile/>
   <tile/>
   <tile/>
   <tile/>
   <tile/>
   <tile/>
   <tile/>
   <tile/>
   <tile/>
   <tile/>
   <tile/>
   <tile/>
   <tile/>
   <tile/>
   <tile/>
   <tile/>
   <tile/>
   <tile/>
   <tile/>
   <tile/>
   <tile/>
   <tile/>
   <tile/>
   <tile/>
   <tile/>
   <tile/>
   <tile/>
   <tile/>
   <tile/>
   <tile/>
   <tile/>
   <tile/>
   <tile/>
   <tile/>
   <tile/>
   <tile/>
   <tile/>
   <tile/>
   <tile/>
   <tile/>
   <tile/>
   <tile/>
   <tile/>
   <tile/>
   <tile/>
   <tile/>
   <tile/>
   <tile/>
   <tile/>
   <tile/>
   <tile/>
   <tile/>
   <tile/>
   <tile/>
   <tile/>
   <tile/>
   <tile/>
   <tile/>
   <tile/>
   <tile/>
   <tile/>
   <tile/>
   <tile/>
   <tile/>
   <tile/>
   <tile/>
   <tile/>
   <tile/>
   <tile/>
   <tile/>
   <tile/>
   <tile/>
   <tile/>
   <tile/>
   <tile/>
   <tile/>
   <tile/>
   <tile/>
   <tile/>
   <tile/>
   <tile/>
   <tile/>
   <tile/>
   <tile/>
   <tile/>
   <tile/>
   <tile/>
   <tile/>
   <tile/>
   <tile/>
   <tile/>
   <tile/>
   <tile/>
   <tile/>
   <tile/>
   <tile/>
   <tile/>
   <tile/>
   <tile/>
   <tile/>
   <tile/>
   <tile/>
   <tile/>
   <tile/>
   <tile/>
   <tile/>
   <tile/>
   <tile gid="129"/>
   <tile gid="129"/>
   <tile gid="129"/>
   <tile/>
   <tile/>
   <tile/>
   <tile/>
   <tile/>
   <tile/>
   <tile/>
   <tile/>
   <tile/>
   <tile/>
   <tile/>
   <tile/>
   <tile/>
   <tile/>
   <tile/>
   <tile/>
   <tile/>
   <tile/>
   <tile/>
   <tile/>
   <tile/>
   <tile/>
   <tile/>
   <tile/>
   <tile/>
   <tile/>
   <tile/>
   <tile/>
   <tile/>
   <tile/>
   <tile/>
   <tile/>
   <tile/>
   <tile/>
   <tile/>
   <tile/>
   <tile/>
   <tile/>
   <tile gid="129"/>
   <tile gid="129"/>
   <tile gid="129"/>
   <tile/>
   <tile/>
   <tile/>
   <tile/>
   <tile/>
   <tile gid="129"/>
   <tile/>
   <tile/>
   <tile/>
   <tile/>
   <tile/>
   <tile/>
   <tile/>
   <tile/>
   <tile/>
   <tile/>
   <tile/>
   <tile/>
   <tile/>
   <tile/>
   <tile/>
   <tile/>
   <tile/>
   <tile/>
   <tile/>
   <tile/>
   <tile/>
   <tile/>
   <tile/>
   <tile/>
   <tile/>
   <tile/>
   <tile/>
   <tile/>
   <tile/>
   <tile/>
   <tile/>
   <tile/>
   <tile/>
   <tile/>
   <tile/>
   <tile/>
   <tile/>
   <tile/>
   <tile/>
   <tile/>
   <tile/>
   <tile/>
   <tile/>
   <tile/>
   <tile/>
   <tile/>
   <tile/>
   <tile/>
   <tile/>
   <tile/>
   <tile/>
   <tile/>
   <tile/>
   <tile/>
   <tile/>
   <tile/>
   <tile/>
   <tile/>
   <tile/>
   <tile/>
   <tile/>
   <tile/>
   <tile/>
   <tile/>
   <tile/>
   <tile/>
   <tile/>
   <tile/>
   <tile/>
   <tile/>
   <tile/>
   <tile/>
   <tile/>
   <tile/>
   <tile/>
   <tile/>
   <tile/>
   <tile/>
   <tile/>
   <tile/>
   <tile/>
   <tile/>
   <tile/>
   <tile/>
   <tile/>
   <tile/>
   <tile/>
   <tile/>
   <tile/>
   <tile/>
   <tile/>
   <tile/>
   <tile/>
   <tile/>
   <tile/>
   <tile/>
   <tile/>
   <tile/>
   <tile/>
   <tile/>
   <tile/>
   <tile/>
   <tile/>
   <tile/>
   <tile/>
   <tile/>
   <tile/>
   <tile/>
   <tile/>
   <tile/>
   <tile/>
   <tile/>
   <tile/>
   <tile/>
   <tile/>
   <tile/>
   <tile/>
   <tile/>
   <tile/>
   <tile/>
   <tile/>
   <tile/>
   <tile/>
   <tile/>
   <tile/>
   <tile/>
   <tile gid="129"/>
   <tile gid="129"/>
   <tile gid="129"/>
   <tile/>
   <tile/>
   <tile/>
   <tile/>
   <tile/>
   <tile/>
   <tile/>
   <tile/>
   <tile/>
   <tile/>
   <tile/>
   <tile/>
   <tile/>
   <tile/>
   <tile/>
   <tile/>
   <tile/>
   <tile/>
   <tile/>
   <tile/>
   <tile/>
   <tile/>
   <tile/>
   <tile/>
   <tile/>
   <tile/>
   <tile/>
   <tile/>
   <tile/>
   <tile/>
   <tile/>
   <tile/>
   <tile/>
   <tile/>
   <tile/>
   <tile/>
   <tile/>
   <tile/>
   <tile gid="129"/>
   <tile gid="129"/>
   <tile gid="129"/>
   <tile/>
   <tile/>
   <tile/>
   <tile gid="129"/>
   <tile gid="129"/>
   <tile gid="129"/>
   <tile gid="129"/>
   <tile gid="129"/>
   <tile gid="129"/>
   <tile gid="129"/>
   <tile gid="129"/>
   <tile gid="129"/>
   <tile gid="129"/>
   <tile gid="129"/>
   <tile gid="129"/>
   <tile gid="129"/>
   <tile gid="129"/>
   <tile gid="129"/>
   <tile gid="129"/>
   <tile gid="129"/>
   <tile gid="129"/>
   <tile gid="129"/>
   <tile gid="129"/>
   <tile gid="129"/>
   <tile gid="129"/>
   <tile gid="129"/>
   <tile gid="129"/>
   <tile gid="129"/>
   <tile gid="129"/>
   <tile gid="129"/>
   <tile gid="129"/>
   <tile gid="129"/>
   <tile gid="129"/>
   <tile gid="129"/>
   <tile/>
   <tile/>
   <tile/>
   <tile/>
   <tile/>
   <tile/>
   <tile/>
   <tile/>
   <tile/>
   <tile/>
   <tile/>
   <tile/>
   <tile/>
   <tile/>
   <tile/>
   <tile/>
   <tile/>
   <tile/>
   <tile/>
   <tile/>
   <tile/>
   <tile/>
   <tile/>
   <tile/>
   <tile/>
   <tile/>
   <tile/>
   <tile/>
   <tile/>
   <tile/>
   <tile/>
   <tile/>
   <tile/>
   <tile/>
   <tile/>
   <tile/>
   <tile/>
   <tile/>
   <tile/>
   <tile/>
   <tile/>
   <tile/>
   <tile/>
   <tile/>
   <tile/>
   <tile/>
   <tile/>
   <tile/>
   <tile/>
   <tile/>
   <tile/>
   <tile/>
   <tile/>
   <tile/>
   <tile/>
   <tile/>
   <tile/>
   <tile/>
   <tile/>
   <tile/>
   <tile/>
   <tile/>
   <tile/>
   <tile/>
   <tile/>
   <tile/>
   <tile/>
   <tile/>
   <tile/>
   <tile/>
   <tile/>
   <tile/>
   <tile/>
   <tile/>
   <tile/>
   <tile/>
   <tile/>
   <tile/>
   <tile/>
   <tile/>
   <tile/>
   <tile/>
   <tile/>
   <tile gid="129"/>
   <tile gid="129"/>
   <tile gid="129"/>
   <tile gid="129"/>
   <tile gid="129"/>
   <tile gid="129"/>
   <tile gid="129"/>
   <tile gid="129"/>
   <tile gid="129"/>
   <tile gid="129"/>
   <tile gid="129"/>
   <tile gid="129"/>
   <tile gid="129"/>
   <tile gid="129"/>
   <tile gid="129"/>
   <tile gid="129"/>
   <tile gid="129"/>
   <tile gid="129"/>
   <tile/>
   <tile/>
   <tile/>
   <tile/>
   <tile/>
   <tile/>
   <tile/>
   <tile/>
   <tile/>
   <tile/>
   <tile/>
   <tile/>
   <tile/>
   <tile/>
   <tile/>
   <tile/>
   <tile/>
   <tile/>
   <tile/>
   <tile/>
   <tile/>
   <tile gid="129"/>
   <tile gid="129"/>
   <tile gid="129"/>
   <tile gid="129"/>
   <tile gid="129"/>
   <tile gid="129"/>
   <tile gid="129"/>
   <tile gid="129"/>
   <tile/>
   <tile/>
   <tile/>
   <tile/>
   <tile/>
   <tile/>
   <tile/>
   <tile/>
   <tile/>
   <tile gid="129"/>
   <tile gid="129"/>
   <tile gid="129"/>
   <tile/>
   <tile/>
   <tile/>
   <tile/>
   <tile/>
   <tile gid="129"/>
   <tile/>
   <tile/>
   <tile/>
   <tile/>
   <tile/>
   <tile/>
   <tile/>
   <tile/>
   <tile/>
   <tile/>
   <tile/>
   <tile gid="129"/>
   <tile gid="129"/>
   <tile gid="129"/>
   <tile gid="129"/>
   <tile gid="129"/>
   <tile gid="129"/>
   <tile gid="129"/>
   <tile gid="129"/>
   <tile gid="129"/>
   <tile gid="129"/>
   <tile gid="129"/>
   <tile gid="129"/>
   <tile gid="129"/>
   <tile gid="129"/>
   <tile gid="129"/>
   <tile gid="129"/>
   <tile gid="129"/>
   <tile gid="129"/>
   <tile gid="129"/>
   <tile/>
   <tile/>
   <tile/>
   <tile/>
   <tile/>
   <tile/>
   <tile/>
   <tile/>
   <tile/>
   <tile/>
   <tile/>
   <tile/>
   <tile/>
   <tile/>
   <tile/>
   <tile/>
   <tile/>
   <tile/>
   <tile/>
   <tile/>
   <tile/>
   <tile/>
   <tile/>
   <tile/>
   <tile/>
   <tile/>
   <tile/>
   <tile/>
   <tile/>
   <tile/>
   <tile/>
   <tile/>
   <tile/>
   <tile/>
   <tile/>
   <tile/>
   <tile/>
   <tile/>
   <tile/>
   <tile/>
   <tile/>
   <tile/>
   <tile/>
   <tile/>
   <tile/>
   <tile/>
   <tile/>
   <tile/>
   <tile/>
   <tile/>
   <tile/>
   <tile/>
   <tile/>
   <tile/>
   <tile/>
   <tile/>
   <tile/>
   <tile/>
   <tile/>
   <tile/>
   <tile/>
   <tile/>
   <tile/>
   <tile/>
   <tile/>
   <tile/>
   <tile/>
   <tile/>
   <tile/>
   <tile/>
   <tile/>
   <tile/>
   <tile/>
   <tile/>
   <tile/>
   <tile/>
   <tile/>
   <tile/>
   <tile/>
   <tile gid="129"/>
   <tile gid="129"/>
   <tile gid="129"/>
   <tile gid="129"/>
   <tile gid="129"/>
   <tile gid="129"/>
   <tile gid="129"/>
   <tile gid="129"/>
   <tile gid="129"/>
   <tile gid="129"/>
   <tile gid="129"/>
   <tile gid="129"/>
   <tile gid="129"/>
   <tile gid="129"/>
   <tile gid="129"/>
   <tile gid="129"/>
   <tile gid="129"/>
   <tile gid="129"/>
   <tile gid="129"/>
   <tile gid="129"/>
   <tile/>
   <tile/>
   <tile/>
   <tile/>
   <tile/>
   <tile/>
   <tile/>
   <tile/>
   <tile/>
   <tile/>
   <tile/>
   <tile/>
   <tile/>
   <tile/>
   <tile/>
   <tile/>
   <tile/>
   <tile/>
   <tile/>
   <tile/>
   <tile/>
   <tile gid="129"/>
   <tile gid="129"/>
   <tile gid="129"/>
   <tile gid="129"/>
   <tile gid="129"/>
   <tile gid="129"/>
   <tile gid="129"/>
   <tile gid="129"/>
   <tile/>
   <tile/>
   <tile gid="129"/>
   <tile gid="129"/>
   <tile/>
   <tile/>
   <tile/>
   <tile/>
   <tile/>
   <tile gid="129"/>
   <tile gid="129"/>
   <tile gid="129"/>
   <tile/>
   <tile/>
   <tile/>
   <tile/>
   <tile/>
   <tile gid="129"/>
   <tile/>
   <tile/>
   <tile/>
   <tile/>
   <tile/>
   <tile/>
   <tile/>
   <tile/>
   <tile/>
   <tile/>
   <tile/>
   <tile/>
   <tile gid="129"/>
   <tile gid="129"/>
   <tile gid="129"/>
   <tile gid="129"/>
   <tile gid="129"/>
   <tile gid="129"/>
   <tile gid="129"/>
   <tile gid="129"/>
   <tile gid="129"/>
   <tile gid="129"/>
   <tile gid="129"/>
   <tile gid="129"/>
   <tile gid="129"/>
   <tile gid="129"/>
   <tile gid="129"/>
   <tile gid="129"/>
   <tile gid="129"/>
   <tile gid="129"/>
   <tile gid="129"/>
   <tile gid="129"/>
   <tile/>
   <tile/>
   <tile/>
   <tile/>
   <tile/>
   <tile/>
   <tile/>
   <tile/>
   <tile/>
   <tile/>
   <tile/>
   <tile/>
   <tile/>
   <tile/>
   <tile/>
   <tile/>
   <tile/>
   <tile/>
   <tile/>
   <tile/>
   <tile/>
   <tile/>
   <tile/>
   <tile/>
   <tile/>
   <tile/>
   <tile/>
   <tile/>
   <tile/>
   <tile/>
   <tile/>
   <tile/>
   <tile/>
   <tile/>
   <tile/>
   <tile/>
   <tile/>
   <tile/>
   <tile/>
   <tile/>
   <tile/>
   <tile/>
   <tile/>
   <tile/>
   <tile/>
   <tile/>
   <tile/>
   <tile/>
   <tile/>
   <tile/>
   <tile/>
   <tile/>
   <tile/>
   <tile/>
   <tile/>
   <tile/>
   <tile/>
   <tile/>
   <tile/>
   <tile/>
   <tile/>
   <tile/>
   <tile/>
   <tile/>
   <tile/>
   <tile/>
   <tile/>
   <tile/>
   <tile/>
   <tile/>
   <tile/>
   <tile/>
   <tile/>
   <tile/>
   <tile/>
   <tile gid="129"/>
   <tile gid="129"/>
   <tile gid="129"/>
   <tile gid="129"/>
   <tile gid="129"/>
   <tile gid="129"/>
   <tile gid="129"/>
   <tile gid="129"/>
   <tile gid="129"/>
   <tile gid="129"/>
   <tile gid="129"/>
   <tile gid="129"/>
   <tile gid="129"/>
   <tile gid="129"/>
   <tile gid="129"/>
   <tile gid="129"/>
   <tile gid="129"/>
   <tile gid="129"/>
   <tile gid="129"/>
   <tile gid="129"/>
   <tile gid="129"/>
   <tile/>
   <tile/>
   <tile/>
   <tile/>
   <tile/>
   <tile/>
   <tile gid="129"/>
   <tile gid="129"/>
   <tile/>
   <tile/>
   <tile/>
   <tile/>
   <tile/>
   <tile/>
   <tile/>
   <tile/>
   <tile/>
   <tile/>
   <tile/>
   <tile/>
   <tile/>
   <tile/>
   <tile/>
   <tile gid="129"/>
   <tile gid="129"/>
   <tile gid="129"/>
   <tile gid="129"/>
   <tile gid="129"/>
   <tile gid="129"/>
   <tile/>
   <tile/>
   <tile/>
   <tile/>
   <tile/>
   <tile/>
   <tile/>
   <tile/>
   <tile/>
   <tile/>
   <tile gid="129"/>
   <tile gid="129"/>
   <tile gid="129"/>
   <tile/>
   <tile/>
   <tile/>
   <tile/>
   <tile/>
   <tile gid="129"/>
   <tile/>
   <tile/>
   <tile/>
   <tile/>
   <tile/>
   <tile/>
   <tile/>
   <tile/>
   <tile/>
   <tile/>
   <tile/>
   <tile/>
   <tile/>
   <tile gid="129"/>
   <tile gid="129"/>
   <tile gid="129"/>
   <tile gid="129"/>
   <tile gid="129"/>
   <tile gid="129"/>
   <tile gid="129"/>
   <tile gid="129"/>
   <tile gid="129"/>
   <tile gid="129"/>
   <tile gid="129"/>
   <tile gid="129"/>
   <tile gid="129"/>
   <tile gid="129"/>
   <tile gid="129"/>
   <tile gid="129"/>
   <tile gid="129"/>
   <tile gid="129"/>
   <tile/>
   <tile/>
   <tile/>
   <tile/>
   <tile/>
   <tile/>
   <tile/>
   <tile/>
   <tile/>
   <tile/>
   <tile/>
   <tile/>
   <tile/>
   <tile/>
   <tile/>
   <tile/>
   <tile/>
   <tile/>
   <tile/>
   <tile/>
   <tile/>
   <tile/>
   <tile/>
   <tile/>
   <tile/>
   <tile/>
   <tile/>
   <tile/>
   <tile/>
   <tile/>
   <tile/>
   <tile/>
   <tile/>
   <tile/>
   <tile/>
   <tile/>
   <tile/>
   <tile/>
   <tile/>
   <tile/>
   <tile/>
   <tile/>
   <tile/>
   <tile/>
   <tile/>
   <tile/>
   <tile/>
   <tile/>
   <tile/>
   <tile/>
   <tile/>
   <tile/>
   <tile/>
   <tile/>
   <tile/>
   <tile/>
   <tile/>
   <tile/>
   <tile/>
   <tile/>
   <tile/>
   <tile/>
   <tile/>
   <tile/>
   <tile/>
   <tile/>
   <tile/>
   <tile/>
   <tile/>
   <tile/>
   <tile/>
   <tile/>
   <tile/>
   <tile/>
   <tile/>
   <tile/>
   <tile/>
   <tile/>
   <tile/>
   <tile/>
   <tile/>
   <tile/>
   <tile/>
   <tile/>
   <tile/>
   <tile/>
   <tile/>
   <tile/>
   <tile/>
   <tile/>
   <tile/>
   <tile/>
   <tile/>
   <tile/>
   <tile/>
   <tile/>
   <tile/>
   <tile/>
   <tile/>
   <tile/>
   <tile/>
   <tile/>
   <tile/>
   <tile/>
   <tile/>
   <tile/>
   <tile/>
   <tile/>
   <tile/>
   <tile/>
   <tile/>
   <tile/>
   <tile/>
   <tile/>
   <tile/>
   <tile/>
   <tile gid="129"/>
   <tile/>
   <tile/>
   <tile/>
   <tile/>
   <tile gid="129"/>
   <tile gid="129"/>
   <tile gid="129"/>
   <tile gid="129"/>
   <tile/>
   <tile/>
   <tile/>
   <tile/>
   <tile/>
   <tile/>
   <tile/>
   <tile/>
   <tile gid="129"/>
   <tile gid="129"/>
   <tile/>
   <tile gid="129"/>
   <tile gid="129"/>
   <tile gid="129"/>
   <tile gid="129"/>
   <tile gid="129"/>
   <tile/>
   <tile/>
   <tile/>
   <tile gid="129"/>
   <tile/>
   <tile/>
   <tile/>
   <tile/>
   <tile/>
   <tile/>
   <tile/>
   <tile/>
   <tile/>
   <tile/>
   <tile/>
   <tile/>
   <tile/>
   <tile gid="129"/>
   <tile/>
   <tile/>
   <tile/>
   <tile/>
   <tile/>
   <tile/>
   <tile/>
   <tile/>
   <tile/>
   <tile/>
   <tile/>
   <tile/>
   <tile/>
   <tile/>
   <tile/>
   <tile/>
   <tile/>
   <tile/>
   <tile/>
   <tile/>
   <tile gid="129"/>
   <tile gid="129"/>
   <tile gid="129"/>
   <tile/>
   <tile/>
   <tile/>
   <tile/>
   <tile/>
   <tile/>
   <tile/>
   <tile/>
   <tile/>
   <tile/>
   <tile/>
   <tile/>
   <tile/>
   <tile/>
   <tile/>
   <tile/>
   <tile/>
   <tile/>
   <tile/>
   <tile/>
   <tile/>
   <tile/>
   <tile/>
   <tile/>
   <tile/>
   <tile/>
   <tile/>
   <tile/>
   <tile/>
   <tile/>
   <tile/>
   <tile/>
   <tile/>
   <tile/>
   <tile/>
   <tile/>
   <tile/>
   <tile/>
   <tile/>
   <tile/>
   <tile/>
   <tile/>
   <tile/>
   <tile/>
   <tile/>
   <tile/>
   <tile/>
   <tile/>
   <tile/>
   <tile/>
   <tile/>
   <tile/>
   <tile/>
   <tile/>
   <tile/>
   <tile/>
   <tile/>
   <tile/>
   <tile/>
   <tile/>
   <tile/>
   <tile/>
   <tile/>
   <tile/>
   <tile/>
   <tile/>
   <tile/>
   <tile/>
   <tile/>
   <tile/>
   <tile/>
   <tile/>
   <tile/>
   <tile/>
   <tile/>
   <tile/>
   <tile/>
   <tile/>
   <tile/>
   <tile/>
   <tile/>
   <tile/>
   <tile/>
   <tile/>
   <tile/>
   <tile/>
   <tile/>
   <tile/>
   <tile/>
   <tile/>
   <tile/>
   <tile/>
   <tile/>
   <tile/>
   <tile/>
   <tile/>
   <tile/>
   <tile/>
   <tile/>
   <tile/>
   <tile/>
   <tile/>
   <tile/>
   <tile/>
   <tile/>
   <tile/>
   <tile/>
   <tile/>
   <tile/>
   <tile/>
   <tile/>
   <tile/>
   <tile/>
   <tile/>
   <tile/>
   <tile/>
   <tile/>
   <tile/>
   <tile/>
   <tile/>
   <tile/>
   <tile/>
   <tile/>
   <tile/>
   <tile/>
   <tile/>
   <tile/>
   <tile/>
   <tile/>
   <tile/>
   <tile gid="129"/>
   <tile gid="129"/>
   <tile gid="129"/>
   <tile gid="129"/>
   <tile gid="129"/>
   <tile/>
   <tile/>
   <tile/>
   <tile gid="129"/>
   <tile/>
   <tile/>
   <tile/>
   <tile/>
   <tile/>
   <tile/>
   <tile/>
   <tile/>
   <tile/>
   <tile/>
   <tile/>
   <tile/>
   <tile/>
   <tile gid="129"/>
   <tile/>
   <tile/>
   <tile/>
   <tile/>
   <tile/>
   <tile/>
   <tile/>
   <tile/>
   <tile/>
   <tile/>
   <tile/>
   <tile/>
   <tile/>
   <tile/>
   <tile/>
   <tile/>
   <tile/>
   <tile/>
   <tile/>
   <tile/>
   <tile/>
   <tile/>
   <tile/>
   <tile/>
   <tile/>
   <tile/>
   <tile/>
   <tile/>
   <tile/>
   <tile/>
   <tile/>
   <tile/>
   <tile/>
   <tile/>
   <tile/>
   <tile/>
   <tile/>
   <tile/>
   <tile/>
   <tile/>
   <tile/>
   <tile/>
   <tile/>
   <tile/>
   <tile/>
   <tile/>
   <tile/>
   <tile/>
   <tile/>
   <tile/>
   <tile/>
   <tile/>
   <tile/>
   <tile/>
   <tile/>
   <tile/>
   <tile/>
   <tile/>
   <tile/>
   <tile/>
   <tile/>
   <tile/>
   <tile/>
   <tile/>
   <tile/>
   <tile/>
   <tile/>
   <tile/>
   <tile/>
   <tile/>
   <tile/>
   <tile/>
   <tile/>
   <tile/>
   <tile/>
   <tile/>
   <tile/>
   <tile/>
   <tile/>
   <tile/>
   <tile/>
   <tile/>
   <tile/>
   <tile/>
   <tile/>
   <tile/>
   <tile/>
   <tile/>
   <tile gid="129"/>
   <tile gid="129"/>
   <tile gid="129"/>
   <tile gid="129"/>
   <tile gid="129"/>
   <tile gid="129"/>
   <tile/>
   <tile/>
   <tile/>
   <tile/>
   <tile/>
   <tile/>
   <tile/>
   <tile/>
   <tile/>
   <tile/>
   <tile/>
   <tile/>
   <tile/>
   <tile/>
   <tile/>
   <tile/>
   <tile/>
   <tile/>
   <tile/>
   <tile/>
   <tile/>
   <tile/>
   <tile/>
   <tile/>
   <tile/>
   <tile/>
   <tile/>
   <tile/>
   <tile gid="129"/>
   <tile gid="129"/>
   <tile gid="129"/>
   <tile gid="129"/>
   <tile gid="129"/>
   <tile gid="129"/>
   <tile gid="129"/>
   <tile gid="129"/>
   <tile gid="129"/>
   <tile/>
   <tile/>
   <tile/>
   <tile/>
   <tile/>
   <tile/>
   <tile/>
   <tile/>
   <tile/>
   <tile/>
   <tile/>
   <tile/>
   <tile/>
   <tile/>
   <tile/>
   <tile/>
   <tile gid="129"/>
   <tile gid="129"/>
   <tile/>
   <tile/>
   <tile/>
   <tile/>
   <tile gid="129"/>
   <tile gid="129"/>
   <tile gid="129"/>
   <tile gid="129"/>
   <tile gid="129"/>
   <tile/>
   <tile/>
   <tile/>
   <tile gid="129"/>
   <tile/>
   <tile/>
   <tile/>
   <tile/>
   <tile/>
   <tile/>
   <tile/>
   <tile/>
   <tile/>
   <tile/>
   <tile/>
   <tile/>
   <tile/>
   <tile gid="129"/>
   <tile/>
   <tile/>
   <tile/>
   <tile/>
   <tile/>
   <tile/>
   <tile/>
   <tile/>
   <tile/>
   <tile/>
   <tile/>
   <tile/>
   <tile/>
   <tile/>
   <tile/>
   <tile/>
   <tile/>
   <tile/>
   <tile/>
   <tile/>
   <tile/>
   <tile/>
   <tile/>
   <tile/>
   <tile/>
   <tile gid="129"/>
   <tile gid="129"/>
   <tile gid="129"/>
   <tile/>
   <tile/>
   <tile/>
   <tile/>
   <tile/>
   <tile/>
   <tile/>
   <tile/>
   <tile/>
   <tile/>
   <tile/>
   <tile/>
   <tile/>
   <tile/>
   <tile/>
   <tile/>
   <tile/>
   <tile/>
   <tile/>
   <tile/>
   <tile/>
   <tile/>
   <tile/>
   <tile/>
   <tile/>
   <tile/>
   <tile/>
   <tile/>
   <tile/>
   <tile/>
   <tile/>
   <tile/>
   <tile/>
   <tile/>
   <tile/>
   <tile/>
   <tile/>
   <tile/>
   <tile/>
   <tile/>
   <tile/>
   <tile/>
   <tile/>
   <tile/>
   <tile/>
   <tile/>
   <tile/>
   <tile/>
   <tile/>
   <tile/>
   <tile/>
   <tile/>
   <tile/>
   <tile/>
   <tile/>
   <tile/>
   <tile/>
   <tile/>
   <tile/>
   <tile/>
   <tile/>
   <tile gid="129"/>
   <tile gid="129"/>
   <tile gid="129"/>
   <tile gid="129"/>
   <tile/>
   <tile/>
   <tile/>
   <tile/>
   <tile/>
   <tile/>
   <tile/>
   <tile/>
   <tile/>
   <tile/>
   <tile/>
   <tile/>
   <tile/>
   <tile/>
   <tile/>
   <tile/>
   <tile/>
   <tile/>
   <tile/>
   <tile/>
   <tile/>
   <tile/>
   <tile/>
   <tile/>
   <tile/>
   <tile/>
   <tile/>
   <tile/>
   <tile/>
   <tile gid="129"/>
   <tile gid="129"/>
   <tile gid="129"/>
   <tile gid="129"/>
   <tile gid="129"/>
   <tile gid="129"/>
   <tile gid="129"/>
   <tile gid="129"/>
   <tile gid="129"/>
   <tile/>
   <tile/>
   <tile/>
   <tile/>
   <tile/>
   <tile/>
   <tile/>
   <tile/>
   <tile/>
   <tile/>
   <tile/>
   <tile/>
   <tile/>
   <tile/>
   <tile/>
   <tile/>
   <tile/>
   <tile/>
   <tile/>
   <tile/>
   <tile/>
   <tile/>
   <tile gid="129"/>
   <tile gid="129"/>
   <tile gid="129"/>
   <tile gid="129"/>
   <tile gid="129"/>
   <tile/>
   <tile/>
   <tile/>
   <tile gid="129"/>
   <tile/>
   <tile/>
   <tile/>
   <tile/>
   <tile/>
   <tile/>
   <tile/>
   <tile/>
   <tile/>
   <tile/>
   <tile/>
   <tile/>
   <tile/>
   <tile gid="129"/>
   <tile/>
   <tile/>
   <tile/>
   <tile/>
   <tile/>
   <tile/>
   <tile/>
   <tile/>
   <tile/>
   <tile/>
   <tile/>
   <tile/>
   <tile/>
   <tile/>
   <tile/>
   <tile/>
   <tile/>
   <tile/>
   <tile/>
   <tile/>
   <tile/>
   <tile/>
   <tile/>
   <tile/>
   <tile/>
   <tile/>
   <tile/>
   <tile/>
   <tile/>
   <tile/>
   <tile/>
   <tile/>
   <tile/>
   <tile/>
   <tile/>
   <tile/>
   <tile/>
   <tile/>
   <tile/>
   <tile/>
   <tile/>
   <tile/>
   <tile/>
   <tile/>
   <tile/>
   <tile/>
   <tile/>
   <tile/>
   <tile/>
   <tile/>
   <tile/>
   <tile/>
   <tile/>
   <tile/>
   <tile/>
   <tile/>
   <tile/>
   <tile/>
   <tile/>
   <tile/>
   <tile/>
   <tile/>
   <tile/>
   <tile/>
   <tile/>
   <tile/>
   <tile/>
   <tile/>
   <tile/>
   <tile/>
   <tile/>
   <tile/>
   <tile/>
   <tile/>
   <tile/>
   <tile/>
   <tile/>
   <tile/>
   <tile/>
   <tile/>
   <tile/>
   <tile/>
   <tile/>
   <tile/>
   <tile/>
   <tile/>
   <tile/>
   <tile/>
   <tile/>
   <tile/>
   <tile/>
   <tile/>
   <tile/>
   <tile/>
   <tile/>
   <tile/>
   <tile/>
   <tile/>
   <tile/>
   <tile/>
   <tile/>
   <tile/>
   <tile/>
   <tile/>
   <tile/>
   <tile/>
   <tile/>
   <tile/>
   <tile/>
   <tile/>
   <tile/>
   <tile/>
   <tile/>
   <tile/>
   <tile/>
   <tile/>
   <tile/>
   <tile/>
   <tile/>
   <tile/>
   <tile/>
   <tile/>
   <tile/>
   <tile/>
   <tile/>
   <tile/>
   <tile/>
   <tile/>
   <tile/>
   <tile/>
   <tile/>
   <tile/>
   <tile/>
   <tile/>
   <tile/>
   <tile/>
   <tile/>
   <tile/>
   <tile/>
   <tile/>
   <tile/>
   <tile/>
   <tile/>
   <tile/>
   <tile gid="129"/>
   <tile gid="129"/>
   <tile/>
   <tile/>
   <tile/>
   <tile/>
   <tile/>
   <tile/>
   <tile/>
   <tile gid="129"/>
   <tile gid="129"/>
   <tile gid="129"/>
   <tile gid="129"/>
   <tile gid="129"/>
   <tile/>
   <tile/>
   <tile/>
   <tile gid="129"/>
   <tile/>
   <tile/>
   <tile/>
   <tile/>
   <tile/>
   <tile/>
   <tile/>
   <tile/>
   <tile/>
   <tile/>
   <tile/>
   <tile/>
   <tile/>
   <tile gid="129"/>
   <tile/>
   <tile/>
   <tile/>
   <tile/>
   <tile/>
   <tile/>
   <tile/>
   <tile/>
   <tile/>
   <tile/>
   <tile/>
   <tile/>
   <tile/>
   <tile/>
   <tile/>
   <tile/>
   <tile/>
   <tile/>
   <tile/>
   <tile/>
   <tile/>
   <tile/>
   <tile/>
   <tile/>
   <tile/>
   <tile/>
   <tile/>
   <tile/>
   <tile/>
   <tile/>
   <tile gid="129"/>
   <tile gid="129"/>
   <tile gid="129"/>
   <tile/>
   <tile/>
   <tile/>
   <tile/>
   <tile/>
   <tile/>
   <tile/>
   <tile/>
   <tile/>
   <tile/>
   <tile/>
   <tile/>
   <tile/>
   <tile/>
   <tile/>
   <tile/>
   <tile/>
   <tile/>
   <tile/>
   <tile/>
   <tile/>
   <tile/>
   <tile/>
   <tile/>
   <tile/>
   <tile/>
   <tile/>
   <tile/>
   <tile/>
   <tile/>
   <tile/>
   <tile/>
   <tile/>
   <tile/>
   <tile/>
   <tile/>
   <tile/>
   <tile/>
   <tile/>
   <tile/>
   <tile/>
   <tile/>
   <tile/>
   <tile/>
   <tile/>
   <tile/>
   <tile/>
   <tile/>
   <tile/>
   <tile/>
   <tile/>
   <tile/>
   <tile gid="129"/>
   <tile gid="129"/>
   <tile/>
   <tile/>
   <tile/>
   <tile/>
   <tile/>
   <tile/>
   <tile/>
   <tile/>
   <tile gid="129"/>
   <tile gid="129"/>
   <tile/>
   <tile/>
   <tile/>
   <tile/>
   <tile/>
   <tile/>
   <tile/>
   <tile/>
   <tile/>
   <tile/>
   <tile/>
   <tile/>
   <tile/>
   <tile/>
   <tile/>
   <tile/>
   <tile/>
   <tile/>
   <tile/>
   <tile/>
   <tile/>
   <tile/>
   <tile/>
   <tile/>
   <tile/>
   <tile/>
   <tile/>
   <tile/>
   <tile/>
   <tile/>
   <tile/>
   <tile/>
   <tile/>
   <tile/>
   <tile/>
   <tile/>
   <tile/>
   <tile/>
   <tile/>
   <tile/>
   <tile/>
   <tile/>
   <tile/>
   <tile/>
   <tile/>
   <tile/>
   <tile/>
   <tile/>
   <tile/>
   <tile/>
   <tile/>
   <tile/>
   <tile/>
   <tile/>
   <tile/>
   <tile/>
   <tile gid="129"/>
   <tile gid="129"/>
   <tile gid="129"/>
   <tile gid="129"/>
   <tile gid="129"/>
   <tile/>
   <tile/>
   <tile/>
   <tile/>
   <tile/>
   <tile/>
   <tile/>
   <tile/>
   <tile/>
   <tile/>
   <tile/>
   <tile/>
   <tile/>
   <tile/>
   <tile/>
   <tile/>
   <tile/>
   <tile gid="129"/>
   <tile/>
   <tile/>
   <tile/>
   <tile/>
   <tile/>
   <tile/>
   <tile/>
   <tile/>
   <tile/>
   <tile/>
   <tile/>
   <tile/>
   <tile/>
   <tile/>
   <tile/>
   <tile/>
   <tile/>
   <tile/>
   <tile/>
   <tile/>
   <tile/>
   <tile/>
   <tile/>
   <tile/>
   <tile/>
   <tile/>
   <tile/>
   <tile/>
   <tile/>
   <tile/>
   <tile/>
   <tile/>
   <tile/>
   <tile/>
   <tile/>
   <tile/>
   <tile/>
   <tile/>
   <tile/>
   <tile/>
   <tile/>
   <tile/>
   <tile/>
   <tile/>
   <tile/>
   <tile/>
   <tile/>
   <tile/>
   <tile/>
   <tile/>
   <tile/>
   <tile/>
   <tile/>
   <tile/>
   <tile/>
   <tile/>
   <tile/>
   <tile/>
   <tile/>
   <tile/>
   <tile/>
   <tile/>
   <tile/>
   <tile/>
   <tile/>
   <tile/>
   <tile/>
   <tile/>
   <tile/>
   <tile/>
   <tile/>
   <tile/>
   <tile/>
   <tile/>
   <tile/>
   <tile/>
   <tile/>
   <tile/>
   <tile/>
   <tile/>
   <tile/>
   <tile/>
   <tile/>
   <tile/>
   <tile/>
   <tile/>
   <tile/>
   <tile/>
   <tile/>
   <tile/>
   <tile/>
   <tile/>
   <tile/>
   <tile/>
   <tile/>
   <tile/>
   <tile/>
   <tile/>
   <tile/>
   <tile/>
   <tile/>
   <tile/>
   <tile/>
   <tile/>
   <tile/>
   <tile/>
   <tile/>
   <tile/>
   <tile/>
   <tile/>
   <tile/>
   <tile/>
   <tile/>
   <tile/>
   <tile/>
   <tile/>
   <tile/>
   <tile/>
   <tile/>
   <tile/>
   <tile/>
   <tile/>
   <tile/>
   <tile/>
   <tile/>
   <tile/>
   <tile/>
   <tile/>
   <tile/>
   <tile/>
   <tile/>
   <tile/>
   <tile/>
   <tile/>
   <tile/>
   <tile/>
   <tile/>
   <tile/>
   <tile/>
   <tile/>
   <tile/>
   <tile gid="129"/>
   <tile gid="129"/>
   <tile/>
   <tile/>
   <tile/>
   <tile/>
   <tile/>
   <tile/>
   <tile/>
   <tile/>
   <tile/>
   <tile/>
   <tile gid="129"/>
   <tile gid="129"/>
   <tile gid="129"/>
   <tile gid="129"/>
   <tile gid="129"/>
   <tile/>
   <tile/>
   <tile/>
   <tile/>
   <tile/>
   <tile/>
   <tile/>
   <tile/>
   <tile/>
   <tile/>
   <tile/>
   <tile/>
   <tile/>
   <tile/>
   <tile/>
   <tile/>
   <tile/>
   <tile gid="129"/>
   <tile/>
   <tile/>
   <tile/>
   <tile/>
   <tile/>
   <tile/>
   <tile/>
   <tile/>
   <tile/>
   <tile/>
   <tile/>
   <tile/>
   <tile/>
   <tile/>
   <tile/>
   <tile/>
   <tile/>
   <tile/>
   <tile/>
   <tile/>
   <tile/>
   <tile/>
   <tile/>
   <tile/>
   <tile/>
   <tile/>
   <tile/>
   <tile/>
   <tile/>
   <tile/>
   <tile/>
   <tile/>
   <tile/>
   <tile/>
   <tile/>
   <tile/>
   <tile/>
   <tile/>
   <tile/>
   <tile/>
   <tile/>
   <tile/>
   <tile/>
   <tile/>
   <tile/>
   <tile/>
   <tile/>
   <tile/>
   <tile/>
   <tile/>
   <tile/>
   <tile/>
   <tile/>
   <tile/>
   <tile/>
   <tile/>
   <tile/>
   <tile/>
   <tile/>
   <tile/>
   <tile/>
   <tile/>
   <tile/>
   <tile/>
   <tile/>
   <tile/>
   <tile/>
   <tile/>
   <tile/>
   <tile/>
   <tile/>
   <tile/>
   <tile/>
   <tile/>
   <tile/>
   <tile/>
   <tile/>
   <tile/>
   <tile/>
   <tile/>
   <tile/>
   <tile/>
   <tile/>
   <tile/>
   <tile/>
   <tile/>
   <tile/>
   <tile/>
   <tile/>
   <tile/>
   <tile/>
   <tile/>
   <tile/>
   <tile/>
   <tile/>
   <tile/>
   <tile/>
   <tile/>
   <tile/>
   <tile/>
   <tile/>
   <tile/>
   <tile/>
   <tile/>
   <tile/>
   <tile/>
   <tile/>
   <tile/>
   <tile/>
   <tile/>
   <tile/>
   <tile/>
   <tile/>
   <tile/>
   <tile/>
   <tile/>
   <tile/>
   <tile/>
   <tile/>
   <tile/>
   <tile/>
   <tile/>
   <tile/>
   <tile/>
   <tile/>
   <tile/>
   <tile/>
   <tile/>
   <tile/>
   <tile/>
   <tile/>
   <tile/>
   <tile/>
   <tile/>
   <tile/>
   <tile/>
   <tile/>
   <tile/>
   <tile/>
   <tile/>
   <tile/>
   <tile/>
   <tile/>
   <tile/>
   <tile/>
   <tile/>
   <tile/>
   <tile/>
   <tile/>
   <tile/>
   <tile/>
   <tile/>
   <tile/>
   <tile gid="129"/>
   <tile gid="129"/>
   <tile gid="129"/>
   <tile gid="129"/>
   <tile gid="129"/>
   <tile/>
   <tile/>
   <tile/>
   <tile/>
   <tile/>
   <tile/>
   <tile/>
   <tile/>
   <tile/>
   <tile/>
   <tile/>
   <tile/>
   <tile/>
   <tile/>
   <tile/>
   <tile/>
   <tile/>
   <tile gid="129"/>
   <tile/>
   <tile/>
   <tile/>
   <tile/>
   <tile/>
   <tile/>
   <tile/>
   <tile/>
   <tile/>
   <tile/>
   <tile/>
   <tile/>
   <tile/>
   <tile/>
   <tile/>
   <tile/>
   <tile/>
   <tile/>
   <tile/>
   <tile/>
   <tile/>
   <tile/>
   <tile/>
   <tile/>
   <tile/>
   <tile/>
   <tile/>
   <tile/>
   <tile/>
   <tile/>
   <tile/>
   <tile/>
   <tile/>
   <tile/>
   <tile/>
   <tile gid="129"/>
   <tile gid="129"/>
   <tile/>
   <tile/>
   <tile/>
   <tile/>
   <tile/>
   <tile/>
   <tile gid="129"/>
   <tile/>
   <tile/>
   <tile/>
   <tile/>
   <tile/>
   <tile/>
   <tile/>
   <tile/>
   <tile/>
   <tile/>
   <tile/>
   <tile/>
   <tile/>
   <tile/>
   <tile/>
   <tile/>
   <tile/>
   <tile/>
   <tile/>
   <tile/>
   <tile/>
   <tile/>
   <tile/>
   <tile/>
   <tile gid="129"/>
   <tile/>
   <tile/>
   <tile/>
   <tile/>
   <tile/>
   <tile/>
   <tile/>
   <tile/>
   <tile/>
   <tile gid="129"/>
   <tile gid="129"/>
   <tile gid="129"/>
   <tile gid="129"/>
   <tile gid="129"/>
   <tile gid="129"/>
   <tile gid="129"/>
   <tile gid="129"/>
   <tile gid="129"/>
   <tile gid="129"/>
   <tile gid="129"/>
   <tile gid="129"/>
   <tile gid="129"/>
   <tile gid="129"/>
   <tile gid="129"/>
   <tile gid="129"/>
   <tile/>
   <tile/>
   <tile/>
   <tile/>
   <tile gid="129"/>
   <tile gid="129"/>
   <tile gid="129"/>
   <tile gid="129"/>
   <tile gid="129"/>
   <tile gid="129"/>
   <tile/>
   <tile/>
   <tile/>
   <tile/>
   <tile/>
   <tile/>
   <tile/>
   <tile/>
   <tile/>
   <tile/>
   <tile/>
   <tile/>
   <tile/>
   <tile/>
   <tile/>
   <tile/>
   <tile/>
   <tile/>
   <tile/>
   <tile/>
   <tile/>
   <tile/>
   <tile/>
   <tile/>
   <tile/>
   <tile/>
   <tile/>
   <tile/>
   <tile/>
   <tile/>
   <tile/>
   <tile/>
   <tile/>
   <tile/>
   <tile/>
   <tile/>
   <tile/>
   <tile/>
   <tile/>
   <tile/>
   <tile/>
   <tile/>
   <tile/>
   <tile/>
   <tile/>
   <tile/>
   <tile/>
   <tile/>
   <tile/>
   <tile gid="129"/>
   <tile gid="129"/>
   <tile gid="129"/>
   <tile gid="129"/>
   <tile gid="129"/>
   <tile gid="129"/>
   <tile gid="129"/>
   <tile gid="129"/>
   <tile gid="129"/>
   <tile gid="129"/>
   <tile gid="129"/>
   <tile gid="129"/>
   <tile gid="129"/>
   <tile gid="129"/>
   <tile gid="129"/>
   <tile/>
   <tile/>
   <tile/>
   <tile/>
   <tile gid="129"/>
   <tile gid="129"/>
   <tile gid="129"/>
   <tile gid="129"/>
   <tile gid="129"/>
   <tile gid="129"/>
   <tile gid="129"/>
   <tile gid="129"/>
   <tile gid="129"/>
   <tile gid="129"/>
   <tile gid="129"/>
   <tile gid="129"/>
   <tile gid="129"/>
   <tile gid="129"/>
   <tile gid="129"/>
   <tile gid="129"/>
   <tile gid="129"/>
   <tile gid="129"/>
   <tile gid="129"/>
   <tile gid="129"/>
   <tile gid="129"/>
   <tile gid="129"/>
   <tile gid="129"/>
   <tile gid="129"/>
   <tile gid="129"/>
   <tile gid="129"/>
   <tile gid="129"/>
   <tile gid="129"/>
   <tile gid="129"/>
   <tile gid="129"/>
   <tile gid="129"/>
   <tile gid="129"/>
   <tile gid="129"/>
   <tile gid="129"/>
   <tile gid="129"/>
   <tile gid="129"/>
   <tile gid="129"/>
   <tile gid="129"/>
   <tile gid="129"/>
   <tile gid="129"/>
   <tile gid="129"/>
   <tile gid="129"/>
   <tile gid="129"/>
   <tile gid="129"/>
   <tile gid="129"/>
   <tile gid="129"/>
   <tile gid="129"/>
   <tile gid="129"/>
   <tile gid="129"/>
   <tile gid="129"/>
   <tile gid="129"/>
   <tile gid="129"/>
   <tile gid="129"/>
   <tile gid="129"/>
   <tile gid="129"/>
   <tile gid="129"/>
   <tile gid="129"/>
   <tile gid="129"/>
   <tile gid="129"/>
   <tile gid="129"/>
   <tile gid="129"/>
   <tile gid="129"/>
   <tile gid="129"/>
   <tile gid="129"/>
   <tile gid="129"/>
   <tile gid="129"/>
   <tile gid="129"/>
   <tile gid="129"/>
   <tile gid="129"/>
   <tile gid="129"/>
   <tile gid="129"/>
   <tile gid="129"/>
   <tile gid="129"/>
   <tile gid="129"/>
   <tile gid="129"/>
   <tile gid="129"/>
   <tile gid="129"/>
   <tile gid="129"/>
   <tile gid="129"/>
   <tile gid="129"/>
   <tile gid="129"/>
   <tile gid="129"/>
   <tile gid="129"/>
   <tile gid="129"/>
   <tile gid="129"/>
   <tile gid="129"/>
   <tile gid="129"/>
   <tile gid="129"/>
   <tile gid="129"/>
   <tile gid="129"/>
   <tile gid="129"/>
   <tile gid="129"/>
   <tile gid="129"/>
   <tile gid="129"/>
   <tile gid="129"/>
   <tile gid="129"/>
   <tile gid="129"/>
   <tile gid="129"/>
   <tile gid="129"/>
   <tile gid="129"/>
   <tile gid="129"/>
   <tile gid="129"/>
   <tile gid="129"/>
   <tile gid="129"/>
   <tile gid="129"/>
   <tile gid="129"/>
   <tile gid="129"/>
   <tile gid="129"/>
   <tile gid="129"/>
   <tile gid="129"/>
   <tile gid="129"/>
   <tile gid="129"/>
   <tile gid="129"/>
   <tile gid="129"/>
   <tile gid="129"/>
   <tile/>
   <tile/>
   <tile/>
   <tile/>
   <tile gid="129"/>
   <tile gid="129"/>
   <tile gid="129"/>
   <tile gid="129"/>
   <tile gid="129"/>
   <tile gid="129"/>
   <tile gid="129"/>
   <tile gid="129"/>
   <tile gid="129"/>
   <tile gid="129"/>
   <tile gid="129"/>
   <tile gid="129"/>
   <tile gid="129"/>
   <tile gid="129"/>
   <tile gid="129"/>
   <tile gid="129"/>
   <tile gid="129"/>
   <tile gid="129"/>
   <tile gid="129"/>
   <tile gid="129"/>
   <tile gid="129"/>
   <tile gid="129"/>
   <tile gid="129"/>
   <tile gid="129"/>
   <tile gid="129"/>
   <tile gid="129"/>
   <tile gid="129"/>
   <tile gid="129"/>
   <tile gid="129"/>
   <tile gid="129"/>
   <tile gid="129"/>
   <tile gid="129"/>
   <tile gid="129"/>
   <tile gid="129"/>
   <tile gid="129"/>
   <tile gid="129"/>
   <tile gid="129"/>
   <tile gid="129"/>
   <tile gid="129"/>
  </data>
 </layer>
 <objectgroup id="11" name="EntitiesSpawnPoints">
  <object id="529" name="Ninfa" type="Ninfa" x="21504" y="1664">
   <point/>
  </object>
  <object id="532" name="Ninfa" type="Ninfa" x="2816" y="640">
   <point/>
  </object>
  <object id="536" name="SwordKnight" type="SwordKnight" x="20480" y="760">
   <point/>
  </object>
  <object id="537" name="ShieldKnight" type="ShieldKnight" x="19332" y="2292">
   <point/>
  </object>
  <object id="538" name="SwordKnight" type="SwordKnight" x="3460" y="732">
   <point/>
  </object>
  <object id="540" name="Cucafera" type="Cucafera" x="18688" y="2304">
   <point/>
  </object>
  <object id="545" name="Ninfa" type="Ninfa" x="4992" y="2176">
   <point/>
  </object>
  <object id="547" name="SkillPointOrb" type="SkillPointOrb" x="18213.1" y="768">
   <point/>
  </object>
  <object id="553" name="SavePoint" type="SavePoint" x="15928" y="896">
   <point/>
  </object>
  <object id="692" name="Player" type="Player" x="15744" y="2304">
   <point/>
  </object>
  <object id="700" name="ShieldKnight" type="ShieldKnight" x="18871.3" y="1417.09">
   <point/>
  </object>
  <object id="701" name="Ninfa" type="Ninfa" x="18944" y="1024">
   <point/>
  </object>
  <object id="708" name="Ninfa" type="Ninfa" x="4352" y="640">
   <point/>
  </object>
  <object id="710" name="Ninfa" type="Ninfa" x="8924" y="2224">
   <point/>
  </object>
  <object id="711" name="Ninfa" type="Ninfa" x="10880" y="2224">
   <point/>
  </object>
  <object id="721" name="Key" type="Key" x="1536" y="896">
   <properties>
    <property name="KeyRegion" value="Bosque"/>
   </properties>
   <point/>
  </object>
  <object id="774" name="Cucafera" type="Cucafera" x="20608" y="2304">
   <point/>
  </object>
  <object id="1173" name="SavePoint" type="SavePoint" x="7936" y="2432">
   <point/>
  </object>
  <object id="1185" name="Ninfa" type="Ninfa" x="9920" y="1552">
   <point/>
  </object>
  <object id="1189" name="SwordKnight" type="SwordKnight" x="9916" y="2259.88">
   <point/>
  </object>
  <object id="1211" name="SkillPointOrb" type="SkillPointOrb" x="9906.06" y="790.909">
   <point/>
  </object>
  <object id="1325" name="SkillPointOrb" type="SkillPointOrb" x="387.03" y="1340.61">
   <point/>
  </object>
 </objectgroup>
 <objectgroup id="15" name="PlayerSpawns" visible="0">
  <properties>
   <property name="PlayerSpawns" type="bool" value="true"/>
  </properties>
  <object id="694" name="Player" type="Player" x="16768" y="2304">
   <properties>
    <property name="FromRoom" type="file" value="Forest_02.tmx"/>
   </properties>
   <point/>
  </object>
  <object id="696" name="Player" type="Player" x="2560" y="2432">
   <properties>
    <property name="FromRoom" type="file" value="Forest_04.tmx"/>
   </properties>
   <point/>
  </object>
 </objectgroup>
</map>
