<?xml version="1.0" encoding="UTF-8"?>
<map version="1.10" tiledversion="1.10.2" orientation="orthogonal" renderorder="right-down" width="88" height="19" tilewidth="128" tileheight="128" infinite="0" nextlayerid="40" nextobjectid="1465">
 <properties>
  <property name="Ground" type="bool" value="true"/>
  <property name="Navigation" type="bool" value="true"/>
 </properties>
 <tileset firstgid="1" name="Atlas_Bosque_V2" tilewidth="128" tileheight="128" tilecount="64" columns="8">
  <image source="Forest/Atlas_Forest.png" width="1024" height="1024"/>
  <wangsets>
   <wangset name="MixTierra" type="mixed" tile="-1">
    <wangcolor name="Tierra" color="#ff0000" tile="-1" probability="1"/>
    <wangtile tileid="30" wangid="1,1,1,1,1,1,1,1"/>
    <wangtile tileid="31" wangid="1,1,1,1,1,1,1,1"/>
    <wangtile tileid="36" wangid="1,1,1,1,1,1,1,1"/>
    <wangtile tileid="38" wangid="1,1,1,1,1,1,1,1"/>
    <wangtile tileid="39" wangid="1,1,1,1,1,1,1,1"/>
   </wangset>
  </wangsets>
 </tileset>
 <tileset firstgid="65" name="Espinas" tilewidth="128" tileheight="128" tilecount="64" columns="8">
  <image source="Forest/Archivo PSD Espinas.png" width="1024" height="1024"/>
 </tileset>
 <tileset firstgid="129" name="MapMetadata" tilewidth="128" tileheight="128" tilecount="2" columns="2">
  <image source="Pathfinding/MapMetadata.png" trans="ffffff" width="256" height="128"/>
 </tileset>
 <tileset firstgid="131" name="F_Bosque_V5_05" tilewidth="2304" tileheight="1444" tilecount="1" columns="1">
  <image source="Forest/Fondo_Vigente/05_F_Cambio_Zona/F_Bosque_V5_05.png" width="2304" height="1444"/>
 </tileset>
 <tileset firstgid="132" name="F_Bosque_V5_01" tilewidth="2304" tileheight="1444" tilecount="1" columns="1">
  <image source="Forest/Fondo_Vigente/05_F_Cambio_Zona/F_Bosque_V5_01.png" width="2304" height="1444"/>
 </tileset>
 <tileset firstgid="133" name="F_Bosque_V5_02" tilewidth="2304" tileheight="1444" tilecount="1" columns="1">
  <image source="Forest/Fondo_Vigente/05_F_Cambio_Zona/F_Bosque_V5_02.png" width="2304" height="1444"/>
 </tileset>
 <tileset firstgid="134" name="F_Bosque_V6_01" tilewidth="2304" tileheight="1444" tilecount="1" columns="1">
  <image source="Forest/Fondo_Vigente/06_F_Ninfas/F_Bosque_V6_01.png" width="2304" height="1444"/>
 </tileset>
 <tileset firstgid="135" name="F_Bosque_V6_02" tilewidth="2304" tileheight="1444" tilecount="1" columns="1">
  <image source="Forest/Fondo_Vigente/06_F_Ninfas/F_Bosque_V6_02.png" width="2304" height="1444"/>
 </tileset>
 <tileset firstgid="136" name="t_Fila_Arbustos" tilewidth="1920" tileheight="640" tilecount="4" columns="1">
  <image source="Forest/Fondo_Vigente/Arbustos/t_Fila_Arbustos.png" width="1920" height="2560"/>
 </tileset>
 <tileset firstgid="140" name="t_Sueltos_Arbustos_Esquinas" tilewidth="384" tileheight="384" tilecount="12" columns="3">
  <image source="Forest/Fondo_Vigente/Arbustos/t_Sueltos_Arbustos_Esquinas.png" width="1152" height="1536"/>
 </tileset>
 <tileset firstgid="152" name="t_Fila_Arbustos_02" tilewidth="1920" tileheight="640" tilecount="4" columns="1">
  <image source="Forest/Fondo_Vigente/Arbustos/t_Fila_Arbustos_02.png" width="1920" height="2560"/>
 </tileset>
 <tileset firstgid="156" name="Plantitas" tilewidth="128" tileheight="128" tilecount="64" columns="8">
  <image source="Forest/Fondo_Vigente/Arbustos/Plantitas.png" width="1024" height="1024"/>
  <tile id="0">
   <animation>
    <frame tileid="0" duration="300"/>
    <frame tileid="1" duration="300"/>
    <frame tileid="2" duration="300"/>
   </animation>
  </tile>
  <tile id="3">
   <animation>
    <frame tileid="3" duration="225"/>
    <frame tileid="4" duration="225"/>
    <frame tileid="5" duration="225"/>
   </animation>
  </tile>
  <tile id="6">
   <animation>
    <frame tileid="6" duration="225"/>
    <frame tileid="7" duration="225"/>
    <frame tileid="8" duration="225"/>
   </animation>
  </tile>
  <tile id="9">
   <animation>
    <frame tileid="9" duration="250"/>
    <frame tileid="10" duration="250"/>
    <frame tileid="11" duration="250"/>
   </animation>
  </tile>
  <tile id="12">
   <animation>
    <frame tileid="12" duration="200"/>
    <frame tileid="13" duration="200"/>
    <frame tileid="14" duration="200"/>
   </animation>
  </tile>
  <tile id="15">
   <animation>
    <frame tileid="15" duration="300"/>
    <frame tileid="16" duration="300"/>
    <frame tileid="17" duration="300"/>
   </animation>
  </tile>
 </tileset>
 <tileset firstgid="220" name="F_Bosque_V2_02" tilewidth="2304" tileheight="1444" tilecount="1" columns="1">
  <image source="Forest/Fondo_Vigente/02_F_Repeticion/F_Bosque_V2_02.png" width="2304" height="1444"/>
 </tileset>
 <objectgroup id="18" name="Fondo1">
  <properties>
   <property name="BG" type="bool" value="true"/>
   <property name="Draw" type="bool" value="true"/>
   <property name="ParalaxX" type="float" value="0.8"/>
  </properties>
  <object id="568" gid="132" x="8448" y="2432" width="2840.24" height="2432"/>
  <object id="580" gid="134" x="4352" y="1664" width="2324" height="1444"/>
  <object id="581" gid="134" x="6656" y="1664" width="2304" height="1444"/>
  <object id="582" gid="134" x="2048" y="1664" width="2332" height="1444"/>
  <object id="583" gid="134" x="-256" y="1664" width="2328" height="1664"/>
  <object id="590" gid="134" x="-1536" y="1792" width="2328" height="1444"/>
  <object id="713" gid="2147483780" x="11264" y="2432" width="2816" height="2432"/>
 </objectgroup>
 <objectgroup id="20" name="Fondo2">
  <properties>
   <property name="BG" type="bool" value="true"/>
   <property name="Draw" type="bool" value="true"/>
   <property name="ParalaxX" type="float" value="0.9"/>
  </properties>
  <object id="576" gid="135" x="5735.5" y="1920" width="2712.47" height="1700"/>
  <object id="584" gid="135" x="3072" y="1920" width="2688" height="1792"/>
  <object id="585" gid="135" x="384" y="1920" width="2709.21" height="1920"/>
  <object id="586" gid="135" x="-1536" y="1920" width="1938.18" height="1664"/>
  <object id="596" gid="1073741959" x="880" y="4608" width="3508" height="2688"/>
  <object id="685" gid="133" x="8448" y="2432" width="2860" height="2432"/>
  <object id="712" gid="1073741959" x="4352" y="4736" width="3200" height="2816"/>
  <object id="714" gid="2147483781" x="11264" y="2432" width="2816" height="2432"/>
  <object id="799" gid="146" x="7657.88" y="2164.97" width="893.212" height="893.212"/>
  <object id="800" gid="147" x="7536.98" y="2050.34" width="951.247" height="770.584"/>
  <object id="801" gid="151" x="7400.58" y="1974.79" width="986.803" height="986.803"/>
  <object id="802" gid="146" x="7017.88" y="2164.97" width="951.879" height="951.879"/>
  <object id="803" gid="146" x="8169.88" y="2164.97" width="893.212" height="893.212"/>
  <object id="804" gid="147" x="8041.88" y="2036.97" width="1108.24" height="1108.24"/>
 </objectgroup>
 <objectgroup id="37" name="Plantas-Back">
  <properties>
   <property name="BG" type="bool" value="true"/>
   <property name="Draw" type="bool" value="true"/>
  </properties>
  <object id="1124" gid="159" x="1475.39" y="1797.33" width="128" height="128"/>
  <object id="1125" gid="168" x="2402" y="1778" width="128" height="128"/>
  <object id="1127" gid="162" x="2172" y="1822" width="128" height="128"/>
  <object id="1129" gid="162" x="1576" y="1830" width="128" height="128"/>
  <object id="1130" gid="1073741986" x="1572" y="1938" width="128" height="128"/>
  <object id="1131" gid="1073741983" x="2150" y="2070" width="128" height="128"/>
  <object id="1133" gid="1073741983" x="1566" y="2018" width="128" height="128"/>
  <object id="1139" gid="156" x="2946" y="1578" width="128" height="128"/>
  <object id="1173" gid="159" x="3072" y="1152" width="128" height="128"/>
  <object id="1175" gid="156" x="2324" y="1040" width="128" height="128"/>
  <object id="1187" gid="165" x="1152" y="2304" width="128" height="128"/>
  <object id="1188" gid="165" x="1280" y="2304" width="128" height="128"/>
  <object id="1189" gid="165" x="1408" y="2304" width="128" height="128"/>
  <object id="1195" gid="165" x="1664" y="2304" width="128" height="128"/>
  <object id="1196" gid="165" x="1792" y="2304" width="128" height="128"/>
  <object id="1197" gid="165" x="2304" y="2304" width="128" height="128"/>
  <object id="1198" gid="165" x="2484.48" y="2321.58" width="128" height="128"/>
  <object id="1200" gid="156" x="2060.24" y="2309.45" width="128" height="128"/>
  <object id="1203" gid="156" x="2640" y="2332" width="128" height="128"/>
  <object id="1204" gid="156" x="3756" y="2316" width="128" height="128"/>
  <object id="1205" gid="156" x="4065.33" y="2322.67" width="128" height="128"/>
  <object id="1207" gid="159" x="4157.33" y="2298.67" width="128" height="128"/>
  <object id="1211" gid="168" x="3840" y="1024" width="128" height="128"/>
  <object id="1215" gid="1073741983" x="3230.67" y="1817.33" width="128" height="128"/>
  <object id="1217" gid="3221225631" x="2922" y="1820" width="128" height="128"/>
  <object id="1218" gid="1073741995" x="3578" y="1324" width="128" height="128"/>
  <object id="1219" gid="3221225634" x="3858" y="1324" width="128" height="128"/>
  <object id="1222" gid="1073741980" x="2520" y="1368" width="128" height="128"/>
  <object id="1224" gid="1073741989" x="2348" y="1388" width="128" height="128"/>
  <object id="1225" gid="1073741983" x="2411.76" y="367.03" width="128" height="128"/>
  <object id="1227" gid="1073741983" x="3990.55" y="2085.21" width="128" height="128"/>
  <object id="1228" gid="1073741983" x="3660" y="2028" width="128" height="128"/>
  <object id="1229" gid="156" x="3720" y="1836" width="128" height="128"/>
  <object id="1231" gid="165" x="3878" y="1818" width="128" height="128"/>
  <object id="1234" gid="171" x="3994" y="1812" width="128" height="128"/>
  <object id="1235" gid="2147483819" x="4284" y="1802" width="128" height="128"/>
  <object id="1255" gid="168" x="669.333" y="1779.15" width="128" height="128"/>
  <object id="1260" gid="159" x="256" y="1792" width="128" height="128"/>
  <object id="1265" gid="156" x="3739.03" y="979.152" width="128" height="128"/>
  <object id="1266" gid="156" x="5045.09" y="1842.79" width="128" height="128"/>
  <object id="1267" gid="156" x="5146" y="1876" width="128" height="128"/>
  <object id="1269" gid="159" x="4936" y="1774" width="128" height="128"/>
  <object id="1270" gid="168" x="7296" y="1792" width="128" height="128"/>
  <object id="1278" gid="162" x="7090" y="1832" width="128" height="128"/>
  <object id="1282" gid="159" x="5372" y="1936" width="128" height="128"/>
  <object id="1294" gid="156" x="7762.67" y="1828.33" width="128" height="128"/>
  <object id="1296" gid="165" x="8051" y="1810" width="128" height="128"/>
  <object id="1297" gid="156" x="8160" y="1798" width="128" height="128"/>
  <object id="1298" gid="162" x="7694.67" y="1802.83" width="128" height="128"/>
  <object id="1299" gid="162" x="7816.17" y="1826.33" width="128" height="128"/>
  <object id="1300" gid="156" x="8268" y="1836" width="128" height="128"/>
  <object id="1301" gid="156" x="8334.67" y="1806.67" width="128" height="128"/>
  <object id="1304" gid="1073741992" x="4317.82" y="1027.64" width="128" height="128"/>
  <object id="1305" gid="1073741992" x="4760.24" y="1003.39" width="128" height="128"/>
  <object id="1306" gid="1073741992" x="5248.12" y="1060.97" width="128" height="128"/>
  <object id="1308" gid="3221225631" x="4651.15" y="994.303" width="128" height="128"/>
  <object id="1309" gid="3221225631" x="4866.3" y="991.273" width="128" height="128"/>
  <object id="1311" gid="3221225631" x="4429.94" y="1051.88" width="128" height="128"/>
  <object id="1315" gid="1073741989" x="4980" y="1000" width="128" height="128"/>
  <object id="1317" gid="1073741989" x="5112" y="996" width="128" height="128"/>
  <object id="1320" gid="162" x="5240" y="636" width="128" height="128"/>
  <object id="1322" gid="171" x="4412" y="632" width="128" height="128"/>
  <object id="1347" gid="1073741992" x="551.152" y="739.758" width="128" height="128"/>
  <object id="1348" gid="1073741992" x="54.1818" y="621.576" width="128" height="128"/>
  <object id="1349" gid="1073741983" x="772.364" y="845.818" width="128" height="128"/>
  <object id="1351" gid="1073741983" x="1208.73" y="873.091" width="128" height="128"/>
  <object id="1352" gid="1073741983" x="1763.27" y="997.333" width="128" height="128"/>
  <object id="1354" gid="3221225631" x="2096.61" y="379.152" width="128" height="128"/>
  <object id="1355" gid="1073741992" x="3929.94" y="373.091" width="128" height="128"/>
  <object id="1357" gid="1073741992" x="4445.09" y="351.879" width="128" height="128"/>
  <object id="1358" gid="1073741992" x="5311.76" y="339.758" width="128" height="128"/>
  <object id="1359" gid="1073741992" x="7302.67" y="348.848" width="128" height="128"/>
  <object id="1361" gid="159" x="7590.55" y="621.576" width="128" height="128"/>
  <object id="1363" gid="171" x="6848" y="646" width="128" height="128"/>
  <object id="1364" gid="171" x="8114" y="648" width="128" height="128"/>
  <object id="1367" gid="2147483819" x="8296" y="678" width="128" height="128"/>
  <object id="1383" gid="165" x="7246" y="652" width="128" height="128"/>
  <object id="1384" gid="165" x="7522" y="638" width="128" height="128"/>
  <object id="1386" gid="168" x="7906" y="648" width="128" height="128"/>
  <object id="1389" gid="171" x="8508" y="650" width="128" height="128"/>
  <object id="1390" gid="2147483819" x="8786" y="674" width="128" height="128"/>
  <object id="1391" gid="1073741989" x="7557.21" y="1012.48" width="128" height="128"/>
  <object id="1392" gid="1073741989" x="6999.64" y="1009.45" width="128" height="128"/>
  <object id="1393" gid="1073741989" x="8260.24" y="1003.39" width="128" height="128"/>
  <object id="1394" gid="1073741980" x="8451.15" y="1003.39" width="128" height="128"/>
  <object id="1395" gid="1073741980" x="8914.79" y="1027.64" width="128" height="128"/>
  <object id="1400" gid="3221225640" x="7326" y="1004" width="128" height="128"/>
  <object id="1401" gid="3221225640" x="7840" y="1014" width="128" height="128"/>
  <object id="1402" gid="3221225640" x="8366" y="1006" width="128" height="128"/>
  <object id="1404" gid="1073741983" x="7086" y="1030" width="128" height="128"/>
  <object id="1406" gid="1073741983" x="7680" y="1024" width="128" height="128"/>
  <object id="1407" gid="1073741983" x="8704" y="1024" width="128" height="128"/>
  <object id="1409" gid="1073741983" x="9056" y="1046" width="128" height="128"/>
  <object id="1410" gid="156" x="8405.33" y="680" width="128" height="128"/>
  <object id="1412" gid="2147483804" x="8044" y="697.333" width="128" height="128"/>
  <object id="1414" gid="165" x="7960" y="653.333" width="128" height="128"/>
  <object id="1432" gid="168" x="10598" y="612" width="128" height="128"/>
  <object id="1434" gid="1073741986" x="10410" y="970" width="128" height="128"/>
 </objectgroup>
 <objectgroup id="21" name="Fondo3">
  <properties>
   <property name="BG" type="bool" value="true"/>
   <property name="Draw" type="bool" value="true"/>
   <property name="ParalaxX" type="float" value="0.95"/>
  </properties>
  <object id="1117" gid="2147483868" x="1049.33" y="490.667" width="791.402" height="496"/>
  <object id="1118" gid="2147483868" x="1033.63" y="462.667" width="791.402" height="496"/>
  <object id="1119" gid="2147483868" x="1029.63" y="434.667" width="791.402" height="496"/>
  <object id="1120" gid="2147483868" x="1017.63" y="438.667" width="791.402" height="496"/>
  <object id="1121" gid="2147483868" x="1069.63" y="430.667" width="791.402" height="496"/>
 </objectgroup>
 <objectgroup id="38" name="Luces-Estaticas">
  <properties>
   <property name="BG" type="bool" value="true"/>
   <property name="Draw" type="bool" value="true"/>
  </properties>
 </objectgroup>
 <objectgroup id="35" name="Fondo4">
  <properties>
   <property name="BG" type="bool" value="true"/>
   <property name="Draw" type="bool" value="true"/>
   <property name="ParalaxX" type="float" value="1"/>
  </properties>
  <object id="778" gid="144" x="3680.97" y="1792" width="417.333" height="417.333"/>
  <object id="779" gid="2147483791" x="3427.03" y="1081.58" width="638.545" height="611.273"/>
  <object id="780" gid="143" x="2837.09" y="1612.55" width="638.545" height="611.273"/>
  <object id="782" gid="148" x="2174.79" y="1849.58" width="368.848" height="396.121"/>
  <object id="784" gid="147" x="2255.52" y="1058.06" width="499.152" height="499.152"/>
  <object id="786" gid="145" x="1228.48" y="1788.97" width="547.636" height="547.636"/>
  <object id="839" gid="148" x="932" y="432" width="496" height="464"/>
  <object id="852" gid="146" x="4114.18" y="716.121" width="439.16" height="439.16"/>
  <object id="853" gid="147" x="4370.36" y="679.525" width="439.16" height="439.16"/>
  <object id="854" gid="148" x="4626.54" y="679.525" width="439.16" height="439.16"/>
  <object id="856" gid="149" x="4992.5" y="679.525" width="439.16" height="439.16"/>
  <object id="900" gid="146" x="6844.36" y="679.879" width="384" height="384"/>
  <object id="901" gid="146" x="7535.27" y="679.879" width="384" height="384"/>
  <object id="902" gid="149" x="8462.55" y="673.818" width="384" height="384"/>
  <object id="903" gid="150" x="8816.06" y="664.545" width="384" height="384"/>
  <object id="904" gid="144" x="8064" y="640" width="384" height="384"/>
  <object id="951" gid="144" x="384" y="1792" width="384" height="384"/>
  <object id="957" gid="1073741970" x="2176" y="2304" width="384" height="384"/>
  <object id="973" gid="1073741970" x="2944" y="2048" width="384" height="384"/>
  <object id="974" gid="1073741970" x="3712" y="2304" width="384" height="384"/>
  <object id="975" gid="1073741970" x="3584" y="1536" width="384" height="384"/>
  <object id="993" gid="1073741967" x="1354" y="2282" width="384" height="384"/>
  <object id="1031" gid="144" x="5632" y="1920" width="384" height="384"/>
  <object id="1032" gid="144" x="6528" y="1920" width="384" height="384"/>
  <object id="1034" gid="145" x="5376" y="1920" width="384" height="384"/>
  <object id="1035" gid="147" x="6856" y="1916" width="384" height="384"/>
  <object id="1037" gid="148" x="4744" y="1840" width="384" height="384"/>
  <object id="1038" gid="144" x="7648" y="1808" width="384" height="384"/>
  <object id="1040" gid="146" x="5940" y="1972" width="384" height="384"/>
  <object id="1041" gid="151" x="7152" y="1828" width="384" height="384"/>
  <object id="1044" gid="151" x="8988" y="684" width="384" height="384"/>
  <object id="1087" gid="140" x="10366" y="1154.52" width="358.521" height="358.521"/>
  <object id="1088" gid="2147483788" x="10401.5" y="1154.52" width="358.521" height="358.521"/>
  <object id="1090" gid="143" x="10254" y="692" width="528" height="528"/>
  <object id="1091" gid="2147483791" x="10346" y="700" width="528" height="528"/>
  <object id="1103" gid="140" x="2310.99" y="1730.74" width="346.521" height="582.521"/>
  <object id="1104" gid="2147483788" x="2345.3" y="1732.74" width="346.521" height="584.521"/>
  <object id="1174" gid="145" x="2924" y="1152" width="384" height="384"/>
  <object id="1341" gid="1073741971" x="4029.21" y="2213.21" width="384" height="384"/>
  <object id="1342" gid="1073741992" x="4172.36" y="2015.52" width="128" height="128"/>
  <object id="1374" gid="159" x="9086" y="658" width="128" height="128"/>
  <object id="1375" gid="1073741992" x="8502.67" y="357.939" width="128" height="128"/>
  <object id="1378" gid="1073741989" x="6451.15" y="373.091" width="128" height="128"/>
  <object id="1380" gid="3221225637" x="5732.97" y="379.152" width="128" height="128"/>
  <object id="1381" gid="156" x="7388" y="682" width="128" height="128"/>
  <object id="1382" gid="156" x="7164" y="676" width="128" height="128"/>
  <object id="1460" gid="143" x="10565.6" y="1573.82" width="384" height="384"/>
  <object id="1461" gid="143" x="10456" y="1596" width="384" height="384"/>
  <object id="1462" gid="143" x="10662" y="1332" width="384" height="384"/>
  <object id="1463" gid="147" x="10748" y="1312" width="384" height="384"/>
  <object id="1464" gid="147" x="10936" y="1046" width="384" height="384"/>
 </objectgroup>
 <objectgroup id="39" name="PlantasFront">
  <properties>
   <property name="BG" type="bool" value="true"/>
   <property name="Draw" type="bool" value="true"/>
  </properties>
  <object id="1136" gid="165" x="3128" y="1542" width="128" height="128"/>
  <object id="1145" gid="159" x="3012" y="1552" width="128" height="128"/>
  <object id="1147" gid="162" x="1344" y="410" width="128" height="128"/>
  <object id="1150" gid="2147483819" x="1114" y="394" width="128" height="128"/>
  <object id="1152" gid="156" x="1224" y="401.333" width="128" height="128"/>
  <object id="1162" gid="1073741988" x="1960" y="922" width="128" height="128"/>
  <object id="1163" gid="2147483812" x="1966" y="798" width="128" height="128"/>
  <object id="1168" gid="2147483819" x="1586" y="536" width="128" height="128"/>
  <object id="1169" gid="165" x="1858" y="651.333" width="128" height="128"/>
  <object id="1170" gid="165" x="1413.33" y="1817.33" width="128" height="128"/>
  <object id="1178" gid="165" x="2560" y="1024" width="128" height="128"/>
  <object id="1184" gid="159" x="2432" y="1024" width="128" height="128"/>
  <object id="1213" gid="165" x="3584" y="1024" width="128" height="128"/>
  <object id="1236" gid="165" x="4052" y="1802" width="128" height="128"/>
  <object id="1237" gid="165" x="4132" y="1802" width="128" height="128"/>
  <object id="1238" gid="165" x="4210" y="1796" width="128" height="128"/>
  <object id="1240" gid="165" x="2864" y="2310" width="128" height="128"/>
  <object id="1242" gid="156" x="3090" y="2320" width="128" height="128"/>
  <object id="1245" gid="156" x="2978" y="2360" width="128" height="128"/>
  <object id="1246" gid="156" x="3224" y="2362" width="128" height="128"/>
  <object id="1247" gid="156" x="3380" y="2316" width="128" height="128"/>
  <object id="1248" gid="156" x="3892" y="2354" width="128" height="128"/>
  <object id="1249" gid="156" x="1002" y="1816" width="128" height="128"/>
  <object id="1275" gid="162" x="6864" y="1948" width="128" height="128"/>
  <object id="1288" gid="168" x="6784" y="1920" width="128" height="128"/>
  <object id="1289" gid="156" x="7632.67" y="1835.33" width="128" height="128"/>
  <object id="1303" gid="168" x="8260" y="1797.33" width="128" height="128"/>
  <object id="1324" gid="159" x="4652" y="644" width="128" height="128"/>
  <object id="1326" gid="168" x="4992" y="640" width="128" height="128"/>
  <object id="1328" gid="1073741992" x="3058" y="406" width="128" height="128"/>
  <object id="1332" gid="171" x="4057.21" y="657.939" width="128" height="128"/>
  <object id="1333" gid="1073741995" x="4065" y="775" width="128" height="128"/>
  <object id="1335" gid="165" x="4173.33" y="669.333" width="128" height="128"/>
  <object id="1336" gid="165" x="4520" y="666.667" width="128" height="128"/>
  <object id="1337" gid="165" x="4765.33" y="670.667" width="128" height="128"/>
  <object id="1338" gid="2147483813" x="4864" y="680" width="128" height="128"/>
  <object id="1339" gid="2147483813" x="5113.33" y="674.667" width="128" height="128"/>
  <object id="1340" gid="156" x="5326.67" y="688" width="128" height="128"/>
  <object id="1346" gid="1073741986" x="1437.52" y="928.424" width="179.515" height="179.515"/>
  <object id="1416" gid="165" x="7622.67" y="657.333" width="128" height="128"/>
  <object id="1417" gid="165" x="8573.33" y="665.333" width="128" height="128"/>
  <object id="1420" gid="2147483813" x="8928" y="662" width="128" height="128"/>
  <object id="1421" gid="2147483813" x="9604" y="528" width="128" height="128"/>
  <object id="1422" gid="1073741986" x="9728" y="686" width="128" height="128"/>
  <object id="1423" gid="3221225643" x="9854" y="686" width="128" height="128"/>
  <object id="1429" gid="159" x="9876" y="536" width="128" height="128"/>
  <object id="1430" gid="159" x="10386" y="662" width="128" height="128"/>
  <object id="1439" gid="3221225643" x="10646" y="918" width="128" height="128"/>
  <object id="1440" gid="156" x="10472" y="696" width="128" height="128"/>
  <object id="1441" gid="156" x="10594" y="696" width="128" height="128"/>
  <object id="1442" gid="156" x="10496" y="1594" width="128" height="128"/>
  <object id="1443" gid="156" x="10562" y="1586" width="128" height="128"/>
  <object id="1445" gid="165" x="10614" y="1560" width="128" height="128"/>
  <object id="1446" gid="165" x="10742" y="1294" width="128" height="128"/>
  <object id="1447" gid="156" x="10810" y="1298" width="128" height="128"/>
  <object id="1448" gid="165" x="10886" y="1292" width="128" height="128"/>
  <object id="1450" gid="171" x="10950" y="1308" width="128" height="128"/>
  <object id="1451" gid="171" x="10744" y="1316" width="128" height="128"/>
  <object id="1453" gid="171" x="10492" y="1584" width="128" height="128"/>
  <object id="1456" gid="168" x="10624" y="1536" width="128" height="128"/>
  <object id="1457" gid="162" x="11005.3" y="1073.33" width="128" height="128"/>
  <object id="1458" gid="162" x="11090.7" y="1037.33" width="128" height="128"/>
  <object id="1459" gid="162" x="11158.7" y="1076" width="128" height="128"/>
 </objectgroup>
 <layer id="1" name="Map" width="88" height="19">
  <properties>
   <property name="Draw" type="bool" value="true"/>
  </properties>
  <data>
   <tile gid="31"/>
   <tile gid="39"/>
   <tile gid="37"/>
   <tile gid="37"/>
   <tile gid="31"/>
   <tile gid="32"/>
   <tile gid="31"/>
   <tile gid="39"/>
   <tile gid="38"/>
   <tile/>
   <tile/>
   <tile/>
   <tile/>
   <tile gid="36"/>
   <tile gid="37"/>
   <tile gid="32"/>
   <tile gid="37"/>
   <tile gid="31"/>
   <tile gid="37"/>
   <tile gid="32"/>
   <tile gid="32"/>
   <tile gid="39"/>
   <tile gid="32"/>
   <tile gid="32"/>
   <tile gid="37"/>
   <tile gid="37"/>
   <tile gid="40"/>
   <tile gid="31"/>
   <tile gid="37"/>
   <tile gid="31"/>
   <tile gid="37"/>
   <tile gid="40"/>
   <tile gid="32"/>
   <tile gid="31"/>
   <tile gid="37"/>
   <tile gid="39"/>
   <tile gid="37"/>
   <tile gid="31"/>
   <tile gid="32"/>
   <tile gid="31"/>
   <tile gid="40"/>
   <tile gid="31"/>
   <tile gid="39"/>
   <tile gid="32"/>
   <tile gid="31"/>
   <tile gid="37"/>
   <tile gid="31"/>
   <tile gid="32"/>
   <tile gid="39"/>
   <tile gid="37"/>
   <tile gid="32"/>
   <tile gid="32"/>
   <tile gid="40"/>
   <tile gid="39"/>
   <tile gid="37"/>
   <tile gid="40"/>
   <tile gid="39"/>
   <tile gid="40"/>
   <tile gid="31"/>
   <tile gid="31"/>
   <tile gid="39"/>
   <tile gid="31"/>
   <tile gid="31"/>
   <tile gid="39"/>
   <tile gid="40"/>
   <tile gid="32"/>
   <tile gid="37"/>
   <tile gid="39"/>
   <tile gid="39"/>
   <tile gid="37"/>
   <tile gid="38"/>
   <tile/>
   <tile/>
   <tile/>
   <tile/>
   <tile/>
   <tile/>
   <tile/>
   <tile/>
   <tile/>
   <tile/>
   <tile/>
   <tile/>
   <tile/>
   <tile/>
   <tile/>
   <tile/>
   <tile/>
   <tile gid="32"/>
   <tile gid="31"/>
   <tile gid="40"/>
   <tile gid="39"/>
   <tile gid="32"/>
   <tile gid="40"/>
   <tile gid="31"/>
   <tile gid="39"/>
   <tile gid="38"/>
   <tile/>
   <tile/>
   <tile/>
   <tile/>
   <tile gid="41"/>
   <tile gid="45"/>
   <tile gid="45"/>
   <tile gid="45"/>
   <tile gid="45"/>
   <tile gid="45"/>
   <tile gid="45"/>
   <tile gid="45"/>
   <tile gid="45"/>
   <tile gid="45"/>
   <tile gid="45"/>
   <tile gid="45"/>
   <tile gid="45"/>
   <tile gid="45"/>
   <tile gid="45"/>
   <tile gid="45"/>
   <tile gid="45"/>
   <tile gid="45"/>
   <tile gid="45"/>
   <tile gid="45"/>
   <tile gid="45"/>
   <tile gid="45"/>
   <tile gid="45"/>
   <tile gid="45"/>
   <tile gid="45"/>
   <tile gid="45"/>
   <tile gid="45"/>
   <tile gid="45"/>
   <tile gid="45"/>
   <tile gid="45"/>
   <tile gid="45"/>
   <tile gid="45"/>
   <tile gid="45"/>
   <tile gid="45"/>
   <tile gid="45"/>
   <tile gid="45"/>
   <tile gid="45"/>
   <tile gid="45"/>
   <tile gid="45"/>
   <tile gid="45"/>
   <tile gid="45"/>
   <tile gid="45"/>
   <tile gid="45"/>
   <tile gid="45"/>
   <tile gid="45"/>
   <tile gid="45"/>
   <tile gid="45"/>
   <tile gid="45"/>
   <tile gid="45"/>
   <tile gid="45"/>
   <tile gid="45"/>
   <tile gid="45"/>
   <tile gid="45"/>
   <tile gid="45"/>
   <tile gid="45"/>
   <tile gid="45"/>
   <tile gid="45"/>
   <tile gid="46"/>
   <tile/>
   <tile/>
   <tile/>
   <tile/>
   <tile/>
   <tile/>
   <tile/>
   <tile/>
   <tile/>
   <tile/>
   <tile/>
   <tile/>
   <tile/>
   <tile/>
   <tile/>
   <tile/>
   <tile/>
   <tile gid="45"/>
   <tile gid="45"/>
   <tile gid="45"/>
   <tile gid="45"/>
   <tile gid="45"/>
   <tile gid="45"/>
   <tile gid="45"/>
   <tile gid="39"/>
   <tile gid="38"/>
   <tile/>
   <tile/>
   <tile/>
   <tile/>
   <tile/>
   <tile/>
   <tile/>
   <tile/>
   <tile/>
   <tile/>
   <tile/>
   <tile/>
   <tile/>
   <tile/>
   <tile/>
   <tile/>
   <tile/>
   <tile/>
   <tile/>
   <tile/>
   <tile/>
   <tile/>
   <tile/>
   <tile/>
   <tile/>
   <tile/>
   <tile/>
   <tile/>
   <tile/>
   <tile/>
   <tile/>
   <tile/>
   <tile/>
   <tile/>
   <tile/>
   <tile/>
   <tile/>
   <tile/>
   <tile/>
   <tile/>
   <tile/>
   <tile/>
   <tile/>
   <tile/>
   <tile/>
   <tile/>
   <tile/>
   <tile/>
   <tile/>
   <tile/>
   <tile/>
   <tile/>
   <tile/>
   <tile/>
   <tile/>
   <tile/>
   <tile/>
   <tile/>
   <tile/>
   <tile/>
   <tile/>
   <tile/>
   <tile/>
   <tile/>
   <tile/>
   <tile/>
   <tile/>
   <tile/>
   <tile/>
   <tile/>
   <tile/>
   <tile/>
   <tile/>
   <tile/>
   <tile/>
   <tile/>
   <tile/>
   <tile/>
   <tile/>
   <tile/>
   <tile/>
   <tile/>
   <tile/>
   <tile/>
   <tile/>
   <tile/>
   <tile gid="33"/>
   <tile gid="2147483655"/>
   <tile gid="29"/>
   <tile gid="29"/>
   <tile gid="2147483652"/>
   <tile gid="2147483650"/>
   <tile/>
   <tile/>
   <tile/>
   <tile/>
   <tile/>
   <tile/>
   <tile/>
   <tile/>
   <tile/>
   <tile/>
   <tile/>
   <tile/>
   <tile/>
   <tile/>
   <tile/>
   <tile/>
   <tile/>
   <tile/>
   <tile/>
   <tile/>
   <tile/>
   <tile/>
   <tile/>
   <tile/>
   <tile/>
   <tile/>
   <tile/>
   <tile/>
   <tile/>
   <tile/>
   <tile/>
   <tile/>
   <tile/>
   <tile/>
   <tile/>
   <tile/>
   <tile/>
   <tile/>
   <tile/>
   <tile/>
   <tile/>
   <tile/>
   <tile/>
   <tile/>
   <tile/>
   <tile/>
   <tile/>
   <tile/>
   <tile/>
   <tile/>
   <tile/>
   <tile/>
   <tile/>
   <tile/>
   <tile/>
   <tile/>
   <tile/>
   <tile/>
   <tile/>
   <tile/>
   <tile/>
   <tile/>
   <tile/>
   <tile/>
   <tile/>
   <tile/>
   <tile/>
   <tile/>
   <tile/>
   <tile/>
   <tile/>
   <tile/>
   <tile/>
   <tile/>
   <tile/>
   <tile/>
   <tile/>
   <tile/>
   <tile/>
   <tile/>
   <tile/>
   <tile/>
   <tile/>
   <tile gid="33"/>
   <tile gid="36"/>
   <tile gid="37"/>
   <tile gid="37"/>
   <tile gid="2147483649"/>
   <tile gid="2147483652"/>
   <tile gid="2147483650"/>
   <tile/>
   <tile/>
   <tile/>
   <tile/>
   <tile/>
   <tile/>
   <tile/>
   <tile/>
   <tile/>
   <tile/>
   <tile/>
   <tile/>
   <tile/>
   <tile/>
   <tile/>
   <tile/>
   <tile/>
   <tile/>
   <tile/>
   <tile/>
   <tile/>
   <tile/>
   <tile/>
   <tile/>
   <tile/>
   <tile/>
   <tile/>
   <tile/>
   <tile/>
   <tile/>
   <tile/>
   <tile/>
   <tile/>
   <tile/>
   <tile/>
   <tile/>
   <tile/>
   <tile/>
   <tile/>
   <tile/>
   <tile/>
   <tile/>
   <tile/>
   <tile/>
   <tile/>
   <tile/>
   <tile/>
   <tile/>
   <tile/>
   <tile/>
   <tile/>
   <tile/>
   <tile/>
   <tile/>
   <tile/>
   <tile/>
   <tile/>
   <tile/>
   <tile/>
   <tile/>
   <tile gid="20"/>
   <tile gid="21"/>
   <tile gid="22"/>
   <tile/>
   <tile/>
   <tile/>
   <tile/>
   <tile/>
   <tile/>
   <tile/>
   <tile/>
   <tile/>
   <tile/>
   <tile/>
   <tile/>
   <tile/>
   <tile/>
   <tile/>
   <tile/>
   <tile/>
   <tile/>
   <tile/>
   <tile gid="41"/>
   <tile gid="45"/>
   <tile gid="45"/>
   <tile gid="37"/>
   <tile gid="37"/>
   <tile gid="2147483649"/>
   <tile gid="30"/>
   <tile/>
   <tile/>
   <tile/>
   <tile/>
   <tile/>
   <tile/>
   <tile/>
   <tile/>
   <tile/>
   <tile/>
   <tile/>
   <tile/>
   <tile/>
   <tile/>
   <tile/>
   <tile/>
   <tile gid="28"/>
   <tile gid="29"/>
   <tile gid="24"/>
   <tile gid="29"/>
   <tile gid="29"/>
   <tile gid="24"/>
   <tile gid="29"/>
   <tile gid="29"/>
   <tile gid="24"/>
   <tile gid="29"/>
   <tile gid="30"/>
   <tile/>
   <tile/>
   <tile/>
   <tile/>
   <tile/>
   <tile/>
   <tile/>
   <tile/>
   <tile/>
   <tile/>
   <tile gid="28"/>
   <tile gid="29"/>
   <tile gid="24"/>
   <tile gid="29"/>
   <tile gid="29"/>
   <tile gid="24"/>
   <tile gid="29"/>
   <tile gid="29"/>
   <tile gid="29"/>
   <tile gid="24"/>
   <tile gid="29"/>
   <tile gid="29"/>
   <tile gid="29"/>
   <tile gid="24"/>
   <tile gid="29"/>
   <tile gid="29"/>
   <tile gid="24"/>
   <tile gid="29"/>
   <tile gid="29"/>
   <tile gid="30"/>
   <tile/>
   <tile/>
   <tile/>
   <tile/>
   <tile/>
   <tile/>
   <tile/>
   <tile/>
   <tile gid="28"/>
   <tile gid="29"/>
   <tile gid="30"/>
   <tile/>
   <tile/>
   <tile/>
   <tile/>
   <tile/>
   <tile/>
   <tile/>
   <tile/>
   <tile/>
   <tile/>
   <tile/>
   <tile/>
   <tile/>
   <tile/>
   <tile/>
   <tile/>
   <tile gid="41"/>
   <tile gid="45"/>
   <tile gid="45"/>
   <tile gid="35"/>
   <tile/>
   <tile/>
   <tile/>
   <tile/>
   <tile/>
   <tile/>
   <tile/>
   <tile/>
   <tile/>
   <tile/>
   <tile/>
   <tile/>
   <tile/>
   <tile/>
   <tile/>
   <tile/>
   <tile gid="2147483691"/>
   <tile gid="45"/>
   <tile gid="45"/>
   <tile gid="45"/>
   <tile gid="45"/>
   <tile gid="45"/>
   <tile gid="45"/>
   <tile gid="45"/>
   <tile gid="45"/>
   <tile gid="45"/>
   <tile gid="43"/>
   <tile/>
   <tile/>
   <tile/>
   <tile/>
   <tile/>
   <tile/>
   <tile/>
   <tile/>
   <tile/>
   <tile/>
   <tile gid="41"/>
   <tile gid="45"/>
   <tile gid="45"/>
   <tile gid="45"/>
   <tile gid="45"/>
   <tile gid="45"/>
   <tile gid="45"/>
   <tile gid="45"/>
   <tile gid="45"/>
   <tile gid="45"/>
   <tile gid="45"/>
   <tile gid="45"/>
   <tile gid="45"/>
   <tile gid="45"/>
   <tile gid="45"/>
   <tile gid="45"/>
   <tile gid="45"/>
   <tile gid="45"/>
   <tile gid="45"/>
   <tile gid="35"/>
   <tile/>
   <tile/>
   <tile/>
   <tile/>
   <tile/>
   <tile/>
   <tile/>
   <tile/>
   <tile gid="41"/>
   <tile gid="45"/>
   <tile gid="35"/>
   <tile/>
   <tile/>
   <tile/>
   <tile/>
   <tile/>
   <tile/>
   <tile/>
   <tile/>
   <tile/>
   <tile/>
   <tile/>
   <tile/>
   <tile/>
   <tile/>
   <tile/>
   <tile/>
   <tile/>
   <tile/>
   <tile/>
   <tile/>
   <tile/>
   <tile/>
   <tile/>
   <tile/>
   <tile/>
   <tile/>
   <tile/>
   <tile/>
   <tile/>
   <tile/>
   <tile/>
   <tile/>
   <tile/>
   <tile/>
   <tile/>
   <tile/>
   <tile/>
   <tile/>
   <tile/>
   <tile/>
   <tile/>
   <tile/>
   <tile/>
   <tile/>
   <tile/>
   <tile/>
   <tile/>
   <tile/>
   <tile/>
   <tile/>
   <tile/>
   <tile/>
   <tile/>
   <tile/>
   <tile/>
   <tile/>
   <tile/>
   <tile/>
   <tile/>
   <tile/>
   <tile/>
   <tile/>
   <tile/>
   <tile/>
   <tile/>
   <tile/>
   <tile/>
   <tile/>
   <tile/>
   <tile/>
   <tile/>
   <tile/>
   <tile/>
   <tile/>
   <tile/>
   <tile/>
   <tile/>
   <tile/>
   <tile/>
   <tile/>
   <tile/>
   <tile/>
   <tile/>
   <tile/>
   <tile/>
   <tile/>
   <tile/>
   <tile/>
   <tile/>
   <tile/>
   <tile/>
   <tile/>
   <tile/>
   <tile/>
   <tile/>
   <tile/>
   <tile/>
   <tile/>
   <tile/>
   <tile/>
   <tile/>
   <tile/>
   <tile/>
   <tile/>
   <tile/>
   <tile/>
   <tile/>
   <tile/>
   <tile/>
   <tile/>
   <tile gid="28"/>
   <tile gid="24"/>
   <tile gid="30"/>
   <tile/>
   <tile/>
   <tile/>
   <tile/>
   <tile/>
   <tile/>
   <tile/>
   <tile gid="57"/>
   <tile gid="58"/>
   <tile gid="59"/>
   <tile/>
   <tile/>
   <tile/>
   <tile/>
   <tile/>
   <tile/>
   <tile/>
   <tile/>
   <tile/>
   <tile/>
   <tile/>
   <tile/>
   <tile/>
   <tile/>
   <tile/>
   <tile/>
   <tile/>
   <tile/>
   <tile/>
   <tile/>
   <tile/>
   <tile/>
   <tile/>
   <tile/>
   <tile/>
   <tile/>
   <tile/>
   <tile/>
   <tile/>
   <tile/>
   <tile/>
   <tile/>
   <tile/>
   <tile/>
   <tile/>
   <tile/>
   <tile/>
   <tile/>
   <tile/>
   <tile/>
   <tile/>
   <tile/>
   <tile/>
   <tile/>
   <tile/>
   <tile/>
   <tile/>
   <tile/>
   <tile/>
   <tile/>
   <tile/>
   <tile/>
   <tile/>
   <tile/>
   <tile/>
   <tile gid="28"/>
   <tile gid="29"/>
   <tile/>
   <tile/>
   <tile/>
   <tile/>
   <tile/>
   <tile/>
   <tile/>
   <tile/>
   <tile/>
   <tile/>
   <tile/>
   <tile/>
   <tile/>
   <tile/>
   <tile/>
   <tile/>
   <tile/>
   <tile/>
   <tile gid="33"/>
   <tile gid="45"/>
   <tile gid="35"/>
   <tile/>
   <tile/>
   <tile/>
   <tile gid="18"/>
   <tile/>
   <tile/>
   <tile/>
   <tile gid="1073741891"/>
   <tile gid="1073741892"/>
   <tile gid="1073741893"/>
   <tile/>
   <tile/>
   <tile/>
   <tile/>
   <tile/>
   <tile/>
   <tile/>
   <tile/>
   <tile/>
   <tile/>
   <tile/>
   <tile/>
   <tile/>
   <tile/>
   <tile/>
   <tile/>
   <tile/>
   <tile/>
   <tile/>
   <tile/>
   <tile/>
   <tile/>
   <tile/>
   <tile/>
   <tile/>
   <tile/>
   <tile/>
   <tile/>
   <tile/>
   <tile/>
   <tile/>
   <tile/>
   <tile/>
   <tile/>
   <tile/>
   <tile/>
   <tile/>
   <tile/>
   <tile/>
   <tile/>
   <tile/>
   <tile/>
   <tile/>
   <tile/>
   <tile/>
   <tile/>
   <tile/>
   <tile/>
   <tile/>
   <tile/>
   <tile/>
   <tile/>
   <tile/>
   <tile/>
   <tile/>
   <tile gid="36"/>
   <tile gid="32"/>
   <tile/>
   <tile/>
   <tile/>
   <tile/>
   <tile/>
   <tile/>
   <tile/>
   <tile/>
   <tile/>
   <tile/>
   <tile/>
   <tile/>
   <tile/>
   <tile/>
   <tile/>
   <tile/>
   <tile/>
   <tile/>
   <tile/>
   <tile/>
   <tile/>
   <tile/>
   <tile/>
   <tile/>
   <tile/>
   <tile/>
   <tile/>
   <tile/>
   <tile/>
   <tile/>
   <tile/>
   <tile/>
   <tile/>
   <tile/>
   <tile/>
   <tile/>
   <tile/>
   <tile/>
   <tile/>
   <tile/>
   <tile/>
   <tile/>
   <tile/>
   <tile/>
   <tile/>
   <tile/>
   <tile/>
   <tile/>
   <tile/>
   <tile/>
   <tile/>
   <tile/>
   <tile/>
   <tile/>
   <tile/>
   <tile/>
   <tile/>
   <tile/>
   <tile/>
   <tile/>
   <tile/>
   <tile/>
   <tile/>
   <tile/>
   <tile/>
   <tile/>
   <tile/>
   <tile/>
   <tile/>
   <tile/>
   <tile/>
   <tile/>
   <tile/>
   <tile/>
   <tile/>
   <tile/>
   <tile/>
   <tile/>
   <tile/>
   <tile/>
   <tile/>
   <tile/>
   <tile gid="2147483700"/>
   <tile/>
   <tile gid="28"/>
   <tile gid="24"/>
   <tile gid="7"/>
   <tile gid="39"/>
   <tile/>
   <tile/>
   <tile/>
   <tile/>
   <tile/>
   <tile/>
   <tile/>
   <tile/>
   <tile/>
   <tile/>
   <tile/>
   <tile/>
   <tile/>
   <tile/>
   <tile/>
   <tile/>
   <tile/>
   <tile/>
   <tile/>
   <tile/>
   <tile/>
   <tile/>
   <tile/>
   <tile/>
   <tile/>
   <tile/>
   <tile/>
   <tile/>
   <tile/>
   <tile/>
   <tile/>
   <tile/>
   <tile/>
   <tile/>
   <tile/>
   <tile/>
   <tile/>
   <tile/>
   <tile/>
   <tile/>
   <tile/>
   <tile/>
   <tile/>
   <tile/>
   <tile/>
   <tile/>
   <tile/>
   <tile/>
   <tile/>
   <tile/>
   <tile/>
   <tile/>
   <tile/>
   <tile/>
   <tile/>
   <tile/>
   <tile/>
   <tile/>
   <tile/>
   <tile/>
   <tile/>
   <tile/>
   <tile/>
   <tile/>
   <tile/>
   <tile/>
   <tile/>
   <tile/>
   <tile/>
   <tile/>
   <tile/>
   <tile/>
   <tile/>
   <tile/>
   <tile/>
   <tile/>
   <tile/>
   <tile/>
   <tile/>
   <tile/>
   <tile/>
   <tile/>
   <tile gid="2147483708"/>
   <tile/>
   <tile gid="36"/>
   <tile gid="37"/>
   <tile gid="40"/>
   <tile gid="39"/>
   <tile/>
   <tile/>
   <tile/>
   <tile/>
   <tile/>
   <tile/>
   <tile/>
   <tile/>
   <tile/>
   <tile/>
   <tile/>
   <tile/>
   <tile/>
   <tile/>
   <tile/>
   <tile/>
   <tile/>
   <tile/>
   <tile/>
   <tile/>
   <tile/>
   <tile/>
   <tile/>
   <tile gid="57"/>
   <tile gid="58"/>
   <tile gid="59"/>
   <tile/>
   <tile/>
   <tile/>
   <tile/>
   <tile/>
   <tile/>
   <tile/>
   <tile/>
   <tile/>
   <tile/>
   <tile/>
   <tile/>
   <tile/>
   <tile/>
   <tile/>
   <tile/>
   <tile/>
   <tile/>
   <tile/>
   <tile/>
   <tile/>
   <tile/>
   <tile/>
   <tile/>
   <tile/>
   <tile/>
   <tile/>
   <tile/>
   <tile/>
   <tile/>
   <tile/>
   <tile/>
   <tile/>
   <tile/>
   <tile/>
   <tile/>
   <tile/>
   <tile/>
   <tile/>
   <tile/>
   <tile/>
   <tile/>
   <tile/>
   <tile/>
   <tile/>
   <tile/>
   <tile/>
   <tile/>
   <tile/>
   <tile/>
   <tile/>
   <tile/>
   <tile/>
   <tile/>
   <tile/>
   <tile/>
   <tile gid="28"/>
   <tile gid="29"/>
   <tile gid="7"/>
   <tile gid="39"/>
   <tile gid="39"/>
   <tile gid="39"/>
   <tile/>
   <tile/>
   <tile/>
   <tile/>
   <tile/>
   <tile/>
   <tile/>
   <tile/>
   <tile/>
   <tile/>
   <tile/>
   <tile/>
   <tile/>
   <tile/>
   <tile/>
   <tile/>
   <tile/>
   <tile/>
   <tile/>
   <tile/>
   <tile/>
   <tile/>
   <tile/>
   <tile gid="1073741891"/>
   <tile gid="1073741892"/>
   <tile gid="1073741893"/>
   <tile/>
   <tile/>
   <tile/>
   <tile/>
   <tile/>
   <tile/>
   <tile/>
   <tile/>
   <tile/>
   <tile/>
   <tile/>
   <tile/>
   <tile/>
   <tile/>
   <tile/>
   <tile/>
   <tile/>
   <tile/>
   <tile/>
   <tile/>
   <tile/>
   <tile/>
   <tile/>
   <tile/>
   <tile/>
   <tile/>
   <tile/>
   <tile/>
   <tile/>
   <tile/>
   <tile/>
   <tile/>
   <tile/>
   <tile/>
   <tile/>
   <tile/>
   <tile/>
   <tile/>
   <tile/>
   <tile/>
   <tile/>
   <tile/>
   <tile/>
   <tile/>
   <tile/>
   <tile/>
   <tile/>
   <tile/>
   <tile/>
   <tile/>
   <tile/>
   <tile/>
   <tile/>
   <tile/>
   <tile/>
   <tile/>
   <tile gid="36"/>
   <tile gid="37"/>
   <tile gid="39"/>
   <tile gid="31"/>
   <tile gid="37"/>
   <tile gid="32"/>
   <tile gid="29"/>
   <tile gid="24"/>
   <tile gid="29"/>
   <tile gid="29"/>
   <tile gid="29"/>
   <tile gid="24"/>
   <tile gid="29"/>
   <tile gid="29"/>
   <tile gid="30"/>
   <tile/>
   <tile/>
   <tile gid="28"/>
   <tile gid="30"/>
   <tile/>
   <tile/>
   <tile/>
   <tile/>
   <tile gid="57"/>
   <tile gid="58"/>
   <tile gid="59"/>
   <tile/>
   <tile/>
   <tile/>
   <tile/>
   <tile/>
   <tile/>
   <tile/>
   <tile/>
   <tile/>
   <tile gid="57"/>
   <tile gid="58"/>
   <tile gid="59"/>
   <tile gid="20"/>
   <tile gid="22"/>
   <tile gid="28"/>
   <tile gid="29"/>
   <tile gid="29"/>
   <tile gid="29"/>
   <tile gid="29"/>
   <tile gid="29"/>
   <tile gid="2147483652"/>
   <tile gid="2147483650"/>
   <tile/>
   <tile/>
   <tile/>
   <tile/>
   <tile/>
   <tile/>
   <tile/>
   <tile/>
   <tile/>
   <tile/>
   <tile/>
   <tile/>
   <tile gid="2"/>
   <tile gid="4"/>
   <tile gid="29"/>
   <tile gid="29"/>
   <tile gid="29"/>
   <tile gid="24"/>
   <tile gid="29"/>
   <tile gid="29"/>
   <tile gid="29"/>
   <tile gid="24"/>
   <tile gid="29"/>
   <tile gid="30"/>
   <tile/>
   <tile/>
   <tile/>
   <tile/>
   <tile/>
   <tile/>
   <tile/>
   <tile/>
   <tile/>
   <tile/>
   <tile/>
   <tile/>
   <tile/>
   <tile/>
   <tile/>
   <tile/>
   <tile gid="36"/>
   <tile gid="31"/>
   <tile gid="31"/>
   <tile gid="40"/>
   <tile gid="39"/>
   <tile gid="31"/>
   <tile gid="31"/>
   <tile gid="32"/>
   <tile gid="39"/>
   <tile gid="31"/>
   <tile gid="31"/>
   <tile gid="31"/>
   <tile gid="39"/>
   <tile gid="32"/>
   <tile gid="38"/>
   <tile/>
   <tile/>
   <tile gid="1073741889"/>
   <tile gid="1073741890"/>
   <tile/>
   <tile/>
   <tile/>
   <tile/>
   <tile gid="1073741891"/>
   <tile gid="1073741892"/>
   <tile gid="1073741893"/>
   <tile/>
   <tile/>
   <tile/>
   <tile/>
   <tile/>
   <tile/>
   <tile/>
   <tile/>
   <tile/>
   <tile gid="1073741891"/>
   <tile gid="1073741892"/>
   <tile gid="1073741893"/>
   <tile/>
   <tile/>
   <tile gid="36"/>
   <tile gid="37"/>
   <tile gid="37"/>
   <tile gid="37"/>
   <tile gid="39"/>
   <tile gid="39"/>
   <tile gid="40"/>
   <tile gid="2147483649"/>
   <tile gid="29"/>
   <tile gid="24"/>
   <tile gid="29"/>
   <tile gid="29"/>
   <tile gid="29"/>
   <tile gid="24"/>
   <tile gid="29"/>
   <tile gid="29"/>
   <tile gid="29"/>
   <tile gid="24"/>
   <tile gid="24"/>
   <tile gid="29"/>
   <tile gid="1"/>
   <tile gid="37"/>
   <tile gid="39"/>
   <tile gid="40"/>
   <tile gid="39"/>
   <tile gid="39"/>
   <tile gid="40"/>
   <tile gid="32"/>
   <tile gid="31"/>
   <tile gid="32"/>
   <tile gid="37"/>
   <tile gid="38"/>
   <tile/>
   <tile/>
   <tile/>
   <tile/>
   <tile/>
   <tile/>
   <tile/>
   <tile/>
   <tile/>
   <tile/>
   <tile/>
   <tile/>
   <tile/>
   <tile/>
   <tile/>
   <tile/>
   <tile gid="36"/>
   <tile gid="31"/>
   <tile gid="40"/>
   <tile gid="31"/>
   <tile gid="31"/>
   <tile gid="32"/>
   <tile gid="39"/>
   <tile gid="31"/>
   <tile gid="40"/>
   <tile gid="31"/>
   <tile gid="37"/>
   <tile gid="39"/>
   <tile gid="32"/>
   <tile gid="39"/>
   <tile gid="38"/>
   <tile/>
   <tile/>
   <tile/>
   <tile/>
   <tile/>
   <tile/>
   <tile/>
   <tile/>
   <tile/>
   <tile/>
   <tile/>
   <tile/>
   <tile/>
   <tile/>
   <tile/>
   <tile/>
   <tile/>
   <tile/>
   <tile/>
   <tile/>
   <tile/>
   <tile/>
   <tile/>
   <tile/>
   <tile/>
   <tile gid="36"/>
   <tile gid="31"/>
   <tile gid="37"/>
   <tile gid="39"/>
   <tile gid="40"/>
   <tile gid="40"/>
   <tile gid="32"/>
   <tile gid="37"/>
   <tile gid="39"/>
   <tile gid="40"/>
   <tile gid="39"/>
   <tile gid="31"/>
   <tile gid="31"/>
   <tile gid="40"/>
   <tile gid="31"/>
   <tile gid="39"/>
   <tile gid="32"/>
   <tile gid="37"/>
   <tile gid="32"/>
   <tile gid="39"/>
   <tile gid="40"/>
   <tile gid="32"/>
   <tile gid="37"/>
   <tile gid="31"/>
   <tile gid="32"/>
   <tile gid="40"/>
   <tile gid="39"/>
   <tile gid="39"/>
   <tile gid="37"/>
   <tile gid="40"/>
   <tile gid="37"/>
   <tile gid="38"/>
   <tile/>
   <tile/>
   <tile/>
   <tile/>
   <tile/>
   <tile/>
   <tile/>
   <tile/>
   <tile/>
   <tile/>
   <tile/>
   <tile/>
   <tile/>
   <tile/>
   <tile/>
   <tile/>
   <tile gid="36"/>
   <tile gid="40"/>
   <tile gid="40"/>
   <tile gid="37"/>
   <tile gid="31"/>
   <tile gid="39"/>
   <tile gid="32"/>
   <tile gid="37"/>
   <tile gid="39"/>
   <tile gid="37"/>
   <tile gid="31"/>
   <tile gid="37"/>
   <tile gid="39"/>
   <tile gid="31"/>
   <tile gid="38"/>
   <tile/>
   <tile gid="65"/>
   <tile gid="66"/>
   <tile gid="67"/>
   <tile gid="68"/>
   <tile gid="69"/>
   <tile gid="67"/>
   <tile gid="68"/>
   <tile gid="69"/>
   <tile gid="65"/>
   <tile gid="66"/>
   <tile gid="73"/>
   <tile gid="74"/>
   <tile gid="75"/>
   <tile gid="75"/>
   <tile gid="75"/>
   <tile gid="75"/>
   <tile gid="75"/>
   <tile gid="75"/>
   <tile gid="75"/>
   <tile gid="75"/>
   <tile gid="75"/>
   <tile gid="76"/>
   <tile gid="77"/>
   <tile gid="67"/>
   <tile gid="36"/>
   <tile gid="31"/>
   <tile gid="40"/>
   <tile gid="31"/>
   <tile gid="40"/>
   <tile gid="39"/>
   <tile gid="39"/>
   <tile gid="31"/>
   <tile gid="31"/>
   <tile gid="31"/>
   <tile gid="39"/>
   <tile gid="40"/>
   <tile gid="32"/>
   <tile gid="32"/>
   <tile gid="39"/>
   <tile gid="37"/>
   <tile gid="37"/>
   <tile gid="31"/>
   <tile gid="31"/>
   <tile gid="37"/>
   <tile gid="32"/>
   <tile gid="40"/>
   <tile gid="40"/>
   <tile gid="32"/>
   <tile gid="31"/>
   <tile gid="37"/>
   <tile gid="32"/>
   <tile gid="40"/>
   <tile gid="31"/>
   <tile gid="31"/>
   <tile gid="39"/>
   <tile gid="38"/>
   <tile/>
   <tile/>
   <tile/>
   <tile/>
   <tile/>
   <tile/>
   <tile/>
   <tile/>
   <tile/>
   <tile/>
   <tile/>
   <tile/>
   <tile/>
   <tile/>
   <tile/>
   <tile/>
   <tile gid="36"/>
   <tile gid="39"/>
   <tile gid="31"/>
   <tile gid="40"/>
   <tile gid="32"/>
   <tile gid="39"/>
   <tile gid="39"/>
   <tile gid="32"/>
   <tile gid="39"/>
   <tile gid="31"/>
   <tile gid="32"/>
   <tile gid="40"/>
   <tile gid="37"/>
   <tile gid="37"/>
   <tile gid="2147483655"/>
   <tile gid="29"/>
   <tile gid="29"/>
   <tile gid="29"/>
   <tile gid="29"/>
   <tile gid="29"/>
   <tile gid="29"/>
   <tile gid="29"/>
   <tile gid="29"/>
   <tile gid="29"/>
   <tile gid="29"/>
   <tile gid="29"/>
   <tile gid="29"/>
   <tile gid="29"/>
   <tile gid="29"/>
   <tile gid="29"/>
   <tile gid="29"/>
   <tile gid="29"/>
   <tile gid="29"/>
   <tile gid="29"/>
   <tile gid="29"/>
   <tile gid="29"/>
   <tile gid="29"/>
   <tile gid="29"/>
   <tile gid="29"/>
   <tile gid="29"/>
   <tile gid="7"/>
   <tile gid="37"/>
   <tile gid="39"/>
   <tile gid="32"/>
   <tile gid="32"/>
   <tile gid="37"/>
   <tile gid="32"/>
   <tile gid="37"/>
   <tile gid="32"/>
   <tile gid="32"/>
   <tile gid="31"/>
   <tile gid="31"/>
   <tile gid="37"/>
   <tile gid="40"/>
   <tile gid="37"/>
   <tile gid="39"/>
   <tile gid="31"/>
   <tile gid="37"/>
   <tile gid="39"/>
   <tile gid="32"/>
   <tile gid="40"/>
   <tile gid="37"/>
   <tile gid="37"/>
   <tile gid="37"/>
   <tile gid="37"/>
   <tile gid="37"/>
   <tile gid="37"/>
   <tile gid="39"/>
   <tile gid="40"/>
   <tile gid="37"/>
   <tile gid="37"/>
   <tile gid="38"/>
   <tile/>
   <tile/>
   <tile/>
   <tile/>
   <tile/>
   <tile/>
   <tile/>
   <tile/>
   <tile/>
   <tile/>
   <tile/>
   <tile/>
   <tile/>
   <tile/>
   <tile/>
   <tile/>
   <tile gid="41"/>
   <tile gid="37"/>
   <tile gid="31"/>
   <tile gid="40"/>
   <tile gid="39"/>
   <tile gid="31"/>
  </data>
 </layer>
 <objectgroup id="36" name="Fondo4-F">
  <properties>
   <property name="BG" type="bool" value="true"/>
   <property name="Draw" type="bool" value="true"/>
   <property name="Front" type="bool" value="true"/>
   <property name="ParalaxX" type="float" value="1"/>
  </properties>
  <object id="756" gid="146" x="1084" y="2471.4" width="816" height="816"/>
  <object id="757" gid="148" x="1673.94" y="2475.4" width="768" height="768"/>
  <object id="758" gid="151" x="2286.91" y="2478.43" width="792" height="792"/>
  <object id="759" gid="146" x="3252" y="2504" width="816" height="816"/>
  <object id="760" gid="146" x="3816" y="2508" width="816" height="816"/>
  <object id="761" gid="149" x="2847.39" y="2455.52" width="595.152" height="578.182"/>
  <object id="830" gid="137" x="6528" y="1024" width="2608" height="869.333"/>
  <object id="831" gid="139" x="3584" y="896" width="2208" height="736"/>
  <object id="833" gid="1073741961" x="1608" y="176" width="5576" height="2186.67"/>
  <object id="834" gid="1073741961" x="5508" y="170.665" width="3609.7" height="2186.67"/>
  <object id="835" gid="1073741970" x="5688" y="1072" width="968" height="952"/>
  <object id="837" gid="2147483786" x="1664" y="768" width="1920" height="640"/>
  <object id="841" gid="140" x="1024" y="1280" width="716" height="716"/>
  <object id="842" gid="151" x="966" y="580" width="788" height="788"/>
  <object id="843" gid="142" x="1484" y="1324" width="544" height="544"/>
  <object id="844" gid="143" x="1336" y="784" width="756" height="764"/>
  <object id="845" gid="145" x="1580" y="782.667" width="632" height="534.667"/>
  <object id="857" gid="1073741970" x="5092.78" y="1238.11" width="439.16" height="439.16"/>
  <object id="858" gid="147" x="3994.41" y="814.607" width="645.221" height="645.221"/>
  <object id="859" gid="148" x="4399.07" y="789.395" width="439.16" height="439.16"/>
  <object id="860" gid="149" x="4683.22" y="795.455" width="439.16" height="439.16"/>
  <object id="863" gid="152" x="4111.15" y="1428.61" width="1359.64" height="572.727"/>
  <object id="865" gid="150" x="4120.12" y="864.727" width="1523.39" height="532.485"/>
  <object id="866" gid="2147483795" x="4962.24" y="807.693" width="645.221" height="645.221"/>
  <object id="868" gid="138" x="-1280" y="1145.33" width="2436" height="812"/>
  <object id="869" gid="1073741962" x="-784" y="404" width="1920" height="640"/>
  <object id="877" gid="1073741970" x="7755.64" y="1204.54" width="439.16" height="439.16"/>
  <object id="878" gid="147" x="6657.27" y="781.032" width="645.221" height="645.221"/>
  <object id="879" gid="148" x="7061.93" y="755.82" width="439.16" height="439.16"/>
  <object id="880" gid="149" x="7346.08" y="761.88" width="439.16" height="439.16"/>
  <object id="881" gid="152" x="6774.01" y="1471.04" width="1359.64" height="648.727"/>
  <object id="882" gid="150" x="6782.98" y="831.152" width="1523.39" height="532.485"/>
  <object id="883" gid="2147483795" x="7625.1" y="774.118" width="645.221" height="645.221"/>
  <object id="891" gid="3221225618" x="7911.26" y="1240.9" width="439.16" height="439.16"/>
  <object id="892" gid="2147483795" x="8803.57" y="817.393" width="645.221" height="645.221"/>
  <object id="893" gid="2147483796" x="8604.97" y="792.181" width="439.16" height="439.16"/>
  <object id="894" gid="2147483797" x="8320.82" y="798.241" width="439.16" height="439.16"/>
  <object id="895" gid="2147483800" x="7972.41" y="1419.4" width="1359.64" height="560.727"/>
  <object id="896" gid="2147483798" x="7799.69" y="867.513" width="1523.39" height="532.485"/>
  <object id="897" gid="147" x="7835.74" y="810.479" width="645.221" height="645.221"/>
  <object id="938" gid="1073741970" x="-70.9571" y="2771.4" width="615.689" height="615.689"/>
  <object id="939" gid="146" x="178" y="2134" width="854.244" height="854.244"/>
  <object id="940" gid="146" x="-128" y="2048" width="615.689" height="615.689"/>
  <object id="942" gid="1073741970" x="227.99" y="2734.08" width="615.689" height="615.689"/>
  <object id="943" gid="1073741970" x="630.506" y="2754.08" width="615.689" height="615.689"/>
  <object id="944" gid="146" x="-128" y="2176" width="615.689" height="615.689"/>
  <object id="945" gid="146" x="594.506" y="2146.05" width="629.689" height="629.689"/>
  <object id="946" gid="146" x="411.273" y="2435.03" width="875.707" height="875.707"/>
  <object id="947" gid="146" x="-128" y="2432" width="875.707" height="875.707"/>
  <object id="948" gid="146" x="614.155" y="2420.16" width="615.689" height="615.689"/>
  <object id="949" gid="143" x="-150.438" y="1917.56" width="788.877" height="788.877"/>
  <object id="952" gid="146" x="560" y="1918" width="636" height="636"/>
  <object id="955" gid="1073741971" x="624" y="2556" width="632" height="652"/>
  <object id="958" gid="1073741967" x="2084" y="2238.67" width="338" height="334"/>
  <object id="960" gid="3221225615" x="2310" y="2262.67" width="348" height="358"/>
  <object id="962" gid="145" x="2258.33" y="1906" width="409.333" height="384"/>
  <object id="964" gid="145" x="2027.33" y="1907" width="409.333" height="384"/>
  <object id="966" gid="144" x="2233.5" y="1930" width="356" height="445"/>
  <object id="968" gid="1073741967" x="2852.5" y="1975.67" width="338" height="334"/>
  <object id="969" gid="3221225615" x="3078.5" y="1999.67" width="348" height="358"/>
  <object id="970" gid="145" x="3026.83" y="1643" width="409.333" height="384"/>
  <object id="971" gid="145" x="2795.83" y="1644" width="409.333" height="384"/>
  <object id="972" gid="144" x="3004.34" y="1673" width="356" height="441"/>
  <object id="982" gid="1073741967" x="3618.5" y="2245.34" width="338" height="334"/>
  <object id="983" gid="3221225615" x="3844.5" y="2269.34" width="348" height="358"/>
  <object id="984" gid="145" x="3792.83" y="1912.66" width="409.333" height="384"/>
  <object id="985" gid="145" x="3561.83" y="1913.66" width="409.333" height="384"/>
  <object id="986" gid="144" x="3769.34" y="1925.33" width="356" height="497"/>
  <object id="987" gid="1073741967" x="3488.5" y="1479.34" width="338" height="334"/>
  <object id="988" gid="3221225615" x="3714.5" y="1503.34" width="348" height="358"/>
  <object id="989" gid="145" x="3662.83" y="1146.66" width="409.333" height="384"/>
  <object id="990" gid="145" x="3431.83" y="1147.66" width="409.333" height="384"/>
  <object id="991" gid="144" x="3633.34" y="1160.66" width="356" height="487"/>
  <object id="995" gid="1073741968" x="1339" y="2437" width="384" height="522"/>
  <object id="996" gid="144" x="1337.5" y="1920.5" width="384" height="522"/>
  <object id="1009" gid="146" x="7056" y="2242.67" width="893.212" height="893.212"/>
  <object id="1010" gid="147" x="6935.1" y="2128.04" width="951.247" height="770.584"/>
  <object id="1011" gid="151" x="6798.7" y="2052.49" width="1053.47" height="1053.47"/>
  <object id="1012" gid="146" x="5826.03" y="2236.61" width="1018.69" height="1126.67"/>
  <object id="1013" gid="148" x="5136" y="2242.67" width="788" height="788"/>
  <object id="1014" gid="146" x="6416" y="2242.67" width="951.879" height="951.879"/>
  <object id="1015" gid="148" x="4846.3" y="2048" width="577.212" height="756"/>
  <object id="1016" gid="151" x="4352" y="2246.67" width="996" height="996"/>
  <object id="1017" gid="151" x="4596.73" y="2242.67" width="1031.27" height="1031.27"/>
  <object id="1018" gid="146" x="7568" y="2242.67" width="893.212" height="893.212"/>
  <object id="1019" gid="147" x="7440" y="2114.67" width="1211.27" height="1211.27"/>
  <object id="1020" gid="148" x="5392" y="2242.67" width="788" height="788"/>
  <object id="1021" gid="153" x="4352" y="2432" width="4008" height="1928"/>
  <object id="1022" gid="146" x="6722.67" y="2432" width="1147.64" height="1147.64"/>
  <object id="1023" gid="146" x="5504" y="2432" width="1147.64" height="1147.64"/>
  <object id="1025" gid="147" x="7552" y="2432" width="1305.21" height="1305.21"/>
  <object id="1027" gid="2147483799" x="4224" y="2176" width="1023.39" height="1023.39"/>
  <object id="1028" gid="3221225623" x="4230.73" y="3158" width="1023.39" height="1023.39"/>
  <object id="1030" gid="143" x="4352" y="1920" width="958.18" height="958.18"/>
  <object id="1046" gid="148" x="10222" y="2442.79" width="788" height="788"/>
  <object id="1047" gid="148" x="9932.3" y="2239.03" width="577.212" height="756"/>
  <object id="1048" gid="151" x="9406" y="2444.79" width="996" height="996"/>
  <object id="1049" gid="151" x="9752.73" y="2437.7" width="1031.27" height="1031.27"/>
  <object id="1051" gid="2147483791" x="8350" y="2433.7" width="864" height="864"/>
  <object id="1052" gid="2147483796" x="8898" y="2436.73" width="856" height="856"/>
  <object id="1054" gid="147" x="8354" y="2301.7" width="1065.82" height="1065.82"/>
  <object id="1055" gid="150" x="8302" y="2433.7" width="644.606" height="644.606"/>
  <object id="1056" gid="151" x="10418.4" y="2260.67" width="996" height="996"/>
  <object id="1057" gid="146" x="10702" y="2448" width="780" height="780"/>
  <object id="1058" gid="143" x="10242.7" y="1938.67" width="800" height="800"/>
  <object id="1059" gid="2147483795" x="10180" y="2182" width="1042" height="1042"/>
  <object id="1066" gid="148" x="10406.1" y="2103.45" width="923.394" height="923.394"/>
  <object id="1068" gid="151" x="10552.9" y="1917.09" width="862.788" height="862.788"/>
  <object id="1071" gid="148" x="10816" y="1326" width="522" height="576"/>
  <object id="1074" gid="1073741968" x="11078" y="2468" width="384" height="384"/>
  <object id="1075" gid="1073741968" x="11052" y="2692" width="384" height="384"/>
  <object id="1076" gid="1073741968" x="10664" y="2406" width="862" height="1096"/>
  <object id="1079" gid="2147483794" x="10606" y="1812" width="856" height="856"/>
  <object id="1081" gid="143" x="10672" y="1566" width="762" height="756"/>
  <object id="1082" gid="3221225615" x="10707" y="2222" width="762" height="756"/>
  <object id="1083" gid="3221225615" x="10755.8" y="2070.85" width="762" height="756"/>
  <object id="1095" gid="144" x="9519.27" y="540.697" width="435.515" height="471.879"/>
  <object id="1096" gid="145" x="9711" y="541.333" width="384" height="384"/>
  <object id="1097" gid="1073741975" x="9559" y="866.333" width="465" height="336"/>
  <object id="1115" gid="1073741970" x="385.333" y="1114.67" width="636" height="636"/>
  <object id="1116" gid="1073741962" x="-1056.97" y="296.97" width="1920" height="640"/>
 </objectgroup>
 <objectgroup id="28" name="Fondo5-F    " visible="0">
  <properties>
   <property name="Draw" type="bool" value="true"/>
   <property name="Front" type="bool" value="true"/>
   <property name="ParalaxX" type="float" value="1.1"/>
  </properties>
  <object id="700" gid="131" x="8208" y="2432" width="2928" height="3200"/>
  <object id="898" gid="2147483779" x="2232" y="2428" width="2673.23" height="3021.91"/>
  <object id="1084" gid="2147483779" x="9620" y="2428" width="2928" height="3200"/>
 </objectgroup>
 <objectgroup id="33" name="Rampas" visible="0">
  <properties>
   <property name="Polygon" type="bool" value="true"/>
  </properties>
  <object id="708" x="6912" y="1920">
   <polygon points="0,0 256,-128 256,0"/>
  </object>
  <object id="710" x="5120" y="1920">
   <polygon points="0,0 0,-128 256,0"/>
  </object>
  <object id="763" x="1408" y="640">
   <polygon points="0,0 0,-256 512,0"/>
  </object>
 </objectgroup>
 <objectgroup color="#aa0000" id="19" name="Spikes" visible="0">
  <properties>
   <property name="Danger" type="bool" value="true"/>
   <property name="Square" type="bool" value="true"/>
  </properties>
  <object id="325" x="8448" y="2432" width="2048" height="104"/>
  <object id="326" x="1152" y="2224" width="3200" height="208"/>
  <object id="703" x="1460" y="1920" width="160" height="128"/>
  <object id="704" x="2260" y="1920" width="232" height="128"/>
  <object id="769" x="3796" y="1920" width="200" height="128"/>
  <object id="772" x="3000" y="1664" width="272" height="88"/>
  <object id="773" x="3648" y="1156" width="256" height="88"/>
 </objectgroup>
 <objectgroup id="13" name="Path">
  <properties>
   <property name="Path" type="bool" value="true"/>
   <property name="Sensor" type="bool" value="true"/>
   <property name="Square" type="bool" value="true"/>
  </properties>
  <object id="692" x="11392" y="0" width="128" height="1024">
   <properties>
    <property name="TeleportTo" type="file" value="Forest_01.tmx"/>
   </properties>
  </object>
  <object id="695" x="1152" y="-256" width="512" height="128">
   <properties>
    <property name="TeleportTo" type="file" value="Forest_03.tmx"/>
   </properties>
  </object>
  <object id="697" x="-256" y="384" width="128" height="1408">
   <properties>
    <property name="TeleportTo" type="file" value="Forest_04.tmx"/>
   </properties>
  </object>
 </objectgroup>
 <objectgroup color="#000000" id="8" name="Map">
  <properties>
   <property name="Map" type="bool" value="true"/>
   <property name="Square" type="bool" value="true"/>
  </properties>
  <object id="195" x="11264" y="1024" width="256" height="128"/>
  <object id="196" x="11008" y="1024" width="256" height="1408"/>
  <object id="197" x="10752" y="1280" width="256" height="1152"/>
  <object id="198" x="10496" y="1536" width="256" height="896"/>
  <object id="200" x="7168" y="1792" width="1280" height="640"/>
  <object id="201" x="5248" y="1920" width="1792" height="512"/>
  <object id="202" x="4352" y="1792" width="768" height="640"/>
  <object id="204" x="3712" y="1792" width="640" height="128.727"/>
  <object id="208" x="2176" y="1792" width="384" height="128"/>
  <object id="209" x="1536" y="640" width="512" height="256"/>
  <object id="210" x="1152" y="384" width="256" height="256"/>
  <object id="211" x="1408" y="1792" width="256" height="128"/>
  <object id="212" x="4096" y="640" width="1408" height="256"/>
  <object id="213" x="6784" y="640" width="2560" height="256"/>
  <object id="214" x="9600" y="512" width="384" height="128"/>
  <object id="215" x="10368" y="640" width="384" height="256"/>
  <object id="216" x="-256" y="1792" width="1408" height="640"/>
  <object id="219" x="1792" y="-384" width="4736" height="640"/>
  <object id="231" x="512" y="-384" width="640" height="896"/>
  <object id="243" x="8832" y="-128" width="2688" height="128"/>
  <object id="245" x="-256" y="0" width="768" height="384"/>
  <object id="381" x="6528" y="0" width="2560" height="256"/>
  <object id="764" x="1152" y="640" width="384" height="128"/>
  <object id="765" x="2304" y="1024" width="384" height="256"/>
  <object id="770" x="2944" y="1536" width="384" height="128.727"/>
  <object id="771" x="3584" y="1024" width="384" height="128.727"/>
  <object id="777" x="3072" y="1152" width="128" height="58.303"/>
  <object id="906" x="1664" y="-256" width="128" height="384"/>
 </objectgroup>
 <layer id="31" name="GroundNavLayer" width="88" height="19" visible="0">
  <properties>
   <property name="Ground" type="bool" value="true"/>
   <property name="Navigation" type="bool" value="true"/>
  </properties>
  <data>
   <tile gid="129"/>
   <tile gid="129"/>
   <tile gid="129"/>
   <tile gid="129"/>
   <tile gid="129"/>
   <tile gid="129"/>
   <tile gid="129"/>
   <tile gid="129"/>
   <tile gid="129"/>
   <tile/>
   <tile/>
   <tile/>
   <tile/>
   <tile gid="129"/>
   <tile gid="129"/>
   <tile gid="129"/>
   <tile gid="129"/>
   <tile gid="129"/>
   <tile gid="129"/>
   <tile gid="129"/>
   <tile gid="129"/>
   <tile gid="129"/>
   <tile gid="129"/>
   <tile gid="129"/>
   <tile gid="129"/>
   <tile gid="129"/>
   <tile gid="129"/>
   <tile gid="129"/>
   <tile gid="129"/>
   <tile gid="129"/>
   <tile gid="129"/>
   <tile gid="129"/>
   <tile gid="129"/>
   <tile gid="129"/>
   <tile gid="129"/>
   <tile gid="129"/>
   <tile gid="129"/>
   <tile gid="129"/>
   <tile gid="129"/>
   <tile gid="129"/>
   <tile gid="129"/>
   <tile gid="129"/>
   <tile gid="129"/>
   <tile gid="129"/>
   <tile gid="129"/>
   <tile gid="129"/>
   <tile gid="129"/>
   <tile gid="129"/>
   <tile gid="129"/>
   <tile gid="129"/>
   <tile gid="129"/>
   <tile gid="129"/>
   <tile gid="129"/>
   <tile gid="129"/>
   <tile gid="129"/>
   <tile gid="129"/>
   <tile gid="129"/>
   <tile gid="129"/>
   <tile gid="129"/>
   <tile gid="129"/>
   <tile gid="129"/>
   <tile gid="129"/>
   <tile gid="129"/>
   <tile gid="129"/>
   <tile gid="129"/>
   <tile gid="129"/>
   <tile gid="129"/>
   <tile gid="129"/>
   <tile gid="129"/>
   <tile gid="129"/>
   <tile gid="129"/>
   <tile/>
   <tile/>
   <tile/>
   <tile/>
   <tile/>
   <tile/>
   <tile/>
   <tile/>
   <tile/>
   <tile/>
   <tile/>
   <tile/>
   <tile/>
   <tile/>
   <tile/>
   <tile/>
   <tile/>
   <tile gid="129"/>
   <tile gid="129"/>
   <tile gid="129"/>
   <tile gid="129"/>
   <tile gid="129"/>
   <tile gid="129"/>
   <tile gid="129"/>
   <tile gid="129"/>
   <tile gid="129"/>
   <tile gid="129"/>
   <tile/>
   <tile/>
   <tile/>
   <tile gid="129"/>
   <tile gid="129"/>
   <tile gid="129"/>
   <tile gid="129"/>
   <tile gid="129"/>
   <tile gid="129"/>
   <tile gid="129"/>
   <tile gid="129"/>
   <tile gid="129"/>
   <tile gid="129"/>
   <tile gid="129"/>
   <tile gid="129"/>
   <tile gid="129"/>
   <tile gid="129"/>
   <tile gid="129"/>
   <tile gid="129"/>
   <tile gid="129"/>
   <tile gid="129"/>
   <tile gid="129"/>
   <tile gid="129"/>
   <tile gid="129"/>
   <tile gid="129"/>
   <tile gid="129"/>
   <tile gid="129"/>
   <tile gid="129"/>
   <tile gid="129"/>
   <tile gid="129"/>
   <tile gid="129"/>
   <tile gid="129"/>
   <tile gid="129"/>
   <tile gid="129"/>
   <tile gid="129"/>
   <tile gid="129"/>
   <tile gid="129"/>
   <tile gid="129"/>
   <tile gid="129"/>
   <tile gid="129"/>
   <tile gid="129"/>
   <tile gid="129"/>
   <tile gid="129"/>
   <tile gid="129"/>
   <tile gid="129"/>
   <tile gid="129"/>
   <tile gid="129"/>
   <tile gid="129"/>
   <tile gid="129"/>
   <tile gid="129"/>
   <tile gid="129"/>
   <tile gid="129"/>
   <tile gid="129"/>
   <tile gid="129"/>
   <tile gid="129"/>
   <tile gid="129"/>
   <tile gid="129"/>
   <tile gid="129"/>
   <tile gid="129"/>
   <tile gid="129"/>
   <tile gid="129"/>
   <tile/>
   <tile/>
   <tile/>
   <tile/>
   <tile/>
   <tile/>
   <tile/>
   <tile/>
   <tile/>
   <tile/>
   <tile/>
   <tile/>
   <tile/>
   <tile/>
   <tile/>
   <tile/>
   <tile/>
   <tile gid="129"/>
   <tile gid="129"/>
   <tile gid="129"/>
   <tile gid="129"/>
   <tile gid="129"/>
   <tile gid="129"/>
   <tile gid="129"/>
   <tile gid="129"/>
   <tile gid="129"/>
   <tile gid="129"/>
   <tile/>
   <tile/>
   <tile/>
   <tile/>
   <tile/>
   <tile/>
   <tile/>
   <tile/>
   <tile/>
   <tile/>
   <tile/>
   <tile/>
   <tile/>
   <tile/>
   <tile/>
   <tile/>
   <tile/>
   <tile/>
   <tile/>
   <tile/>
   <tile/>
   <tile/>
   <tile/>
   <tile/>
   <tile/>
   <tile/>
   <tile/>
   <tile/>
   <tile/>
   <tile/>
   <tile/>
   <tile/>
   <tile/>
   <tile/>
   <tile/>
   <tile/>
   <tile/>
   <tile/>
   <tile/>
   <tile/>
   <tile/>
   <tile/>
   <tile/>
   <tile/>
   <tile/>
   <tile/>
   <tile/>
   <tile/>
   <tile/>
   <tile/>
   <tile/>
   <tile/>
   <tile/>
   <tile/>
   <tile/>
   <tile/>
   <tile/>
   <tile/>
   <tile/>
   <tile/>
   <tile/>
   <tile/>
   <tile/>
   <tile/>
   <tile/>
   <tile/>
   <tile/>
   <tile/>
   <tile/>
   <tile/>
   <tile/>
   <tile/>
   <tile/>
   <tile/>
   <tile/>
   <tile/>
   <tile/>
   <tile/>
   <tile/>
   <tile/>
   <tile/>
   <tile/>
   <tile/>
   <tile/>
   <tile/>
   <tile/>
   <tile/>
   <tile/>
   <tile/>
   <tile/>
   <tile/>
   <tile/>
   <tile/>
   <tile/>
   <tile/>
   <tile/>
   <tile/>
   <tile/>
   <tile/>
   <tile/>
   <tile/>
   <tile/>
   <tile/>
   <tile/>
   <tile/>
   <tile/>
   <tile/>
   <tile/>
   <tile/>
   <tile/>
   <tile/>
   <tile/>
   <tile/>
   <tile/>
   <tile/>
   <tile/>
   <tile/>
   <tile/>
   <tile/>
   <tile/>
   <tile/>
   <tile/>
   <tile/>
   <tile/>
   <tile/>
   <tile/>
   <tile/>
   <tile/>
   <tile/>
   <tile/>
   <tile/>
   <tile/>
   <tile/>
   <tile/>
   <tile/>
   <tile/>
   <tile/>
   <tile/>
   <tile/>
   <tile/>
   <tile/>
   <tile/>
   <tile/>
   <tile/>
   <tile/>
   <tile/>
   <tile/>
   <tile/>
   <tile/>
   <tile/>
   <tile/>
   <tile/>
   <tile/>
   <tile/>
   <tile/>
   <tile/>
   <tile/>
   <tile/>
   <tile/>
   <tile/>
   <tile/>
   <tile/>
   <tile/>
   <tile/>
   <tile/>
   <tile/>
   <tile/>
   <tile/>
   <tile/>
   <tile/>
   <tile/>
   <tile/>
   <tile/>
   <tile/>
   <tile/>
   <tile/>
   <tile gid="129"/>
   <tile gid="129"/>
   <tile gid="129"/>
   <tile/>
   <tile/>
   <tile/>
   <tile/>
   <tile/>
   <tile/>
   <tile/>
   <tile/>
   <tile/>
   <tile/>
   <tile/>
   <tile/>
   <tile/>
   <tile/>
   <tile/>
   <tile/>
   <tile/>
   <tile/>
   <tile/>
   <tile/>
   <tile/>
   <tile/>
   <tile/>
   <tile/>
   <tile/>
   <tile/>
   <tile/>
   <tile/>
   <tile/>
   <tile/>
   <tile/>
   <tile/>
   <tile/>
   <tile/>
   <tile/>
   <tile/>
   <tile/>
   <tile/>
   <tile/>
   <tile/>
   <tile/>
   <tile/>
   <tile/>
   <tile/>
   <tile/>
   <tile/>
   <tile/>
   <tile/>
   <tile/>
   <tile/>
   <tile/>
   <tile/>
   <tile/>
   <tile/>
   <tile/>
   <tile/>
   <tile/>
   <tile/>
   <tile/>
   <tile/>
   <tile/>
   <tile/>
   <tile gid="129"/>
   <tile gid="129"/>
   <tile gid="129"/>
   <tile/>
   <tile/>
   <tile/>
   <tile/>
   <tile/>
   <tile/>
   <tile/>
   <tile/>
   <tile/>
   <tile/>
   <tile/>
   <tile/>
   <tile/>
   <tile/>
   <tile/>
   <tile/>
   <tile/>
   <tile/>
   <tile/>
   <tile/>
   <tile gid="129"/>
   <tile gid="129"/>
   <tile gid="129"/>
   <tile/>
   <tile/>
   <tile/>
   <tile/>
   <tile/>
   <tile/>
   <tile/>
   <tile/>
   <tile/>
   <tile/>
   <tile/>
   <tile/>
   <tile/>
   <tile/>
   <tile/>
   <tile/>
   <tile/>
   <tile/>
   <tile/>
   <tile gid="129"/>
   <tile gid="129"/>
   <tile gid="129"/>
   <tile gid="129"/>
   <tile gid="129"/>
   <tile gid="129"/>
   <tile gid="129"/>
   <tile gid="129"/>
   <tile gid="129"/>
   <tile gid="129"/>
   <tile gid="129"/>
   <tile gid="129"/>
   <tile gid="129"/>
   <tile gid="129"/>
   <tile gid="129"/>
   <tile gid="129"/>
   <tile gid="129"/>
   <tile gid="129"/>
   <tile gid="129"/>
   <tile gid="129"/>
   <tile gid="129"/>
   <tile gid="129"/>
   <tile gid="129"/>
   <tile gid="129"/>
   <tile gid="129"/>
   <tile gid="129"/>
   <tile gid="129"/>
   <tile gid="129"/>
   <tile gid="129"/>
   <tile gid="129"/>
   <tile gid="129"/>
   <tile gid="129"/>
   <tile gid="129"/>
   <tile gid="129"/>
   <tile gid="129"/>
   <tile gid="129"/>
   <tile gid="129"/>
   <tile gid="129"/>
   <tile gid="129"/>
   <tile gid="129"/>
   <tile gid="129"/>
   <tile/>
   <tile/>
   <tile/>
   <tile/>
   <tile/>
   <tile/>
   <tile/>
   <tile/>
   <tile gid="129"/>
   <tile gid="129"/>
   <tile gid="129"/>
   <tile/>
   <tile/>
   <tile/>
   <tile/>
   <tile/>
   <tile/>
   <tile/>
   <tile/>
   <tile/>
   <tile/>
   <tile/>
   <tile/>
   <tile/>
   <tile/>
   <tile/>
   <tile/>
   <tile/>
   <tile/>
   <tile/>
   <tile gid="129"/>
   <tile gid="129"/>
   <tile gid="129"/>
   <tile/>
   <tile/>
   <tile/>
   <tile/>
   <tile/>
   <tile/>
   <tile/>
   <tile/>
   <tile/>
   <tile/>
   <tile gid="129"/>
   <tile/>
   <tile/>
   <tile/>
   <tile gid="129"/>
   <tile gid="129"/>
   <tile gid="129"/>
   <tile gid="129"/>
   <tile gid="129"/>
   <tile gid="129"/>
   <tile gid="129"/>
   <tile gid="129"/>
   <tile gid="129"/>
   <tile gid="129"/>
   <tile gid="129"/>
   <tile gid="129"/>
   <tile gid="129"/>
   <tile gid="129"/>
   <tile gid="129"/>
   <tile gid="129"/>
   <tile gid="129"/>
   <tile gid="129"/>
   <tile gid="129"/>
   <tile gid="129"/>
   <tile gid="129"/>
   <tile gid="129"/>
   <tile gid="129"/>
   <tile gid="129"/>
   <tile gid="129"/>
   <tile gid="129"/>
   <tile gid="129"/>
   <tile gid="129"/>
   <tile gid="129"/>
   <tile gid="129"/>
   <tile gid="129"/>
   <tile gid="129"/>
   <tile gid="129"/>
   <tile gid="129"/>
   <tile gid="129"/>
   <tile gid="129"/>
   <tile gid="129"/>
   <tile gid="129"/>
   <tile gid="129"/>
   <tile gid="129"/>
   <tile gid="129"/>
   <tile/>
   <tile/>
   <tile/>
   <tile/>
   <tile/>
   <tile/>
   <tile/>
   <tile/>
   <tile gid="129"/>
   <tile gid="129"/>
   <tile gid="129"/>
   <tile/>
   <tile/>
   <tile/>
   <tile/>
   <tile/>
   <tile/>
   <tile/>
   <tile/>
   <tile/>
   <tile/>
   <tile/>
   <tile/>
   <tile/>
   <tile/>
   <tile/>
   <tile/>
   <tile/>
   <tile/>
   <tile/>
   <tile gid="129"/>
   <tile gid="129"/>
   <tile gid="129"/>
   <tile/>
   <tile/>
   <tile/>
   <tile/>
   <tile/>
   <tile/>
   <tile/>
   <tile/>
   <tile/>
   <tile/>
   <tile/>
   <tile/>
   <tile/>
   <tile/>
   <tile/>
   <tile gid="129"/>
   <tile/>
   <tile/>
   <tile/>
   <tile/>
   <tile/>
   <tile/>
   <tile/>
   <tile/>
   <tile/>
   <tile/>
   <tile/>
   <tile/>
   <tile/>
   <tile/>
   <tile/>
   <tile/>
   <tile/>
   <tile/>
   <tile/>
   <tile/>
   <tile/>
   <tile/>
   <tile/>
   <tile/>
   <tile/>
   <tile/>
   <tile/>
   <tile/>
   <tile/>
   <tile/>
   <tile/>
   <tile/>
   <tile gid="129"/>
   <tile/>
   <tile/>
   <tile/>
   <tile/>
   <tile/>
   <tile/>
   <tile/>
   <tile/>
   <tile/>
   <tile/>
   <tile/>
   <tile/>
   <tile/>
   <tile/>
   <tile/>
   <tile/>
   <tile/>
   <tile/>
   <tile/>
   <tile/>
   <tile/>
   <tile/>
   <tile/>
   <tile/>
   <tile/>
   <tile/>
   <tile/>
   <tile/>
   <tile/>
   <tile/>
   <tile/>
   <tile/>
   <tile/>
   <tile/>
   <tile/>
   <tile/>
   <tile/>
   <tile/>
   <tile/>
   <tile/>
   <tile/>
   <tile/>
   <tile gid="129"/>
   <tile gid="129"/>
   <tile gid="129"/>
   <tile/>
   <tile/>
   <tile/>
   <tile/>
   <tile/>
   <tile/>
   <tile/>
   <tile/>
   <tile/>
   <tile gid="129"/>
   <tile/>
   <tile/>
   <tile/>
   <tile/>
   <tile/>
   <tile/>
   <tile/>
   <tile/>
   <tile/>
   <tile/>
   <tile/>
   <tile/>
   <tile/>
   <tile/>
   <tile/>
   <tile/>
   <tile/>
   <tile/>
   <tile/>
   <tile/>
   <tile/>
   <tile/>
   <tile/>
   <tile/>
   <tile/>
   <tile/>
   <tile/>
   <tile/>
   <tile/>
   <tile/>
   <tile/>
   <tile/>
   <tile gid="129"/>
   <tile/>
   <tile/>
   <tile/>
   <tile/>
   <tile/>
   <tile/>
   <tile/>
   <tile/>
   <tile/>
   <tile/>
   <tile/>
   <tile/>
   <tile/>
   <tile/>
   <tile/>
   <tile/>
   <tile/>
   <tile/>
   <tile/>
   <tile gid="129"/>
   <tile gid="129"/>
   <tile/>
   <tile/>
   <tile/>
   <tile/>
   <tile/>
   <tile/>
   <tile/>
   <tile/>
   <tile/>
   <tile/>
   <tile/>
   <tile/>
   <tile/>
   <tile/>
   <tile/>
   <tile/>
   <tile/>
   <tile/>
   <tile/>
   <tile/>
   <tile/>
   <tile gid="129"/>
   <tile gid="129"/>
   <tile gid="129"/>
   <tile/>
   <tile/>
   <tile/>
   <tile/>
   <tile/>
   <tile/>
   <tile/>
   <tile/>
   <tile/>
   <tile gid="129"/>
   <tile/>
   <tile/>
   <tile/>
   <tile/>
   <tile/>
   <tile/>
   <tile/>
   <tile/>
   <tile/>
   <tile/>
   <tile/>
   <tile/>
   <tile/>
   <tile/>
   <tile/>
   <tile/>
   <tile/>
   <tile/>
   <tile/>
   <tile/>
   <tile/>
   <tile/>
   <tile/>
   <tile/>
   <tile/>
   <tile/>
   <tile/>
   <tile/>
   <tile/>
   <tile/>
   <tile/>
   <tile/>
   <tile gid="129"/>
   <tile/>
   <tile/>
   <tile/>
   <tile/>
   <tile/>
   <tile/>
   <tile/>
   <tile/>
   <tile/>
   <tile/>
   <tile/>
   <tile/>
   <tile/>
   <tile/>
   <tile/>
   <tile/>
   <tile/>
   <tile/>
   <tile/>
   <tile gid="129"/>
   <tile gid="129"/>
   <tile/>
   <tile/>
   <tile/>
   <tile/>
   <tile/>
   <tile/>
   <tile/>
   <tile/>
   <tile/>
   <tile/>
   <tile/>
   <tile/>
   <tile/>
   <tile/>
   <tile/>
   <tile/>
   <tile gid="129"/>
   <tile gid="129"/>
   <tile gid="129"/>
   <tile/>
   <tile/>
   <tile/>
   <tile/>
   <tile/>
   <tile/>
   <tile/>
   <tile/>
   <tile gid="129"/>
   <tile/>
   <tile/>
   <tile/>
   <tile/>
   <tile/>
   <tile gid="129"/>
   <tile/>
   <tile/>
   <tile/>
   <tile/>
   <tile/>
   <tile/>
   <tile/>
   <tile/>
   <tile/>
   <tile/>
   <tile/>
   <tile/>
   <tile/>
   <tile/>
   <tile/>
   <tile/>
   <tile/>
   <tile/>
   <tile/>
   <tile/>
   <tile/>
   <tile/>
   <tile/>
   <tile/>
   <tile/>
   <tile/>
   <tile/>
   <tile/>
   <tile/>
   <tile/>
   <tile/>
   <tile/>
   <tile gid="129"/>
   <tile/>
   <tile/>
   <tile/>
   <tile/>
   <tile/>
   <tile/>
   <tile/>
   <tile/>
   <tile/>
   <tile/>
   <tile/>
   <tile/>
   <tile/>
   <tile/>
   <tile/>
   <tile/>
   <tile/>
   <tile gid="129"/>
   <tile gid="129"/>
   <tile gid="129"/>
   <tile gid="129"/>
   <tile/>
   <tile/>
   <tile/>
   <tile/>
   <tile/>
   <tile/>
   <tile/>
   <tile/>
   <tile/>
   <tile/>
   <tile/>
   <tile/>
   <tile/>
   <tile/>
   <tile/>
   <tile/>
   <tile gid="129"/>
   <tile gid="129"/>
   <tile gid="129"/>
   <tile/>
   <tile/>
   <tile/>
   <tile/>
   <tile/>
   <tile/>
   <tile/>
   <tile/>
   <tile gid="129"/>
   <tile/>
   <tile/>
   <tile/>
   <tile/>
   <tile/>
   <tile gid="129"/>
   <tile/>
   <tile/>
   <tile/>
   <tile/>
   <tile/>
   <tile/>
   <tile/>
   <tile/>
   <tile/>
   <tile/>
   <tile/>
   <tile/>
   <tile/>
   <tile/>
   <tile/>
   <tile/>
   <tile/>
   <tile/>
   <tile/>
   <tile/>
   <tile/>
   <tile/>
   <tile/>
   <tile/>
   <tile/>
   <tile/>
   <tile/>
   <tile/>
   <tile/>
   <tile/>
   <tile/>
   <tile/>
   <tile gid="129"/>
   <tile/>
   <tile/>
   <tile/>
   <tile/>
   <tile/>
   <tile/>
   <tile/>
   <tile/>
   <tile/>
   <tile/>
   <tile/>
   <tile/>
   <tile/>
   <tile/>
   <tile/>
   <tile/>
   <tile/>
   <tile gid="129"/>
   <tile gid="129"/>
   <tile gid="129"/>
   <tile gid="129"/>
   <tile/>
   <tile/>
   <tile/>
   <tile/>
   <tile/>
   <tile/>
   <tile/>
   <tile/>
   <tile/>
   <tile/>
   <tile/>
   <tile gid="129"/>
   <tile gid="129"/>
   <tile/>
   <tile/>
   <tile/>
   <tile gid="129"/>
   <tile gid="129"/>
   <tile gid="129"/>
   <tile/>
   <tile/>
   <tile/>
   <tile/>
   <tile/>
   <tile/>
   <tile/>
   <tile/>
   <tile/>
   <tile/>
   <tile/>
   <tile/>
   <tile gid="129"/>
   <tile/>
   <tile gid="129"/>
   <tile/>
   <tile/>
   <tile/>
   <tile/>
   <tile/>
   <tile/>
   <tile/>
   <tile/>
   <tile/>
   <tile/>
   <tile/>
   <tile/>
   <tile/>
   <tile/>
   <tile/>
   <tile/>
   <tile/>
   <tile/>
   <tile/>
   <tile/>
   <tile/>
   <tile/>
   <tile/>
   <tile/>
   <tile/>
   <tile/>
   <tile/>
   <tile/>
   <tile/>
   <tile/>
   <tile/>
   <tile/>
   <tile gid="129"/>
   <tile/>
   <tile/>
   <tile/>
   <tile/>
   <tile/>
   <tile/>
   <tile/>
   <tile/>
   <tile/>
   <tile/>
   <tile/>
   <tile/>
   <tile/>
   <tile/>
   <tile/>
   <tile gid="129"/>
   <tile gid="129"/>
   <tile gid="129"/>
   <tile gid="129"/>
   <tile gid="129"/>
   <tile gid="129"/>
   <tile/>
   <tile/>
   <tile/>
   <tile/>
   <tile/>
   <tile/>
   <tile/>
   <tile/>
   <tile/>
   <tile/>
   <tile/>
   <tile gid="129"/>
   <tile gid="129"/>
   <tile/>
   <tile/>
   <tile/>
   <tile/>
   <tile/>
   <tile/>
   <tile/>
   <tile/>
   <tile/>
   <tile/>
   <tile/>
   <tile/>
   <tile/>
   <tile/>
   <tile/>
   <tile/>
   <tile/>
   <tile/>
   <tile gid="129"/>
   <tile/>
   <tile gid="129"/>
   <tile/>
   <tile/>
   <tile/>
   <tile/>
   <tile/>
   <tile/>
   <tile/>
   <tile/>
   <tile/>
   <tile/>
   <tile/>
   <tile/>
   <tile/>
   <tile/>
   <tile/>
   <tile/>
   <tile/>
   <tile/>
   <tile/>
   <tile/>
   <tile/>
   <tile/>
   <tile/>
   <tile/>
   <tile/>
   <tile/>
   <tile/>
   <tile/>
   <tile/>
   <tile/>
   <tile/>
   <tile/>
   <tile gid="129"/>
   <tile/>
   <tile/>
   <tile/>
   <tile/>
   <tile/>
   <tile/>
   <tile/>
   <tile/>
   <tile/>
   <tile/>
   <tile/>
   <tile/>
   <tile/>
   <tile/>
   <tile/>
   <tile gid="129"/>
   <tile gid="129"/>
   <tile gid="129"/>
   <tile gid="129"/>
   <tile gid="129"/>
   <tile gid="129"/>
   <tile gid="129"/>
   <tile gid="129"/>
   <tile gid="129"/>
   <tile gid="129"/>
   <tile gid="129"/>
   <tile gid="129"/>
   <tile gid="129"/>
   <tile gid="129"/>
   <tile gid="129"/>
   <tile/>
   <tile/>
   <tile/>
   <tile/>
   <tile/>
   <tile/>
   <tile/>
   <tile/>
   <tile/>
   <tile/>
   <tile/>
   <tile/>
   <tile/>
   <tile/>
   <tile/>
   <tile/>
   <tile/>
   <tile/>
   <tile/>
   <tile/>
   <tile/>
   <tile/>
   <tile gid="129"/>
   <tile/>
   <tile gid="129"/>
   <tile gid="129"/>
   <tile gid="129"/>
   <tile gid="129"/>
   <tile gid="129"/>
   <tile gid="129"/>
   <tile gid="129"/>
   <tile/>
   <tile/>
   <tile/>
   <tile/>
   <tile/>
   <tile/>
   <tile/>
   <tile/>
   <tile/>
   <tile/>
   <tile/>
   <tile/>
   <tile/>
   <tile/>
   <tile/>
   <tile/>
   <tile gid="129"/>
   <tile gid="129"/>
   <tile gid="129"/>
   <tile gid="129"/>
   <tile gid="129"/>
   <tile gid="129"/>
   <tile gid="129"/>
   <tile gid="129"/>
   <tile gid="129"/>
   <tile gid="129"/>
   <tile gid="129"/>
   <tile/>
   <tile/>
   <tile/>
   <tile/>
   <tile/>
   <tile/>
   <tile/>
   <tile/>
   <tile/>
   <tile/>
   <tile/>
   <tile/>
   <tile/>
   <tile/>
   <tile/>
   <tile gid="129"/>
   <tile gid="129"/>
   <tile gid="129"/>
   <tile gid="129"/>
   <tile gid="129"/>
   <tile gid="129"/>
   <tile gid="129"/>
   <tile gid="129"/>
   <tile gid="129"/>
   <tile gid="129"/>
   <tile gid="129"/>
   <tile gid="129"/>
   <tile gid="129"/>
   <tile gid="129"/>
   <tile gid="129"/>
   <tile/>
   <tile/>
   <tile/>
   <tile/>
   <tile/>
   <tile/>
   <tile/>
   <tile/>
   <tile/>
   <tile/>
   <tile/>
   <tile/>
   <tile/>
   <tile/>
   <tile/>
   <tile/>
   <tile/>
   <tile/>
   <tile/>
   <tile/>
   <tile/>
   <tile/>
   <tile/>
   <tile/>
   <tile gid="129"/>
   <tile gid="129"/>
   <tile gid="129"/>
   <tile gid="129"/>
   <tile gid="129"/>
   <tile gid="129"/>
   <tile gid="129"/>
   <tile gid="129"/>
   <tile gid="129"/>
   <tile gid="129"/>
   <tile gid="129"/>
   <tile gid="129"/>
   <tile gid="129"/>
   <tile gid="129"/>
   <tile gid="129"/>
   <tile gid="129"/>
   <tile gid="129"/>
   <tile gid="129"/>
   <tile gid="129"/>
   <tile gid="129"/>
   <tile gid="129"/>
   <tile gid="129"/>
   <tile gid="129"/>
   <tile gid="129"/>
   <tile gid="129"/>
   <tile gid="129"/>
   <tile gid="129"/>
   <tile gid="129"/>
   <tile gid="129"/>
   <tile gid="129"/>
   <tile gid="129"/>
   <tile gid="129"/>
   <tile gid="129"/>
   <tile gid="129"/>
   <tile/>
   <tile/>
   <tile/>
   <tile/>
   <tile/>
   <tile/>
   <tile/>
   <tile/>
   <tile/>
   <tile/>
   <tile/>
   <tile/>
   <tile/>
   <tile/>
   <tile/>
   <tile gid="129"/>
   <tile gid="129"/>
   <tile gid="129"/>
   <tile gid="129"/>
   <tile gid="129"/>
   <tile gid="129"/>
   <tile gid="129"/>
   <tile gid="129"/>
   <tile gid="129"/>
   <tile gid="129"/>
   <tile gid="129"/>
   <tile gid="129"/>
   <tile gid="129"/>
   <tile gid="129"/>
   <tile gid="129"/>
   <tile/>
   <tile/>
   <tile/>
   <tile/>
   <tile/>
   <tile/>
   <tile/>
   <tile/>
   <tile/>
   <tile/>
   <tile/>
   <tile/>
   <tile/>
   <tile/>
   <tile/>
   <tile/>
   <tile/>
   <tile/>
   <tile/>
   <tile/>
   <tile/>
   <tile/>
   <tile/>
   <tile/>
   <tile gid="129"/>
   <tile gid="129"/>
   <tile gid="129"/>
   <tile gid="129"/>
   <tile gid="129"/>
   <tile gid="129"/>
   <tile gid="129"/>
   <tile gid="129"/>
   <tile gid="129"/>
   <tile gid="129"/>
   <tile gid="129"/>
   <tile gid="129"/>
   <tile gid="129"/>
   <tile gid="129"/>
   <tile gid="129"/>
   <tile gid="129"/>
   <tile gid="129"/>
   <tile gid="129"/>
   <tile gid="129"/>
   <tile gid="129"/>
   <tile gid="129"/>
   <tile gid="129"/>
   <tile gid="129"/>
   <tile gid="129"/>
   <tile gid="129"/>
   <tile gid="129"/>
   <tile gid="129"/>
   <tile gid="129"/>
   <tile gid="129"/>
   <tile gid="129"/>
   <tile gid="129"/>
   <tile gid="129"/>
   <tile gid="129"/>
   <tile gid="129"/>
   <tile/>
   <tile/>
   <tile/>
   <tile/>
   <tile/>
   <tile/>
   <tile/>
   <tile/>
   <tile/>
   <tile/>
   <tile/>
   <tile/>
   <tile/>
   <tile/>
   <tile/>
   <tile gid="129"/>
   <tile gid="129"/>
   <tile gid="129"/>
   <tile gid="129"/>
   <tile gid="129"/>
   <tile gid="129"/>
   <tile gid="129"/>
   <tile gid="129"/>
   <tile gid="129"/>
   <tile gid="129"/>
   <tile gid="129"/>
   <tile gid="129"/>
   <tile gid="129"/>
   <tile gid="129"/>
   <tile gid="129"/>
   <tile gid="129"/>
   <tile gid="129"/>
   <tile gid="129"/>
   <tile gid="129"/>
   <tile gid="129"/>
   <tile gid="129"/>
   <tile gid="129"/>
   <tile gid="129"/>
   <tile gid="129"/>
   <tile gid="129"/>
   <tile gid="129"/>
   <tile gid="129"/>
   <tile gid="129"/>
   <tile gid="129"/>
   <tile gid="129"/>
   <tile gid="129"/>
   <tile gid="129"/>
   <tile gid="129"/>
   <tile gid="129"/>
   <tile gid="129"/>
   <tile gid="129"/>
   <tile gid="129"/>
   <tile gid="129"/>
   <tile gid="129"/>
   <tile gid="129"/>
   <tile gid="129"/>
   <tile gid="129"/>
   <tile gid="129"/>
   <tile gid="129"/>
   <tile gid="129"/>
   <tile gid="129"/>
   <tile gid="129"/>
   <tile gid="129"/>
   <tile gid="129"/>
   <tile gid="129"/>
   <tile gid="129"/>
   <tile gid="129"/>
   <tile gid="129"/>
   <tile gid="129"/>
   <tile gid="129"/>
   <tile gid="129"/>
   <tile gid="129"/>
   <tile gid="129"/>
   <tile gid="129"/>
   <tile gid="129"/>
   <tile gid="129"/>
   <tile gid="129"/>
   <tile gid="129"/>
   <tile gid="129"/>
   <tile gid="129"/>
   <tile gid="129"/>
   <tile gid="129"/>
   <tile gid="129"/>
   <tile gid="129"/>
   <tile gid="129"/>
   <tile gid="129"/>
   <tile gid="129"/>
   <tile gid="129"/>
   <tile/>
   <tile/>
   <tile/>
   <tile/>
   <tile/>
   <tile/>
   <tile/>
   <tile/>
   <tile/>
   <tile/>
   <tile/>
   <tile/>
   <tile/>
   <tile/>
   <tile/>
   <tile gid="129"/>
   <tile gid="129"/>
   <tile gid="129"/>
   <tile gid="129"/>
   <tile gid="129"/>
   <tile gid="129"/>
   <tile gid="129"/>
   <tile gid="129"/>
   <tile gid="129"/>
   <tile gid="129"/>
   <tile gid="129"/>
   <tile gid="129"/>
   <tile gid="129"/>
   <tile gid="129"/>
   <tile gid="129"/>
   <tile gid="129"/>
   <tile gid="129"/>
   <tile gid="129"/>
   <tile gid="129"/>
   <tile gid="129"/>
   <tile gid="129"/>
   <tile gid="129"/>
   <tile gid="129"/>
   <tile gid="129"/>
   <tile gid="129"/>
   <tile gid="129"/>
   <tile gid="129"/>
   <tile gid="129"/>
   <tile gid="129"/>
   <tile gid="129"/>
   <tile gid="129"/>
   <tile gid="129"/>
   <tile gid="129"/>
   <tile gid="129"/>
   <tile gid="129"/>
   <tile gid="129"/>
   <tile gid="129"/>
   <tile gid="129"/>
   <tile gid="129"/>
   <tile gid="129"/>
   <tile gid="129"/>
   <tile gid="129"/>
   <tile gid="129"/>
   <tile gid="129"/>
   <tile gid="129"/>
   <tile gid="129"/>
   <tile gid="129"/>
   <tile gid="129"/>
   <tile gid="129"/>
   <tile gid="129"/>
   <tile gid="129"/>
   <tile gid="129"/>
   <tile gid="129"/>
   <tile gid="129"/>
   <tile gid="129"/>
   <tile gid="129"/>
   <tile gid="129"/>
   <tile gid="129"/>
   <tile gid="129"/>
   <tile gid="129"/>
   <tile gid="129"/>
   <tile gid="129"/>
   <tile gid="129"/>
   <tile gid="129"/>
   <tile gid="129"/>
   <tile gid="129"/>
   <tile gid="129"/>
   <tile gid="129"/>
   <tile gid="129"/>
   <tile gid="129"/>
   <tile gid="129"/>
   <tile gid="129"/>
   <tile gid="129"/>
   <tile/>
   <tile/>
   <tile/>
   <tile/>
   <tile/>
   <tile/>
   <tile/>
   <tile/>
   <tile/>
   <tile/>
   <tile/>
   <tile/>
   <tile/>
   <tile/>
   <tile/>
   <tile gid="129"/>
   <tile gid="129"/>
   <tile gid="129"/>
   <tile gid="129"/>
   <tile gid="129"/>
   <tile gid="129"/>
  </data>
 </layer>
 <layer id="32" name="AirNavLayer" width="88" height="19" visible="0">
  <properties>
   <property name="Air" type="bool" value="true"/>
   <property name="Navigation" type="bool" value="true"/>
  </properties>
  <data>
   <tile gid="129"/>
   <tile gid="129"/>
   <tile gid="129"/>
   <tile gid="129"/>
   <tile gid="129"/>
   <tile gid="129"/>
   <tile gid="129"/>
   <tile gid="129"/>
   <tile gid="129"/>
   <tile/>
   <tile/>
   <tile/>
   <tile/>
   <tile gid="129"/>
   <tile gid="129"/>
   <tile gid="129"/>
   <tile gid="129"/>
   <tile gid="129"/>
   <tile gid="129"/>
   <tile gid="129"/>
   <tile gid="129"/>
   <tile gid="129"/>
   <tile gid="129"/>
   <tile gid="129"/>
   <tile gid="129"/>
   <tile gid="129"/>
   <tile gid="129"/>
   <tile gid="129"/>
   <tile gid="129"/>
   <tile gid="129"/>
   <tile gid="129"/>
   <tile gid="129"/>
   <tile gid="129"/>
   <tile gid="129"/>
   <tile gid="129"/>
   <tile gid="129"/>
   <tile gid="129"/>
   <tile gid="129"/>
   <tile gid="129"/>
   <tile gid="129"/>
   <tile gid="129"/>
   <tile gid="129"/>
   <tile gid="129"/>
   <tile gid="129"/>
   <tile gid="129"/>
   <tile gid="129"/>
   <tile gid="129"/>
   <tile gid="129"/>
   <tile gid="129"/>
   <tile gid="129"/>
   <tile gid="129"/>
   <tile gid="129"/>
   <tile gid="129"/>
   <tile gid="129"/>
   <tile gid="129"/>
   <tile gid="129"/>
   <tile gid="129"/>
   <tile gid="129"/>
   <tile gid="129"/>
   <tile gid="129"/>
   <tile gid="129"/>
   <tile gid="129"/>
   <tile gid="129"/>
   <tile gid="129"/>
   <tile gid="129"/>
   <tile gid="129"/>
   <tile gid="129"/>
   <tile gid="129"/>
   <tile gid="129"/>
   <tile gid="129"/>
   <tile gid="129"/>
   <tile/>
   <tile/>
   <tile/>
   <tile/>
   <tile/>
   <tile/>
   <tile/>
   <tile/>
   <tile/>
   <tile/>
   <tile/>
   <tile/>
   <tile/>
   <tile/>
   <tile/>
   <tile/>
   <tile/>
   <tile gid="129"/>
   <tile gid="129"/>
   <tile gid="129"/>
   <tile gid="129"/>
   <tile gid="129"/>
   <tile gid="129"/>
   <tile gid="129"/>
   <tile gid="129"/>
   <tile gid="129"/>
   <tile gid="129"/>
   <tile/>
   <tile/>
   <tile/>
   <tile gid="129"/>
   <tile gid="129"/>
   <tile gid="129"/>
   <tile gid="129"/>
   <tile gid="129"/>
   <tile gid="129"/>
   <tile gid="129"/>
   <tile gid="129"/>
   <tile gid="129"/>
   <tile gid="129"/>
   <tile gid="129"/>
   <tile gid="129"/>
   <tile gid="129"/>
   <tile gid="129"/>
   <tile gid="129"/>
   <tile gid="129"/>
   <tile gid="129"/>
   <tile gid="129"/>
   <tile gid="129"/>
   <tile gid="129"/>
   <tile gid="129"/>
   <tile gid="129"/>
   <tile gid="129"/>
   <tile gid="129"/>
   <tile gid="129"/>
   <tile gid="129"/>
   <tile gid="129"/>
   <tile gid="129"/>
   <tile gid="129"/>
   <tile gid="129"/>
   <tile gid="129"/>
   <tile gid="129"/>
   <tile gid="129"/>
   <tile gid="129"/>
   <tile gid="129"/>
   <tile gid="129"/>
   <tile gid="129"/>
   <tile gid="129"/>
   <tile gid="129"/>
   <tile gid="129"/>
   <tile gid="129"/>
   <tile gid="129"/>
   <tile gid="129"/>
   <tile gid="129"/>
   <tile gid="129"/>
   <tile gid="129"/>
   <tile gid="129"/>
   <tile gid="129"/>
   <tile gid="129"/>
   <tile gid="129"/>
   <tile gid="129"/>
   <tile gid="129"/>
   <tile gid="129"/>
   <tile gid="129"/>
   <tile gid="129"/>
   <tile gid="129"/>
   <tile gid="129"/>
   <tile gid="129"/>
   <tile/>
   <tile/>
   <tile/>
   <tile/>
   <tile/>
   <tile/>
   <tile/>
   <tile/>
   <tile/>
   <tile/>
   <tile/>
   <tile/>
   <tile/>
   <tile/>
   <tile/>
   <tile/>
   <tile/>
   <tile gid="129"/>
   <tile gid="129"/>
   <tile gid="129"/>
   <tile gid="129"/>
   <tile gid="129"/>
   <tile gid="129"/>
   <tile gid="129"/>
   <tile gid="129"/>
   <tile gid="129"/>
   <tile gid="129"/>
   <tile/>
   <tile/>
   <tile/>
   <tile/>
   <tile/>
   <tile/>
   <tile/>
   <tile/>
   <tile/>
   <tile/>
   <tile/>
   <tile/>
   <tile/>
   <tile/>
   <tile/>
   <tile/>
   <tile/>
   <tile/>
   <tile/>
   <tile/>
   <tile/>
   <tile/>
   <tile/>
   <tile/>
   <tile/>
   <tile/>
   <tile/>
   <tile/>
   <tile/>
   <tile/>
   <tile/>
   <tile/>
   <tile/>
   <tile/>
   <tile/>
   <tile/>
   <tile/>
   <tile/>
   <tile/>
   <tile/>
   <tile/>
   <tile/>
   <tile/>
   <tile/>
   <tile/>
   <tile/>
   <tile/>
   <tile/>
   <tile/>
   <tile/>
   <tile/>
   <tile/>
   <tile/>
   <tile/>
   <tile/>
   <tile/>
   <tile/>
   <tile/>
   <tile/>
   <tile/>
   <tile/>
   <tile/>
   <tile/>
   <tile/>
   <tile/>
   <tile/>
   <tile/>
   <tile/>
   <tile/>
   <tile/>
   <tile/>
   <tile/>
   <tile/>
   <tile/>
   <tile/>
   <tile/>
   <tile/>
   <tile/>
   <tile/>
   <tile/>
   <tile/>
   <tile/>
   <tile/>
   <tile/>
   <tile/>
   <tile/>
   <tile/>
   <tile/>
   <tile/>
   <tile/>
   <tile/>
   <tile/>
   <tile/>
   <tile/>
   <tile/>
   <tile/>
   <tile/>
   <tile/>
   <tile/>
   <tile/>
   <tile/>
   <tile/>
   <tile/>
   <tile/>
   <tile/>
   <tile/>
   <tile/>
   <tile/>
   <tile/>
   <tile/>
   <tile/>
   <tile/>
   <tile/>
   <tile/>
   <tile/>
   <tile/>
   <tile/>
   <tile/>
   <tile/>
   <tile/>
   <tile/>
   <tile/>
   <tile/>
   <tile/>
   <tile/>
   <tile/>
   <tile/>
   <tile/>
   <tile/>
   <tile/>
   <tile/>
   <tile/>
   <tile/>
   <tile/>
   <tile/>
   <tile/>
   <tile/>
   <tile/>
   <tile/>
   <tile/>
   <tile/>
   <tile/>
   <tile/>
   <tile/>
   <tile/>
   <tile/>
   <tile/>
   <tile/>
   <tile/>
   <tile/>
   <tile/>
   <tile/>
   <tile/>
   <tile/>
   <tile/>
   <tile/>
   <tile/>
   <tile/>
   <tile/>
   <tile/>
   <tile/>
   <tile/>
   <tile/>
   <tile/>
   <tile/>
   <tile/>
   <tile/>
   <tile/>
   <tile/>
   <tile/>
   <tile/>
   <tile/>
   <tile/>
   <tile/>
   <tile/>
   <tile/>
   <tile gid="129"/>
   <tile gid="129"/>
   <tile gid="129"/>
   <tile/>
   <tile/>
   <tile/>
   <tile/>
   <tile/>
   <tile/>
   <tile/>
   <tile/>
   <tile/>
   <tile/>
   <tile/>
   <tile/>
   <tile/>
   <tile/>
   <tile/>
   <tile/>
   <tile/>
   <tile/>
   <tile/>
   <tile/>
   <tile/>
   <tile/>
   <tile/>
   <tile/>
   <tile/>
   <tile/>
   <tile/>
   <tile/>
   <tile/>
   <tile/>
   <tile/>
   <tile/>
   <tile/>
   <tile/>
   <tile/>
   <tile/>
   <tile/>
   <tile/>
   <tile/>
   <tile/>
   <tile/>
   <tile/>
   <tile/>
   <tile/>
   <tile/>
   <tile/>
   <tile/>
   <tile/>
   <tile/>
   <tile/>
   <tile/>
   <tile/>
   <tile/>
   <tile/>
   <tile/>
   <tile/>
   <tile/>
   <tile/>
   <tile/>
   <tile/>
   <tile/>
   <tile/>
   <tile gid="129"/>
   <tile gid="129"/>
   <tile gid="129"/>
   <tile/>
   <tile/>
   <tile/>
   <tile/>
   <tile/>
   <tile/>
   <tile/>
   <tile/>
   <tile/>
   <tile/>
   <tile/>
   <tile/>
   <tile/>
   <tile/>
   <tile/>
   <tile/>
   <tile/>
   <tile/>
   <tile/>
   <tile/>
   <tile gid="129"/>
   <tile gid="129"/>
   <tile gid="129"/>
   <tile/>
   <tile/>
   <tile/>
   <tile/>
   <tile/>
   <tile/>
   <tile/>
   <tile/>
   <tile/>
   <tile/>
   <tile/>
   <tile/>
   <tile/>
   <tile/>
   <tile/>
   <tile/>
   <tile/>
   <tile/>
   <tile/>
   <tile gid="129"/>
   <tile gid="129"/>
   <tile gid="129"/>
   <tile gid="129"/>
   <tile gid="129"/>
   <tile gid="129"/>
   <tile gid="129"/>
   <tile gid="129"/>
   <tile gid="129"/>
   <tile gid="129"/>
   <tile gid="129"/>
   <tile gid="129"/>
   <tile gid="129"/>
   <tile gid="129"/>
   <tile gid="129"/>
   <tile gid="129"/>
   <tile gid="129"/>
   <tile gid="129"/>
   <tile gid="129"/>
   <tile gid="129"/>
   <tile gid="129"/>
   <tile gid="129"/>
   <tile gid="129"/>
   <tile gid="129"/>
   <tile gid="129"/>
   <tile gid="129"/>
   <tile gid="129"/>
   <tile gid="129"/>
   <tile gid="129"/>
   <tile gid="129"/>
   <tile gid="129"/>
   <tile gid="129"/>
   <tile gid="129"/>
   <tile gid="129"/>
   <tile gid="129"/>
   <tile gid="129"/>
   <tile gid="129"/>
   <tile gid="129"/>
   <tile gid="129"/>
   <tile gid="129"/>
   <tile gid="129"/>
   <tile/>
   <tile/>
   <tile/>
   <tile/>
   <tile/>
   <tile/>
   <tile/>
   <tile/>
   <tile gid="129"/>
   <tile gid="129"/>
   <tile gid="129"/>
   <tile/>
   <tile/>
   <tile/>
   <tile/>
   <tile/>
   <tile/>
   <tile/>
   <tile/>
   <tile/>
   <tile/>
   <tile/>
   <tile/>
   <tile/>
   <tile/>
   <tile/>
   <tile/>
   <tile/>
   <tile/>
   <tile/>
   <tile gid="129"/>
   <tile gid="129"/>
   <tile gid="129"/>
   <tile/>
   <tile/>
   <tile/>
   <tile/>
   <tile/>
   <tile/>
   <tile/>
   <tile/>
   <tile/>
   <tile/>
   <tile gid="129"/>
   <tile/>
   <tile/>
   <tile/>
   <tile gid="129"/>
   <tile gid="129"/>
   <tile gid="129"/>
   <tile gid="129"/>
   <tile gid="129"/>
   <tile gid="129"/>
   <tile gid="129"/>
   <tile gid="129"/>
   <tile gid="129"/>
   <tile gid="129"/>
   <tile gid="129"/>
   <tile gid="129"/>
   <tile gid="129"/>
   <tile gid="129"/>
   <tile gid="129"/>
   <tile gid="129"/>
   <tile gid="129"/>
   <tile gid="129"/>
   <tile gid="129"/>
   <tile gid="129"/>
   <tile gid="129"/>
   <tile gid="129"/>
   <tile gid="129"/>
   <tile gid="129"/>
   <tile gid="129"/>
   <tile gid="129"/>
   <tile gid="129"/>
   <tile gid="129"/>
   <tile gid="129"/>
   <tile gid="129"/>
   <tile gid="129"/>
   <tile gid="129"/>
   <tile gid="129"/>
   <tile gid="129"/>
   <tile gid="129"/>
   <tile gid="129"/>
   <tile gid="129"/>
   <tile gid="129"/>
   <tile gid="129"/>
   <tile gid="129"/>
   <tile gid="129"/>
   <tile/>
   <tile/>
   <tile/>
   <tile/>
   <tile/>
   <tile/>
   <tile/>
   <tile/>
   <tile gid="129"/>
   <tile gid="129"/>
   <tile gid="129"/>
   <tile/>
   <tile/>
   <tile/>
   <tile/>
   <tile/>
   <tile/>
   <tile/>
   <tile/>
   <tile/>
   <tile/>
   <tile/>
   <tile/>
   <tile/>
   <tile/>
   <tile/>
   <tile/>
   <tile/>
   <tile/>
   <tile/>
   <tile gid="129"/>
   <tile gid="129"/>
   <tile gid="129"/>
   <tile/>
   <tile/>
   <tile/>
   <tile/>
   <tile/>
   <tile/>
   <tile/>
   <tile/>
   <tile/>
   <tile/>
   <tile/>
   <tile/>
   <tile/>
   <tile/>
   <tile/>
   <tile/>
   <tile/>
   <tile/>
   <tile/>
   <tile/>
   <tile/>
   <tile/>
   <tile/>
   <tile/>
   <tile/>
   <tile/>
   <tile/>
   <tile/>
   <tile/>
   <tile/>
   <tile/>
   <tile/>
   <tile/>
   <tile/>
   <tile/>
   <tile/>
   <tile/>
   <tile/>
   <tile/>
   <tile/>
   <tile/>
   <tile/>
   <tile/>
   <tile/>
   <tile/>
   <tile/>
   <tile/>
   <tile/>
   <tile/>
   <tile/>
   <tile/>
   <tile/>
   <tile/>
   <tile/>
   <tile/>
   <tile/>
   <tile/>
   <tile/>
   <tile/>
   <tile/>
   <tile/>
   <tile/>
   <tile/>
   <tile/>
   <tile/>
   <tile/>
   <tile/>
   <tile/>
   <tile/>
   <tile/>
   <tile/>
   <tile/>
   <tile/>
   <tile/>
   <tile/>
   <tile/>
   <tile/>
   <tile/>
   <tile/>
   <tile/>
   <tile/>
   <tile/>
   <tile/>
   <tile/>
   <tile/>
   <tile/>
   <tile/>
   <tile/>
   <tile/>
   <tile/>
   <tile/>
   <tile gid="129"/>
   <tile gid="129"/>
   <tile gid="129"/>
   <tile/>
   <tile/>
   <tile/>
   <tile/>
   <tile/>
   <tile/>
   <tile/>
   <tile/>
   <tile/>
   <tile/>
   <tile/>
   <tile/>
   <tile/>
   <tile/>
   <tile/>
   <tile/>
   <tile/>
   <tile/>
   <tile/>
   <tile/>
   <tile/>
   <tile/>
   <tile/>
   <tile/>
   <tile/>
   <tile/>
   <tile/>
   <tile/>
   <tile/>
   <tile/>
   <tile/>
   <tile/>
   <tile/>
   <tile/>
   <tile/>
   <tile/>
   <tile/>
   <tile/>
   <tile/>
   <tile/>
   <tile/>
   <tile/>
   <tile/>
   <tile/>
   <tile/>
   <tile/>
   <tile/>
   <tile/>
   <tile/>
   <tile/>
   <tile/>
   <tile/>
   <tile/>
   <tile/>
   <tile/>
   <tile/>
   <tile/>
   <tile/>
   <tile/>
   <tile/>
   <tile/>
   <tile/>
   <tile gid="129"/>
   <tile gid="129"/>
   <tile/>
   <tile/>
   <tile/>
   <tile/>
   <tile/>
   <tile/>
   <tile/>
   <tile/>
   <tile/>
   <tile/>
   <tile/>
   <tile/>
   <tile/>
   <tile/>
   <tile/>
   <tile/>
   <tile/>
   <tile/>
   <tile/>
   <tile/>
   <tile/>
   <tile gid="129"/>
   <tile gid="129"/>
   <tile gid="129"/>
   <tile/>
   <tile/>
   <tile/>
   <tile/>
   <tile/>
   <tile/>
   <tile/>
   <tile/>
   <tile/>
   <tile/>
   <tile/>
   <tile/>
   <tile/>
   <tile/>
   <tile/>
   <tile/>
   <tile/>
   <tile/>
   <tile/>
   <tile/>
   <tile/>
   <tile/>
   <tile/>
   <tile/>
   <tile/>
   <tile/>
   <tile/>
   <tile/>
   <tile/>
   <tile/>
   <tile/>
   <tile/>
   <tile/>
   <tile/>
   <tile/>
   <tile/>
   <tile/>
   <tile/>
   <tile/>
   <tile/>
   <tile/>
   <tile/>
   <tile/>
   <tile/>
   <tile/>
   <tile/>
   <tile/>
   <tile/>
   <tile/>
   <tile/>
   <tile/>
   <tile/>
   <tile/>
   <tile/>
   <tile/>
   <tile/>
   <tile/>
   <tile/>
   <tile/>
   <tile/>
   <tile/>
   <tile/>
   <tile gid="129"/>
   <tile gid="129"/>
   <tile/>
   <tile/>
   <tile/>
   <tile/>
   <tile/>
   <tile/>
   <tile/>
   <tile/>
   <tile/>
   <tile/>
   <tile/>
   <tile/>
   <tile/>
   <tile/>
   <tile/>
   <tile/>
   <tile gid="129"/>
   <tile gid="129"/>
   <tile gid="129"/>
   <tile/>
   <tile/>
   <tile/>
   <tile/>
   <tile/>
   <tile/>
   <tile/>
   <tile/>
   <tile gid="129"/>
   <tile/>
   <tile/>
   <tile/>
   <tile/>
   <tile/>
   <tile/>
   <tile/>
   <tile/>
   <tile/>
   <tile/>
   <tile/>
   <tile/>
   <tile/>
   <tile/>
   <tile/>
   <tile/>
   <tile/>
   <tile/>
   <tile/>
   <tile/>
   <tile/>
   <tile/>
   <tile/>
   <tile/>
   <tile/>
   <tile/>
   <tile/>
   <tile/>
   <tile/>
   <tile/>
   <tile/>
   <tile/>
   <tile/>
   <tile/>
   <tile/>
   <tile/>
   <tile/>
   <tile/>
   <tile/>
   <tile/>
   <tile/>
   <tile/>
   <tile/>
   <tile/>
   <tile/>
   <tile/>
   <tile/>
   <tile/>
   <tile/>
   <tile/>
   <tile/>
   <tile/>
   <tile/>
   <tile/>
   <tile/>
   <tile/>
   <tile gid="129"/>
   <tile gid="129"/>
   <tile gid="129"/>
   <tile gid="129"/>
   <tile/>
   <tile/>
   <tile/>
   <tile/>
   <tile/>
   <tile/>
   <tile/>
   <tile/>
   <tile/>
   <tile/>
   <tile/>
   <tile/>
   <tile/>
   <tile/>
   <tile/>
   <tile/>
   <tile gid="129"/>
   <tile gid="129"/>
   <tile gid="129"/>
   <tile/>
   <tile/>
   <tile/>
   <tile/>
   <tile/>
   <tile/>
   <tile/>
   <tile/>
   <tile gid="129"/>
   <tile/>
   <tile/>
   <tile/>
   <tile/>
   <tile/>
   <tile/>
   <tile/>
   <tile/>
   <tile/>
   <tile/>
   <tile/>
   <tile/>
   <tile/>
   <tile/>
   <tile/>
   <tile/>
   <tile/>
   <tile/>
   <tile/>
   <tile/>
   <tile/>
   <tile/>
   <tile/>
   <tile/>
   <tile/>
   <tile/>
   <tile/>
   <tile/>
   <tile/>
   <tile/>
   <tile/>
   <tile/>
   <tile/>
   <tile/>
   <tile/>
   <tile/>
   <tile/>
   <tile/>
   <tile/>
   <tile/>
   <tile/>
   <tile/>
   <tile/>
   <tile/>
   <tile/>
   <tile/>
   <tile/>
   <tile/>
   <tile/>
   <tile/>
   <tile/>
   <tile/>
   <tile/>
   <tile/>
   <tile/>
   <tile/>
   <tile gid="129"/>
   <tile gid="129"/>
   <tile gid="129"/>
   <tile gid="129"/>
   <tile/>
   <tile/>
   <tile/>
   <tile/>
   <tile/>
   <tile/>
   <tile/>
   <tile/>
   <tile/>
   <tile/>
   <tile/>
   <tile gid="129"/>
   <tile gid="129"/>
   <tile/>
   <tile/>
   <tile/>
   <tile gid="129"/>
   <tile gid="129"/>
   <tile gid="129"/>
   <tile/>
   <tile/>
   <tile/>
   <tile/>
   <tile/>
   <tile/>
   <tile/>
   <tile/>
   <tile/>
   <tile/>
   <tile/>
   <tile/>
   <tile gid="129"/>
   <tile/>
   <tile/>
   <tile/>
   <tile/>
   <tile/>
   <tile/>
   <tile/>
   <tile/>
   <tile/>
   <tile/>
   <tile/>
   <tile/>
   <tile/>
   <tile/>
   <tile/>
   <tile/>
   <tile/>
   <tile/>
   <tile/>
   <tile/>
   <tile/>
   <tile/>
   <tile/>
   <tile/>
   <tile/>
   <tile/>
   <tile/>
   <tile/>
   <tile/>
   <tile/>
   <tile/>
   <tile/>
   <tile/>
   <tile/>
   <tile/>
   <tile/>
   <tile/>
   <tile/>
   <tile/>
   <tile/>
   <tile/>
   <tile/>
   <tile/>
   <tile/>
   <tile/>
   <tile/>
   <tile/>
   <tile/>
   <tile/>
   <tile/>
   <tile gid="129"/>
   <tile gid="129"/>
   <tile gid="129"/>
   <tile gid="129"/>
   <tile gid="129"/>
   <tile gid="129"/>
   <tile/>
   <tile/>
   <tile/>
   <tile/>
   <tile/>
   <tile/>
   <tile/>
   <tile/>
   <tile/>
   <tile/>
   <tile/>
   <tile gid="129"/>
   <tile gid="129"/>
   <tile/>
   <tile/>
   <tile/>
   <tile/>
   <tile/>
   <tile/>
   <tile/>
   <tile/>
   <tile/>
   <tile/>
   <tile/>
   <tile/>
   <tile/>
   <tile/>
   <tile/>
   <tile/>
   <tile/>
   <tile/>
   <tile gid="129"/>
   <tile/>
   <tile/>
   <tile/>
   <tile/>
   <tile/>
   <tile/>
   <tile/>
   <tile/>
   <tile/>
   <tile/>
   <tile/>
   <tile/>
   <tile/>
   <tile/>
   <tile/>
   <tile/>
   <tile/>
   <tile/>
   <tile/>
   <tile/>
   <tile/>
   <tile/>
   <tile/>
   <tile/>
   <tile/>
   <tile/>
   <tile/>
   <tile/>
   <tile/>
   <tile/>
   <tile/>
   <tile/>
   <tile/>
   <tile/>
   <tile/>
   <tile/>
   <tile/>
   <tile/>
   <tile/>
   <tile/>
   <tile/>
   <tile/>
   <tile/>
   <tile/>
   <tile/>
   <tile/>
   <tile/>
   <tile/>
   <tile/>
   <tile/>
   <tile gid="129"/>
   <tile gid="129"/>
   <tile gid="129"/>
   <tile gid="129"/>
   <tile gid="129"/>
   <tile gid="129"/>
   <tile gid="129"/>
   <tile gid="129"/>
   <tile gid="129"/>
   <tile gid="129"/>
   <tile gid="129"/>
   <tile gid="129"/>
   <tile gid="129"/>
   <tile gid="129"/>
   <tile gid="129"/>
   <tile/>
   <tile/>
   <tile/>
   <tile/>
   <tile/>
   <tile/>
   <tile/>
   <tile/>
   <tile/>
   <tile/>
   <tile/>
   <tile/>
   <tile/>
   <tile/>
   <tile/>
   <tile/>
   <tile/>
   <tile/>
   <tile/>
   <tile/>
   <tile/>
   <tile/>
   <tile gid="129"/>
   <tile/>
   <tile/>
   <tile gid="129"/>
   <tile gid="129"/>
   <tile gid="129"/>
   <tile gid="129"/>
   <tile gid="129"/>
   <tile gid="129"/>
   <tile/>
   <tile/>
   <tile/>
   <tile/>
   <tile/>
   <tile/>
   <tile/>
   <tile/>
   <tile/>
   <tile/>
   <tile/>
   <tile/>
   <tile/>
   <tile/>
   <tile/>
   <tile/>
   <tile gid="129"/>
   <tile gid="129"/>
   <tile gid="129"/>
   <tile gid="129"/>
   <tile gid="129"/>
   <tile gid="129"/>
   <tile gid="129"/>
   <tile gid="129"/>
   <tile gid="129"/>
   <tile gid="129"/>
   <tile/>
   <tile/>
   <tile/>
   <tile/>
   <tile/>
   <tile/>
   <tile/>
   <tile/>
   <tile/>
   <tile/>
   <tile/>
   <tile/>
   <tile/>
   <tile/>
   <tile/>
   <tile/>
   <tile gid="129"/>
   <tile gid="129"/>
   <tile gid="129"/>
   <tile gid="129"/>
   <tile gid="129"/>
   <tile gid="129"/>
   <tile gid="129"/>
   <tile gid="129"/>
   <tile gid="129"/>
   <tile gid="129"/>
   <tile gid="129"/>
   <tile gid="129"/>
   <tile gid="129"/>
   <tile gid="129"/>
   <tile gid="129"/>
   <tile/>
   <tile/>
   <tile/>
   <tile/>
   <tile/>
   <tile/>
   <tile/>
   <tile/>
   <tile/>
   <tile/>
   <tile/>
   <tile/>
   <tile/>
   <tile/>
   <tile/>
   <tile/>
   <tile/>
   <tile/>
   <tile/>
   <tile/>
   <tile/>
   <tile/>
   <tile/>
   <tile/>
   <tile/>
   <tile gid="129"/>
   <tile gid="129"/>
   <tile gid="129"/>
   <tile gid="129"/>
   <tile gid="129"/>
   <tile gid="129"/>
   <tile gid="129"/>
   <tile gid="129"/>
   <tile gid="129"/>
   <tile gid="129"/>
   <tile gid="129"/>
   <tile gid="129"/>
   <tile gid="129"/>
   <tile gid="129"/>
   <tile gid="129"/>
   <tile gid="129"/>
   <tile gid="129"/>
   <tile gid="129"/>
   <tile gid="129"/>
   <tile gid="129"/>
   <tile gid="129"/>
   <tile gid="129"/>
   <tile gid="129"/>
   <tile gid="129"/>
   <tile gid="129"/>
   <tile gid="129"/>
   <tile gid="129"/>
   <tile gid="129"/>
   <tile gid="129"/>
   <tile gid="129"/>
   <tile gid="129"/>
   <tile gid="129"/>
   <tile/>
   <tile/>
   <tile/>
   <tile/>
   <tile/>
   <tile/>
   <tile/>
   <tile/>
   <tile/>
   <tile/>
   <tile/>
   <tile/>
   <tile/>
   <tile/>
   <tile/>
   <tile/>
   <tile gid="129"/>
   <tile gid="129"/>
   <tile gid="129"/>
   <tile gid="129"/>
   <tile gid="129"/>
   <tile gid="129"/>
   <tile gid="129"/>
   <tile gid="129"/>
   <tile gid="129"/>
   <tile gid="129"/>
   <tile gid="129"/>
   <tile gid="129"/>
   <tile gid="129"/>
   <tile gid="129"/>
   <tile gid="129"/>
   <tile/>
   <tile/>
   <tile/>
   <tile/>
   <tile/>
   <tile/>
   <tile/>
   <tile/>
   <tile/>
   <tile/>
   <tile/>
   <tile/>
   <tile/>
   <tile/>
   <tile/>
   <tile/>
   <tile/>
   <tile/>
   <tile/>
   <tile/>
   <tile/>
   <tile/>
   <tile/>
   <tile/>
   <tile/>
   <tile gid="129"/>
   <tile gid="129"/>
   <tile gid="129"/>
   <tile gid="129"/>
   <tile gid="129"/>
   <tile gid="129"/>
   <tile gid="129"/>
   <tile gid="129"/>
   <tile gid="129"/>
   <tile gid="129"/>
   <tile gid="129"/>
   <tile gid="129"/>
   <tile gid="129"/>
   <tile gid="129"/>
   <tile gid="129"/>
   <tile gid="129"/>
   <tile gid="129"/>
   <tile gid="129"/>
   <tile gid="129"/>
   <tile gid="129"/>
   <tile gid="129"/>
   <tile gid="129"/>
   <tile gid="129"/>
   <tile gid="129"/>
   <tile gid="129"/>
   <tile gid="129"/>
   <tile gid="129"/>
   <tile gid="129"/>
   <tile gid="129"/>
   <tile gid="129"/>
   <tile gid="129"/>
   <tile gid="129"/>
   <tile/>
   <tile/>
   <tile/>
   <tile/>
   <tile/>
   <tile/>
   <tile/>
   <tile/>
   <tile/>
   <tile/>
   <tile/>
   <tile/>
   <tile/>
   <tile/>
   <tile/>
   <tile/>
   <tile gid="129"/>
   <tile gid="129"/>
   <tile gid="129"/>
   <tile gid="129"/>
   <tile gid="129"/>
   <tile gid="129"/>
   <tile gid="129"/>
   <tile gid="129"/>
   <tile gid="129"/>
   <tile gid="129"/>
   <tile gid="129"/>
   <tile gid="129"/>
   <tile gid="129"/>
   <tile gid="129"/>
   <tile gid="129"/>
   <tile gid="129"/>
   <tile gid="129"/>
   <tile gid="129"/>
   <tile gid="129"/>
   <tile gid="129"/>
   <tile gid="129"/>
   <tile gid="129"/>
   <tile gid="129"/>
   <tile gid="129"/>
   <tile gid="129"/>
   <tile gid="129"/>
   <tile gid="129"/>
   <tile gid="129"/>
   <tile gid="129"/>
   <tile gid="129"/>
   <tile gid="129"/>
   <tile gid="129"/>
   <tile gid="129"/>
   <tile gid="129"/>
   <tile gid="129"/>
   <tile gid="129"/>
   <tile gid="129"/>
   <tile gid="129"/>
   <tile gid="129"/>
   <tile gid="129"/>
   <tile gid="129"/>
   <tile gid="129"/>
   <tile gid="129"/>
   <tile gid="129"/>
   <tile gid="129"/>
   <tile gid="129"/>
   <tile gid="129"/>
   <tile gid="129"/>
   <tile gid="129"/>
   <tile gid="129"/>
   <tile gid="129"/>
   <tile gid="129"/>
   <tile gid="129"/>
   <tile gid="129"/>
   <tile gid="129"/>
   <tile gid="129"/>
   <tile gid="129"/>
   <tile gid="129"/>
   <tile gid="129"/>
   <tile gid="129"/>
   <tile gid="129"/>
   <tile gid="129"/>
   <tile gid="129"/>
   <tile gid="129"/>
   <tile gid="129"/>
   <tile gid="129"/>
   <tile gid="129"/>
   <tile gid="129"/>
   <tile gid="129"/>
   <tile gid="129"/>
   <tile gid="129"/>
   <tile gid="129"/>
   <tile/>
   <tile/>
   <tile/>
   <tile/>
   <tile/>
   <tile/>
   <tile/>
   <tile/>
   <tile/>
   <tile/>
   <tile/>
   <tile/>
   <tile/>
   <tile/>
   <tile/>
   <tile/>
   <tile gid="129"/>
   <tile gid="129"/>
   <tile gid="129"/>
   <tile gid="129"/>
   <tile gid="129"/>
   <tile gid="129"/>
   <tile gid="129"/>
   <tile gid="129"/>
   <tile gid="129"/>
   <tile gid="129"/>
   <tile gid="129"/>
   <tile gid="129"/>
   <tile gid="129"/>
   <tile gid="129"/>
   <tile gid="129"/>
   <tile gid="129"/>
   <tile gid="129"/>
   <tile gid="129"/>
   <tile gid="129"/>
   <tile gid="129"/>
   <tile gid="129"/>
   <tile gid="129"/>
   <tile gid="129"/>
   <tile gid="129"/>
   <tile gid="129"/>
   <tile gid="129"/>
   <tile gid="129"/>
   <tile gid="129"/>
   <tile gid="129"/>
   <tile gid="129"/>
   <tile gid="129"/>
   <tile gid="129"/>
   <tile gid="129"/>
   <tile gid="129"/>
   <tile gid="129"/>
   <tile gid="129"/>
   <tile gid="129"/>
   <tile gid="129"/>
   <tile gid="129"/>
   <tile gid="129"/>
   <tile gid="129"/>
   <tile gid="129"/>
   <tile gid="129"/>
   <tile gid="129"/>
   <tile gid="129"/>
   <tile gid="129"/>
   <tile gid="129"/>
   <tile gid="129"/>
   <tile gid="129"/>
   <tile gid="129"/>
   <tile gid="129"/>
   <tile gid="129"/>
   <tile gid="129"/>
   <tile gid="129"/>
   <tile gid="129"/>
   <tile gid="129"/>
   <tile gid="129"/>
   <tile gid="129"/>
   <tile gid="129"/>
   <tile gid="129"/>
   <tile gid="129"/>
   <tile gid="129"/>
   <tile gid="129"/>
   <tile gid="129"/>
   <tile gid="129"/>
   <tile gid="129"/>
   <tile gid="129"/>
   <tile gid="129"/>
   <tile gid="129"/>
   <tile gid="129"/>
   <tile gid="129"/>
   <tile gid="129"/>
   <tile/>
   <tile/>
   <tile/>
   <tile/>
   <tile/>
   <tile/>
   <tile/>
   <tile/>
   <tile/>
   <tile/>
   <tile/>
   <tile/>
   <tile/>
   <tile/>
   <tile/>
   <tile/>
   <tile gid="129"/>
   <tile gid="129"/>
   <tile gid="129"/>
   <tile gid="129"/>
   <tile gid="129"/>
   <tile gid="129"/>
  </data>
 </layer>
 <objectgroup id="11" name="EntitiesSpawnPoints">
  <object id="526" name="Ninfa" type="Ninfa" x="3584" y="1536">
   <point/>
  </object>
  <object id="535" name="SwordKnight" type="SwordKnight" x="5760.73" y="1604.12">
   <point/>
  </object>
  <object id="542" name="ShieldKnight" type="ShieldKnight" x="6662.06" y="1616.24">
   <point/>
  </object>
  <object id="555" name="SavePoint" type="SavePoint" x="512" y="1664">
   <point/>
  </object>
  <object id="694" name="Player" type="Player" x="10584.6" y="423.394">
   <point/>
  </object>
  <object id="701" name="Ninfa" type="Ninfa" x="1920" y="1536">
   <point/>
  </object>
 </objectgroup>
 <objectgroup id="15" name="PlayerSpawns">
  <properties>
   <property name="PlayerSpawns" type="bool" value="true"/>
  </properties>
  <object id="693" name="Player" type="Player" x="11136" y="896">
   <properties>
    <property name="FromRoom" type="file" value="Forest_01.tmx"/>
   </properties>
   <point/>
  </object>
  <object id="696" name="Player" type="Player" x="1408" y="384">
   <properties>
    <property name="FromRoom" type="file" value="Forest_03.tmx"/>
   </properties>
   <point/>
  </object>
  <object id="698" name="Player" type="Player" x="128" y="1664">
   <properties>
    <property name="FromRoom" type="file" value="Forest_04.tmx"/>
   </properties>
   <point/>
  </object>
 </objectgroup>
</map>
