<?xml version="1.0" encoding="UTF-8"?>
<map version="1.10" tiledversion="1.11.2" orientation="orthogonal" renderorder="right-down" width="45" height="21" tilewidth="128" tileheight="128" infinite="0" nextlayerid="43" nextobjectid="871">
 <properties>
  <property name="Ground" type="bool" value="true"/>
  <property name="Navigation" type="bool" value="true"/>
 </properties>
 <tileset firstgid="1" name="Atlas_Bosque_V2" tilewidth="128" tileheight="128" tilecount="64" columns="8">
  <image source="Forest/Atlas_Forest.png" width="1024" height="1024"/>
  <wangsets>
   <wangset name="MixTierra" type="mixed" tile="-1">
    <wangcolor name="Tierra" color="#ff0000" tile="-1" probability="1"/>
    <wangtile tileid="30" wangid="1,1,1,1,1,1,1,1"/>
    <wangtile tileid="31" wangid="1,1,1,1,1,1,1,1"/>
    <wangtile tileid="36" wangid="1,1,1,1,1,1,1,1"/>
    <wangtile tileid="38" wangid="1,1,1,1,1,1,1,1"/>
    <wangtile tileid="39" wangid="1,1,1,1,1,1,1,1"/>
   </wangset>
  </wangsets>
 </tileset>
 <tileset firstgid="65" name="MapMetadata" tilewidth="128" tileheight="128" tilecount="2" columns="2">
  <image source="Pathfinding/MapMetadata.png" trans="ffffff" width="256" height="128"/>
 </tileset>
 <tileset firstgid="67" name="F_Bosque_V6_01" tilewidth="2304" tileheight="1444" tilecount="1" columns="1">
  <image source="Forest/Fondo_Vigente/06_F_Ninfas/F_Bosque_V6_01.png" width="2304" height="1444"/>
 </tileset>
 <tileset firstgid="68" name="F_Bosque_V6_02" tilewidth="2304" tileheight="1444" tilecount="1" columns="1">
  <image source="Forest/Fondo_Vigente/06_F_Ninfas/F_Bosque_V6_02.png" width="2304" height="1444"/>
 </tileset>
 <tileset firstgid="69" name="F_Bosque_V6_03" tilewidth="2304" tileheight="1444" tilecount="1" columns="1">
  <image source="Forest/Fondo_Vigente/06_F_Ninfas/F_Bosque_V6_03.png" width="2304" height="1444"/>
 </tileset>
 <tileset firstgid="70" name="F_Bosque_V7_01" tilewidth="2304" tileheight="1444" tilecount="1" columns="1">
  <image source="Forest/Fondo_Vigente/07_F_Boss/F_Bosque_V7_01.png" width="2304" height="1444"/>
 </tileset>
 <tileset firstgid="71" name="F_Bosque_V7_02" tilewidth="2304" tileheight="1444" tilecount="1" columns="1">
  <image source="Forest/Fondo_Vigente/07_F_Boss/F_Bosque_V7_02.png" width="2304" height="1444"/>
 </tileset>
 <tileset firstgid="72" name="F_Bosque_V2_05" tilewidth="2304" tileheight="1444" tilecount="1" columns="1">
  <image source="Forest/Fondo_Vigente/02_F_Repeticion/F_Bosque_V2_05.png" width="2304" height="1444"/>
 </tileset>
 <tileset firstgid="73" name="t_Sueltos_Arbustos_Esquinas" tilewidth="384" tileheight="384" tilecount="12" columns="3">
  <image source="Forest/Fondo_Vigente/Arbustos/t_Sueltos_Arbustos_Esquinas.png" width="1152" height="1536"/>
 </tileset>
 <tileset firstgid="85" name="t_Fila_Arbustos" tilewidth="1920" tileheight="640" tilecount="4" columns="1">
  <image source="Forest/Fondo_Vigente/Arbustos/t_Fila_Arbustos.png" width="1920" height="2560"/>
 </tileset>
 <tileset firstgid="89" name="Plantitas" tilewidth="128" tileheight="128" tilecount="64" columns="8">
  <image source="Forest/Fondo_Vigente/Arbustos/Plantitas.png" width="1024" height="1024"/>
  <tile id="0">
   <animation>
    <frame tileid="0" duration="300"/>
    <frame tileid="1" duration="300"/>
    <frame tileid="2" duration="300"/>
   </animation>
  </tile>
  <tile id="3">
   <animation>
    <frame tileid="3" duration="250"/>
    <frame tileid="4" duration="250"/>
    <frame tileid="5" duration="250"/>
   </animation>
  </tile>
  <tile id="6">
   <animation>
    <frame tileid="6" duration="350"/>
    <frame tileid="7" duration="350"/>
    <frame tileid="8" duration="350"/>
   </animation>
  </tile>
  <tile id="9">
   <animation>
    <frame tileid="9" duration="350"/>
    <frame tileid="10" duration="350"/>
    <frame tileid="11" duration="350"/>
   </animation>
  </tile>
  <tile id="12">
   <animation>
    <frame tileid="12" duration="250"/>
    <frame tileid="13" duration="250"/>
    <frame tileid="14" duration="250"/>
   </animation>
  </tile>
  <tile id="15">
   <animation>
    <frame tileid="15" duration="300"/>
    <frame tileid="16" duration="300"/>
    <frame tileid="17" duration="300"/>
   </animation>
  </tile>
 </tileset>
 <tileset firstgid="153" name="F_Bosque_V2_02" tilewidth="2304" tileheight="1444" tilecount="1" columns="1">
  <image source="Forest/Fondo_Vigente/02_F_Repeticion/F_Bosque_V2_02.png" width="2304" height="1444"/>
 </tileset>
 <tileset firstgid="154" name="Sprite Sheet_Agua_Transparente" tilewidth="128" tileheight="128" tilecount="64" columns="8">
  <image source="Forest/Aguas/Sprite Sheet_Agua_Transparente.png" width="1024" height="1024"/>
  <tile id="0">
   <animation>
    <frame tileid="0" duration="300"/>
    <frame tileid="3" duration="300"/>
    <frame tileid="6" duration="300"/>
    <frame tileid="24" duration="300"/>
    <frame tileid="27" duration="300"/>
   </animation>
  </tile>
  <tile id="1">
   <animation>
    <frame tileid="1" duration="300"/>
    <frame tileid="4" duration="300"/>
    <frame tileid="7" duration="300"/>
    <frame tileid="25" duration="300"/>
    <frame tileid="28" duration="300"/>
   </animation>
  </tile>
  <tile id="8">
   <animation>
    <frame tileid="8" duration="300"/>
    <frame tileid="11" duration="300"/>
    <frame tileid="14" duration="300"/>
    <frame tileid="32" duration="300"/>
   </animation>
  </tile>
  <tile id="9">
   <animation>
    <frame tileid="9" duration="300"/>
    <frame tileid="12" duration="300"/>
    <frame tileid="15" duration="300"/>
    <frame tileid="33" duration="300"/>
    <frame tileid="36" duration="300"/>
   </animation>
  </tile>
 </tileset>
 <tileset firstgid="218" name="SS_cascada_Transparente" tilewidth="768" tileheight="768" tilecount="6" columns="3">
  <image source="Forest/Aguas/SS_cascada_Transparente.png" width="2304" height="2048"/>
  <tile id="0">
   <animation>
    <frame tileid="0" duration="300"/>
    <frame tileid="1" duration="300"/>
    <frame tileid="2" duration="300"/>
    <frame tileid="3" duration="300"/>
    <frame tileid="4" duration="300"/>
    <frame tileid="5" duration="300"/>
   </animation>
  </tile>
 </tileset>
 <tileset firstgid="224" name="F_Bosque_02" tilewidth="2304" tileheight="1444" tilecount="1" columns="1">
  <image source="Forest/Fondo_Vigente/01_F_Inicio/F_Bosque_02.png" width="2304" height="1444"/>
 </tileset>
 <tileset firstgid="225" name="t_Fila_Arbustos_02" tilewidth="960" tileheight="640" tilecount="8" columns="2">
  <image source="Forest/Fondo_Vigente/Arbustos/t_Fila_Arbustos_02.png" width="1920" height="2560"/>
 </tileset>
 <objectgroup id="18" name="Fondo1">
  <properties>
   <property name="BG" type="bool" value="true"/>
   <property name="Draw" type="bool" value="true"/>
   <property name="ParalaxX" type="float" value="0.8"/>
  </properties>
  <object id="709" gid="67" x="4736" y="3072" width="3840" height="2944"/>
 </objectgroup>
 <objectgroup id="20" name="Fondo2">
  <properties>
   <property name="BG" type="bool" value="true"/>
   <property name="Draw" type="bool" value="true"/>
   <property name="ParalaxX" type="float" value="0.9"/>
  </properties>
  <object id="627" gid="68" x="4736" y="2688" width="3328" height="2560"/>
  <object id="631" gid="71" x="896" y="2704" width="3712" height="1444"/>
  <object id="710" gid="70" x="128" y="2688" width="4608" height="2560"/>
  <object id="784" gid="80" x="2211.03" y="1180.73" width="384" height="384"/>
 </objectgroup>
 <objectgroup id="40" name="Cascada">
  <properties>
   <property name="BG" type="bool" value="true"/>
   <property name="Draw" type="bool" value="true"/>
   <property name="ParalaxX" type="float" value="1"/>
  </properties>
  <object id="851" gid="218" x="1407.64" y="2690.3" width="2719.88" height="2696"/>
 </objectgroup>
 <objectgroup id="37" name="Plantas-Back">
  <properties>
   <property name="BG" type="bool" value="true"/>
   <property name="Draw" type="bool" value="true"/>
  </properties>
  <object id="787" gid="101" x="1237.03" y="2185.45" width="128" height="128"/>
  <object id="788" gid="101" x="2817.82" y="2432.97" width="128" height="128"/>
  <object id="789" gid="101" x="2372.36" y="2566.3" width="128" height="128"/>
  <object id="791" gid="92" x="2147.03" y="2437.94" width="128" height="128"/>
  <object id="792" gid="92" x="1098" y="2172" width="128" height="128"/>
  <object id="794" gid="92" x="3670" y="2184" width="128" height="128"/>
  <object id="795" gid="89" x="1922" y="2440" width="128" height="128"/>
  <object id="796" gid="89" x="3476" y="2556" width="128" height="128"/>
  <object id="797" gid="89" x="3168" y="2562" width="128" height="128"/>
  <object id="798" gid="89" x="712" y="2066" width="128" height="128"/>
  <object id="805" gid="89" x="4240" y="2114" width="128" height="128"/>
  <object id="806" gid="89" x="4158" y="2152" width="128" height="128"/>
  <object id="807" gid="89" x="4068" y="2214" width="128" height="128"/>
  <object id="810" gid="89" x="4638" y="2032" width="128" height="128"/>
  <object id="811" gid="89" x="5618" y="1860" width="128" height="128"/>
  <object id="812" gid="89" x="5352" y="1924" width="128" height="128"/>
  <object id="816" gid="101" x="1796" y="2506" width="128" height="128"/>
  <object id="818" gid="1073741919" x="1671" y="2135" width="167.333" height="167.333"/>
  <object id="819" gid="1073741919" x="3300.33" y="2128.33" width="167.333" height="167.333"/>
  <object id="823" gid="1073741913" x="3198.67" y="2094.67" width="128" height="128"/>
  <object id="824" gid="1073741913" x="1914.67" y="2100" width="128" height="128"/>
  <object id="825" gid="89" x="830.667" y="2088" width="128" height="128"/>
  <object id="826" gid="89" x="930" y="2141.33" width="128" height="128"/>
  <object id="827" gid="89" x="1032.67" y="2188" width="128" height="128"/>
  <object id="828" gid="89" x="1276" y="2189" width="128" height="128"/>
  <object id="835" gid="3221225564" x="1837.33" y="2113.33" width="128" height="128"/>
 </objectgroup>
 <objectgroup id="39" name="Fondo3-Luces">
  <properties>
   <property name="BG" type="bool" value="true"/>
   <property name="Draw" type="bool" value="true"/>
  </properties>
  <object id="829" gid="224" x="-8" y="1414" width="2304" height="1444"/>
  <object id="830" gid="224" x="1512" y="1438" width="2304" height="1444"/>
  <object id="831" gid="224" x="2992" y="1422" width="2304" height="1444"/>
  <object id="832" gid="224" x="608" y="1438" width="2304" height="1444"/>
  <object id="833" gid="224" x="1968" y="1502" width="2304" height="1444"/>
  <object id="834" gid="224" x="3812" y="1446" width="2304" height="1444"/>
 </objectgroup>
 <objectgroup id="22" name="Fondo4">
  <properties>
   <property name="BG" type="bool" value="true"/>
   <property name="Draw" type="bool" value="true"/>
   <property name="ParalaxX" type="float" value="1"/>
  </properties>
  <object id="772" gid="76" x="1058.48" y="2191.82" width="384" height="384"/>
  <object id="773" gid="76" x="2198.91" y="2576.61" width="384" height="384"/>
  <object id="774" gid="79" x="3208" y="2573.58" width="384" height="384"/>
  <object id="775" gid="79" x="4335.27" y="2060.42" width="384" height="384"/>
  <object id="776" gid="2147483728" x="456.485" y="2065.58" width="384" height="384"/>
  <object id="777" gid="2147483728" x="1908" y="2455.27" width="384" height="384"/>
  <object id="778" gid="83" x="2838.3" y="2446.24" width="384" height="384"/>
  <object id="785" gid="80" x="3650.42" y="2190.73" width="384" height="384"/>
  <object id="786" gid="83" x="5459.52" y="1930.06" width="384" height="384"/>
  <object id="817" gid="2147483728" x="1620" y="2576" width="384" height="384"/>
  <object id="820" gid="73" x="1749.33" y="2264" width="306.667" height="294.667"/>
  <object id="821" gid="75" x="3204" y="2368" width="384" height="384"/>
  <object id="836" gid="1073741911" x="1499.59" y="2621.53" width="1736.82" height="316.94"/>
 </objectgroup>
 <objectgroup id="38" name="Plantas-Front">
  <properties>
   <property name="BG" type="bool" value="true"/>
   <property name="Draw" type="bool" value="true"/>
  </properties>
  <object id="769" gid="101" x="637" y="2061" width="126" height="126"/>
  <object id="770" gid="101" x="5379.42" y="1915.79" width="126" height="126"/>
  <object id="771" gid="101" x="3970.33" y="2173.36" width="126" height="126"/>
  <object id="813" gid="92" x="3586" y="2434" width="128" height="128"/>
  <object id="814" gid="101" x="1410" y="2456" width="128" height="128"/>
  <object id="815" gid="101" x="1534" y="2582" width="128" height="128"/>
 </objectgroup>
 <layer id="1" name="Map" width="45" height="21">
  <properties>
   <property name="Draw" type="bool" value="true"/>
  </properties>
  <data>
   <tile gid="37"/>
   <tile gid="31"/>
   <tile gid="40"/>
   <tile gid="38"/>
   <tile/>
   <tile/>
   <tile/>
   <tile/>
   <tile/>
   <tile/>
   <tile/>
   <tile/>
   <tile/>
   <tile/>
   <tile/>
   <tile/>
   <tile/>
   <tile/>
   <tile/>
   <tile/>
   <tile/>
   <tile/>
   <tile/>
   <tile/>
   <tile/>
   <tile/>
   <tile/>
   <tile/>
   <tile/>
   <tile/>
   <tile/>
   <tile/>
   <tile/>
   <tile/>
   <tile/>
   <tile/>
   <tile/>
   <tile/>
   <tile/>
   <tile/>
   <tile/>
   <tile/>
   <tile/>
   <tile/>
   <tile/>
   <tile gid="37"/>
   <tile gid="37"/>
   <tile gid="31"/>
   <tile gid="38"/>
   <tile/>
   <tile/>
   <tile/>
   <tile/>
   <tile/>
   <tile/>
   <tile/>
   <tile/>
   <tile/>
   <tile/>
   <tile/>
   <tile/>
   <tile/>
   <tile/>
   <tile/>
   <tile/>
   <tile/>
   <tile/>
   <tile/>
   <tile/>
   <tile/>
   <tile/>
   <tile/>
   <tile/>
   <tile/>
   <tile/>
   <tile/>
   <tile/>
   <tile/>
   <tile/>
   <tile/>
   <tile/>
   <tile/>
   <tile/>
   <tile/>
   <tile/>
   <tile/>
   <tile/>
   <tile/>
   <tile/>
   <tile/>
   <tile gid="37"/>
   <tile gid="31"/>
   <tile gid="40"/>
   <tile gid="38"/>
   <tile/>
   <tile/>
   <tile/>
   <tile/>
   <tile/>
   <tile/>
   <tile/>
   <tile/>
   <tile/>
   <tile/>
   <tile/>
   <tile/>
   <tile/>
   <tile/>
   <tile/>
   <tile/>
   <tile/>
   <tile/>
   <tile/>
   <tile/>
   <tile/>
   <tile/>
   <tile/>
   <tile/>
   <tile/>
   <tile/>
   <tile/>
   <tile/>
   <tile/>
   <tile/>
   <tile/>
   <tile/>
   <tile/>
   <tile/>
   <tile/>
   <tile/>
   <tile/>
   <tile/>
   <tile/>
   <tile/>
   <tile/>
   <tile gid="31"/>
   <tile gid="39"/>
   <tile gid="39"/>
   <tile gid="38"/>
   <tile/>
   <tile/>
   <tile/>
   <tile/>
   <tile/>
   <tile/>
   <tile/>
   <tile/>
   <tile/>
   <tile/>
   <tile/>
   <tile/>
   <tile/>
   <tile/>
   <tile/>
   <tile/>
   <tile/>
   <tile/>
   <tile/>
   <tile/>
   <tile/>
   <tile/>
   <tile/>
   <tile/>
   <tile/>
   <tile/>
   <tile/>
   <tile/>
   <tile/>
   <tile/>
   <tile/>
   <tile/>
   <tile/>
   <tile/>
   <tile/>
   <tile/>
   <tile/>
   <tile/>
   <tile/>
   <tile/>
   <tile/>
   <tile gid="39"/>
   <tile gid="32"/>
   <tile gid="40"/>
   <tile gid="38"/>
   <tile/>
   <tile/>
   <tile/>
   <tile/>
   <tile/>
   <tile/>
   <tile/>
   <tile/>
   <tile/>
   <tile/>
   <tile/>
   <tile/>
   <tile/>
   <tile/>
   <tile/>
   <tile/>
   <tile/>
   <tile/>
   <tile/>
   <tile/>
   <tile/>
   <tile/>
   <tile/>
   <tile/>
   <tile/>
   <tile/>
   <tile/>
   <tile/>
   <tile/>
   <tile/>
   <tile/>
   <tile/>
   <tile/>
   <tile/>
   <tile/>
   <tile/>
   <tile/>
   <tile/>
   <tile/>
   <tile/>
   <tile/>
   <tile gid="32"/>
   <tile gid="40"/>
   <tile gid="37"/>
   <tile gid="38"/>
   <tile/>
   <tile/>
   <tile/>
   <tile/>
   <tile/>
   <tile/>
   <tile/>
   <tile/>
   <tile/>
   <tile/>
   <tile/>
   <tile/>
   <tile/>
   <tile/>
   <tile/>
   <tile/>
   <tile/>
   <tile/>
   <tile/>
   <tile/>
   <tile/>
   <tile/>
   <tile/>
   <tile/>
   <tile/>
   <tile/>
   <tile/>
   <tile/>
   <tile/>
   <tile/>
   <tile/>
   <tile/>
   <tile/>
   <tile/>
   <tile/>
   <tile/>
   <tile/>
   <tile/>
   <tile/>
   <tile/>
   <tile/>
   <tile gid="37"/>
   <tile gid="40"/>
   <tile gid="31"/>
   <tile gid="38"/>
   <tile/>
   <tile/>
   <tile/>
   <tile/>
   <tile/>
   <tile/>
   <tile/>
   <tile/>
   <tile/>
   <tile/>
   <tile/>
   <tile/>
   <tile/>
   <tile/>
   <tile/>
   <tile/>
   <tile/>
   <tile/>
   <tile/>
   <tile/>
   <tile/>
   <tile/>
   <tile/>
   <tile/>
   <tile/>
   <tile/>
   <tile/>
   <tile/>
   <tile/>
   <tile/>
   <tile/>
   <tile/>
   <tile/>
   <tile/>
   <tile/>
   <tile/>
   <tile/>
   <tile/>
   <tile/>
   <tile/>
   <tile/>
   <tile gid="37"/>
   <tile gid="37"/>
   <tile gid="31"/>
   <tile gid="38"/>
   <tile/>
   <tile/>
   <tile/>
   <tile/>
   <tile/>
   <tile/>
   <tile/>
   <tile/>
   <tile/>
   <tile/>
   <tile/>
   <tile/>
   <tile/>
   <tile/>
   <tile/>
   <tile/>
   <tile/>
   <tile/>
   <tile/>
   <tile/>
   <tile/>
   <tile/>
   <tile/>
   <tile/>
   <tile/>
   <tile/>
   <tile/>
   <tile/>
   <tile/>
   <tile/>
   <tile/>
   <tile/>
   <tile/>
   <tile/>
   <tile/>
   <tile/>
   <tile/>
   <tile/>
   <tile/>
   <tile/>
   <tile/>
   <tile gid="39"/>
   <tile gid="31"/>
   <tile gid="32"/>
   <tile gid="38"/>
   <tile/>
   <tile/>
   <tile/>
   <tile/>
   <tile/>
   <tile/>
   <tile/>
   <tile/>
   <tile/>
   <tile/>
   <tile/>
   <tile/>
   <tile/>
   <tile/>
   <tile/>
   <tile/>
   <tile/>
   <tile/>
   <tile/>
   <tile/>
   <tile/>
   <tile/>
   <tile/>
   <tile/>
   <tile/>
   <tile/>
   <tile/>
   <tile/>
   <tile/>
   <tile/>
   <tile/>
   <tile/>
   <tile/>
   <tile/>
   <tile/>
   <tile/>
   <tile/>
   <tile/>
   <tile/>
   <tile/>
   <tile/>
   <tile gid="40"/>
   <tile gid="40"/>
   <tile gid="37"/>
   <tile gid="38"/>
   <tile/>
   <tile/>
   <tile/>
   <tile/>
   <tile/>
   <tile/>
   <tile/>
   <tile/>
   <tile/>
   <tile/>
   <tile/>
   <tile/>
   <tile/>
   <tile/>
   <tile/>
   <tile/>
   <tile/>
   <tile/>
   <tile/>
   <tile/>
   <tile/>
   <tile/>
   <tile/>
   <tile/>
   <tile/>
   <tile/>
   <tile/>
   <tile/>
   <tile/>
   <tile/>
   <tile/>
   <tile/>
   <tile/>
   <tile/>
   <tile/>
   <tile/>
   <tile/>
   <tile/>
   <tile/>
   <tile/>
   <tile/>
   <tile gid="39"/>
   <tile gid="39"/>
   <tile gid="37"/>
   <tile gid="38"/>
   <tile/>
   <tile/>
   <tile/>
   <tile/>
   <tile/>
   <tile/>
   <tile/>
   <tile/>
   <tile/>
   <tile/>
   <tile/>
   <tile/>
   <tile/>
   <tile/>
   <tile/>
   <tile/>
   <tile/>
   <tile/>
   <tile/>
   <tile/>
   <tile/>
   <tile/>
   <tile/>
   <tile/>
   <tile/>
   <tile/>
   <tile/>
   <tile/>
   <tile/>
   <tile/>
   <tile/>
   <tile/>
   <tile/>
   <tile/>
   <tile/>
   <tile/>
   <tile/>
   <tile/>
   <tile/>
   <tile/>
   <tile/>
   <tile gid="37"/>
   <tile gid="37"/>
   <tile gid="37"/>
   <tile gid="38"/>
   <tile/>
   <tile/>
   <tile/>
   <tile/>
   <tile/>
   <tile/>
   <tile/>
   <tile/>
   <tile/>
   <tile/>
   <tile/>
   <tile/>
   <tile/>
   <tile/>
   <tile/>
   <tile/>
   <tile/>
   <tile/>
   <tile/>
   <tile/>
   <tile/>
   <tile/>
   <tile/>
   <tile/>
   <tile/>
   <tile/>
   <tile/>
   <tile/>
   <tile/>
   <tile/>
   <tile/>
   <tile/>
   <tile/>
   <tile/>
   <tile/>
   <tile/>
   <tile/>
   <tile/>
   <tile/>
   <tile/>
   <tile/>
   <tile gid="39"/>
   <tile gid="32"/>
   <tile gid="31"/>
   <tile gid="38"/>
   <tile/>
   <tile/>
   <tile/>
   <tile/>
   <tile/>
   <tile/>
   <tile/>
   <tile/>
   <tile/>
   <tile/>
   <tile/>
   <tile/>
   <tile/>
   <tile/>
   <tile/>
   <tile/>
   <tile/>
   <tile/>
   <tile/>
   <tile/>
   <tile/>
   <tile/>
   <tile/>
   <tile/>
   <tile/>
   <tile/>
   <tile/>
   <tile/>
   <tile/>
   <tile/>
   <tile/>
   <tile/>
   <tile/>
   <tile/>
   <tile/>
   <tile/>
   <tile/>
   <tile/>
   <tile/>
   <tile/>
   <tile/>
   <tile gid="37"/>
   <tile gid="31"/>
   <tile gid="39"/>
   <tile gid="38"/>
   <tile/>
   <tile/>
   <tile/>
   <tile/>
   <tile/>
   <tile/>
   <tile/>
   <tile/>
   <tile/>
   <tile/>
   <tile/>
   <tile/>
   <tile/>
   <tile/>
   <tile/>
   <tile/>
   <tile/>
   <tile/>
   <tile/>
   <tile/>
   <tile/>
   <tile/>
   <tile/>
   <tile/>
   <tile/>
   <tile/>
   <tile/>
   <tile/>
   <tile/>
   <tile/>
   <tile/>
   <tile/>
   <tile/>
   <tile/>
   <tile/>
   <tile/>
   <tile/>
   <tile/>
   <tile/>
   <tile/>
   <tile/>
   <tile gid="37"/>
   <tile gid="37"/>
   <tile gid="40"/>
   <tile gid="38"/>
   <tile/>
   <tile/>
   <tile/>
   <tile/>
   <tile/>
   <tile/>
   <tile/>
   <tile/>
   <tile/>
   <tile/>
   <tile/>
   <tile/>
   <tile/>
   <tile/>
   <tile/>
   <tile/>
   <tile/>
   <tile/>
   <tile/>
   <tile/>
   <tile/>
   <tile/>
   <tile/>
   <tile/>
   <tile/>
   <tile/>
   <tile/>
   <tile/>
   <tile/>
   <tile/>
   <tile/>
   <tile/>
   <tile/>
   <tile/>
   <tile/>
   <tile/>
   <tile/>
   <tile/>
   <tile/>
   <tile/>
   <tile/>
   <tile gid="40"/>
   <tile gid="37"/>
   <tile gid="31"/>
   <tile gid="38"/>
   <tile/>
   <tile/>
   <tile/>
   <tile/>
   <tile/>
   <tile/>
   <tile/>
   <tile/>
   <tile/>
   <tile gid="20"/>
   <tile gid="21"/>
   <tile gid="22"/>
   <tile/>
   <tile/>
   <tile/>
   <tile/>
   <tile/>
   <tile/>
   <tile/>
   <tile/>
   <tile/>
   <tile gid="20"/>
   <tile gid="21"/>
   <tile gid="22"/>
   <tile/>
   <tile/>
   <tile/>
   <tile/>
   <tile/>
   <tile/>
   <tile/>
   <tile/>
   <tile gid="2"/>
   <tile gid="4"/>
   <tile gid="29"/>
   <tile gid="29"/>
   <tile gid="29"/>
   <tile gid="29"/>
   <tile gid="29"/>
   <tile gid="29"/>
   <tile gid="29"/>
   <tile gid="39"/>
   <tile gid="32"/>
   <tile gid="37"/>
   <tile gid="32"/>
   <tile gid="29"/>
   <tile gid="29"/>
   <tile gid="29"/>
   <tile gid="2147483652"/>
   <tile gid="2147483650"/>
   <tile/>
   <tile/>
   <tile/>
   <tile/>
   <tile/>
   <tile/>
   <tile/>
   <tile/>
   <tile/>
   <tile/>
   <tile/>
   <tile/>
   <tile/>
   <tile/>
   <tile/>
   <tile/>
   <tile/>
   <tile/>
   <tile/>
   <tile/>
   <tile/>
   <tile/>
   <tile/>
   <tile gid="2"/>
   <tile gid="4"/>
   <tile gid="29"/>
   <tile gid="29"/>
   <tile gid="1"/>
   <tile gid="40"/>
   <tile gid="40"/>
   <tile gid="40"/>
   <tile gid="39"/>
   <tile gid="37"/>
   <tile gid="40"/>
   <tile gid="31"/>
   <tile gid="40"/>
   <tile gid="32"/>
   <tile gid="39"/>
   <tile gid="31"/>
   <tile gid="31"/>
   <tile gid="37"/>
   <tile gid="37"/>
   <tile gid="37"/>
   <tile gid="37"/>
   <tile gid="2147483649"/>
   <tile gid="29"/>
   <tile gid="30"/>
   <tile/>
   <tile/>
   <tile/>
   <tile/>
   <tile/>
   <tile/>
   <tile/>
   <tile/>
   <tile/>
   <tile/>
   <tile/>
   <tile/>
   <tile/>
   <tile/>
   <tile/>
   <tile/>
   <tile/>
   <tile/>
   <tile gid="28"/>
   <tile gid="29"/>
   <tile gid="29"/>
   <tile gid="1"/>
   <tile gid="31"/>
   <tile gid="32"/>
   <tile gid="37"/>
   <tile gid="37"/>
   <tile gid="40"/>
   <tile gid="40"/>
   <tile gid="40"/>
   <tile gid="39"/>
   <tile gid="37"/>
   <tile gid="40"/>
   <tile gid="31"/>
   <tile gid="40"/>
   <tile gid="31"/>
   <tile gid="39"/>
   <tile gid="32"/>
   <tile gid="37"/>
   <tile gid="37"/>
   <tile gid="37"/>
   <tile gid="37"/>
   <tile gid="37"/>
   <tile gid="37"/>
   <tile gid="37"/>
   <tile gid="38"/>
   <tile/>
   <tile/>
   <tile/>
   <tile/>
   <tile/>
   <tile/>
   <tile/>
   <tile/>
   <tile/>
   <tile/>
   <tile/>
   <tile/>
   <tile/>
   <tile/>
   <tile/>
   <tile/>
   <tile/>
   <tile/>
   <tile gid="36"/>
   <tile gid="37"/>
   <tile gid="37"/>
   <tile gid="37"/>
   <tile gid="37"/>
   <tile gid="31"/>
   <tile gid="37"/>
   <tile gid="37"/>
   <tile gid="31"/>
   <tile gid="40"/>
   <tile gid="37"/>
   <tile gid="37"/>
   <tile gid="37"/>
   <tile gid="37"/>
   <tile gid="32"/>
   <tile gid="40"/>
   <tile gid="31"/>
   <tile gid="40"/>
   <tile gid="39"/>
   <tile gid="37"/>
   <tile gid="31"/>
   <tile gid="37"/>
   <tile gid="37"/>
   <tile gid="37"/>
   <tile gid="37"/>
   <tile gid="37"/>
   <tile gid="37"/>
   <tile gid="30"/>
   <tile/>
   <tile/>
   <tile/>
   <tile gid="28"/>
   <tile gid="29"/>
   <tile gid="30"/>
   <tile/>
   <tile/>
   <tile/>
   <tile/>
   <tile gid="28"/>
   <tile gid="29"/>
   <tile gid="30"/>
   <tile/>
   <tile/>
   <tile/>
   <tile gid="28"/>
   <tile gid="37"/>
   <tile gid="32"/>
   <tile gid="37"/>
   <tile gid="37"/>
   <tile gid="37"/>
   <tile gid="31"/>
   <tile gid="37"/>
   <tile gid="39"/>
   <tile gid="32"/>
   <tile gid="32"/>
   <tile gid="37"/>
   <tile gid="37"/>
   <tile gid="32"/>
   <tile gid="31"/>
   <tile gid="31"/>
   <tile gid="37"/>
   <tile gid="39"/>
   <tile gid="37"/>
   <tile gid="37"/>
   <tile gid="32"/>
   <tile gid="31"/>
   <tile gid="31"/>
   <tile gid="39"/>
   <tile gid="32"/>
   <tile gid="32"/>
   <tile gid="32"/>
   <tile gid="37"/>
   <tile gid="37"/>
   <tile gid="37"/>
   <tile gid="39"/>
   <tile gid="32"/>
   <tile gid="1073741856"/>
   <tile gid="39"/>
   <tile gid="37"/>
   <tile gid="37"/>
   <tile gid="39"/>
   <tile gid="31"/>
   <tile gid="1073741861"/>
   <tile gid="1073741863"/>
   <tile gid="1073741856"/>
   <tile gid="1073741861"/>
   <tile gid="1073741863"/>
   <tile gid="1073741856"/>
   <tile gid="1073741856"/>
   <tile gid="1073741856"/>
   <tile gid="39"/>
   <tile gid="32"/>
   <tile gid="32"/>
   <tile gid="37"/>
   <tile gid="40"/>
   <tile gid="39"/>
   <tile gid="39"/>
   <tile gid="31"/>
   <tile gid="39"/>
   <tile gid="40"/>
   <tile gid="39"/>
   <tile gid="40"/>
   <tile gid="39"/>
   <tile gid="31"/>
   <tile gid="39"/>
   <tile gid="31"/>
  </data>
 </layer>
 <layer id="41" name="Aguafront" width="45" height="21">
  <properties>
   <property name="Draw" type="bool" value="true"/>
   <property name="Front" type="bool" value="true"/>
  </properties>
  <data>
   <tile/>
   <tile/>
   <tile/>
   <tile/>
   <tile/>
   <tile/>
   <tile/>
   <tile/>
   <tile/>
   <tile/>
   <tile/>
   <tile/>
   <tile/>
   <tile/>
   <tile/>
   <tile/>
   <tile/>
   <tile/>
   <tile/>
   <tile/>
   <tile/>
   <tile/>
   <tile/>
   <tile/>
   <tile/>
   <tile/>
   <tile/>
   <tile/>
   <tile/>
   <tile/>
   <tile/>
   <tile/>
   <tile/>
   <tile/>
   <tile/>
   <tile/>
   <tile/>
   <tile/>
   <tile/>
   <tile/>
   <tile/>
   <tile/>
   <tile/>
   <tile/>
   <tile/>
   <tile/>
   <tile/>
   <tile/>
   <tile/>
   <tile/>
   <tile/>
   <tile/>
   <tile/>
   <tile/>
   <tile/>
   <tile/>
   <tile/>
   <tile/>
   <tile/>
   <tile/>
   <tile/>
   <tile/>
   <tile/>
   <tile/>
   <tile/>
   <tile/>
   <tile/>
   <tile/>
   <tile/>
   <tile/>
   <tile/>
   <tile/>
   <tile/>
   <tile/>
   <tile/>
   <tile/>
   <tile/>
   <tile/>
   <tile/>
   <tile/>
   <tile/>
   <tile/>
   <tile/>
   <tile/>
   <tile/>
   <tile/>
   <tile/>
   <tile/>
   <tile/>
   <tile/>
   <tile/>
   <tile/>
   <tile/>
   <tile/>
   <tile/>
   <tile/>
   <tile/>
   <tile/>
   <tile/>
   <tile/>
   <tile/>
   <tile/>
   <tile/>
   <tile/>
   <tile/>
   <tile/>
   <tile/>
   <tile/>
   <tile/>
   <tile/>
   <tile/>
   <tile/>
   <tile/>
   <tile/>
   <tile/>
   <tile/>
   <tile/>
   <tile/>
   <tile/>
   <tile/>
   <tile/>
   <tile/>
   <tile/>
   <tile/>
   <tile/>
   <tile/>
   <tile/>
   <tile/>
   <tile/>
   <tile/>
   <tile/>
   <tile/>
   <tile/>
   <tile/>
   <tile/>
   <tile/>
   <tile/>
   <tile/>
   <tile/>
   <tile/>
   <tile/>
   <tile/>
   <tile/>
   <tile/>
   <tile/>
   <tile/>
   <tile/>
   <tile/>
   <tile/>
   <tile/>
   <tile/>
   <tile/>
   <tile/>
   <tile/>
   <tile/>
   <tile/>
   <tile/>
   <tile/>
   <tile/>
   <tile/>
   <tile/>
   <tile/>
   <tile/>
   <tile/>
   <tile/>
   <tile/>
   <tile/>
   <tile/>
   <tile/>
   <tile/>
   <tile/>
   <tile/>
   <tile/>
   <tile/>
   <tile/>
   <tile/>
   <tile/>
   <tile/>
   <tile/>
   <tile/>
   <tile/>
   <tile/>
   <tile/>
   <tile/>
   <tile/>
   <tile/>
   <tile/>
   <tile/>
   <tile/>
   <tile/>
   <tile/>
   <tile/>
   <tile/>
   <tile/>
   <tile/>
   <tile/>
   <tile/>
   <tile/>
   <tile/>
   <tile/>
   <tile/>
   <tile/>
   <tile/>
   <tile/>
   <tile/>
   <tile/>
   <tile/>
   <tile/>
   <tile/>
   <tile/>
   <tile/>
   <tile/>
   <tile/>
   <tile/>
   <tile/>
   <tile/>
   <tile/>
   <tile/>
   <tile/>
   <tile/>
   <tile/>
   <tile/>
   <tile/>
   <tile/>
   <tile/>
   <tile/>
   <tile/>
   <tile/>
   <tile/>
   <tile/>
   <tile/>
   <tile/>
   <tile/>
   <tile/>
   <tile/>
   <tile/>
   <tile/>
   <tile/>
   <tile/>
   <tile/>
   <tile/>
   <tile/>
   <tile/>
   <tile/>
   <tile/>
   <tile/>
   <tile/>
   <tile/>
   <tile/>
   <tile/>
   <tile/>
   <tile/>
   <tile/>
   <tile/>
   <tile/>
   <tile/>
   <tile/>
   <tile/>
   <tile/>
   <tile/>
   <tile/>
   <tile/>
   <tile/>
   <tile/>
   <tile/>
   <tile/>
   <tile/>
   <tile/>
   <tile/>
   <tile/>
   <tile/>
   <tile/>
   <tile/>
   <tile/>
   <tile/>
   <tile/>
   <tile/>
   <tile/>
   <tile/>
   <tile/>
   <tile/>
   <tile/>
   <tile/>
   <tile/>
   <tile/>
   <tile/>
   <tile/>
   <tile/>
   <tile/>
   <tile/>
   <tile/>
   <tile/>
   <tile/>
   <tile/>
   <tile/>
   <tile/>
   <tile/>
   <tile/>
   <tile/>
   <tile/>
   <tile/>
   <tile/>
   <tile/>
   <tile/>
   <tile/>
   <tile/>
   <tile/>
   <tile/>
   <tile/>
   <tile/>
   <tile/>
   <tile/>
   <tile/>
   <tile/>
   <tile/>
   <tile/>
   <tile/>
   <tile/>
   <tile/>
   <tile/>
   <tile/>
   <tile/>
   <tile/>
   <tile/>
   <tile/>
   <tile/>
   <tile/>
   <tile/>
   <tile/>
   <tile/>
   <tile/>
   <tile/>
   <tile/>
   <tile/>
   <tile/>
   <tile/>
   <tile/>
   <tile/>
   <tile/>
   <tile/>
   <tile/>
   <tile/>
   <tile/>
   <tile/>
   <tile/>
   <tile/>
   <tile/>
   <tile/>
   <tile/>
   <tile/>
   <tile/>
   <tile/>
   <tile/>
   <tile/>
   <tile/>
   <tile/>
   <tile/>
   <tile/>
   <tile/>
   <tile/>
   <tile/>
   <tile/>
   <tile/>
   <tile/>
   <tile/>
   <tile/>
   <tile/>
   <tile/>
   <tile/>
   <tile/>
   <tile/>
   <tile/>
   <tile/>
   <tile/>
   <tile/>
   <tile/>
   <tile/>
   <tile/>
   <tile/>
   <tile/>
   <tile/>
   <tile/>
   <tile/>
   <tile/>
   <tile/>
   <tile/>
   <tile/>
   <tile/>
   <tile/>
   <tile/>
   <tile/>
   <tile/>
   <tile/>
   <tile/>
   <tile/>
   <tile/>
   <tile/>
   <tile/>
   <tile/>
   <tile/>
   <tile/>
   <tile/>
   <tile/>
   <tile/>
   <tile/>
   <tile/>
   <tile/>
   <tile/>
   <tile/>
   <tile/>
   <tile/>
   <tile/>
   <tile/>
   <tile/>
   <tile/>
   <tile/>
   <tile/>
   <tile/>
   <tile/>
   <tile/>
   <tile/>
   <tile/>
   <tile/>
   <tile/>
   <tile/>
   <tile/>
   <tile/>
   <tile/>
   <tile/>
   <tile/>
   <tile/>
   <tile/>
   <tile/>
   <tile/>
   <tile/>
   <tile/>
   <tile/>
   <tile/>
   <tile/>
   <tile/>
   <tile/>
   <tile/>
   <tile/>
   <tile/>
   <tile/>
   <tile/>
   <tile/>
   <tile/>
   <tile/>
   <tile/>
   <tile/>
   <tile/>
   <tile/>
   <tile/>
   <tile/>
   <tile/>
   <tile/>
   <tile/>
   <tile/>
   <tile/>
   <tile/>
   <tile/>
   <tile/>
   <tile/>
   <tile/>
   <tile/>
   <tile/>
   <tile/>
   <tile/>
   <tile/>
   <tile/>
   <tile/>
   <tile/>
   <tile/>
   <tile/>
   <tile/>
   <tile/>
   <tile/>
   <tile/>
   <tile/>
   <tile/>
   <tile/>
   <tile/>
   <tile/>
   <tile/>
   <tile/>
   <tile/>
   <tile/>
   <tile/>
   <tile/>
   <tile/>
   <tile/>
   <tile/>
   <tile/>
   <tile/>
   <tile/>
   <tile/>
   <tile/>
   <tile/>
   <tile/>
   <tile/>
   <tile/>
   <tile/>
   <tile/>
   <tile/>
   <tile/>
   <tile/>
   <tile/>
   <tile/>
   <tile/>
   <tile/>
   <tile/>
   <tile/>
   <tile/>
   <tile/>
   <tile/>
   <tile/>
   <tile/>
   <tile/>
   <tile/>
   <tile/>
   <tile/>
   <tile/>
   <tile/>
   <tile/>
   <tile/>
   <tile/>
   <tile/>
   <tile/>
   <tile/>
   <tile/>
   <tile/>
   <tile/>
   <tile/>
   <tile/>
   <tile/>
   <tile/>
   <tile/>
   <tile/>
   <tile/>
   <tile/>
   <tile/>
   <tile/>
   <tile/>
   <tile/>
   <tile/>
   <tile/>
   <tile/>
   <tile/>
   <tile/>
   <tile/>
   <tile/>
   <tile/>
   <tile/>
   <tile/>
   <tile/>
   <tile/>
   <tile/>
   <tile/>
   <tile/>
   <tile/>
   <tile/>
   <tile/>
   <tile/>
   <tile/>
   <tile/>
   <tile/>
   <tile/>
   <tile/>
   <tile/>
   <tile/>
   <tile/>
   <tile/>
   <tile/>
   <tile/>
   <tile/>
   <tile/>
   <tile/>
   <tile/>
   <tile/>
   <tile/>
   <tile/>
   <tile/>
   <tile/>
   <tile/>
   <tile/>
   <tile/>
   <tile/>
   <tile/>
   <tile/>
   <tile/>
   <tile/>
   <tile/>
   <tile/>
   <tile/>
   <tile/>
   <tile/>
   <tile/>
   <tile/>
   <tile/>
   <tile/>
   <tile/>
   <tile/>
   <tile/>
   <tile/>
   <tile/>
   <tile/>
   <tile/>
   <tile/>
   <tile/>
   <tile/>
   <tile/>
   <tile/>
   <tile/>
   <tile/>
   <tile/>
   <tile/>
   <tile/>
   <tile/>
   <tile/>
   <tile/>
   <tile/>
   <tile/>
   <tile/>
   <tile/>
   <tile/>
   <tile/>
   <tile/>
   <tile/>
   <tile/>
   <tile/>
   <tile/>
   <tile/>
   <tile/>
   <tile/>
   <tile/>
   <tile/>
   <tile/>
   <tile/>
   <tile/>
   <tile/>
   <tile/>
   <tile/>
   <tile/>
   <tile/>
   <tile/>
   <tile/>
   <tile/>
   <tile/>
   <tile/>
   <tile/>
   <tile/>
   <tile/>
   <tile/>
   <tile/>
   <tile/>
   <tile/>
   <tile/>
   <tile/>
   <tile/>
   <tile/>
   <tile/>
   <tile/>
   <tile/>
   <tile/>
   <tile/>
   <tile/>
   <tile/>
   <tile/>
   <tile/>
   <tile/>
   <tile/>
   <tile/>
   <tile/>
   <tile/>
   <tile/>
   <tile/>
   <tile/>
   <tile/>
   <tile/>
   <tile/>
   <tile/>
   <tile/>
   <tile/>
   <tile/>
   <tile/>
   <tile/>
   <tile/>
   <tile/>
   <tile/>
   <tile/>
   <tile/>
   <tile/>
   <tile/>
   <tile/>
   <tile/>
   <tile/>
   <tile/>
   <tile/>
   <tile/>
   <tile/>
   <tile/>
   <tile/>
   <tile/>
   <tile/>
   <tile/>
   <tile/>
   <tile/>
   <tile/>
   <tile/>
   <tile/>
   <tile/>
   <tile/>
   <tile/>
   <tile/>
   <tile/>
   <tile/>
   <tile/>
   <tile/>
   <tile/>
   <tile/>
   <tile/>
   <tile/>
   <tile/>
   <tile/>
   <tile/>
   <tile/>
   <tile/>
   <tile/>
   <tile/>
   <tile/>
   <tile/>
   <tile/>
   <tile/>
   <tile/>
   <tile/>
   <tile/>
   <tile/>
   <tile/>
   <tile/>
   <tile/>
   <tile/>
   <tile/>
   <tile/>
   <tile/>
   <tile/>
   <tile/>
   <tile/>
   <tile/>
   <tile/>
   <tile/>
   <tile/>
   <tile/>
   <tile/>
   <tile/>
   <tile/>
   <tile/>
   <tile/>
   <tile/>
   <tile/>
   <tile/>
   <tile/>
   <tile/>
   <tile/>
   <tile/>
   <tile/>
   <tile/>
   <tile/>
   <tile/>
   <tile/>
   <tile/>
   <tile/>
   <tile/>
   <tile/>
   <tile/>
   <tile/>
   <tile/>
   <tile/>
   <tile/>
   <tile/>
   <tile/>
   <tile/>
   <tile/>
   <tile/>
   <tile/>
   <tile/>
   <tile/>
   <tile/>
   <tile/>
   <tile/>
   <tile/>
   <tile/>
   <tile/>
   <tile/>
   <tile/>
   <tile/>
   <tile/>
   <tile/>
   <tile/>
   <tile/>
   <tile/>
   <tile/>
   <tile/>
   <tile/>
   <tile/>
   <tile/>
   <tile/>
   <tile/>
   <tile/>
   <tile/>
   <tile/>
   <tile/>
   <tile/>
   <tile/>
   <tile/>
   <tile/>
   <tile/>
   <tile/>
   <tile/>
   <tile/>
   <tile/>
   <tile/>
   <tile/>
   <tile/>
   <tile/>
   <tile/>
   <tile/>
   <tile/>
   <tile/>
   <tile/>
   <tile/>
   <tile/>
   <tile/>
   <tile/>
   <tile/>
   <tile/>
   <tile/>
   <tile/>
   <tile/>
   <tile/>
   <tile/>
   <tile/>
   <tile/>
   <tile/>
   <tile/>
   <tile/>
   <tile/>
   <tile/>
   <tile/>
   <tile/>
   <tile/>
   <tile/>
   <tile/>
   <tile/>
   <tile/>
   <tile/>
   <tile/>
   <tile/>
   <tile/>
   <tile/>
   <tile/>
   <tile/>
   <tile/>
   <tile/>
   <tile/>
   <tile/>
   <tile/>
   <tile/>
   <tile/>
   <tile/>
   <tile/>
   <tile/>
   <tile/>
   <tile/>
   <tile/>
   <tile/>
   <tile/>
   <tile/>
   <tile/>
   <tile/>
   <tile/>
   <tile/>
   <tile/>
   <tile/>
   <tile/>
   <tile/>
   <tile/>
   <tile/>
   <tile/>
   <tile/>
   <tile/>
   <tile/>
   <tile/>
   <tile/>
   <tile/>
   <tile/>
   <tile/>
   <tile/>
   <tile/>
   <tile/>
   <tile/>
   <tile/>
   <tile/>
   <tile/>
   <tile/>
   <tile/>
   <tile/>
   <tile/>
   <tile/>
   <tile/>
   <tile/>
   <tile/>
   <tile/>
   <tile/>
   <tile/>
   <tile/>
   <tile/>
   <tile/>
   <tile/>
   <tile/>
   <tile/>
   <tile/>
   <tile/>
   <tile/>
   <tile/>
   <tile/>
   <tile/>
   <tile/>
   <tile/>
   <tile/>
   <tile/>
   <tile/>
   <tile/>
   <tile/>
   <tile/>
   <tile/>
   <tile/>
   <tile/>
   <tile/>
   <tile/>
   <tile/>
   <tile/>
   <tile/>
   <tile/>
   <tile/>
  </data>
 </layer>
 <objectgroup id="42" name="Fondo4 - F">
  <object id="838" gid="2147483875" x="1298.79" y="2701.21" width="960" height="640"/>
  <object id="839" gid="2147483875" x="2935.15" y="2704.24" width="960" height="640"/>
  <object id="840" gid="228" x="2132.97" y="2713.03" width="928" height="580"/>
  <object id="841" gid="228" x="5069.33" y="1985.76" width="928" height="580"/>
  <object id="843" gid="88" x="3698.91" y="3022.67" width="1920" height="640"/>
  <object id="847" gid="88" x="1400.61" y="2137.58" width="1850.3" height="573.333" rotation="180"/>
  <object id="848" gid="88" x="5621.82" y="1761.82" width="1920" height="640" rotation="180"/>
  <object id="854" gid="82" x="2710.09" y="1422.28" width="550.477" height="456.781"/>
  <object id="859" gid="82" x="240.095" y="2138.28" width="666.477" height="526.114"/>
  <object id="861" gid="88" x="-518" y="2885.33" width="1920" height="640"/>
  <object id="862" gid="79" x="700.808" y="2226.81" width="451.717" height="451.717"/>
  <object id="863" gid="79" x="971.475" y="2272.81" width="451.717" height="375.717"/>
  <object id="865" gid="88" x="-875.333" y="2754.67" width="1920" height="640"/>
  <object id="867" gid="79" x="378.141" y="2372.14" width="451.717" height="451.717"/>
  <object id="868" gid="79" x="-133.859" y="2380.14" width="451.717" height="451.717"/>
  <object id="870" gid="88" x="5128" y="2608" width="1920" height="640"/>
 </objectgroup>
 <objectgroup id="28" name="Fondo5 - F    ">
  <properties>
   <property name="Draw" type="bool" value="true"/>
   <property name="Front" type="bool" value="true"/>
   <property name="ParalaxX" type="float" value="1.1"/>
  </properties>
  <object id="724" gid="72" x="4480" y="2688" width="2449.51" height="2694.17"/>
 </objectgroup>
 <objectgroup color="#aa0000" id="19" name="Spikes" visible="0">
  <properties>
   <property name="Danger" type="bool" value="true"/>
   <property name="Square" type="bool" value="true"/>
  </properties>
 </objectgroup>
 <objectgroup id="13" name="Path" visible="0">
  <properties>
   <property name="Path" type="bool" value="true"/>
   <property name="Sensor" type="bool" value="true"/>
   <property name="Square" type="bool" value="true"/>
  </properties>
  <object id="692" x="5888" y="0" width="128" height="1920">
   <properties>
    <property name="TeleportTo" type="file" value="Forest_04.tmx"/>
   </properties>
  </object>
 </objectgroup>
 <objectgroup color="#000000" id="8" name="Map" visible="0">
  <properties>
   <property name="Map" type="bool" value="true"/>
   <property name="Square" type="bool" value="true"/>
  </properties>
  <object id="303" x="4864" y="1920" width="1152" height="768"/>
  <object id="305" x="512" y="2048" width="384" height="640"/>
  <object id="306" x="0" y="0" width="512" height="2688"/>
  <object id="694" x="512" y="-128" width="5504" height="128"/>
  <object id="707" x="1664" y="1920" width="384" height="74"/>
  <object id="708" x="3200" y="1920" width="384" height="76"/>
  <object id="714" x="4352" y="2048" width="512" height="128"/>
  <object id="715" x="3712" y="2176" width="1152" height="256"/>
  <object id="727" x="1152" y="2176" width="256" height="256"/>
  <object id="731" x="896" y="2432" width="640" height="256"/>
  <object id="733" x="2304" y="2560" width="512" height="128"/>
  <object id="734" x="3200" y="2560" width="384" height="128"/>
  <object id="735" x="1536" y="2560" width="384" height="128"/>
  <object id="736" x="1920" y="2432" width="384" height="256"/>
  <object id="737" x="2816" y="2432" width="384" height="256"/>
  <object id="738" x="3584" y="2432" width="1280" height="256"/>
 </objectgroup>
 <objectgroup id="33" name="Rampa" visible="0">
  <properties>
   <property name="Polygon" type="bool" value="true"/>
  </properties>
  <object id="702" x="896" y="2432">
   <polygon points="0,0 0,-384 256,-256 256,-256 256,0"/>
  </object>
  <object id="703" x="4096" y="2304">
   <polygon points="640,-256 512,-256 768,-384 768,-256"/>
  </object>
  <object id="726" x="3584" y="2432">
   <polygon points="640,-256 512,-256 768,-384 768,-256"/>
  </object>
 </objectgroup>
 <layer id="31" name="GroundNavLayer" width="45" height="21" visible="0">
  <properties>
   <property name="Ground" type="bool" value="true"/>
   <property name="Navigation" type="bool" value="true"/>
  </properties>
  <data>
   <tile gid="65"/>
   <tile gid="65"/>
   <tile gid="65"/>
   <tile gid="65"/>
   <tile/>
   <tile/>
   <tile/>
   <tile/>
   <tile/>
   <tile/>
   <tile/>
   <tile/>
   <tile/>
   <tile/>
   <tile/>
   <tile/>
   <tile/>
   <tile/>
   <tile/>
   <tile/>
   <tile/>
   <tile/>
   <tile/>
   <tile/>
   <tile/>
   <tile/>
   <tile/>
   <tile/>
   <tile/>
   <tile/>
   <tile/>
   <tile/>
   <tile/>
   <tile/>
   <tile/>
   <tile/>
   <tile/>
   <tile/>
   <tile/>
   <tile/>
   <tile/>
   <tile/>
   <tile/>
   <tile/>
   <tile/>
   <tile gid="65"/>
   <tile gid="65"/>
   <tile gid="65"/>
   <tile gid="65"/>
   <tile/>
   <tile/>
   <tile/>
   <tile/>
   <tile/>
   <tile/>
   <tile/>
   <tile/>
   <tile/>
   <tile/>
   <tile/>
   <tile/>
   <tile/>
   <tile/>
   <tile/>
   <tile/>
   <tile/>
   <tile/>
   <tile/>
   <tile/>
   <tile/>
   <tile/>
   <tile/>
   <tile/>
   <tile/>
   <tile/>
   <tile/>
   <tile/>
   <tile/>
   <tile/>
   <tile/>
   <tile/>
   <tile/>
   <tile/>
   <tile/>
   <tile/>
   <tile/>
   <tile/>
   <tile/>
   <tile/>
   <tile/>
   <tile gid="65"/>
   <tile gid="65"/>
   <tile gid="65"/>
   <tile gid="65"/>
   <tile/>
   <tile/>
   <tile/>
   <tile/>
   <tile/>
   <tile/>
   <tile/>
   <tile/>
   <tile/>
   <tile/>
   <tile/>
   <tile/>
   <tile/>
   <tile/>
   <tile/>
   <tile/>
   <tile/>
   <tile/>
   <tile/>
   <tile/>
   <tile/>
   <tile/>
   <tile/>
   <tile/>
   <tile/>
   <tile/>
   <tile/>
   <tile/>
   <tile/>
   <tile/>
   <tile/>
   <tile/>
   <tile/>
   <tile/>
   <tile/>
   <tile/>
   <tile/>
   <tile/>
   <tile/>
   <tile/>
   <tile/>
   <tile gid="65"/>
   <tile gid="65"/>
   <tile gid="65"/>
   <tile gid="65"/>
   <tile/>
   <tile/>
   <tile/>
   <tile/>
   <tile/>
   <tile/>
   <tile/>
   <tile/>
   <tile/>
   <tile/>
   <tile/>
   <tile/>
   <tile/>
   <tile/>
   <tile/>
   <tile/>
   <tile/>
   <tile/>
   <tile/>
   <tile/>
   <tile/>
   <tile/>
   <tile/>
   <tile/>
   <tile/>
   <tile/>
   <tile/>
   <tile/>
   <tile/>
   <tile/>
   <tile/>
   <tile/>
   <tile/>
   <tile/>
   <tile/>
   <tile/>
   <tile/>
   <tile/>
   <tile/>
   <tile/>
   <tile/>
   <tile gid="65"/>
   <tile gid="65"/>
   <tile gid="65"/>
   <tile gid="65"/>
   <tile/>
   <tile/>
   <tile/>
   <tile/>
   <tile/>
   <tile/>
   <tile/>
   <tile/>
   <tile/>
   <tile/>
   <tile/>
   <tile/>
   <tile/>
   <tile/>
   <tile/>
   <tile/>
   <tile/>
   <tile/>
   <tile/>
   <tile/>
   <tile/>
   <tile/>
   <tile/>
   <tile/>
   <tile/>
   <tile/>
   <tile/>
   <tile/>
   <tile/>
   <tile/>
   <tile/>
   <tile/>
   <tile/>
   <tile/>
   <tile/>
   <tile/>
   <tile/>
   <tile/>
   <tile/>
   <tile/>
   <tile/>
   <tile gid="65"/>
   <tile gid="65"/>
   <tile gid="65"/>
   <tile gid="65"/>
   <tile/>
   <tile/>
   <tile/>
   <tile/>
   <tile/>
   <tile/>
   <tile/>
   <tile/>
   <tile/>
   <tile/>
   <tile/>
   <tile/>
   <tile/>
   <tile/>
   <tile/>
   <tile/>
   <tile/>
   <tile/>
   <tile/>
   <tile/>
   <tile/>
   <tile/>
   <tile/>
   <tile/>
   <tile/>
   <tile/>
   <tile/>
   <tile/>
   <tile/>
   <tile/>
   <tile/>
   <tile/>
   <tile/>
   <tile/>
   <tile/>
   <tile/>
   <tile/>
   <tile/>
   <tile/>
   <tile/>
   <tile/>
   <tile gid="65"/>
   <tile gid="65"/>
   <tile gid="65"/>
   <tile gid="65"/>
   <tile/>
   <tile/>
   <tile/>
   <tile/>
   <tile/>
   <tile/>
   <tile/>
   <tile/>
   <tile/>
   <tile/>
   <tile/>
   <tile/>
   <tile/>
   <tile/>
   <tile/>
   <tile/>
   <tile/>
   <tile/>
   <tile/>
   <tile/>
   <tile/>
   <tile/>
   <tile/>
   <tile/>
   <tile/>
   <tile/>
   <tile/>
   <tile/>
   <tile/>
   <tile/>
   <tile/>
   <tile/>
   <tile/>
   <tile/>
   <tile/>
   <tile/>
   <tile/>
   <tile/>
   <tile/>
   <tile/>
   <tile/>
   <tile gid="65"/>
   <tile gid="65"/>
   <tile gid="65"/>
   <tile gid="65"/>
   <tile/>
   <tile/>
   <tile/>
   <tile/>
   <tile/>
   <tile/>
   <tile/>
   <tile/>
   <tile/>
   <tile/>
   <tile/>
   <tile/>
   <tile/>
   <tile/>
   <tile/>
   <tile/>
   <tile/>
   <tile/>
   <tile/>
   <tile/>
   <tile/>
   <tile/>
   <tile/>
   <tile/>
   <tile/>
   <tile/>
   <tile/>
   <tile/>
   <tile/>
   <tile/>
   <tile/>
   <tile/>
   <tile/>
   <tile/>
   <tile/>
   <tile/>
   <tile/>
   <tile/>
   <tile/>
   <tile/>
   <tile/>
   <tile gid="65"/>
   <tile gid="65"/>
   <tile gid="65"/>
   <tile gid="65"/>
   <tile/>
   <tile/>
   <tile/>
   <tile/>
   <tile/>
   <tile/>
   <tile/>
   <tile/>
   <tile/>
   <tile/>
   <tile/>
   <tile/>
   <tile/>
   <tile/>
   <tile/>
   <tile/>
   <tile/>
   <tile/>
   <tile/>
   <tile/>
   <tile/>
   <tile/>
   <tile/>
   <tile/>
   <tile/>
   <tile/>
   <tile/>
   <tile/>
   <tile/>
   <tile/>
   <tile/>
   <tile/>
   <tile/>
   <tile/>
   <tile/>
   <tile/>
   <tile/>
   <tile/>
   <tile/>
   <tile/>
   <tile/>
   <tile gid="65"/>
   <tile gid="65"/>
   <tile gid="65"/>
   <tile gid="65"/>
   <tile/>
   <tile/>
   <tile/>
   <tile/>
   <tile/>
   <tile/>
   <tile/>
   <tile/>
   <tile/>
   <tile/>
   <tile/>
   <tile/>
   <tile/>
   <tile/>
   <tile/>
   <tile/>
   <tile/>
   <tile/>
   <tile/>
   <tile/>
   <tile/>
   <tile/>
   <tile/>
   <tile/>
   <tile/>
   <tile/>
   <tile/>
   <tile/>
   <tile/>
   <tile/>
   <tile/>
   <tile/>
   <tile/>
   <tile/>
   <tile/>
   <tile/>
   <tile/>
   <tile/>
   <tile/>
   <tile/>
   <tile/>
   <tile gid="65"/>
   <tile gid="65"/>
   <tile gid="65"/>
   <tile gid="65"/>
   <tile/>
   <tile/>
   <tile/>
   <tile/>
   <tile/>
   <tile/>
   <tile/>
   <tile/>
   <tile/>
   <tile/>
   <tile/>
   <tile/>
   <tile/>
   <tile/>
   <tile/>
   <tile/>
   <tile/>
   <tile/>
   <tile/>
   <tile/>
   <tile/>
   <tile/>
   <tile/>
   <tile/>
   <tile/>
   <tile/>
   <tile/>
   <tile/>
   <tile/>
   <tile/>
   <tile/>
   <tile/>
   <tile/>
   <tile/>
   <tile/>
   <tile/>
   <tile/>
   <tile/>
   <tile/>
   <tile/>
   <tile/>
   <tile gid="65"/>
   <tile gid="65"/>
   <tile gid="65"/>
   <tile gid="65"/>
   <tile/>
   <tile/>
   <tile/>
   <tile/>
   <tile/>
   <tile/>
   <tile/>
   <tile/>
   <tile/>
   <tile/>
   <tile/>
   <tile/>
   <tile/>
   <tile/>
   <tile/>
   <tile/>
   <tile/>
   <tile/>
   <tile/>
   <tile/>
   <tile/>
   <tile/>
   <tile/>
   <tile/>
   <tile/>
   <tile/>
   <tile/>
   <tile/>
   <tile/>
   <tile/>
   <tile/>
   <tile/>
   <tile/>
   <tile/>
   <tile/>
   <tile/>
   <tile/>
   <tile/>
   <tile/>
   <tile/>
   <tile/>
   <tile gid="65"/>
   <tile gid="65"/>
   <tile gid="65"/>
   <tile gid="65"/>
   <tile/>
   <tile/>
   <tile/>
   <tile/>
   <tile/>
   <tile/>
   <tile/>
   <tile/>
   <tile/>
   <tile/>
   <tile/>
   <tile/>
   <tile/>
   <tile/>
   <tile/>
   <tile/>
   <tile/>
   <tile/>
   <tile/>
   <tile/>
   <tile/>
   <tile/>
   <tile/>
   <tile/>
   <tile/>
   <tile/>
   <tile/>
   <tile/>
   <tile/>
   <tile/>
   <tile/>
   <tile/>
   <tile/>
   <tile/>
   <tile/>
   <tile/>
   <tile/>
   <tile/>
   <tile/>
   <tile/>
   <tile/>
   <tile gid="65"/>
   <tile gid="65"/>
   <tile gid="65"/>
   <tile gid="65"/>
   <tile/>
   <tile/>
   <tile/>
   <tile/>
   <tile/>
   <tile/>
   <tile/>
   <tile/>
   <tile/>
   <tile/>
   <tile/>
   <tile/>
   <tile/>
   <tile/>
   <tile/>
   <tile/>
   <tile/>
   <tile/>
   <tile/>
   <tile/>
   <tile/>
   <tile/>
   <tile/>
   <tile/>
   <tile/>
   <tile/>
   <tile/>
   <tile/>
   <tile/>
   <tile/>
   <tile/>
   <tile/>
   <tile/>
   <tile/>
   <tile/>
   <tile/>
   <tile/>
   <tile/>
   <tile/>
   <tile/>
   <tile/>
   <tile gid="65"/>
   <tile gid="65"/>
   <tile gid="65"/>
   <tile gid="65"/>
   <tile/>
   <tile/>
   <tile/>
   <tile/>
   <tile/>
   <tile/>
   <tile/>
   <tile/>
   <tile/>
   <tile/>
   <tile/>
   <tile/>
   <tile/>
   <tile/>
   <tile/>
   <tile/>
   <tile/>
   <tile/>
   <tile/>
   <tile/>
   <tile/>
   <tile/>
   <tile/>
   <tile/>
   <tile/>
   <tile/>
   <tile/>
   <tile/>
   <tile/>
   <tile/>
   <tile/>
   <tile/>
   <tile/>
   <tile/>
   <tile/>
   <tile/>
   <tile/>
   <tile/>
   <tile/>
   <tile/>
   <tile/>
   <tile gid="65"/>
   <tile gid="65"/>
   <tile gid="65"/>
   <tile gid="65"/>
   <tile/>
   <tile/>
   <tile/>
   <tile/>
   <tile/>
   <tile/>
   <tile/>
   <tile/>
   <tile/>
   <tile/>
   <tile gid="65"/>
   <tile gid="65"/>
   <tile gid="65"/>
   <tile/>
   <tile/>
   <tile/>
   <tile/>
   <tile/>
   <tile/>
   <tile/>
   <tile gid="65"/>
   <tile gid="65"/>
   <tile gid="65"/>
   <tile/>
   <tile/>
   <tile/>
   <tile/>
   <tile/>
   <tile/>
   <tile/>
   <tile/>
   <tile/>
   <tile/>
   <tile/>
   <tile/>
   <tile/>
   <tile/>
   <tile/>
   <tile/>
   <tile/>
   <tile/>
   <tile gid="65"/>
   <tile gid="65"/>
   <tile gid="65"/>
   <tile gid="65"/>
   <tile gid="65"/>
   <tile gid="65"/>
   <tile gid="65"/>
   <tile/>
   <tile/>
   <tile/>
   <tile/>
   <tile/>
   <tile/>
   <tile/>
   <tile/>
   <tile/>
   <tile/>
   <tile/>
   <tile/>
   <tile/>
   <tile/>
   <tile/>
   <tile/>
   <tile/>
   <tile/>
   <tile/>
   <tile/>
   <tile/>
   <tile/>
   <tile/>
   <tile/>
   <tile/>
   <tile/>
   <tile/>
   <tile gid="65"/>
   <tile gid="65"/>
   <tile gid="65"/>
   <tile gid="65"/>
   <tile gid="65"/>
   <tile gid="65"/>
   <tile gid="65"/>
   <tile gid="65"/>
   <tile gid="65"/>
   <tile gid="65"/>
   <tile gid="65"/>
   <tile gid="65"/>
   <tile gid="65"/>
   <tile gid="65"/>
   <tile gid="65"/>
   <tile gid="65"/>
   <tile gid="65"/>
   <tile gid="65"/>
   <tile gid="65"/>
   <tile gid="65"/>
   <tile gid="65"/>
   <tile gid="65"/>
   <tile/>
   <tile/>
   <tile/>
   <tile/>
   <tile/>
   <tile/>
   <tile/>
   <tile/>
   <tile/>
   <tile/>
   <tile/>
   <tile/>
   <tile/>
   <tile/>
   <tile/>
   <tile/>
   <tile/>
   <tile/>
   <tile gid="65"/>
   <tile gid="65"/>
   <tile gid="65"/>
   <tile gid="65"/>
   <tile gid="65"/>
   <tile gid="65"/>
   <tile gid="65"/>
   <tile gid="65"/>
   <tile gid="65"/>
   <tile gid="65"/>
   <tile gid="65"/>
   <tile gid="65"/>
   <tile gid="65"/>
   <tile gid="65"/>
   <tile gid="65"/>
   <tile gid="65"/>
   <tile gid="65"/>
   <tile gid="65"/>
   <tile gid="65"/>
   <tile gid="65"/>
   <tile gid="65"/>
   <tile gid="65"/>
   <tile gid="65"/>
   <tile gid="65"/>
   <tile gid="65"/>
   <tile gid="65"/>
   <tile gid="65"/>
   <tile/>
   <tile/>
   <tile/>
   <tile/>
   <tile/>
   <tile/>
   <tile/>
   <tile/>
   <tile/>
   <tile/>
   <tile/>
   <tile/>
   <tile/>
   <tile/>
   <tile/>
   <tile/>
   <tile/>
   <tile/>
   <tile gid="65"/>
   <tile gid="65"/>
   <tile gid="65"/>
   <tile gid="65"/>
   <tile gid="65"/>
   <tile gid="65"/>
   <tile gid="65"/>
   <tile gid="65"/>
   <tile gid="65"/>
   <tile gid="65"/>
   <tile gid="65"/>
   <tile gid="65"/>
   <tile gid="65"/>
   <tile gid="65"/>
   <tile gid="65"/>
   <tile gid="65"/>
   <tile gid="65"/>
   <tile gid="65"/>
   <tile gid="65"/>
   <tile gid="65"/>
   <tile gid="65"/>
   <tile gid="65"/>
   <tile gid="65"/>
   <tile gid="65"/>
   <tile gid="65"/>
   <tile gid="65"/>
   <tile gid="65"/>
   <tile gid="65"/>
   <tile gid="65"/>
   <tile gid="65"/>
   <tile gid="65"/>
   <tile gid="65"/>
   <tile gid="65"/>
   <tile gid="65"/>
   <tile gid="65"/>
   <tile gid="65"/>
   <tile gid="65"/>
   <tile gid="65"/>
   <tile gid="65"/>
   <tile gid="65"/>
   <tile gid="65"/>
   <tile gid="65"/>
   <tile gid="65"/>
   <tile gid="65"/>
   <tile gid="65"/>
   <tile gid="65"/>
   <tile gid="65"/>
   <tile gid="65"/>
   <tile gid="65"/>
   <tile gid="65"/>
   <tile gid="65"/>
   <tile gid="65"/>
   <tile gid="65"/>
   <tile gid="65"/>
   <tile gid="65"/>
   <tile gid="65"/>
   <tile gid="65"/>
   <tile gid="65"/>
   <tile gid="65"/>
   <tile gid="65"/>
   <tile gid="65"/>
   <tile gid="65"/>
   <tile gid="65"/>
   <tile gid="65"/>
   <tile gid="65"/>
   <tile gid="65"/>
   <tile gid="65"/>
   <tile gid="65"/>
   <tile gid="65"/>
   <tile gid="65"/>
   <tile gid="65"/>
   <tile gid="65"/>
   <tile gid="65"/>
   <tile gid="65"/>
   <tile gid="65"/>
   <tile gid="65"/>
   <tile gid="65"/>
   <tile gid="65"/>
   <tile gid="65"/>
   <tile gid="65"/>
   <tile gid="65"/>
   <tile gid="65"/>
   <tile gid="65"/>
   <tile gid="65"/>
   <tile gid="65"/>
   <tile gid="65"/>
   <tile gid="65"/>
   <tile gid="65"/>
   <tile gid="65"/>
   <tile gid="65"/>
   <tile gid="65"/>
   <tile gid="65"/>
   <tile gid="65"/>
   <tile gid="65"/>
   <tile gid="65"/>
   <tile gid="65"/>
   <tile gid="65"/>
   <tile gid="65"/>
   <tile gid="65"/>
   <tile gid="65"/>
   <tile gid="65"/>
   <tile gid="65"/>
   <tile gid="65"/>
   <tile gid="65"/>
   <tile gid="65"/>
   <tile gid="65"/>
  </data>
 </layer>
 <layer id="32" name="AirNavLayer" width="45" height="21" visible="0">
  <properties>
   <property name="Air" type="bool" value="true"/>
   <property name="Navigation" type="bool" value="true"/>
  </properties>
  <data>
   <tile gid="65"/>
   <tile gid="65"/>
   <tile gid="65"/>
   <tile gid="65"/>
   <tile/>
   <tile/>
   <tile/>
   <tile/>
   <tile/>
   <tile/>
   <tile/>
   <tile/>
   <tile/>
   <tile/>
   <tile/>
   <tile/>
   <tile/>
   <tile/>
   <tile/>
   <tile/>
   <tile/>
   <tile/>
   <tile/>
   <tile/>
   <tile/>
   <tile/>
   <tile/>
   <tile/>
   <tile/>
   <tile/>
   <tile/>
   <tile/>
   <tile/>
   <tile/>
   <tile/>
   <tile/>
   <tile/>
   <tile/>
   <tile/>
   <tile/>
   <tile/>
   <tile/>
   <tile/>
   <tile/>
   <tile/>
   <tile gid="65"/>
   <tile gid="65"/>
   <tile gid="65"/>
   <tile gid="65"/>
   <tile/>
   <tile/>
   <tile/>
   <tile/>
   <tile/>
   <tile/>
   <tile/>
   <tile/>
   <tile/>
   <tile/>
   <tile/>
   <tile/>
   <tile/>
   <tile/>
   <tile/>
   <tile/>
   <tile/>
   <tile/>
   <tile/>
   <tile/>
   <tile/>
   <tile/>
   <tile/>
   <tile/>
   <tile/>
   <tile/>
   <tile/>
   <tile/>
   <tile/>
   <tile/>
   <tile/>
   <tile/>
   <tile/>
   <tile/>
   <tile/>
   <tile/>
   <tile/>
   <tile/>
   <tile/>
   <tile/>
   <tile/>
   <tile gid="65"/>
   <tile gid="65"/>
   <tile gid="65"/>
   <tile gid="65"/>
   <tile/>
   <tile/>
   <tile/>
   <tile/>
   <tile/>
   <tile/>
   <tile/>
   <tile/>
   <tile/>
   <tile/>
   <tile/>
   <tile/>
   <tile/>
   <tile/>
   <tile/>
   <tile/>
   <tile/>
   <tile/>
   <tile/>
   <tile/>
   <tile/>
   <tile/>
   <tile/>
   <tile/>
   <tile/>
   <tile/>
   <tile/>
   <tile/>
   <tile/>
   <tile/>
   <tile/>
   <tile/>
   <tile/>
   <tile/>
   <tile/>
   <tile/>
   <tile/>
   <tile/>
   <tile/>
   <tile/>
   <tile/>
   <tile gid="65"/>
   <tile gid="65"/>
   <tile gid="65"/>
   <tile gid="65"/>
   <tile/>
   <tile/>
   <tile/>
   <tile/>
   <tile/>
   <tile/>
   <tile/>
   <tile/>
   <tile/>
   <tile/>
   <tile/>
   <tile/>
   <tile/>
   <tile/>
   <tile/>
   <tile/>
   <tile/>
   <tile/>
   <tile/>
   <tile/>
   <tile/>
   <tile/>
   <tile/>
   <tile/>
   <tile/>
   <tile/>
   <tile/>
   <tile/>
   <tile/>
   <tile/>
   <tile/>
   <tile/>
   <tile/>
   <tile/>
   <tile/>
   <tile/>
   <tile/>
   <tile/>
   <tile/>
   <tile/>
   <tile/>
   <tile gid="65"/>
   <tile gid="65"/>
   <tile gid="65"/>
   <tile gid="65"/>
   <tile/>
   <tile/>
   <tile/>
   <tile/>
   <tile/>
   <tile/>
   <tile/>
   <tile/>
   <tile/>
   <tile/>
   <tile/>
   <tile/>
   <tile/>
   <tile/>
   <tile/>
   <tile/>
   <tile/>
   <tile/>
   <tile/>
   <tile/>
   <tile/>
   <tile/>
   <tile/>
   <tile/>
   <tile/>
   <tile/>
   <tile/>
   <tile/>
   <tile/>
   <tile/>
   <tile/>
   <tile/>
   <tile/>
   <tile/>
   <tile/>
   <tile/>
   <tile/>
   <tile/>
   <tile/>
   <tile/>
   <tile/>
   <tile gid="65"/>
   <tile gid="65"/>
   <tile gid="65"/>
   <tile gid="65"/>
   <tile/>
   <tile/>
   <tile/>
   <tile/>
   <tile/>
   <tile/>
   <tile/>
   <tile/>
   <tile/>
   <tile/>
   <tile/>
   <tile/>
   <tile/>
   <tile/>
   <tile/>
   <tile/>
   <tile/>
   <tile/>
   <tile/>
   <tile/>
   <tile/>
   <tile/>
   <tile/>
   <tile/>
   <tile/>
   <tile/>
   <tile/>
   <tile/>
   <tile/>
   <tile/>
   <tile/>
   <tile/>
   <tile/>
   <tile/>
   <tile/>
   <tile/>
   <tile/>
   <tile/>
   <tile/>
   <tile/>
   <tile/>
   <tile gid="65"/>
   <tile gid="65"/>
   <tile gid="65"/>
   <tile gid="65"/>
   <tile/>
   <tile/>
   <tile/>
   <tile/>
   <tile/>
   <tile/>
   <tile/>
   <tile/>
   <tile/>
   <tile/>
   <tile/>
   <tile/>
   <tile/>
   <tile/>
   <tile/>
   <tile/>
   <tile/>
   <tile/>
   <tile/>
   <tile/>
   <tile/>
   <tile/>
   <tile/>
   <tile/>
   <tile/>
   <tile/>
   <tile/>
   <tile/>
   <tile/>
   <tile/>
   <tile/>
   <tile/>
   <tile/>
   <tile/>
   <tile/>
   <tile/>
   <tile/>
   <tile/>
   <tile/>
   <tile/>
   <tile/>
   <tile gid="65"/>
   <tile gid="65"/>
   <tile gid="65"/>
   <tile gid="65"/>
   <tile/>
   <tile/>
   <tile/>
   <tile/>
   <tile/>
   <tile/>
   <tile/>
   <tile/>
   <tile/>
   <tile/>
   <tile/>
   <tile/>
   <tile/>
   <tile/>
   <tile/>
   <tile/>
   <tile/>
   <tile/>
   <tile/>
   <tile/>
   <tile/>
   <tile/>
   <tile/>
   <tile/>
   <tile/>
   <tile/>
   <tile/>
   <tile/>
   <tile/>
   <tile/>
   <tile/>
   <tile/>
   <tile/>
   <tile/>
   <tile/>
   <tile/>
   <tile/>
   <tile/>
   <tile/>
   <tile/>
   <tile/>
   <tile gid="65"/>
   <tile gid="65"/>
   <tile gid="65"/>
   <tile gid="65"/>
   <tile/>
   <tile/>
   <tile/>
   <tile/>
   <tile/>
   <tile/>
   <tile/>
   <tile/>
   <tile/>
   <tile/>
   <tile/>
   <tile/>
   <tile/>
   <tile/>
   <tile/>
   <tile/>
   <tile/>
   <tile/>
   <tile/>
   <tile/>
   <tile/>
   <tile/>
   <tile/>
   <tile/>
   <tile/>
   <tile/>
   <tile/>
   <tile/>
   <tile/>
   <tile/>
   <tile/>
   <tile/>
   <tile/>
   <tile/>
   <tile/>
   <tile/>
   <tile/>
   <tile/>
   <tile/>
   <tile/>
   <tile/>
   <tile gid="65"/>
   <tile gid="65"/>
   <tile gid="65"/>
   <tile gid="65"/>
   <tile/>
   <tile/>
   <tile/>
   <tile/>
   <tile/>
   <tile/>
   <tile/>
   <tile/>
   <tile/>
   <tile/>
   <tile/>
   <tile/>
   <tile/>
   <tile/>
   <tile/>
   <tile/>
   <tile/>
   <tile/>
   <tile/>
   <tile/>
   <tile/>
   <tile/>
   <tile/>
   <tile/>
   <tile/>
   <tile/>
   <tile/>
   <tile/>
   <tile/>
   <tile/>
   <tile/>
   <tile/>
   <tile/>
   <tile/>
   <tile/>
   <tile/>
   <tile/>
   <tile/>
   <tile/>
   <tile/>
   <tile/>
   <tile gid="65"/>
   <tile gid="65"/>
   <tile gid="65"/>
   <tile gid="65"/>
   <tile/>
   <tile/>
   <tile/>
   <tile/>
   <tile/>
   <tile/>
   <tile/>
   <tile/>
   <tile/>
   <tile/>
   <tile/>
   <tile/>
   <tile/>
   <tile/>
   <tile/>
   <tile/>
   <tile/>
   <tile/>
   <tile/>
   <tile/>
   <tile/>
   <tile/>
   <tile/>
   <tile/>
   <tile/>
   <tile/>
   <tile/>
   <tile/>
   <tile/>
   <tile/>
   <tile/>
   <tile/>
   <tile/>
   <tile/>
   <tile/>
   <tile/>
   <tile/>
   <tile/>
   <tile/>
   <tile/>
   <tile/>
   <tile gid="65"/>
   <tile gid="65"/>
   <tile gid="65"/>
   <tile gid="65"/>
   <tile/>
   <tile/>
   <tile/>
   <tile/>
   <tile/>
   <tile/>
   <tile/>
   <tile/>
   <tile/>
   <tile/>
   <tile/>
   <tile/>
   <tile/>
   <tile/>
   <tile/>
   <tile/>
   <tile/>
   <tile/>
   <tile/>
   <tile/>
   <tile/>
   <tile/>
   <tile/>
   <tile/>
   <tile/>
   <tile/>
   <tile/>
   <tile/>
   <tile/>
   <tile/>
   <tile/>
   <tile/>
   <tile/>
   <tile/>
   <tile/>
   <tile/>
   <tile/>
   <tile/>
   <tile/>
   <tile/>
   <tile/>
   <tile gid="65"/>
   <tile gid="65"/>
   <tile gid="65"/>
   <tile gid="65"/>
   <tile/>
   <tile/>
   <tile/>
   <tile/>
   <tile/>
   <tile/>
   <tile/>
   <tile/>
   <tile/>
   <tile/>
   <tile/>
   <tile/>
   <tile/>
   <tile/>
   <tile/>
   <tile/>
   <tile/>
   <tile/>
   <tile/>
   <tile/>
   <tile/>
   <tile/>
   <tile/>
   <tile/>
   <tile/>
   <tile/>
   <tile/>
   <tile/>
   <tile/>
   <tile/>
   <tile/>
   <tile/>
   <tile/>
   <tile/>
   <tile/>
   <tile/>
   <tile/>
   <tile/>
   <tile/>
   <tile/>
   <tile/>
   <tile gid="65"/>
   <tile gid="65"/>
   <tile gid="65"/>
   <tile gid="65"/>
   <tile/>
   <tile/>
   <tile/>
   <tile/>
   <tile/>
   <tile/>
   <tile/>
   <tile/>
   <tile/>
   <tile/>
   <tile/>
   <tile/>
   <tile/>
   <tile/>
   <tile/>
   <tile/>
   <tile/>
   <tile/>
   <tile/>
   <tile/>
   <tile/>
   <tile/>
   <tile/>
   <tile/>
   <tile/>
   <tile/>
   <tile/>
   <tile/>
   <tile/>
   <tile/>
   <tile/>
   <tile/>
   <tile/>
   <tile/>
   <tile/>
   <tile/>
   <tile/>
   <tile/>
   <tile/>
   <tile/>
   <tile/>
   <tile gid="65"/>
   <tile gid="65"/>
   <tile gid="65"/>
   <tile gid="65"/>
   <tile/>
   <tile/>
   <tile/>
   <tile/>
   <tile/>
   <tile/>
   <tile/>
   <tile/>
   <tile/>
   <tile/>
   <tile/>
   <tile/>
   <tile/>
   <tile/>
   <tile/>
   <tile/>
   <tile/>
   <tile/>
   <tile/>
   <tile/>
   <tile/>
   <tile/>
   <tile/>
   <tile/>
   <tile/>
   <tile/>
   <tile/>
   <tile/>
   <tile/>
   <tile/>
   <tile/>
   <tile/>
   <tile/>
   <tile/>
   <tile/>
   <tile/>
   <tile/>
   <tile/>
   <tile/>
   <tile/>
   <tile/>
   <tile gid="65"/>
   <tile gid="65"/>
   <tile gid="65"/>
   <tile gid="65"/>
   <tile/>
   <tile/>
   <tile/>
   <tile/>
   <tile/>
   <tile/>
   <tile/>
   <tile/>
   <tile/>
   <tile/>
   <tile gid="65"/>
   <tile gid="65"/>
   <tile gid="65"/>
   <tile/>
   <tile/>
   <tile/>
   <tile/>
   <tile/>
   <tile/>
   <tile/>
   <tile gid="65"/>
   <tile gid="65"/>
   <tile gid="65"/>
   <tile/>
   <tile/>
   <tile/>
   <tile/>
   <tile/>
   <tile/>
   <tile/>
   <tile/>
   <tile/>
   <tile/>
   <tile/>
   <tile/>
   <tile/>
   <tile/>
   <tile/>
   <tile/>
   <tile/>
   <tile/>
   <tile gid="65"/>
   <tile gid="65"/>
   <tile gid="65"/>
   <tile gid="65"/>
   <tile gid="65"/>
   <tile gid="65"/>
   <tile gid="65"/>
   <tile/>
   <tile/>
   <tile/>
   <tile/>
   <tile/>
   <tile/>
   <tile/>
   <tile/>
   <tile/>
   <tile/>
   <tile/>
   <tile/>
   <tile/>
   <tile/>
   <tile/>
   <tile/>
   <tile/>
   <tile/>
   <tile/>
   <tile/>
   <tile/>
   <tile/>
   <tile/>
   <tile/>
   <tile/>
   <tile/>
   <tile/>
   <tile gid="65"/>
   <tile gid="65"/>
   <tile gid="65"/>
   <tile gid="65"/>
   <tile gid="65"/>
   <tile gid="65"/>
   <tile gid="65"/>
   <tile gid="65"/>
   <tile gid="65"/>
   <tile gid="65"/>
   <tile gid="65"/>
   <tile gid="65"/>
   <tile gid="65"/>
   <tile gid="65"/>
   <tile gid="65"/>
   <tile gid="65"/>
   <tile gid="65"/>
   <tile gid="65"/>
   <tile gid="65"/>
   <tile gid="65"/>
   <tile gid="65"/>
   <tile gid="65"/>
   <tile/>
   <tile/>
   <tile/>
   <tile/>
   <tile/>
   <tile/>
   <tile/>
   <tile/>
   <tile/>
   <tile/>
   <tile/>
   <tile/>
   <tile/>
   <tile/>
   <tile/>
   <tile/>
   <tile/>
   <tile/>
   <tile gid="65"/>
   <tile gid="65"/>
   <tile gid="65"/>
   <tile gid="65"/>
   <tile gid="65"/>
   <tile gid="65"/>
   <tile gid="65"/>
   <tile gid="65"/>
   <tile gid="65"/>
   <tile gid="65"/>
   <tile gid="65"/>
   <tile gid="65"/>
   <tile gid="65"/>
   <tile gid="65"/>
   <tile gid="65"/>
   <tile gid="65"/>
   <tile gid="65"/>
   <tile gid="65"/>
   <tile gid="65"/>
   <tile gid="65"/>
   <tile gid="65"/>
   <tile gid="65"/>
   <tile gid="65"/>
   <tile gid="65"/>
   <tile gid="65"/>
   <tile gid="65"/>
   <tile gid="65"/>
   <tile/>
   <tile/>
   <tile/>
   <tile/>
   <tile/>
   <tile/>
   <tile/>
   <tile/>
   <tile/>
   <tile/>
   <tile/>
   <tile/>
   <tile/>
   <tile/>
   <tile/>
   <tile/>
   <tile/>
   <tile/>
   <tile gid="65"/>
   <tile gid="65"/>
   <tile gid="65"/>
   <tile gid="65"/>
   <tile gid="65"/>
   <tile gid="65"/>
   <tile gid="65"/>
   <tile gid="65"/>
   <tile gid="65"/>
   <tile gid="65"/>
   <tile gid="65"/>
   <tile gid="65"/>
   <tile gid="65"/>
   <tile gid="65"/>
   <tile gid="65"/>
   <tile gid="65"/>
   <tile gid="65"/>
   <tile gid="65"/>
   <tile gid="65"/>
   <tile gid="65"/>
   <tile gid="65"/>
   <tile gid="65"/>
   <tile gid="65"/>
   <tile gid="65"/>
   <tile gid="65"/>
   <tile gid="65"/>
   <tile gid="65"/>
   <tile gid="65"/>
   <tile gid="65"/>
   <tile gid="65"/>
   <tile gid="65"/>
   <tile gid="65"/>
   <tile gid="65"/>
   <tile gid="65"/>
   <tile gid="65"/>
   <tile gid="65"/>
   <tile gid="65"/>
   <tile gid="65"/>
   <tile gid="65"/>
   <tile gid="65"/>
   <tile gid="65"/>
   <tile gid="65"/>
   <tile gid="65"/>
   <tile gid="65"/>
   <tile gid="65"/>
   <tile gid="65"/>
   <tile gid="65"/>
   <tile gid="65"/>
   <tile gid="65"/>
   <tile gid="65"/>
   <tile gid="65"/>
   <tile gid="65"/>
   <tile gid="65"/>
   <tile gid="65"/>
   <tile gid="65"/>
   <tile gid="65"/>
   <tile gid="65"/>
   <tile gid="65"/>
   <tile gid="65"/>
   <tile gid="65"/>
   <tile gid="65"/>
   <tile gid="65"/>
   <tile gid="65"/>
   <tile gid="65"/>
   <tile gid="65"/>
   <tile gid="65"/>
   <tile gid="65"/>
   <tile gid="65"/>
   <tile gid="65"/>
   <tile gid="65"/>
   <tile gid="65"/>
   <tile gid="65"/>
   <tile gid="65"/>
   <tile gid="65"/>
   <tile gid="65"/>
   <tile gid="65"/>
   <tile gid="65"/>
   <tile gid="65"/>
   <tile gid="65"/>
   <tile gid="65"/>
   <tile gid="65"/>
   <tile gid="65"/>
   <tile gid="65"/>
   <tile gid="65"/>
   <tile gid="65"/>
   <tile gid="65"/>
   <tile gid="65"/>
   <tile gid="65"/>
   <tile gid="65"/>
   <tile gid="65"/>
   <tile gid="65"/>
   <tile gid="65"/>
   <tile gid="65"/>
   <tile gid="65"/>
   <tile gid="65"/>
   <tile gid="65"/>
   <tile gid="65"/>
   <tile gid="65"/>
   <tile gid="65"/>
   <tile gid="65"/>
   <tile gid="65"/>
   <tile gid="65"/>
   <tile gid="65"/>
   <tile gid="65"/>
   <tile gid="65"/>
   <tile gid="65"/>
  </data>
 </layer>
 <objectgroup id="11" name="EntitiesSpawnPoints" visible="0">
  <object id="557" name="NinfaBoss " type="NinfaBoss" x="2558" y="2202">
   <point/>
  </object>
  <object id="697" name="Player" type="Player" x="4992" y="1792">
   <point/>
  </object>
 </objectgroup>
 <objectgroup id="15" name="PlayerSpawns" visible="0">
  <properties>
   <property name="PlayerSpawns" type="bool" value="true"/>
  </properties>
  <object id="696" name="Player" type="Player" x="5248" y="1792">
   <properties>
    <property name="FromRoom" type="file" value="Forest_04.tmx"/>
   </properties>
   <point/>
  </object>
 </objectgroup>
</map>
