<?xml version="1.0" encoding="UTF-8"?>
<map version="1.10" tiledversion="1.12.1" orientation="orthogonal" renderorder="right-down" width="127" height="60" tilewidth="128" tileheight="128" infinite="0" nextlayerid="28" nextobjectid="696">
 <properties>
  <property name="Ground" type="bool" value="true"/>
  <property name="Navigation" type="bool" value="true"/>
 </properties>
 <tileset firstgid="1" name="Espinas" tilewidth="128" tileheight="128" tilecount="64" columns="8">
  <image source="Forest/Archivo PSD Espinas.png" width="1024" height="1024"/>
 </tileset>
 <tileset firstgid="65" name="MapMetadata" tilewidth="128" tileheight="128" tilecount="2" columns="2">
  <image source="Pathfinding/MapMetadata.png" trans="ffffff" width="256" height="128"/>
 </tileset>
 <tileset firstgid="67" name="Atl_Montaña" tilewidth="128" tileheight="128" tilecount="64" columns="8">
  <image source="Montain/Tiles/Atl_Montaña.png" width="1024" height="1024"/>
  <wangsets>
   <wangset name="Mixes" type="mixed" tile="-1">
    <wangcolor name="MixTierra" color="#ff0000" tile="-1" probability="1"/>
    <wangcolor name="MixSuperficies" color="#00ff00" tile="-1" probability="1"/>
    <wangtile tileid="28" wangid="2,2,2,2,2,2,2,2"/>
    <wangtile tileid="30" wangid="2,2,2,2,2,2,2,2"/>
    <wangtile tileid="31" wangid="2,2,2,2,2,2,2,2"/>
    <wangtile tileid="36" wangid="1,1,1,1,1,1,1,1"/>
    <wangtile tileid="38" wangid="1,1,1,1,1,1,1,1"/>
    <wangtile tileid="39" wangid="1,1,1,1,1,1,1,1"/>
    <wangtile tileid="46" wangid="1,1,1,1,1,1,1,1"/>
    <wangtile tileid="47" wangid="1,1,1,1,1,1,1,1"/>
   </wangset>
  </wangsets>
 </tileset>
 <tileset firstgid="131" name="Atl_Cueva" tilewidth="128" tileheight="128" tilecount="64" columns="8">
  <image source="Montain/Tiles/Atl_Cueva.png" trans="ffffff" width="1024" height="1024"/>
 </tileset>
 <tileset firstgid="195" name="T_Arbustos" tilewidth="384" tileheight="307" tilecount="35" columns="7">
  <image source="Montain/Arbustos y Rocas/T_Arbustos.png" width="2688" height="1536"/>
 </tileset>
 <tileset firstgid="230" name="T_Nubes" tilewidth="1152" tileheight="384" tilecount="4" columns="1">
  <image source="Montain/Fondos/T_Nubes.png" width="1152" height="1536"/>
 </tileset>
 <tileset firstgid="234" name="T_Montaña" tilewidth="4096" tileheight="3025" tilecount="1" columns="1">
  <image source="Montain/Fondos/T_Montaña.png" width="4096" height="3025"/>
 </tileset>
 <tileset firstgid="235" name="T_Montaña_2" tilewidth="4096" tileheight="3025" tilecount="1" columns="1">
  <image source="Montain/Fondos/T_Montaña_2.png" width="4096" height="3025"/>
 </tileset>
 <tileset firstgid="236" name="T_Montaña_Castillo" tilewidth="4096" tileheight="3025" tilecount="1" columns="1">
  <image source="Montain/Fondos/T_Montaña_Castillo.png" width="4096" height="3025"/>
 </tileset>
 <tileset firstgid="237" name="Sol" tilewidth="2048" tileheight="2048" tilecount="1" columns="1">
  <image source="Montain/Fondos/Sol.png" width="2048" height="2048"/>
 </tileset>
 <tileset firstgid="238" name="Atl_Montaña_Fondo" tilewidth="2304" tileheight="2304" tilecount="1" columns="1">
  <image source="Montain/Fondos/Atl_Montaña_Fondo.png" width="2304" height="2304"/>
 </tileset>
 <tileset firstgid="239" name="Atl_Montaña_Arboles" tilewidth="2304" tileheight="2304" tilecount="1" columns="1">
  <image source="Montain/Fondos/Atl_Montaña_Arboles.png" width="2304" height="2304"/>
 </tileset>
 <tileset firstgid="240" name="T_Luz (1)" tilewidth="4096" tileheight="3025" tilecount="1" columns="1">
  <image source="Montain/luces/T_Luz (1).png" width="4096" height="3025"/>
 </tileset>
 <tileset firstgid="241" name="T_Luz_2" tilewidth="4096" tileheight="3025" tilecount="1" columns="1">
  <image source="Montain/luces/T_Luz_2.png" width="4096" height="3025"/>
 </tileset>
 <objectgroup id="23" name="Fondo_01">
  <properties>
   <property name="BG" type="bool" value="true"/>
   <property name="Draw" type="bool" value="true"/>
  </properties>
  <object id="597" gid="238" x="-48" y="8144" width="16432" height="8208"/>
 </objectgroup>
 <objectgroup id="24" name="Fondo_02">
  <properties>
   <property name="BG" type="bool" value="true"/>
   <property name="Draw" type="bool" value="true"/>
  </properties>
  <object id="584" gid="236" x="501.365" y="4689" width="5890.63" height="4682.99"/>
  <object id="590" gid="235" x="5400" y="8105" width="10144" height="7491.6"/>
  <object id="591" gid="234" x="-745.283" y="8121" width="10833.8" height="7505"/>
  <object id="592" gid="237" x="8291.64" y="2626.18" width="2048" height="2048"/>
  <object id="600" gid="234" x="11175.1" y="8151.5" width="7105.8" height="5713"/>
 </objectgroup>
 <objectgroup id="25" name="Fondo_04">
  <properties>
   <property name="BG" type="bool" value="true"/>
   <property name="Draw" type="bool" value="true"/>
  </properties>
  <object id="601" gid="231" x="5904" y="1768" width="1152" height="384"/>
  <object id="602" gid="230" x="6912" y="1328" width="1152" height="384"/>
  <object id="603" gid="230" x="5248" y="680" width="1152" height="384"/>
  <object id="604" gid="232" x="9488" y="1584" width="1152" height="384"/>
  <object id="605" gid="233" x="7320" y="1624" width="1152" height="384"/>
  <object id="606" gid="231" x="11224" y="1352" width="1152" height="384"/>
  <object id="607" gid="230" x="12864" y="1760" width="1152" height="384"/>
  <object id="608" gid="232" x="13768" y="856" width="1152" height="384"/>
  <object id="610" gid="231" x="2592" y="3308" width="1152" height="384"/>
  <object id="611" gid="233" x="3128" y="3628" width="1152" height="384"/>
  <object id="614" gid="218" x="13526" y="7546" width="384" height="307"/>
  <object id="615" gid="218" x="15228" y="4192.67" width="384" height="307"/>
  <object id="616" gid="225" x="14318.7" y="4174" width="384" height="307"/>
  <object id="617" gid="225" x="3922" y="4898" width="384" height="307"/>
  <object id="618" gid="217" x="7688" y="7462" width="384" height="307"/>
  <object id="619" gid="224" x="9808" y="7450" width="384" height="307"/>
  <object id="620" gid="223" x="12040" y="7448" width="384" height="307"/>
  <object id="621" gid="216" x="14714" y="7444" width="384" height="307"/>
  <object id="622" gid="216" x="15652" y="7444" width="384" height="307"/>
  <object id="623" gid="202" x="15028" y="6170" width="384" height="307"/>
  <object id="624" gid="202" x="14364" y="4511.33" width="384" height="307"/>
  <object id="625" gid="204" x="15372" y="4510" width="384" height="307"/>
  <object id="626" gid="203" x="14989" y="4513" width="384" height="307"/>
  <object id="628" gid="205" x="13764" y="4746.67" width="384" height="307"/>
  <object id="629" gid="198" x="15830" y="4744" width="384" height="307"/>
  <object id="630" gid="198" x="4408" y="7570" width="384" height="307"/>
  <object id="631" gid="220" x="1522" y="7444" width="384" height="307"/>
  <object id="632" gid="214" x="3348" y="7450" width="384" height="307"/>
  <object id="633" gid="214" x="3492" y="6180" width="384" height="307"/>
  <object id="634" gid="213" x="3078" y="5769" width="384" height="307"/>
  <object id="635" gid="228" x="3560" y="4872.67" width="384" height="307"/>
  <object id="636" gid="208" x="3630.67" y="2830" width="384" height="307"/>
  <object id="637" gid="199" x="2706" y="2842" width="384" height="307"/>
  <object id="638" gid="201" x="4309.33" y="2576.67" width="384" height="307"/>
  <object id="639" gid="208" x="4548" y="2192.67" width="384" height="307"/>
  <object id="641" gid="200" x="5462.55" y="2181.27" width="384" height="307"/>
  <object id="642" gid="199" x="6138.3" y="2199.45" width="384" height="307"/>
  <object id="643" gid="199" x="2044" y="3618" width="384" height="307"/>
  <object id="644" gid="208" x="1690" y="4112" width="384" height="307"/>
  <object id="646" gid="219" x="13971.6" y="1726.73" width="384" height="307"/>
  <object id="647" gid="226" x="13974.7" y="2144.91" width="384" height="307"/>
  <object id="648" gid="222" x="13638.3" y="2193.39" width="384" height="307"/>
  <object id="649" gid="215" x="11762.5" y="2199.45" width="384" height="307"/>
  <object id="650" gid="221" x="13047.4" y="2187.33" width="384" height="307"/>
  <object id="651" gid="228" x="12156.5" y="2181.27" width="384" height="307"/>
  <object id="652" gid="227" x="10328" y="2182" width="384" height="307"/>
  <object id="653" gid="227" x="8696" y="2186" width="384" height="307"/>
  <object id="654" gid="222" x="10732" y="2186" width="384" height="307"/>
  <object id="655" gid="215" x="9104" y="2190" width="384" height="307"/>
  <object id="656" gid="205" x="9772" y="2308.67" width="384" height="307"/>
  <object id="657" gid="198" x="11332.2" y="2332.79" width="384" height="307"/>
  <object id="658" gid="198" x="10050.4" y="3726.73" width="384" height="307"/>
  <object id="659" gid="198" x="11765.6" y="3226.73" width="384" height="307"/>
  <object id="660" gid="205" x="12992.8" y="3378.24" width="384" height="307"/>
  <object id="661" gid="205" x="12484" y="3728" width="384" height="307"/>
  <object id="662" gid="219" x="12824" y="3604" width="384" height="307"/>
  <object id="664" gid="198" x="13008" y="3194" width="384" height="307"/>
  <object id="665" gid="198" x="10159.5" y="3229.76" width="384" height="307"/>
  <object id="666" gid="205" x="8395.88" y="3214.61" width="384" height="307"/>
  <object id="667" gid="214" x="8450.42" y="3608.55" width="384" height="307"/>
  <object id="668" gid="214" x="9208" y="3599.45" width="384" height="307"/>
  <object id="669" gid="214" x="11029.2" y="3605.52" width="384" height="307"/>
  <object id="670" gid="217" x="7235.27" y="4378.24" width="384" height="307"/>
  <object id="671" gid="224" x="6086.79" y="4375.21" width="384" height="307"/>
  <object id="672" gid="197" x="7900" y="1836" width="384" height="307"/>
  <object id="673" gid="196" x="3761.33" y="5800.67" width="384" height="307"/>
  <object id="674" gid="196" x="5632.24" y="5275.21" width="384" height="307"/>
  <object id="675" gid="197" x="9177.7" y="5272.18" width="384" height="307"/>
  <object id="676" gid="197" x="11405" y="5272.18" width="384" height="307"/>
  <object id="677" gid="197" x="7392.85" y="5272.18" width="384" height="307"/>
  <object id="678" gid="196" x="7944.36" y="5290.36" width="384" height="307"/>
  <object id="679" gid="196" x="6283.76" y="5281.27" width="384" height="307"/>
  <object id="680" gid="198" x="6826.18" y="5160.06" width="384" height="307"/>
  <object id="681" gid="198" x="9898.91" y="5154" width="384" height="307"/>
  <object id="682" gid="205" x="8644.36" y="5135.82" width="384" height="307"/>
  <object id="683" gid="205" x="12150.4" y="5141.88" width="384" height="307"/>
  <object id="684" gid="197" x="13538.3" y="5281.27" width="384" height="307"/>
  <object id="685" gid="196" x="12732.2" y="5290.36" width="384" height="307"/>
  <object id="686" gid="219" x="14729.2" y="5102.48" width="384" height="307"/>
  <object id="687" gid="226" x="14738.3" y="5726.73" width="384" height="307"/>
  <object id="688" gid="199" x="14356" y="1426" width="384" height="307"/>
  <object id="689" gid="206" x="15652" y="1426" width="384" height="307"/>
  <object id="690" gid="200" x="15377.3" y="1419.33" width="384" height="307"/>
  <object id="691" gid="200" x="14510.7" y="1416.67" width="384" height="307"/>
 </objectgroup>
 <layer id="1" name="Map" width="127" height="60">
  <properties>
   <property name="Draw" type="bool" value="true"/>
  </properties>
  <data>
   <tile/>
   <tile/>
   <tile/>
   <tile/>
   <tile/>
   <tile/>
   <tile/>
   <tile/>
   <tile/>
   <tile/>
   <tile/>
   <tile/>
   <tile/>
   <tile/>
   <tile/>
   <tile/>
   <tile/>
   <tile/>
   <tile/>
   <tile/>
   <tile/>
   <tile/>
   <tile/>
   <tile/>
   <tile/>
   <tile/>
   <tile/>
   <tile/>
   <tile/>
   <tile/>
   <tile/>
   <tile/>
   <tile/>
   <tile/>
   <tile/>
   <tile/>
   <tile/>
   <tile/>
   <tile/>
   <tile/>
   <tile/>
   <tile/>
   <tile/>
   <tile/>
   <tile/>
   <tile/>
   <tile/>
   <tile/>
   <tile/>
   <tile/>
   <tile/>
   <tile/>
   <tile/>
   <tile/>
   <tile/>
   <tile/>
   <tile/>
   <tile/>
   <tile/>
   <tile/>
   <tile/>
   <tile/>
   <tile/>
   <tile/>
   <tile/>
   <tile/>
   <tile gid="158"/>
   <tile gid="159"/>
   <tile gid="159"/>
   <tile gid="159"/>
   <tile gid="157"/>
   <tile gid="159"/>
   <tile gid="157"/>
   <tile gid="159"/>
   <tile gid="159"/>
   <tile gid="167"/>
   <tile gid="167"/>
   <tile gid="167"/>
   <tile gid="167"/>
   <tile gid="167"/>
   <tile gid="167"/>
   <tile gid="167"/>
   <tile gid="167"/>
   <tile gid="167"/>
   <tile gid="167"/>
   <tile gid="167"/>
   <tile gid="167"/>
   <tile gid="167"/>
   <tile gid="167"/>
   <tile gid="167"/>
   <tile gid="167"/>
   <tile gid="167"/>
   <tile gid="167"/>
   <tile gid="167"/>
   <tile gid="167"/>
   <tile gid="167"/>
   <tile gid="167"/>
   <tile gid="167"/>
   <tile gid="167"/>
   <tile gid="167"/>
   <tile gid="167"/>
   <tile gid="167"/>
   <tile gid="167"/>
   <tile gid="167"/>
   <tile gid="167"/>
   <tile gid="167"/>
   <tile gid="167"/>
   <tile gid="167"/>
   <tile gid="167"/>
   <tile gid="167"/>
   <tile gid="167"/>
   <tile gid="167"/>
   <tile gid="167"/>
   <tile gid="167"/>
   <tile gid="167"/>
   <tile gid="167"/>
   <tile gid="167"/>
   <tile gid="167"/>
   <tile gid="167"/>
   <tile gid="167"/>
   <tile gid="167"/>
   <tile gid="167"/>
   <tile gid="167"/>
   <tile gid="167"/>
   <tile gid="167"/>
   <tile gid="159"/>
   <tile gid="157"/>
   <tile/>
   <tile/>
   <tile/>
   <tile/>
   <tile/>
   <tile/>
   <tile/>
   <tile/>
   <tile/>
   <tile/>
   <tile/>
   <tile/>
   <tile/>
   <tile/>
   <tile/>
   <tile/>
   <tile/>
   <tile/>
   <tile/>
   <tile/>
   <tile/>
   <tile/>
   <tile/>
   <tile/>
   <tile/>
   <tile/>
   <tile/>
   <tile/>
   <tile/>
   <tile/>
   <tile/>
   <tile/>
   <tile/>
   <tile/>
   <tile/>
   <tile/>
   <tile/>
   <tile/>
   <tile/>
   <tile/>
   <tile/>
   <tile/>
   <tile/>
   <tile/>
   <tile/>
   <tile/>
   <tile/>
   <tile/>
   <tile/>
   <tile/>
   <tile/>
   <tile/>
   <tile/>
   <tile/>
   <tile/>
   <tile/>
   <tile/>
   <tile/>
   <tile/>
   <tile/>
   <tile/>
   <tile/>
   <tile/>
   <tile/>
   <tile/>
   <tile/>
   <tile gid="158"/>
   <tile gid="157"/>
   <tile gid="149"/>
   <tile gid="157"/>
   <tile gid="159"/>
   <tile gid="149"/>
   <tile gid="157"/>
   <tile gid="167"/>
   <tile gid="167"/>
   <tile gid="175"/>
   <tile gid="175"/>
   <tile gid="175"/>
   <tile gid="175"/>
   <tile gid="175"/>
   <tile gid="175"/>
   <tile gid="175"/>
   <tile gid="175"/>
   <tile gid="175"/>
   <tile gid="175"/>
   <tile gid="175"/>
   <tile gid="175"/>
   <tile gid="175"/>
   <tile gid="175"/>
   <tile gid="175"/>
   <tile gid="175"/>
   <tile gid="175"/>
   <tile gid="175"/>
   <tile gid="175"/>
   <tile gid="175"/>
   <tile gid="175"/>
   <tile gid="175"/>
   <tile gid="175"/>
   <tile gid="175"/>
   <tile gid="175"/>
   <tile gid="175"/>
   <tile gid="175"/>
   <tile gid="175"/>
   <tile gid="175"/>
   <tile gid="175"/>
   <tile gid="175"/>
   <tile gid="175"/>
   <tile gid="175"/>
   <tile gid="175"/>
   <tile gid="175"/>
   <tile gid="175"/>
   <tile gid="175"/>
   <tile gid="175"/>
   <tile gid="175"/>
   <tile gid="175"/>
   <tile gid="175"/>
   <tile gid="175"/>
   <tile gid="175"/>
   <tile gid="175"/>
   <tile gid="175"/>
   <tile gid="175"/>
   <tile gid="175"/>
   <tile gid="175"/>
   <tile gid="175"/>
   <tile gid="175"/>
   <tile gid="159"/>
   <tile gid="149"/>
   <tile/>
   <tile/>
   <tile/>
   <tile/>
   <tile/>
   <tile/>
   <tile/>
   <tile/>
   <tile/>
   <tile/>
   <tile/>
   <tile/>
   <tile/>
   <tile/>
   <tile/>
   <tile/>
   <tile/>
   <tile/>
   <tile/>
   <tile/>
   <tile/>
   <tile/>
   <tile/>
   <tile/>
   <tile/>
   <tile/>
   <tile/>
   <tile/>
   <tile/>
   <tile/>
   <tile/>
   <tile/>
   <tile/>
   <tile/>
   <tile/>
   <tile/>
   <tile/>
   <tile/>
   <tile/>
   <tile/>
   <tile/>
   <tile/>
   <tile/>
   <tile/>
   <tile/>
   <tile/>
   <tile/>
   <tile/>
   <tile/>
   <tile/>
   <tile/>
   <tile/>
   <tile/>
   <tile/>
   <tile/>
   <tile/>
   <tile/>
   <tile/>
   <tile/>
   <tile/>
   <tile/>
   <tile/>
   <tile/>
   <tile/>
   <tile/>
   <tile/>
   <tile gid="158"/>
   <tile gid="159"/>
   <tile gid="165"/>
   <tile gid="159"/>
   <tile gid="159"/>
   <tile gid="149"/>
   <tile gid="159"/>
   <tile gid="175"/>
   <tile gid="176"/>
   <tile/>
   <tile/>
   <tile/>
   <tile/>
   <tile/>
   <tile/>
   <tile/>
   <tile/>
   <tile/>
   <tile/>
   <tile/>
   <tile/>
   <tile/>
   <tile/>
   <tile/>
   <tile/>
   <tile/>
   <tile/>
   <tile/>
   <tile/>
   <tile/>
   <tile/>
   <tile/>
   <tile/>
   <tile/>
   <tile/>
   <tile/>
   <tile/>
   <tile/>
   <tile/>
   <tile/>
   <tile/>
   <tile/>
   <tile/>
   <tile/>
   <tile/>
   <tile/>
   <tile/>
   <tile/>
   <tile/>
   <tile/>
   <tile/>
   <tile/>
   <tile/>
   <tile/>
   <tile/>
   <tile/>
   <tile/>
   <tile/>
   <tile/>
   <tile gid="158"/>
   <tile gid="157"/>
   <tile/>
   <tile/>
   <tile/>
   <tile/>
   <tile/>
   <tile/>
   <tile/>
   <tile/>
   <tile/>
   <tile/>
   <tile/>
   <tile/>
   <tile/>
   <tile/>
   <tile/>
   <tile/>
   <tile/>
   <tile/>
   <tile/>
   <tile/>
   <tile/>
   <tile/>
   <tile/>
   <tile/>
   <tile/>
   <tile/>
   <tile/>
   <tile/>
   <tile/>
   <tile/>
   <tile/>
   <tile/>
   <tile/>
   <tile/>
   <tile/>
   <tile/>
   <tile/>
   <tile/>
   <tile/>
   <tile/>
   <tile/>
   <tile/>
   <tile/>
   <tile/>
   <tile/>
   <tile/>
   <tile/>
   <tile/>
   <tile/>
   <tile/>
   <tile/>
   <tile/>
   <tile/>
   <tile/>
   <tile/>
   <tile/>
   <tile/>
   <tile/>
   <tile/>
   <tile/>
   <tile/>
   <tile/>
   <tile/>
   <tile/>
   <tile/>
   <tile/>
   <tile gid="158"/>
   <tile gid="165"/>
   <tile gid="159"/>
   <tile gid="159"/>
   <tile gid="165"/>
   <tile gid="157"/>
   <tile gid="160"/>
   <tile/>
   <tile/>
   <tile/>
   <tile/>
   <tile/>
   <tile/>
   <tile/>
   <tile/>
   <tile/>
   <tile/>
   <tile/>
   <tile/>
   <tile/>
   <tile/>
   <tile/>
   <tile/>
   <tile/>
   <tile/>
   <tile/>
   <tile/>
   <tile/>
   <tile/>
   <tile/>
   <tile/>
   <tile/>
   <tile/>
   <tile/>
   <tile/>
   <tile/>
   <tile/>
   <tile/>
   <tile/>
   <tile/>
   <tile/>
   <tile/>
   <tile/>
   <tile/>
   <tile/>
   <tile/>
   <tile/>
   <tile/>
   <tile/>
   <tile/>
   <tile/>
   <tile/>
   <tile/>
   <tile/>
   <tile/>
   <tile/>
   <tile/>
   <tile/>
   <tile/>
   <tile gid="158"/>
   <tile gid="165"/>
   <tile/>
   <tile/>
   <tile/>
   <tile/>
   <tile/>
   <tile/>
   <tile/>
   <tile/>
   <tile/>
   <tile/>
   <tile/>
   <tile/>
   <tile/>
   <tile/>
   <tile/>
   <tile/>
   <tile/>
   <tile/>
   <tile/>
   <tile/>
   <tile/>
   <tile/>
   <tile/>
   <tile/>
   <tile/>
   <tile/>
   <tile/>
   <tile/>
   <tile/>
   <tile/>
   <tile/>
   <tile/>
   <tile/>
   <tile/>
   <tile/>
   <tile/>
   <tile/>
   <tile/>
   <tile/>
   <tile/>
   <tile/>
   <tile/>
   <tile/>
   <tile/>
   <tile/>
   <tile/>
   <tile/>
   <tile/>
   <tile/>
   <tile/>
   <tile/>
   <tile/>
   <tile/>
   <tile/>
   <tile/>
   <tile/>
   <tile/>
   <tile/>
   <tile/>
   <tile/>
   <tile/>
   <tile/>
   <tile/>
   <tile/>
   <tile/>
   <tile/>
   <tile gid="158"/>
   <tile gid="159"/>
   <tile gid="165"/>
   <tile gid="157"/>
   <tile gid="157"/>
   <tile gid="167"/>
   <tile gid="168"/>
   <tile/>
   <tile/>
   <tile/>
   <tile/>
   <tile/>
   <tile/>
   <tile/>
   <tile/>
   <tile/>
   <tile/>
   <tile/>
   <tile/>
   <tile/>
   <tile/>
   <tile/>
   <tile/>
   <tile/>
   <tile/>
   <tile/>
   <tile/>
   <tile/>
   <tile/>
   <tile/>
   <tile/>
   <tile/>
   <tile/>
   <tile/>
   <tile/>
   <tile/>
   <tile/>
   <tile/>
   <tile/>
   <tile/>
   <tile/>
   <tile/>
   <tile/>
   <tile/>
   <tile/>
   <tile/>
   <tile/>
   <tile/>
   <tile/>
   <tile/>
   <tile/>
   <tile/>
   <tile/>
   <tile/>
   <tile/>
   <tile/>
   <tile/>
   <tile/>
   <tile/>
   <tile gid="158"/>
   <tile gid="149"/>
   <tile/>
   <tile/>
   <tile/>
   <tile/>
   <tile/>
   <tile/>
   <tile/>
   <tile/>
   <tile/>
   <tile/>
   <tile/>
   <tile/>
   <tile/>
   <tile/>
   <tile/>
   <tile/>
   <tile/>
   <tile/>
   <tile/>
   <tile/>
   <tile/>
   <tile/>
   <tile/>
   <tile/>
   <tile/>
   <tile/>
   <tile/>
   <tile/>
   <tile/>
   <tile/>
   <tile/>
   <tile/>
   <tile/>
   <tile/>
   <tile/>
   <tile/>
   <tile/>
   <tile/>
   <tile/>
   <tile/>
   <tile/>
   <tile/>
   <tile/>
   <tile/>
   <tile/>
   <tile/>
   <tile/>
   <tile/>
   <tile/>
   <tile/>
   <tile/>
   <tile/>
   <tile/>
   <tile/>
   <tile/>
   <tile/>
   <tile/>
   <tile/>
   <tile/>
   <tile/>
   <tile/>
   <tile/>
   <tile/>
   <tile/>
   <tile/>
   <tile/>
   <tile gid="158"/>
   <tile gid="159"/>
   <tile gid="165"/>
   <tile gid="159"/>
   <tile gid="159"/>
   <tile gid="175"/>
   <tile gid="176"/>
   <tile/>
   <tile/>
   <tile/>
   <tile/>
   <tile/>
   <tile/>
   <tile/>
   <tile/>
   <tile/>
   <tile/>
   <tile/>
   <tile/>
   <tile/>
   <tile/>
   <tile/>
   <tile/>
   <tile/>
   <tile/>
   <tile/>
   <tile/>
   <tile/>
   <tile/>
   <tile/>
   <tile/>
   <tile/>
   <tile/>
   <tile/>
   <tile/>
   <tile/>
   <tile/>
   <tile/>
   <tile/>
   <tile/>
   <tile/>
   <tile/>
   <tile/>
   <tile/>
   <tile/>
   <tile/>
   <tile/>
   <tile/>
   <tile/>
   <tile/>
   <tile/>
   <tile/>
   <tile/>
   <tile/>
   <tile/>
   <tile/>
   <tile/>
   <tile/>
   <tile/>
   <tile gid="158"/>
   <tile gid="157"/>
   <tile/>
   <tile/>
   <tile/>
   <tile/>
   <tile/>
   <tile/>
   <tile/>
   <tile/>
   <tile/>
   <tile/>
   <tile/>
   <tile/>
   <tile/>
   <tile/>
   <tile/>
   <tile/>
   <tile/>
   <tile/>
   <tile/>
   <tile/>
   <tile/>
   <tile/>
   <tile/>
   <tile/>
   <tile/>
   <tile/>
   <tile/>
   <tile/>
   <tile/>
   <tile/>
   <tile/>
   <tile/>
   <tile/>
   <tile/>
   <tile/>
   <tile/>
   <tile/>
   <tile/>
   <tile/>
   <tile/>
   <tile/>
   <tile/>
   <tile/>
   <tile/>
   <tile/>
   <tile/>
   <tile/>
   <tile/>
   <tile/>
   <tile/>
   <tile/>
   <tile/>
   <tile/>
   <tile/>
   <tile/>
   <tile/>
   <tile/>
   <tile/>
   <tile/>
   <tile/>
   <tile/>
   <tile/>
   <tile/>
   <tile/>
   <tile gid="150"/>
   <tile gid="151"/>
   <tile gid="159"/>
   <tile gid="157"/>
   <tile gid="157"/>
   <tile gid="165"/>
   <tile gid="168"/>
   <tile/>
   <tile/>
   <tile/>
   <tile/>
   <tile/>
   <tile/>
   <tile/>
   <tile/>
   <tile/>
   <tile/>
   <tile/>
   <tile/>
   <tile/>
   <tile/>
   <tile/>
   <tile/>
   <tile/>
   <tile/>
   <tile/>
   <tile/>
   <tile/>
   <tile/>
   <tile/>
   <tile/>
   <tile/>
   <tile/>
   <tile/>
   <tile/>
   <tile/>
   <tile/>
   <tile/>
   <tile/>
   <tile/>
   <tile/>
   <tile/>
   <tile/>
   <tile/>
   <tile/>
   <tile/>
   <tile/>
   <tile/>
   <tile/>
   <tile/>
   <tile/>
   <tile/>
   <tile/>
   <tile/>
   <tile/>
   <tile/>
   <tile/>
   <tile/>
   <tile/>
   <tile/>
   <tile/>
   <tile gid="158"/>
   <tile gid="159"/>
   <tile/>
   <tile/>
   <tile/>
   <tile/>
   <tile/>
   <tile/>
   <tile/>
   <tile/>
   <tile/>
   <tile/>
   <tile/>
   <tile/>
   <tile/>
   <tile/>
   <tile/>
   <tile/>
   <tile/>
   <tile/>
   <tile/>
   <tile/>
   <tile/>
   <tile/>
   <tile/>
   <tile/>
   <tile/>
   <tile/>
   <tile/>
   <tile/>
   <tile/>
   <tile/>
   <tile/>
   <tile/>
   <tile/>
   <tile/>
   <tile/>
   <tile/>
   <tile/>
   <tile/>
   <tile/>
   <tile/>
   <tile/>
   <tile/>
   <tile/>
   <tile/>
   <tile/>
   <tile/>
   <tile/>
   <tile/>
   <tile/>
   <tile/>
   <tile/>
   <tile/>
   <tile/>
   <tile/>
   <tile/>
   <tile/>
   <tile/>
   <tile/>
   <tile/>
   <tile/>
   <tile/>
   <tile/>
   <tile/>
   <tile/>
   <tile gid="158"/>
   <tile gid="159"/>
   <tile gid="149"/>
   <tile gid="159"/>
   <tile gid="167"/>
   <tile gid="167"/>
   <tile gid="176"/>
   <tile/>
   <tile/>
   <tile/>
   <tile/>
   <tile/>
   <tile/>
   <tile/>
   <tile/>
   <tile/>
   <tile/>
   <tile/>
   <tile/>
   <tile/>
   <tile/>
   <tile/>
   <tile/>
   <tile/>
   <tile/>
   <tile/>
   <tile/>
   <tile/>
   <tile/>
   <tile/>
   <tile/>
   <tile/>
   <tile/>
   <tile/>
   <tile/>
   <tile/>
   <tile/>
   <tile/>
   <tile/>
   <tile/>
   <tile/>
   <tile/>
   <tile/>
   <tile/>
   <tile/>
   <tile/>
   <tile/>
   <tile/>
   <tile/>
   <tile/>
   <tile/>
   <tile/>
   <tile/>
   <tile/>
   <tile/>
   <tile/>
   <tile/>
   <tile/>
   <tile/>
   <tile/>
   <tile/>
   <tile gid="158"/>
   <tile gid="165"/>
   <tile/>
   <tile/>
   <tile/>
   <tile/>
   <tile/>
   <tile/>
   <tile/>
   <tile/>
   <tile/>
   <tile/>
   <tile/>
   <tile/>
   <tile/>
   <tile/>
   <tile/>
   <tile/>
   <tile/>
   <tile/>
   <tile/>
   <tile/>
   <tile/>
   <tile/>
   <tile/>
   <tile/>
   <tile/>
   <tile/>
   <tile/>
   <tile/>
   <tile/>
   <tile/>
   <tile/>
   <tile/>
   <tile/>
   <tile/>
   <tile/>
   <tile/>
   <tile/>
   <tile/>
   <tile/>
   <tile/>
   <tile/>
   <tile/>
   <tile/>
   <tile/>
   <tile/>
   <tile/>
   <tile/>
   <tile/>
   <tile/>
   <tile/>
   <tile/>
   <tile/>
   <tile/>
   <tile/>
   <tile/>
   <tile/>
   <tile/>
   <tile/>
   <tile/>
   <tile/>
   <tile/>
   <tile/>
   <tile gid="150"/>
   <tile gid="151"/>
   <tile gid="149"/>
   <tile gid="159"/>
   <tile gid="167"/>
   <tile gid="167"/>
   <tile gid="175"/>
   <tile gid="176"/>
   <tile/>
   <tile/>
   <tile/>
   <tile/>
   <tile/>
   <tile/>
   <tile/>
   <tile/>
   <tile/>
   <tile/>
   <tile/>
   <tile/>
   <tile/>
   <tile/>
   <tile/>
   <tile/>
   <tile/>
   <tile/>
   <tile/>
   <tile/>
   <tile/>
   <tile/>
   <tile/>
   <tile/>
   <tile/>
   <tile/>
   <tile/>
   <tile/>
   <tile/>
   <tile/>
   <tile/>
   <tile/>
   <tile/>
   <tile/>
   <tile/>
   <tile/>
   <tile/>
   <tile/>
   <tile/>
   <tile/>
   <tile/>
   <tile/>
   <tile/>
   <tile/>
   <tile/>
   <tile/>
   <tile/>
   <tile/>
   <tile/>
   <tile/>
   <tile/>
   <tile/>
   <tile/>
   <tile/>
   <tile/>
   <tile gid="158"/>
   <tile gid="159"/>
   <tile/>
   <tile/>
   <tile/>
   <tile/>
   <tile/>
   <tile/>
   <tile/>
   <tile/>
   <tile/>
   <tile/>
   <tile/>
   <tile/>
   <tile/>
   <tile/>
   <tile/>
   <tile/>
   <tile/>
   <tile/>
   <tile/>
   <tile/>
   <tile/>
   <tile/>
   <tile/>
   <tile/>
   <tile/>
   <tile/>
   <tile/>
   <tile/>
   <tile/>
   <tile/>
   <tile/>
   <tile/>
   <tile/>
   <tile/>
   <tile/>
   <tile/>
   <tile/>
   <tile/>
   <tile/>
   <tile/>
   <tile/>
   <tile/>
   <tile/>
   <tile/>
   <tile/>
   <tile/>
   <tile/>
   <tile/>
   <tile/>
   <tile/>
   <tile/>
   <tile/>
   <tile/>
   <tile/>
   <tile/>
   <tile/>
   <tile/>
   <tile/>
   <tile/>
   <tile/>
   <tile/>
   <tile/>
   <tile gid="158"/>
   <tile gid="157"/>
   <tile gid="167"/>
   <tile gid="167"/>
   <tile gid="175"/>
   <tile gid="176"/>
   <tile/>
   <tile/>
   <tile/>
   <tile/>
   <tile/>
   <tile/>
   <tile/>
   <tile/>
   <tile/>
   <tile/>
   <tile/>
   <tile/>
   <tile/>
   <tile/>
   <tile/>
   <tile/>
   <tile/>
   <tile/>
   <tile/>
   <tile/>
   <tile/>
   <tile/>
   <tile/>
   <tile/>
   <tile/>
   <tile/>
   <tile/>
   <tile/>
   <tile/>
   <tile/>
   <tile/>
   <tile/>
   <tile/>
   <tile/>
   <tile/>
   <tile/>
   <tile/>
   <tile/>
   <tile/>
   <tile/>
   <tile/>
   <tile/>
   <tile/>
   <tile/>
   <tile/>
   <tile/>
   <tile/>
   <tile/>
   <tile/>
   <tile/>
   <tile/>
   <tile/>
   <tile/>
   <tile/>
   <tile/>
   <tile/>
   <tile/>
   <tile gid="158"/>
   <tile gid="165"/>
   <tile/>
   <tile/>
   <tile/>
   <tile/>
   <tile/>
   <tile/>
   <tile/>
   <tile/>
   <tile/>
   <tile/>
   <tile/>
   <tile/>
   <tile/>
   <tile/>
   <tile/>
   <tile/>
   <tile/>
   <tile/>
   <tile/>
   <tile/>
   <tile/>
   <tile/>
   <tile/>
   <tile/>
   <tile/>
   <tile/>
   <tile/>
   <tile/>
   <tile/>
   <tile/>
   <tile/>
   <tile/>
   <tile/>
   <tile/>
   <tile/>
   <tile/>
   <tile/>
   <tile/>
   <tile/>
   <tile/>
   <tile/>
   <tile/>
   <tile/>
   <tile/>
   <tile/>
   <tile/>
   <tile/>
   <tile/>
   <tile/>
   <tile/>
   <tile/>
   <tile/>
   <tile/>
   <tile/>
   <tile/>
   <tile/>
   <tile/>
   <tile/>
   <tile/>
   <tile/>
   <tile/>
   <tile/>
   <tile gid="166"/>
   <tile gid="167"/>
   <tile gid="175"/>
   <tile gid="176"/>
   <tile/>
   <tile/>
   <tile/>
   <tile/>
   <tile/>
   <tile/>
   <tile/>
   <tile/>
   <tile/>
   <tile/>
   <tile/>
   <tile/>
   <tile/>
   <tile/>
   <tile/>
   <tile/>
   <tile/>
   <tile/>
   <tile/>
   <tile/>
   <tile/>
   <tile/>
   <tile/>
   <tile/>
   <tile/>
   <tile/>
   <tile/>
   <tile/>
   <tile/>
   <tile/>
   <tile/>
   <tile/>
   <tile/>
   <tile/>
   <tile/>
   <tile/>
   <tile/>
   <tile/>
   <tile/>
   <tile/>
   <tile/>
   <tile/>
   <tile/>
   <tile/>
   <tile/>
   <tile/>
   <tile/>
   <tile/>
   <tile/>
   <tile/>
   <tile/>
   <tile/>
   <tile/>
   <tile/>
   <tile/>
   <tile/>
   <tile/>
   <tile/>
   <tile/>
   <tile gid="158"/>
   <tile gid="157"/>
   <tile/>
   <tile/>
   <tile/>
   <tile/>
   <tile/>
   <tile/>
   <tile/>
   <tile/>
   <tile/>
   <tile/>
   <tile/>
   <tile/>
   <tile/>
   <tile/>
   <tile/>
   <tile/>
   <tile/>
   <tile/>
   <tile/>
   <tile/>
   <tile/>
   <tile/>
   <tile/>
   <tile/>
   <tile/>
   <tile/>
   <tile/>
   <tile/>
   <tile/>
   <tile/>
   <tile/>
   <tile/>
   <tile/>
   <tile/>
   <tile/>
   <tile/>
   <tile/>
   <tile/>
   <tile/>
   <tile/>
   <tile/>
   <tile/>
   <tile/>
   <tile/>
   <tile/>
   <tile/>
   <tile/>
   <tile/>
   <tile/>
   <tile/>
   <tile/>
   <tile/>
   <tile/>
   <tile/>
   <tile/>
   <tile/>
   <tile/>
   <tile/>
   <tile/>
   <tile/>
   <tile/>
   <tile/>
   <tile gid="174"/>
   <tile gid="176"/>
   <tile/>
   <tile/>
   <tile/>
   <tile/>
   <tile/>
   <tile/>
   <tile/>
   <tile/>
   <tile/>
   <tile/>
   <tile/>
   <tile/>
   <tile/>
   <tile/>
   <tile/>
   <tile/>
   <tile/>
   <tile/>
   <tile/>
   <tile/>
   <tile/>
   <tile/>
   <tile/>
   <tile/>
   <tile/>
   <tile/>
   <tile/>
   <tile/>
   <tile/>
   <tile/>
   <tile/>
   <tile/>
   <tile/>
   <tile/>
   <tile/>
   <tile/>
   <tile/>
   <tile/>
   <tile/>
   <tile/>
   <tile/>
   <tile/>
   <tile/>
   <tile/>
   <tile/>
   <tile/>
   <tile/>
   <tile/>
   <tile gid="150"/>
   <tile gid="151"/>
   <tile gid="151"/>
   <tile gid="151"/>
   <tile gid="151"/>
   <tile gid="151"/>
   <tile gid="151"/>
   <tile gid="151"/>
   <tile gid="151"/>
   <tile gid="151"/>
   <tile gid="151"/>
   <tile gid="151"/>
   <tile gid="151"/>
   <tile gid="159"/>
   <tile gid="159"/>
   <tile/>
   <tile/>
   <tile/>
   <tile/>
   <tile/>
   <tile/>
   <tile/>
   <tile/>
   <tile/>
   <tile/>
   <tile/>
   <tile/>
   <tile/>
   <tile/>
   <tile/>
   <tile/>
   <tile/>
   <tile/>
   <tile/>
   <tile/>
   <tile/>
   <tile/>
   <tile/>
   <tile/>
   <tile/>
   <tile/>
   <tile/>
   <tile/>
   <tile/>
   <tile/>
   <tile/>
   <tile/>
   <tile/>
   <tile/>
   <tile/>
   <tile/>
   <tile/>
   <tile/>
   <tile/>
   <tile/>
   <tile/>
   <tile/>
   <tile/>
   <tile/>
   <tile/>
   <tile/>
   <tile/>
   <tile/>
   <tile/>
   <tile/>
   <tile/>
   <tile/>
   <tile/>
   <tile/>
   <tile/>
   <tile/>
   <tile/>
   <tile/>
   <tile/>
   <tile/>
   <tile/>
   <tile/>
   <tile/>
   <tile/>
   <tile/>
   <tile/>
   <tile/>
   <tile/>
   <tile/>
   <tile/>
   <tile/>
   <tile/>
   <tile/>
   <tile/>
   <tile/>
   <tile/>
   <tile/>
   <tile/>
   <tile/>
   <tile/>
   <tile/>
   <tile/>
   <tile/>
   <tile/>
   <tile/>
   <tile/>
   <tile/>
   <tile/>
   <tile/>
   <tile/>
   <tile/>
   <tile/>
   <tile/>
   <tile/>
   <tile/>
   <tile/>
   <tile/>
   <tile/>
   <tile/>
   <tile/>
   <tile/>
   <tile/>
   <tile/>
   <tile/>
   <tile/>
   <tile/>
   <tile/>
   <tile/>
   <tile/>
   <tile/>
   <tile/>
   <tile/>
   <tile gid="158"/>
   <tile gid="173"/>
   <tile gid="159"/>
   <tile gid="159"/>
   <tile gid="165"/>
   <tile gid="159"/>
   <tile gid="159"/>
   <tile gid="157"/>
   <tile gid="159"/>
   <tile gid="159"/>
   <tile gid="165"/>
   <tile gid="157"/>
   <tile gid="159"/>
   <tile gid="157"/>
   <tile gid="159"/>
   <tile/>
   <tile/>
   <tile/>
   <tile/>
   <tile/>
   <tile/>
   <tile/>
   <tile/>
   <tile/>
   <tile/>
   <tile/>
   <tile/>
   <tile/>
   <tile/>
   <tile/>
   <tile/>
   <tile/>
   <tile/>
   <tile/>
   <tile/>
   <tile/>
   <tile/>
   <tile/>
   <tile/>
   <tile/>
   <tile/>
   <tile/>
   <tile/>
   <tile/>
   <tile/>
   <tile/>
   <tile/>
   <tile/>
   <tile/>
   <tile/>
   <tile/>
   <tile/>
   <tile/>
   <tile/>
   <tile/>
   <tile/>
   <tile/>
   <tile/>
   <tile/>
   <tile/>
   <tile/>
   <tile/>
   <tile/>
   <tile/>
   <tile/>
   <tile/>
   <tile/>
   <tile/>
   <tile/>
   <tile/>
   <tile/>
   <tile/>
   <tile/>
   <tile/>
   <tile/>
   <tile/>
   <tile/>
   <tile/>
   <tile/>
   <tile/>
   <tile/>
   <tile/>
   <tile/>
   <tile/>
   <tile/>
   <tile/>
   <tile/>
   <tile/>
   <tile/>
   <tile/>
   <tile/>
   <tile/>
   <tile/>
   <tile/>
   <tile/>
   <tile/>
   <tile/>
   <tile/>
   <tile/>
   <tile/>
   <tile/>
   <tile/>
   <tile/>
   <tile/>
   <tile/>
   <tile/>
   <tile/>
   <tile/>
   <tile/>
   <tile/>
   <tile/>
   <tile/>
   <tile/>
   <tile/>
   <tile/>
   <tile/>
   <tile/>
   <tile/>
   <tile/>
   <tile/>
   <tile/>
   <tile/>
   <tile/>
   <tile/>
   <tile/>
   <tile/>
   <tile/>
   <tile gid="158"/>
   <tile gid="159"/>
   <tile gid="149"/>
   <tile gid="159"/>
   <tile gid="159"/>
   <tile gid="165"/>
   <tile gid="159"/>
   <tile gid="165"/>
   <tile gid="159"/>
   <tile gid="159"/>
   <tile gid="157"/>
   <tile gid="159"/>
   <tile gid="159"/>
   <tile gid="159"/>
   <tile gid="159"/>
   <tile/>
   <tile/>
   <tile/>
   <tile/>
   <tile/>
   <tile/>
   <tile/>
   <tile/>
   <tile/>
   <tile/>
   <tile/>
   <tile/>
   <tile/>
   <tile/>
   <tile/>
   <tile/>
   <tile/>
   <tile/>
   <tile/>
   <tile/>
   <tile/>
   <tile/>
   <tile/>
   <tile/>
   <tile/>
   <tile/>
   <tile/>
   <tile/>
   <tile/>
   <tile/>
   <tile/>
   <tile/>
   <tile/>
   <tile/>
   <tile/>
   <tile/>
   <tile/>
   <tile/>
   <tile/>
   <tile/>
   <tile/>
   <tile/>
   <tile/>
   <tile/>
   <tile/>
   <tile/>
   <tile/>
   <tile/>
   <tile/>
   <tile/>
   <tile/>
   <tile/>
   <tile/>
   <tile/>
   <tile/>
   <tile/>
   <tile/>
   <tile/>
   <tile/>
   <tile/>
   <tile/>
   <tile/>
   <tile/>
   <tile/>
   <tile/>
   <tile/>
   <tile/>
   <tile/>
   <tile/>
   <tile/>
   <tile/>
   <tile/>
   <tile/>
   <tile/>
   <tile/>
   <tile/>
   <tile/>
   <tile/>
   <tile/>
   <tile/>
   <tile/>
   <tile/>
   <tile/>
   <tile/>
   <tile/>
   <tile/>
   <tile/>
   <tile/>
   <tile/>
   <tile/>
   <tile/>
   <tile/>
   <tile/>
   <tile/>
   <tile/>
   <tile/>
   <tile/>
   <tile/>
   <tile/>
   <tile/>
   <tile/>
   <tile/>
   <tile/>
   <tile/>
   <tile/>
   <tile/>
   <tile/>
   <tile/>
   <tile/>
   <tile/>
   <tile/>
   <tile/>
   <tile gid="158"/>
   <tile gid="159"/>
   <tile gid="159"/>
   <tile gid="165"/>
   <tile gid="165"/>
   <tile gid="165"/>
   <tile gid="157"/>
   <tile gid="149"/>
   <tile gid="165"/>
   <tile gid="149"/>
   <tile gid="149"/>
   <tile gid="159"/>
   <tile gid="157"/>
   <tile gid="159"/>
   <tile gid="157"/>
   <tile/>
   <tile/>
   <tile/>
   <tile/>
   <tile/>
   <tile/>
   <tile/>
   <tile/>
   <tile/>
   <tile/>
   <tile/>
   <tile/>
   <tile/>
   <tile/>
   <tile/>
   <tile/>
   <tile/>
   <tile/>
   <tile/>
   <tile/>
   <tile/>
   <tile/>
   <tile/>
   <tile/>
   <tile/>
   <tile/>
   <tile/>
   <tile/>
   <tile/>
   <tile/>
   <tile/>
   <tile/>
   <tile/>
   <tile/>
   <tile/>
   <tile/>
   <tile/>
   <tile/>
   <tile/>
   <tile/>
   <tile/>
   <tile/>
   <tile/>
   <tile/>
   <tile/>
   <tile/>
   <tile/>
   <tile/>
   <tile/>
   <tile/>
   <tile/>
   <tile/>
   <tile/>
   <tile/>
   <tile/>
   <tile/>
   <tile/>
   <tile/>
   <tile/>
   <tile/>
   <tile gid="179"/>
   <tile/>
   <tile/>
   <tile/>
   <tile/>
   <tile/>
   <tile/>
   <tile/>
   <tile/>
   <tile/>
   <tile/>
   <tile/>
   <tile/>
   <tile/>
   <tile/>
   <tile/>
   <tile/>
   <tile/>
   <tile/>
   <tile/>
   <tile/>
   <tile/>
   <tile/>
   <tile/>
   <tile/>
   <tile/>
   <tile/>
   <tile/>
   <tile/>
   <tile/>
   <tile/>
   <tile/>
   <tile/>
   <tile/>
   <tile/>
   <tile/>
   <tile/>
   <tile/>
   <tile/>
   <tile/>
   <tile/>
   <tile/>
   <tile/>
   <tile/>
   <tile/>
   <tile/>
   <tile/>
   <tile/>
   <tile/>
   <tile/>
   <tile/>
   <tile/>
   <tile gid="158"/>
   <tile gid="173"/>
   <tile gid="165"/>
   <tile gid="159"/>
   <tile gid="159"/>
   <tile gid="149"/>
   <tile gid="159"/>
   <tile gid="165"/>
   <tile gid="159"/>
   <tile gid="159"/>
   <tile gid="157"/>
   <tile gid="159"/>
   <tile gid="159"/>
   <tile gid="165"/>
   <tile gid="159"/>
   <tile/>
   <tile/>
   <tile/>
   <tile/>
   <tile/>
   <tile/>
   <tile/>
   <tile/>
   <tile/>
   <tile/>
   <tile/>
   <tile/>
   <tile/>
   <tile/>
   <tile/>
   <tile/>
   <tile/>
   <tile/>
   <tile/>
   <tile/>
   <tile/>
   <tile/>
   <tile/>
   <tile/>
   <tile/>
   <tile/>
   <tile/>
   <tile/>
   <tile/>
   <tile/>
   <tile/>
   <tile/>
   <tile/>
   <tile/>
   <tile/>
   <tile/>
   <tile/>
   <tile/>
   <tile/>
   <tile/>
   <tile/>
   <tile/>
   <tile/>
   <tile gid="193"/>
   <tile/>
   <tile/>
   <tile/>
   <tile/>
   <tile/>
   <tile/>
   <tile/>
   <tile/>
   <tile gid="193"/>
   <tile/>
   <tile/>
   <tile/>
   <tile/>
   <tile/>
   <tile/>
   <tile gid="194"/>
   <tile gid="187"/>
   <tile/>
   <tile/>
   <tile/>
   <tile/>
   <tile/>
   <tile/>
   <tile/>
   <tile/>
   <tile/>
   <tile/>
   <tile/>
   <tile/>
   <tile/>
   <tile/>
   <tile/>
   <tile/>
   <tile/>
   <tile/>
   <tile/>
   <tile/>
   <tile/>
   <tile/>
   <tile/>
   <tile/>
   <tile/>
   <tile/>
   <tile/>
   <tile/>
   <tile/>
   <tile/>
   <tile/>
   <tile/>
   <tile/>
   <tile/>
   <tile/>
   <tile/>
   <tile/>
   <tile/>
   <tile/>
   <tile/>
   <tile/>
   <tile/>
   <tile/>
   <tile/>
   <tile/>
   <tile/>
   <tile/>
   <tile/>
   <tile/>
   <tile/>
   <tile/>
   <tile gid="158"/>
   <tile gid="159"/>
   <tile gid="165"/>
   <tile gid="157"/>
   <tile gid="159"/>
   <tile gid="159"/>
   <tile gid="165"/>
   <tile gid="149"/>
   <tile gid="165"/>
   <tile gid="159"/>
   <tile gid="159"/>
   <tile gid="159"/>
   <tile gid="159"/>
   <tile gid="159"/>
   <tile gid="157"/>
   <tile/>
   <tile/>
   <tile/>
   <tile/>
   <tile/>
   <tile/>
   <tile/>
   <tile/>
   <tile/>
   <tile/>
   <tile/>
   <tile/>
   <tile/>
   <tile/>
   <tile/>
   <tile/>
   <tile/>
   <tile/>
   <tile/>
   <tile/>
   <tile/>
   <tile/>
   <tile/>
   <tile/>
   <tile/>
   <tile/>
   <tile/>
   <tile/>
   <tile/>
   <tile/>
   <tile/>
   <tile/>
   <tile/>
   <tile/>
   <tile/>
   <tile/>
   <tile gid="150"/>
   <tile gid="151"/>
   <tile gid="151"/>
   <tile gid="151"/>
   <tile gid="151"/>
   <tile gid="151"/>
   <tile gid="151"/>
   <tile gid="151"/>
   <tile gid="151"/>
   <tile gid="151"/>
   <tile gid="151"/>
   <tile gid="151"/>
   <tile gid="151"/>
   <tile gid="151"/>
   <tile gid="151"/>
   <tile gid="151"/>
   <tile gid="151"/>
   <tile gid="151"/>
   <tile gid="151"/>
   <tile gid="151"/>
   <tile gid="151"/>
   <tile gid="151"/>
   <tile gid="151"/>
   <tile gid="151"/>
   <tile gid="151"/>
   <tile gid="151"/>
   <tile gid="151"/>
   <tile gid="151"/>
   <tile gid="151"/>
   <tile gid="151"/>
   <tile gid="151"/>
   <tile gid="151"/>
   <tile gid="151"/>
   <tile gid="151"/>
   <tile gid="151"/>
   <tile gid="151"/>
   <tile gid="151"/>
   <tile gid="151"/>
   <tile gid="151"/>
   <tile gid="151"/>
   <tile gid="151"/>
   <tile gid="151"/>
   <tile gid="151"/>
   <tile gid="151"/>
   <tile gid="151"/>
   <tile gid="151"/>
   <tile gid="151"/>
   <tile gid="151"/>
   <tile gid="151"/>
   <tile gid="151"/>
   <tile gid="151"/>
   <tile gid="151"/>
   <tile gid="151"/>
   <tile gid="151"/>
   <tile gid="151"/>
   <tile gid="151"/>
   <tile gid="151"/>
   <tile gid="151"/>
   <tile gid="151"/>
   <tile gid="151"/>
   <tile gid="151"/>
   <tile gid="151"/>
   <tile gid="151"/>
   <tile gid="151"/>
   <tile gid="151"/>
   <tile gid="151"/>
   <tile gid="151"/>
   <tile gid="151"/>
   <tile gid="151"/>
   <tile gid="151"/>
   <tile gid="151"/>
   <tile gid="151"/>
   <tile gid="151"/>
   <tile gid="151"/>
   <tile gid="151"/>
   <tile gid="151"/>
   <tile gid="159"/>
   <tile gid="159"/>
   <tile gid="159"/>
   <tile gid="159"/>
   <tile gid="159"/>
   <tile gid="159"/>
   <tile gid="165"/>
   <tile gid="159"/>
   <tile gid="165"/>
   <tile gid="159"/>
   <tile gid="159"/>
   <tile gid="157"/>
   <tile gid="165"/>
   <tile gid="159"/>
   <tile gid="159"/>
   <tile/>
   <tile/>
   <tile/>
   <tile/>
   <tile/>
   <tile/>
   <tile/>
   <tile/>
   <tile/>
   <tile/>
   <tile/>
   <tile/>
   <tile/>
   <tile/>
   <tile/>
   <tile/>
   <tile/>
   <tile/>
   <tile/>
   <tile/>
   <tile/>
   <tile/>
   <tile/>
   <tile/>
   <tile/>
   <tile/>
   <tile/>
   <tile/>
   <tile/>
   <tile/>
   <tile/>
   <tile/>
   <tile/>
   <tile/>
   <tile/>
   <tile/>
   <tile gid="158"/>
   <tile gid="159"/>
   <tile gid="157"/>
   <tile gid="159"/>
   <tile gid="159"/>
   <tile gid="165"/>
   <tile gid="159"/>
   <tile gid="165"/>
   <tile gid="159"/>
   <tile gid="157"/>
   <tile gid="159"/>
   <tile gid="159"/>
   <tile gid="165"/>
   <tile gid="159"/>
   <tile gid="159"/>
   <tile gid="165"/>
   <tile gid="159"/>
   <tile gid="165"/>
   <tile gid="159"/>
   <tile gid="157"/>
   <tile gid="159"/>
   <tile gid="165"/>
   <tile gid="149"/>
   <tile gid="165"/>
   <tile gid="159"/>
   <tile gid="159"/>
   <tile gid="159"/>
   <tile gid="159"/>
   <tile gid="157"/>
   <tile gid="159"/>
   <tile gid="165"/>
   <tile gid="159"/>
   <tile gid="159"/>
   <tile gid="157"/>
   <tile gid="159"/>
   <tile gid="159"/>
   <tile gid="159"/>
   <tile gid="165"/>
   <tile gid="159"/>
   <tile gid="159"/>
   <tile gid="159"/>
   <tile gid="159"/>
   <tile gid="157"/>
   <tile gid="159"/>
   <tile gid="159"/>
   <tile gid="159"/>
   <tile gid="159"/>
   <tile gid="165"/>
   <tile gid="159"/>
   <tile gid="159"/>
   <tile gid="159"/>
   <tile gid="157"/>
   <tile gid="165"/>
   <tile gid="159"/>
   <tile gid="165"/>
   <tile gid="159"/>
   <tile gid="159"/>
   <tile gid="157"/>
   <tile gid="159"/>
   <tile gid="159"/>
   <tile gid="159"/>
   <tile gid="165"/>
   <tile gid="159"/>
   <tile gid="159"/>
   <tile gid="165"/>
   <tile gid="159"/>
   <tile gid="159"/>
   <tile gid="159"/>
   <tile gid="157"/>
   <tile gid="159"/>
   <tile gid="157"/>
   <tile gid="159"/>
   <tile gid="159"/>
   <tile gid="157"/>
   <tile gid="159"/>
   <tile gid="157"/>
   <tile gid="159"/>
   <tile gid="159"/>
   <tile gid="159"/>
   <tile gid="159"/>
   <tile gid="165"/>
   <tile gid="157"/>
   <tile gid="159"/>
   <tile gid="159"/>
   <tile gid="149"/>
   <tile gid="157"/>
   <tile gid="157"/>
   <tile gid="157"/>
   <tile gid="159"/>
   <tile gid="159"/>
   <tile gid="157"/>
   <tile/>
   <tile/>
   <tile/>
   <tile/>
   <tile/>
   <tile/>
   <tile/>
   <tile/>
   <tile/>
   <tile/>
   <tile/>
   <tile/>
   <tile/>
   <tile/>
   <tile/>
   <tile/>
   <tile/>
   <tile/>
   <tile/>
   <tile/>
   <tile/>
   <tile/>
   <tile/>
   <tile/>
   <tile/>
   <tile/>
   <tile/>
   <tile/>
   <tile/>
   <tile/>
   <tile/>
   <tile/>
   <tile/>
   <tile/>
   <tile/>
   <tile gid="194"/>
   <tile gid="158"/>
   <tile gid="159"/>
   <tile gid="149"/>
   <tile gid="159"/>
   <tile gid="159"/>
   <tile gid="159"/>
   <tile gid="165"/>
   <tile gid="159"/>
   <tile gid="159"/>
   <tile gid="159"/>
   <tile gid="165"/>
   <tile gid="159"/>
   <tile gid="159"/>
   <tile gid="159"/>
   <tile gid="159"/>
   <tile gid="165"/>
   <tile gid="149"/>
   <tile gid="159"/>
   <tile gid="159"/>
   <tile gid="159"/>
   <tile gid="159"/>
   <tile gid="165"/>
   <tile gid="159"/>
   <tile gid="159"/>
   <tile gid="159"/>
   <tile gid="159"/>
   <tile gid="159"/>
   <tile gid="159"/>
   <tile gid="159"/>
   <tile gid="165"/>
   <tile gid="159"/>
   <tile gid="159"/>
   <tile gid="159"/>
   <tile gid="149"/>
   <tile gid="149"/>
   <tile gid="159"/>
   <tile gid="159"/>
   <tile gid="159"/>
   <tile gid="149"/>
   <tile gid="159"/>
   <tile gid="157"/>
   <tile gid="149"/>
   <tile gid="159"/>
   <tile gid="159"/>
   <tile gid="149"/>
   <tile gid="159"/>
   <tile gid="149"/>
   <tile gid="165"/>
   <tile gid="159"/>
   <tile gid="149"/>
   <tile gid="165"/>
   <tile gid="159"/>
   <tile gid="159"/>
   <tile gid="165"/>
   <tile gid="159"/>
   <tile gid="149"/>
   <tile gid="159"/>
   <tile gid="159"/>
   <tile gid="157"/>
   <tile gid="159"/>
   <tile gid="165"/>
   <tile gid="165"/>
   <tile gid="157"/>
   <tile gid="159"/>
   <tile gid="159"/>
   <tile gid="159"/>
   <tile gid="157"/>
   <tile gid="159"/>
   <tile gid="159"/>
   <tile gid="149"/>
   <tile gid="159"/>
   <tile gid="159"/>
   <tile gid="159"/>
   <tile gid="159"/>
   <tile gid="157"/>
   <tile gid="159"/>
   <tile gid="159"/>
   <tile gid="159"/>
   <tile gid="149"/>
   <tile gid="159"/>
   <tile gid="159"/>
   <tile gid="149"/>
   <tile gid="159"/>
   <tile gid="159"/>
   <tile gid="159"/>
   <tile gid="159"/>
   <tile gid="159"/>
   <tile gid="159"/>
   <tile gid="165"/>
   <tile gid="157"/>
   <tile gid="157"/>
   <tile/>
   <tile/>
   <tile/>
   <tile/>
   <tile/>
   <tile/>
   <tile/>
   <tile/>
   <tile/>
   <tile/>
   <tile/>
   <tile/>
   <tile/>
   <tile/>
   <tile/>
   <tile/>
   <tile/>
   <tile/>
   <tile/>
   <tile/>
   <tile/>
   <tile/>
   <tile/>
   <tile/>
   <tile/>
   <tile/>
   <tile/>
   <tile/>
   <tile/>
   <tile/>
   <tile/>
   <tile/>
   <tile/>
   <tile gid="150"/>
   <tile gid="151"/>
   <tile gid="151"/>
   <tile gid="145"/>
   <tile gid="159"/>
   <tile gid="159"/>
   <tile gid="159"/>
   <tile gid="159"/>
   <tile gid="159"/>
   <tile gid="159"/>
   <tile gid="159"/>
   <tile gid="149"/>
   <tile gid="159"/>
   <tile gid="173"/>
   <tile gid="173"/>
   <tile gid="173"/>
   <tile gid="157"/>
   <tile gid="157"/>
   <tile gid="157"/>
   <tile gid="173"/>
   <tile gid="157"/>
   <tile gid="157"/>
   <tile gid="173"/>
   <tile gid="165"/>
   <tile gid="157"/>
   <tile gid="157"/>
   <tile gid="157"/>
   <tile gid="173"/>
   <tile gid="165"/>
   <tile gid="159"/>
   <tile gid="159"/>
   <tile gid="149"/>
   <tile gid="159"/>
   <tile gid="159"/>
   <tile gid="157"/>
   <tile gid="149"/>
   <tile gid="159"/>
   <tile gid="159"/>
   <tile gid="159"/>
   <tile gid="157"/>
   <tile gid="159"/>
   <tile gid="159"/>
   <tile gid="157"/>
   <tile gid="149"/>
   <tile gid="159"/>
   <tile gid="159"/>
   <tile gid="149"/>
   <tile gid="159"/>
   <tile gid="159"/>
   <tile gid="165"/>
   <tile gid="159"/>
   <tile gid="159"/>
   <tile gid="149"/>
   <tile gid="159"/>
   <tile gid="165"/>
   <tile gid="159"/>
   <tile gid="165"/>
   <tile gid="149"/>
   <tile gid="159"/>
   <tile gid="157"/>
   <tile gid="165"/>
   <tile gid="159"/>
   <tile gid="165"/>
   <tile gid="165"/>
   <tile gid="159"/>
   <tile gid="149"/>
   <tile gid="159"/>
   <tile gid="157"/>
   <tile gid="159"/>
   <tile gid="159"/>
   <tile gid="157"/>
   <tile gid="159"/>
   <tile gid="165"/>
   <tile gid="159"/>
   <tile gid="159"/>
   <tile gid="159"/>
   <tile gid="159"/>
   <tile gid="159"/>
   <tile gid="157"/>
   <tile gid="159"/>
   <tile gid="159"/>
   <tile gid="159"/>
   <tile gid="159"/>
   <tile gid="159"/>
   <tile gid="159"/>
   <tile gid="159"/>
   <tile gid="157"/>
   <tile gid="159"/>
   <tile gid="159"/>
   <tile gid="159"/>
   <tile gid="159"/>
   <tile gid="149"/>
   <tile gid="157"/>
   <tile gid="159"/>
   <tile/>
   <tile/>
   <tile/>
   <tile/>
   <tile/>
   <tile/>
   <tile/>
   <tile/>
   <tile/>
   <tile/>
   <tile/>
   <tile/>
   <tile/>
   <tile/>
   <tile/>
   <tile/>
   <tile/>
   <tile/>
   <tile/>
   <tile/>
   <tile/>
   <tile gid="193"/>
   <tile/>
   <tile gid="193"/>
   <tile/>
   <tile/>
   <tile/>
   <tile/>
   <tile/>
   <tile/>
   <tile/>
   <tile/>
   <tile gid="193"/>
   <tile gid="158"/>
   <tile gid="159"/>
   <tile gid="159"/>
   <tile gid="159"/>
   <tile gid="159"/>
   <tile gid="159"/>
   <tile gid="167"/>
   <tile gid="167"/>
   <tile gid="167"/>
   <tile gid="167"/>
   <tile gid="167"/>
   <tile gid="167"/>
   <tile gid="167"/>
   <tile gid="167"/>
   <tile gid="167"/>
   <tile gid="167"/>
   <tile gid="167"/>
   <tile gid="167"/>
   <tile gid="167"/>
   <tile gid="167"/>
   <tile gid="167"/>
   <tile gid="167"/>
   <tile gid="167"/>
   <tile gid="167"/>
   <tile gid="167"/>
   <tile gid="167"/>
   <tile gid="167"/>
   <tile gid="167"/>
   <tile gid="167"/>
   <tile gid="167"/>
   <tile gid="167"/>
   <tile gid="167"/>
   <tile gid="159"/>
   <tile gid="159"/>
   <tile gid="159"/>
   <tile gid="159"/>
   <tile gid="149"/>
   <tile gid="159"/>
   <tile gid="157"/>
   <tile gid="159"/>
   <tile gid="149"/>
   <tile gid="159"/>
   <tile gid="159"/>
   <tile gid="159"/>
   <tile gid="159"/>
   <tile gid="149"/>
   <tile gid="159"/>
   <tile gid="159"/>
   <tile gid="159"/>
   <tile gid="149"/>
   <tile gid="159"/>
   <tile gid="159"/>
   <tile gid="159"/>
   <tile gid="149"/>
   <tile gid="159"/>
   <tile gid="165"/>
   <tile gid="159"/>
   <tile gid="165"/>
   <tile gid="159"/>
   <tile gid="157"/>
   <tile gid="159"/>
   <tile gid="157"/>
   <tile gid="159"/>
   <tile gid="157"/>
   <tile gid="159"/>
   <tile gid="157"/>
   <tile gid="159"/>
   <tile gid="159"/>
   <tile gid="157"/>
   <tile gid="159"/>
   <tile gid="159"/>
   <tile gid="159"/>
   <tile gid="159"/>
   <tile gid="159"/>
   <tile gid="149"/>
   <tile gid="159"/>
   <tile gid="165"/>
   <tile gid="165"/>
   <tile gid="159"/>
   <tile gid="159"/>
   <tile gid="159"/>
   <tile gid="159"/>
   <tile gid="159"/>
   <tile gid="159"/>
   <tile gid="159"/>
   <tile gid="157"/>
   <tile gid="157"/>
   <tile gid="157"/>
   <tile gid="157"/>
   <tile gid="159"/>
   <tile gid="159"/>
   <tile gid="157"/>
   <tile gid="157"/>
   <tile gid="159"/>
   <tile/>
   <tile/>
   <tile/>
   <tile/>
   <tile/>
   <tile/>
   <tile/>
   <tile/>
   <tile/>
   <tile/>
   <tile/>
   <tile/>
   <tile/>
   <tile/>
   <tile/>
   <tile/>
   <tile/>
   <tile/>
   <tile/>
   <tile/>
   <tile/>
   <tile gid="150"/>
   <tile gid="151"/>
   <tile gid="151"/>
   <tile gid="152"/>
   <tile/>
   <tile/>
   <tile/>
   <tile/>
   <tile gid="150"/>
   <tile gid="151"/>
   <tile gid="151"/>
   <tile gid="151"/>
   <tile gid="145"/>
   <tile gid="165"/>
   <tile gid="159"/>
   <tile gid="165"/>
   <tile gid="159"/>
   <tile gid="159"/>
   <tile gid="175"/>
   <tile gid="175"/>
   <tile gid="175"/>
   <tile gid="175"/>
   <tile gid="175"/>
   <tile gid="175"/>
   <tile gid="175"/>
   <tile gid="175"/>
   <tile gid="175"/>
   <tile gid="175"/>
   <tile gid="175"/>
   <tile gid="175"/>
   <tile gid="175"/>
   <tile gid="175"/>
   <tile gid="175"/>
   <tile gid="175"/>
   <tile gid="175"/>
   <tile gid="175"/>
   <tile gid="175"/>
   <tile gid="175"/>
   <tile gid="175"/>
   <tile gid="175"/>
   <tile gid="175"/>
   <tile gid="175"/>
   <tile gid="175"/>
   <tile gid="175"/>
   <tile gid="167"/>
   <tile gid="167"/>
   <tile gid="167"/>
   <tile gid="167"/>
   <tile gid="167"/>
   <tile gid="167"/>
   <tile gid="167"/>
   <tile gid="167"/>
   <tile gid="167"/>
   <tile gid="167"/>
   <tile gid="167"/>
   <tile gid="167"/>
   <tile gid="167"/>
   <tile gid="167"/>
   <tile gid="167"/>
   <tile gid="167"/>
   <tile gid="167"/>
   <tile gid="167"/>
   <tile gid="167"/>
   <tile gid="167"/>
   <tile gid="167"/>
   <tile gid="167"/>
   <tile gid="167"/>
   <tile gid="167"/>
   <tile gid="167"/>
   <tile gid="167"/>
   <tile gid="167"/>
   <tile gid="167"/>
   <tile gid="167"/>
   <tile gid="167"/>
   <tile gid="167"/>
   <tile gid="167"/>
   <tile gid="167"/>
   <tile gid="167"/>
   <tile gid="167"/>
   <tile gid="167"/>
   <tile gid="167"/>
   <tile gid="167"/>
   <tile gid="159"/>
   <tile gid="159"/>
   <tile gid="157"/>
   <tile gid="159"/>
   <tile gid="159"/>
   <tile gid="159"/>
   <tile gid="159"/>
   <tile gid="165"/>
   <tile gid="159"/>
   <tile gid="159"/>
   <tile gid="159"/>
   <tile gid="159"/>
   <tile gid="159"/>
   <tile gid="159"/>
   <tile gid="149"/>
   <tile gid="159"/>
   <tile gid="159"/>
   <tile gid="165"/>
   <tile gid="157"/>
   <tile gid="157"/>
   <tile gid="159"/>
   <tile gid="157"/>
   <tile gid="157"/>
   <tile gid="157"/>
   <tile/>
   <tile/>
   <tile/>
   <tile/>
   <tile/>
   <tile/>
   <tile/>
   <tile/>
   <tile/>
   <tile/>
   <tile/>
   <tile/>
   <tile/>
   <tile/>
   <tile/>
   <tile/>
   <tile/>
   <tile/>
   <tile/>
   <tile/>
   <tile/>
   <tile gid="158"/>
   <tile gid="159"/>
   <tile gid="173"/>
   <tile gid="160"/>
   <tile/>
   <tile/>
   <tile/>
   <tile/>
   <tile gid="158"/>
   <tile gid="159"/>
   <tile gid="159"/>
   <tile gid="159"/>
   <tile gid="159"/>
   <tile gid="159"/>
   <tile gid="159"/>
   <tile gid="159"/>
   <tile gid="159"/>
   <tile gid="160"/>
   <tile/>
   <tile/>
   <tile/>
   <tile/>
   <tile/>
   <tile/>
   <tile/>
   <tile/>
   <tile/>
   <tile/>
   <tile/>
   <tile/>
   <tile/>
   <tile/>
   <tile/>
   <tile/>
   <tile/>
   <tile/>
   <tile/>
   <tile/>
   <tile/>
   <tile/>
   <tile/>
   <tile/>
   <tile/>
   <tile/>
   <tile gid="174"/>
   <tile gid="175"/>
   <tile gid="175"/>
   <tile gid="175"/>
   <tile gid="175"/>
   <tile gid="175"/>
   <tile gid="175"/>
   <tile gid="175"/>
   <tile gid="175"/>
   <tile gid="175"/>
   <tile gid="175"/>
   <tile gid="175"/>
   <tile gid="175"/>
   <tile gid="175"/>
   <tile gid="175"/>
   <tile gid="175"/>
   <tile gid="175"/>
   <tile gid="175"/>
   <tile gid="175"/>
   <tile gid="175"/>
   <tile gid="175"/>
   <tile gid="175"/>
   <tile gid="175"/>
   <tile gid="175"/>
   <tile gid="175"/>
   <tile gid="175"/>
   <tile gid="175"/>
   <tile gid="175"/>
   <tile gid="175"/>
   <tile gid="175"/>
   <tile gid="175"/>
   <tile gid="175"/>
   <tile gid="175"/>
   <tile gid="175"/>
   <tile gid="175"/>
   <tile gid="175"/>
   <tile gid="175"/>
   <tile gid="175"/>
   <tile gid="159"/>
   <tile gid="159"/>
   <tile gid="159"/>
   <tile gid="159"/>
   <tile gid="159"/>
   <tile gid="159"/>
   <tile gid="157"/>
   <tile gid="165"/>
   <tile gid="165"/>
   <tile gid="149"/>
   <tile gid="159"/>
   <tile gid="159"/>
   <tile gid="159"/>
   <tile gid="159"/>
   <tile gid="159"/>
   <tile gid="165"/>
   <tile gid="165"/>
   <tile gid="165"/>
   <tile gid="159"/>
   <tile gid="157"/>
   <tile gid="157"/>
   <tile gid="157"/>
   <tile gid="159"/>
   <tile gid="159"/>
   <tile/>
   <tile/>
   <tile/>
   <tile/>
   <tile/>
   <tile/>
   <tile/>
   <tile/>
   <tile/>
   <tile/>
   <tile/>
   <tile/>
   <tile/>
   <tile/>
   <tile/>
   <tile/>
   <tile/>
   <tile/>
   <tile/>
   <tile/>
   <tile/>
   <tile gid="158"/>
   <tile gid="165"/>
   <tile gid="159"/>
   <tile gid="160"/>
   <tile/>
   <tile/>
   <tile/>
   <tile/>
   <tile gid="158"/>
   <tile gid="159"/>
   <tile gid="149"/>
   <tile gid="159"/>
   <tile gid="159"/>
   <tile gid="149"/>
   <tile gid="159"/>
   <tile gid="165"/>
   <tile gid="159"/>
   <tile gid="160"/>
   <tile/>
   <tile/>
   <tile/>
   <tile/>
   <tile/>
   <tile/>
   <tile/>
   <tile/>
   <tile/>
   <tile/>
   <tile/>
   <tile/>
   <tile/>
   <tile/>
   <tile/>
   <tile/>
   <tile/>
   <tile/>
   <tile/>
   <tile/>
   <tile/>
   <tile/>
   <tile/>
   <tile/>
   <tile/>
   <tile/>
   <tile/>
   <tile/>
   <tile/>
   <tile/>
   <tile/>
   <tile/>
   <tile/>
   <tile/>
   <tile/>
   <tile/>
   <tile/>
   <tile/>
   <tile/>
   <tile/>
   <tile/>
   <tile/>
   <tile/>
   <tile/>
   <tile/>
   <tile/>
   <tile/>
   <tile/>
   <tile/>
   <tile/>
   <tile/>
   <tile/>
   <tile/>
   <tile/>
   <tile/>
   <tile/>
   <tile/>
   <tile/>
   <tile/>
   <tile/>
   <tile/>
   <tile/>
   <tile/>
   <tile/>
   <tile gid="158"/>
   <tile gid="159"/>
   <tile gid="159"/>
   <tile gid="157"/>
   <tile gid="159"/>
   <tile gid="159"/>
   <tile gid="159"/>
   <tile gid="159"/>
   <tile gid="159"/>
   <tile gid="159"/>
   <tile gid="159"/>
   <tile gid="159"/>
   <tile gid="165"/>
   <tile gid="165"/>
   <tile gid="165"/>
   <tile gid="165"/>
   <tile gid="159"/>
   <tile gid="159"/>
   <tile gid="159"/>
   <tile gid="159"/>
   <tile gid="159"/>
   <tile gid="157"/>
   <tile gid="157"/>
   <tile gid="157"/>
   <tile/>
   <tile/>
   <tile/>
   <tile/>
   <tile/>
   <tile/>
   <tile/>
   <tile/>
   <tile/>
   <tile/>
   <tile/>
   <tile/>
   <tile/>
   <tile/>
   <tile/>
   <tile/>
   <tile/>
   <tile/>
   <tile/>
   <tile gid="150"/>
   <tile gid="151"/>
   <tile gid="159"/>
   <tile gid="159"/>
   <tile gid="173"/>
   <tile gid="160"/>
   <tile/>
   <tile/>
   <tile/>
   <tile/>
   <tile gid="158"/>
   <tile gid="165"/>
   <tile gid="159"/>
   <tile gid="165"/>
   <tile gid="159"/>
   <tile gid="159"/>
   <tile gid="165"/>
   <tile gid="159"/>
   <tile gid="159"/>
   <tile gid="160"/>
   <tile/>
   <tile/>
   <tile/>
   <tile/>
   <tile/>
   <tile/>
   <tile/>
   <tile/>
   <tile/>
   <tile/>
   <tile/>
   <tile/>
   <tile/>
   <tile/>
   <tile/>
   <tile/>
   <tile/>
   <tile/>
   <tile/>
   <tile/>
   <tile/>
   <tile/>
   <tile/>
   <tile/>
   <tile/>
   <tile/>
   <tile/>
   <tile/>
   <tile/>
   <tile/>
   <tile/>
   <tile/>
   <tile/>
   <tile/>
   <tile/>
   <tile/>
   <tile/>
   <tile/>
   <tile/>
   <tile/>
   <tile/>
   <tile/>
   <tile/>
   <tile/>
   <tile/>
   <tile/>
   <tile/>
   <tile/>
   <tile/>
   <tile/>
   <tile/>
   <tile/>
   <tile/>
   <tile/>
   <tile/>
   <tile/>
   <tile/>
   <tile/>
   <tile/>
   <tile/>
   <tile/>
   <tile/>
   <tile/>
   <tile/>
   <tile gid="158"/>
   <tile gid="159"/>
   <tile gid="149"/>
   <tile gid="159"/>
   <tile gid="159"/>
   <tile gid="159"/>
   <tile gid="159"/>
   <tile gid="159"/>
   <tile gid="159"/>
   <tile gid="159"/>
   <tile gid="159"/>
   <tile gid="159"/>
   <tile gid="159"/>
   <tile gid="159"/>
   <tile gid="159"/>
   <tile gid="159"/>
   <tile gid="159"/>
   <tile gid="159"/>
   <tile gid="159"/>
   <tile gid="159"/>
   <tile gid="159"/>
   <tile gid="159"/>
   <tile gid="159"/>
   <tile gid="159"/>
   <tile/>
   <tile/>
   <tile/>
   <tile/>
   <tile/>
   <tile/>
   <tile/>
   <tile/>
   <tile/>
   <tile/>
   <tile/>
   <tile/>
   <tile/>
   <tile/>
   <tile/>
   <tile/>
   <tile/>
   <tile/>
   <tile/>
   <tile gid="158"/>
   <tile gid="159"/>
   <tile gid="159"/>
   <tile gid="159"/>
   <tile gid="159"/>
   <tile gid="160"/>
   <tile/>
   <tile/>
   <tile/>
   <tile/>
   <tile gid="158"/>
   <tile gid="159"/>
   <tile gid="159"/>
   <tile gid="159"/>
   <tile gid="165"/>
   <tile gid="149"/>
   <tile gid="159"/>
   <tile gid="159"/>
   <tile gid="167"/>
   <tile gid="168"/>
   <tile/>
   <tile/>
   <tile/>
   <tile/>
   <tile/>
   <tile/>
   <tile/>
   <tile/>
   <tile/>
   <tile/>
   <tile/>
   <tile/>
   <tile/>
   <tile/>
   <tile/>
   <tile/>
   <tile/>
   <tile/>
   <tile/>
   <tile/>
   <tile/>
   <tile/>
   <tile/>
   <tile/>
   <tile/>
   <tile/>
   <tile/>
   <tile/>
   <tile/>
   <tile/>
   <tile/>
   <tile/>
   <tile/>
   <tile/>
   <tile/>
   <tile/>
   <tile/>
   <tile/>
   <tile/>
   <tile/>
   <tile/>
   <tile/>
   <tile/>
   <tile/>
   <tile/>
   <tile/>
   <tile/>
   <tile/>
   <tile/>
   <tile/>
   <tile/>
   <tile/>
   <tile/>
   <tile/>
   <tile/>
   <tile/>
   <tile/>
   <tile/>
   <tile/>
   <tile/>
   <tile/>
   <tile/>
   <tile/>
   <tile/>
   <tile gid="158"/>
   <tile gid="159"/>
   <tile gid="159"/>
   <tile gid="159"/>
   <tile gid="159"/>
   <tile gid="167"/>
   <tile gid="167"/>
   <tile gid="167"/>
   <tile gid="167"/>
   <tile gid="167"/>
   <tile gid="167"/>
   <tile gid="167"/>
   <tile gid="167"/>
   <tile gid="167"/>
   <tile gid="167"/>
   <tile gid="167"/>
   <tile gid="167"/>
   <tile gid="167"/>
   <tile gid="167"/>
   <tile gid="167"/>
   <tile gid="167"/>
   <tile gid="167"/>
   <tile gid="167"/>
   <tile gid="159"/>
   <tile/>
   <tile/>
   <tile/>
   <tile/>
   <tile/>
   <tile/>
   <tile/>
   <tile/>
   <tile/>
   <tile/>
   <tile/>
   <tile/>
   <tile/>
   <tile/>
   <tile/>
   <tile/>
   <tile/>
   <tile/>
   <tile/>
   <tile gid="158"/>
   <tile gid="159"/>
   <tile gid="159"/>
   <tile gid="159"/>
   <tile gid="159"/>
   <tile gid="160"/>
   <tile/>
   <tile/>
   <tile/>
   <tile/>
   <tile gid="158"/>
   <tile gid="159"/>
   <tile gid="149"/>
   <tile gid="159"/>
   <tile gid="159"/>
   <tile gid="159"/>
   <tile gid="159"/>
   <tile gid="159"/>
   <tile gid="175"/>
   <tile gid="176"/>
   <tile/>
   <tile/>
   <tile/>
   <tile/>
   <tile/>
   <tile/>
   <tile/>
   <tile/>
   <tile/>
   <tile/>
   <tile/>
   <tile/>
   <tile/>
   <tile/>
   <tile/>
   <tile/>
   <tile/>
   <tile/>
   <tile/>
   <tile/>
   <tile/>
   <tile/>
   <tile/>
   <tile/>
   <tile/>
   <tile gid="193"/>
   <tile gid="194"/>
   <tile/>
   <tile/>
   <tile/>
   <tile/>
   <tile gid="193"/>
   <tile/>
   <tile/>
   <tile/>
   <tile/>
   <tile gid="194"/>
   <tile/>
   <tile/>
   <tile/>
   <tile/>
   <tile/>
   <tile/>
   <tile/>
   <tile/>
   <tile gid="193"/>
   <tile/>
   <tile/>
   <tile/>
   <tile/>
   <tile gid="193"/>
   <tile/>
   <tile/>
   <tile/>
   <tile/>
   <tile/>
   <tile/>
   <tile gid="194"/>
   <tile/>
   <tile/>
   <tile/>
   <tile/>
   <tile/>
   <tile gid="193"/>
   <tile gid="158"/>
   <tile gid="159"/>
   <tile gid="159"/>
   <tile gid="159"/>
   <tile gid="159"/>
   <tile gid="182"/>
   <tile gid="184"/>
   <tile gid="184"/>
   <tile gid="181"/>
   <tile gid="182"/>
   <tile gid="184"/>
   <tile gid="184"/>
   <tile gid="183"/>
   <tile gid="184"/>
   <tile gid="182"/>
   <tile gid="181"/>
   <tile gid="183"/>
   <tile gid="184"/>
   <tile gid="182"/>
   <tile gid="184"/>
   <tile gid="183"/>
   <tile gid="184"/>
   <tile gid="182"/>
   <tile gid="159"/>
   <tile/>
   <tile/>
   <tile/>
   <tile/>
   <tile/>
   <tile/>
   <tile/>
   <tile/>
   <tile/>
   <tile/>
   <tile/>
   <tile/>
   <tile/>
   <tile/>
   <tile/>
   <tile/>
   <tile gid="150"/>
   <tile gid="151"/>
   <tile gid="151"/>
   <tile gid="159"/>
   <tile gid="159"/>
   <tile gid="157"/>
   <tile gid="159"/>
   <tile gid="159"/>
   <tile gid="160"/>
   <tile/>
   <tile/>
   <tile/>
   <tile/>
   <tile gid="158"/>
   <tile gid="159"/>
   <tile gid="159"/>
   <tile gid="159"/>
   <tile gid="159"/>
   <tile gid="159"/>
   <tile gid="167"/>
   <tile gid="168"/>
   <tile/>
   <tile/>
   <tile/>
   <tile/>
   <tile/>
   <tile/>
   <tile/>
   <tile/>
   <tile/>
   <tile/>
   <tile/>
   <tile/>
   <tile/>
   <tile/>
   <tile/>
   <tile/>
   <tile/>
   <tile/>
   <tile/>
   <tile/>
   <tile/>
   <tile/>
   <tile/>
   <tile/>
   <tile/>
   <tile/>
   <tile/>
   <tile gid="150"/>
   <tile gid="151"/>
   <tile gid="151"/>
   <tile gid="151"/>
   <tile gid="151"/>
   <tile gid="151"/>
   <tile gid="151"/>
   <tile gid="151"/>
   <tile gid="151"/>
   <tile gid="151"/>
   <tile gid="151"/>
   <tile gid="151"/>
   <tile gid="151"/>
   <tile gid="151"/>
   <tile gid="151"/>
   <tile gid="151"/>
   <tile gid="151"/>
   <tile gid="151"/>
   <tile gid="151"/>
   <tile gid="151"/>
   <tile gid="151"/>
   <tile gid="151"/>
   <tile gid="151"/>
   <tile gid="151"/>
   <tile gid="151"/>
   <tile gid="151"/>
   <tile gid="151"/>
   <tile gid="151"/>
   <tile gid="151"/>
   <tile gid="151"/>
   <tile gid="151"/>
   <tile gid="151"/>
   <tile gid="151"/>
   <tile gid="151"/>
   <tile gid="151"/>
   <tile gid="151"/>
   <tile gid="151"/>
   <tile gid="151"/>
   <tile gid="151"/>
   <tile gid="159"/>
   <tile gid="159"/>
   <tile gid="173"/>
   <tile gid="159"/>
   <tile gid="160"/>
   <tile/>
   <tile/>
   <tile/>
   <tile/>
   <tile/>
   <tile/>
   <tile/>
   <tile/>
   <tile/>
   <tile/>
   <tile/>
   <tile/>
   <tile/>
   <tile/>
   <tile/>
   <tile/>
   <tile/>
   <tile/>
   <tile gid="158"/>
   <tile/>
   <tile/>
   <tile/>
   <tile/>
   <tile/>
   <tile/>
   <tile/>
   <tile/>
   <tile/>
   <tile/>
   <tile/>
   <tile/>
   <tile/>
   <tile/>
   <tile/>
   <tile/>
   <tile gid="158"/>
   <tile gid="159"/>
   <tile gid="173"/>
   <tile gid="159"/>
   <tile gid="159"/>
   <tile gid="159"/>
   <tile gid="159"/>
   <tile gid="173"/>
   <tile gid="160"/>
   <tile/>
   <tile/>
   <tile/>
   <tile/>
   <tile gid="158"/>
   <tile gid="159"/>
   <tile gid="159"/>
   <tile gid="159"/>
   <tile gid="167"/>
   <tile gid="167"/>
   <tile gid="175"/>
   <tile gid="176"/>
   <tile/>
   <tile/>
   <tile/>
   <tile/>
   <tile/>
   <tile/>
   <tile/>
   <tile/>
   <tile/>
   <tile/>
   <tile/>
   <tile/>
   <tile/>
   <tile/>
   <tile/>
   <tile/>
   <tile/>
   <tile/>
   <tile/>
   <tile/>
   <tile/>
   <tile/>
   <tile/>
   <tile/>
   <tile/>
   <tile/>
   <tile/>
   <tile gid="1610612757"/>
   <tile gid="158"/>
   <tile gid="159"/>
   <tile gid="159"/>
   <tile gid="159"/>
   <tile gid="159"/>
   <tile gid="159"/>
   <tile gid="159"/>
   <tile gid="159"/>
   <tile gid="159"/>
   <tile gid="159"/>
   <tile gid="159"/>
   <tile gid="159"/>
   <tile gid="159"/>
   <tile gid="159"/>
   <tile gid="159"/>
   <tile gid="159"/>
   <tile gid="159"/>
   <tile gid="159"/>
   <tile gid="159"/>
   <tile gid="159"/>
   <tile gid="159"/>
   <tile gid="159"/>
   <tile gid="159"/>
   <tile gid="159"/>
   <tile gid="159"/>
   <tile gid="159"/>
   <tile gid="159"/>
   <tile gid="159"/>
   <tile gid="159"/>
   <tile gid="159"/>
   <tile gid="159"/>
   <tile gid="159"/>
   <tile gid="159"/>
   <tile gid="159"/>
   <tile gid="159"/>
   <tile gid="159"/>
   <tile gid="159"/>
   <tile gid="159"/>
   <tile gid="159"/>
   <tile gid="159"/>
   <tile gid="173"/>
   <tile gid="159"/>
   <tile gid="160"/>
   <tile/>
   <tile/>
   <tile/>
   <tile/>
   <tile/>
   <tile/>
   <tile/>
   <tile/>
   <tile/>
   <tile/>
   <tile/>
   <tile/>
   <tile/>
   <tile/>
   <tile/>
   <tile/>
   <tile/>
   <tile/>
   <tile gid="158"/>
   <tile/>
   <tile/>
   <tile/>
   <tile/>
   <tile/>
   <tile/>
   <tile/>
   <tile/>
   <tile/>
   <tile/>
   <tile/>
   <tile/>
   <tile/>
   <tile/>
   <tile/>
   <tile/>
   <tile gid="158"/>
   <tile gid="157"/>
   <tile gid="159"/>
   <tile gid="157"/>
   <tile gid="159"/>
   <tile gid="149"/>
   <tile gid="159"/>
   <tile gid="159"/>
   <tile gid="160"/>
   <tile/>
   <tile/>
   <tile/>
   <tile/>
   <tile gid="158"/>
   <tile gid="159"/>
   <tile gid="159"/>
   <tile gid="167"/>
   <tile gid="175"/>
   <tile gid="176"/>
   <tile/>
   <tile/>
   <tile/>
   <tile/>
   <tile/>
   <tile/>
   <tile/>
   <tile/>
   <tile/>
   <tile/>
   <tile/>
   <tile/>
   <tile/>
   <tile/>
   <tile/>
   <tile/>
   <tile/>
   <tile/>
   <tile/>
   <tile/>
   <tile/>
   <tile/>
   <tile/>
   <tile/>
   <tile gid="140"/>
   <tile/>
   <tile/>
   <tile/>
   <tile/>
   <tile gid="1610612756"/>
   <tile gid="158"/>
   <tile gid="159"/>
   <tile gid="159"/>
   <tile gid="159"/>
   <tile gid="159"/>
   <tile gid="165"/>
   <tile gid="159"/>
   <tile gid="159"/>
   <tile gid="159"/>
   <tile gid="165"/>
   <tile gid="159"/>
   <tile gid="159"/>
   <tile gid="159"/>
   <tile gid="159"/>
   <tile gid="159"/>
   <tile gid="159"/>
   <tile gid="159"/>
   <tile gid="159"/>
   <tile gid="159"/>
   <tile gid="159"/>
   <tile gid="159"/>
   <tile gid="159"/>
   <tile gid="165"/>
   <tile gid="173"/>
   <tile gid="173"/>
   <tile gid="159"/>
   <tile gid="159"/>
   <tile gid="159"/>
   <tile gid="159"/>
   <tile gid="159"/>
   <tile gid="159"/>
   <tile gid="159"/>
   <tile gid="159"/>
   <tile gid="159"/>
   <tile gid="159"/>
   <tile gid="159"/>
   <tile gid="159"/>
   <tile gid="159"/>
   <tile gid="159"/>
   <tile gid="159"/>
   <tile gid="173"/>
   <tile gid="159"/>
   <tile gid="160"/>
   <tile/>
   <tile/>
   <tile/>
   <tile/>
   <tile/>
   <tile/>
   <tile/>
   <tile/>
   <tile/>
   <tile/>
   <tile/>
   <tile/>
   <tile/>
   <tile/>
   <tile/>
   <tile/>
   <tile/>
   <tile/>
   <tile gid="158"/>
   <tile/>
   <tile/>
   <tile/>
   <tile/>
   <tile/>
   <tile/>
   <tile/>
   <tile/>
   <tile/>
   <tile/>
   <tile/>
   <tile/>
   <tile/>
   <tile/>
   <tile/>
   <tile/>
   <tile gid="158"/>
   <tile gid="159"/>
   <tile gid="159"/>
   <tile gid="159"/>
   <tile gid="159"/>
   <tile gid="159"/>
   <tile gid="173"/>
   <tile gid="159"/>
   <tile gid="160"/>
   <tile/>
   <tile/>
   <tile/>
   <tile/>
   <tile gid="158"/>
   <tile gid="159"/>
   <tile gid="167"/>
   <tile gid="176"/>
   <tile/>
   <tile/>
   <tile/>
   <tile/>
   <tile/>
   <tile/>
   <tile/>
   <tile/>
   <tile/>
   <tile/>
   <tile/>
   <tile/>
   <tile/>
   <tile/>
   <tile/>
   <tile gid="140"/>
   <tile/>
   <tile/>
   <tile/>
   <tile/>
   <tile/>
   <tile/>
   <tile/>
   <tile/>
   <tile/>
   <tile/>
   <tile/>
   <tile/>
   <tile/>
   <tile/>
   <tile/>
   <tile gid="1610612756"/>
   <tile gid="158"/>
   <tile gid="159"/>
   <tile gid="159"/>
   <tile gid="159"/>
   <tile gid="159"/>
   <tile gid="159"/>
   <tile gid="173"/>
   <tile gid="159"/>
   <tile gid="159"/>
   <tile gid="159"/>
   <tile gid="159"/>
   <tile gid="159"/>
   <tile gid="159"/>
   <tile gid="159"/>
   <tile gid="159"/>
   <tile gid="159"/>
   <tile gid="173"/>
   <tile gid="165"/>
   <tile gid="159"/>
   <tile gid="159"/>
   <tile gid="173"/>
   <tile gid="173"/>
   <tile gid="173"/>
   <tile gid="173"/>
   <tile gid="173"/>
   <tile gid="159"/>
   <tile gid="159"/>
   <tile gid="159"/>
   <tile gid="165"/>
   <tile gid="159"/>
   <tile gid="159"/>
   <tile gid="165"/>
   <tile gid="159"/>
   <tile gid="173"/>
   <tile gid="159"/>
   <tile gid="173"/>
   <tile gid="159"/>
   <tile gid="159"/>
   <tile gid="159"/>
   <tile gid="159"/>
   <tile gid="173"/>
   <tile gid="159"/>
   <tile gid="160"/>
   <tile/>
   <tile/>
   <tile/>
   <tile/>
   <tile/>
   <tile/>
   <tile/>
   <tile/>
   <tile/>
   <tile/>
   <tile/>
   <tile/>
   <tile/>
   <tile/>
   <tile/>
   <tile/>
   <tile/>
   <tile/>
   <tile gid="158"/>
   <tile/>
   <tile/>
   <tile/>
   <tile/>
   <tile/>
   <tile/>
   <tile/>
   <tile/>
   <tile/>
   <tile/>
   <tile/>
   <tile/>
   <tile/>
   <tile/>
   <tile gid="150"/>
   <tile gid="151"/>
   <tile gid="159"/>
   <tile gid="159"/>
   <tile gid="157"/>
   <tile gid="159"/>
   <tile gid="149"/>
   <tile gid="159"/>
   <tile gid="159"/>
   <tile gid="159"/>
   <tile gid="160"/>
   <tile/>
   <tile/>
   <tile/>
   <tile/>
   <tile gid="166"/>
   <tile gid="167"/>
   <tile gid="176"/>
   <tile/>
   <tile/>
   <tile/>
   <tile/>
   <tile/>
   <tile/>
   <tile/>
   <tile/>
   <tile/>
   <tile/>
   <tile/>
   <tile/>
   <tile/>
   <tile/>
   <tile/>
   <tile/>
   <tile/>
   <tile/>
   <tile/>
   <tile/>
   <tile/>
   <tile/>
   <tile/>
   <tile/>
   <tile/>
   <tile/>
   <tile/>
   <tile/>
   <tile/>
   <tile/>
   <tile/>
   <tile/>
   <tile gid="1610612755"/>
   <tile gid="158"/>
   <tile gid="159"/>
   <tile gid="159"/>
   <tile gid="159"/>
   <tile gid="173"/>
   <tile gid="159"/>
   <tile gid="159"/>
   <tile gid="159"/>
   <tile gid="165"/>
   <tile gid="159"/>
   <tile gid="173"/>
   <tile gid="173"/>
   <tile gid="165"/>
   <tile gid="159"/>
   <tile gid="159"/>
   <tile gid="159"/>
   <tile gid="159"/>
   <tile gid="159"/>
   <tile gid="173"/>
   <tile gid="165"/>
   <tile gid="165"/>
   <tile gid="165"/>
   <tile gid="159"/>
   <tile gid="165"/>
   <tile gid="165"/>
   <tile gid="165"/>
   <tile gid="165"/>
   <tile gid="165"/>
   <tile gid="159"/>
   <tile gid="159"/>
   <tile gid="165"/>
   <tile gid="165"/>
   <tile gid="159"/>
   <tile gid="159"/>
   <tile gid="159"/>
   <tile gid="173"/>
   <tile gid="159"/>
   <tile gid="159"/>
   <tile gid="159"/>
   <tile gid="173"/>
   <tile gid="159"/>
   <tile gid="159"/>
   <tile gid="160"/>
   <tile/>
   <tile/>
   <tile/>
   <tile/>
   <tile gid="137"/>
   <tile gid="191"/>
   <tile gid="151"/>
   <tile gid="151"/>
   <tile gid="151"/>
   <tile gid="151"/>
   <tile gid="151"/>
   <tile gid="151"/>
   <tile gid="151"/>
   <tile gid="152"/>
   <tile/>
   <tile/>
   <tile/>
   <tile/>
   <tile gid="158"/>
   <tile/>
   <tile/>
   <tile/>
   <tile/>
   <tile/>
   <tile/>
   <tile/>
   <tile/>
   <tile/>
   <tile/>
   <tile/>
   <tile/>
   <tile/>
   <tile/>
   <tile gid="158"/>
   <tile gid="159"/>
   <tile gid="149"/>
   <tile gid="159"/>
   <tile gid="159"/>
   <tile gid="173"/>
   <tile gid="159"/>
   <tile gid="173"/>
   <tile gid="173"/>
   <tile gid="157"/>
   <tile gid="160"/>
   <tile/>
   <tile/>
   <tile/>
   <tile/>
   <tile gid="174"/>
   <tile gid="176"/>
   <tile/>
   <tile/>
   <tile/>
   <tile/>
   <tile/>
   <tile/>
   <tile/>
   <tile/>
   <tile/>
   <tile/>
   <tile gid="148"/>
   <tile gid="25"/>
   <tile gid="26"/>
   <tile gid="27"/>
   <tile gid="27"/>
   <tile gid="27"/>
   <tile gid="27"/>
   <tile gid="27"/>
   <tile gid="27"/>
   <tile gid="27"/>
   <tile gid="27"/>
   <tile gid="27"/>
   <tile gid="27"/>
   <tile gid="27"/>
   <tile gid="27"/>
   <tile gid="27"/>
   <tile gid="27"/>
   <tile gid="27"/>
   <tile gid="27"/>
   <tile gid="27"/>
   <tile gid="27"/>
   <tile gid="28"/>
   <tile gid="29"/>
   <tile gid="150"/>
   <tile gid="159"/>
   <tile gid="159"/>
   <tile gid="159"/>
   <tile gid="159"/>
   <tile gid="159"/>
   <tile gid="159"/>
   <tile gid="165"/>
   <tile gid="159"/>
   <tile gid="159"/>
   <tile gid="159"/>
   <tile gid="159"/>
   <tile gid="159"/>
   <tile gid="159"/>
   <tile gid="173"/>
   <tile gid="159"/>
   <tile gid="159"/>
   <tile gid="159"/>
   <tile gid="159"/>
   <tile gid="173"/>
   <tile gid="159"/>
   <tile gid="159"/>
   <tile gid="165"/>
   <tile gid="159"/>
   <tile gid="159"/>
   <tile gid="159"/>
   <tile gid="159"/>
   <tile gid="173"/>
   <tile gid="173"/>
   <tile gid="173"/>
   <tile gid="173"/>
   <tile gid="173"/>
   <tile gid="173"/>
   <tile gid="173"/>
   <tile gid="173"/>
   <tile gid="173"/>
   <tile gid="159"/>
   <tile gid="173"/>
   <tile gid="173"/>
   <tile gid="173"/>
   <tile gid="173"/>
   <tile gid="173"/>
   <tile gid="173"/>
   <tile gid="160"/>
   <tile/>
   <tile/>
   <tile/>
   <tile/>
   <tile/>
   <tile/>
   <tile gid="1073741958"/>
   <tile gid="1073741960"/>
   <tile gid="1073741969"/>
   <tile gid="165"/>
   <tile gid="157"/>
   <tile gid="159"/>
   <tile gid="3221225608"/>
   <tile gid="3221225606"/>
   <tile/>
   <tile/>
   <tile/>
   <tile/>
   <tile gid="158"/>
   <tile/>
   <tile/>
   <tile/>
   <tile/>
   <tile/>
   <tile/>
   <tile/>
   <tile/>
   <tile/>
   <tile/>
   <tile/>
   <tile/>
   <tile/>
   <tile/>
   <tile gid="158"/>
   <tile gid="159"/>
   <tile gid="159"/>
   <tile gid="159"/>
   <tile gid="159"/>
   <tile gid="159"/>
   <tile gid="159"/>
   <tile gid="159"/>
   <tile gid="159"/>
   <tile gid="159"/>
   <tile gid="160"/>
   <tile/>
   <tile/>
   <tile/>
   <tile/>
   <tile/>
   <tile/>
   <tile/>
   <tile/>
   <tile/>
   <tile/>
   <tile/>
   <tile/>
   <tile/>
   <tile/>
   <tile gid="150"/>
   <tile gid="151"/>
   <tile gid="159"/>
   <tile gid="151"/>
   <tile gid="151"/>
   <tile gid="151"/>
   <tile gid="151"/>
   <tile gid="151"/>
   <tile gid="151"/>
   <tile gid="151"/>
   <tile gid="151"/>
   <tile gid="151"/>
   <tile gid="151"/>
   <tile gid="151"/>
   <tile gid="151"/>
   <tile gid="151"/>
   <tile gid="151"/>
   <tile gid="151"/>
   <tile gid="151"/>
   <tile gid="151"/>
   <tile gid="151"/>
   <tile gid="151"/>
   <tile gid="151"/>
   <tile gid="151"/>
   <tile gid="151"/>
   <tile gid="159"/>
   <tile gid="159"/>
   <tile gid="159"/>
   <tile gid="173"/>
   <tile gid="159"/>
   <tile gid="159"/>
   <tile gid="159"/>
   <tile gid="159"/>
   <tile gid="159"/>
   <tile gid="165"/>
   <tile gid="173"/>
   <tile gid="159"/>
   <tile gid="159"/>
   <tile gid="159"/>
   <tile gid="159"/>
   <tile gid="159"/>
   <tile gid="165"/>
   <tile gid="159"/>
   <tile gid="173"/>
   <tile gid="159"/>
   <tile gid="159"/>
   <tile gid="159"/>
   <tile gid="165"/>
   <tile gid="165"/>
   <tile gid="159"/>
   <tile gid="159"/>
   <tile gid="165"/>
   <tile gid="173"/>
   <tile gid="173"/>
   <tile gid="173"/>
   <tile gid="173"/>
   <tile gid="173"/>
   <tile gid="173"/>
   <tile gid="165"/>
   <tile gid="173"/>
   <tile gid="173"/>
   <tile gid="159"/>
   <tile gid="159"/>
   <tile gid="159"/>
   <tile gid="159"/>
   <tile gid="159"/>
   <tile gid="159"/>
   <tile gid="159"/>
   <tile gid="160"/>
   <tile/>
   <tile/>
   <tile/>
   <tile/>
   <tile/>
   <tile/>
   <tile/>
   <tile/>
   <tile gid="1073741959"/>
   <tile gid="1073741960"/>
   <tile gid="173"/>
   <tile gid="160"/>
   <tile/>
   <tile/>
   <tile/>
   <tile/>
   <tile/>
   <tile/>
   <tile gid="158"/>
   <tile/>
   <tile/>
   <tile/>
   <tile/>
   <tile/>
   <tile/>
   <tile/>
   <tile/>
   <tile/>
   <tile/>
   <tile/>
   <tile/>
   <tile/>
   <tile/>
   <tile gid="158"/>
   <tile gid="159"/>
   <tile gid="159"/>
   <tile gid="159"/>
   <tile gid="173"/>
   <tile gid="159"/>
   <tile gid="149"/>
   <tile gid="159"/>
   <tile gid="159"/>
   <tile gid="159"/>
   <tile gid="160"/>
   <tile/>
   <tile/>
   <tile/>
   <tile/>
   <tile/>
   <tile/>
   <tile/>
   <tile/>
   <tile/>
   <tile/>
   <tile/>
   <tile/>
   <tile/>
   <tile gid="137"/>
   <tile gid="145"/>
   <tile gid="159"/>
   <tile gid="159"/>
   <tile gid="165"/>
   <tile gid="159"/>
   <tile gid="159"/>
   <tile gid="159"/>
   <tile gid="159"/>
   <tile gid="159"/>
   <tile gid="165"/>
   <tile gid="159"/>
   <tile gid="159"/>
   <tile gid="149"/>
   <tile gid="165"/>
   <tile gid="159"/>
   <tile gid="159"/>
   <tile gid="159"/>
   <tile gid="159"/>
   <tile gid="159"/>
   <tile gid="159"/>
   <tile gid="159"/>
   <tile gid="159"/>
   <tile gid="159"/>
   <tile gid="159"/>
   <tile gid="159"/>
   <tile gid="165"/>
   <tile gid="159"/>
   <tile gid="159"/>
   <tile gid="159"/>
   <tile gid="159"/>
   <tile gid="173"/>
   <tile gid="173"/>
   <tile gid="159"/>
   <tile gid="159"/>
   <tile gid="159"/>
   <tile gid="159"/>
   <tile gid="159"/>
   <tile gid="165"/>
   <tile gid="159"/>
   <tile gid="159"/>
   <tile gid="159"/>
   <tile gid="173"/>
   <tile gid="173"/>
   <tile gid="159"/>
   <tile gid="159"/>
   <tile gid="159"/>
   <tile gid="159"/>
   <tile gid="159"/>
   <tile gid="165"/>
   <tile gid="165"/>
   <tile gid="159"/>
   <tile gid="159"/>
   <tile gid="159"/>
   <tile gid="159"/>
   <tile gid="159"/>
   <tile gid="159"/>
   <tile gid="159"/>
   <tile gid="159"/>
   <tile gid="159"/>
   <tile gid="173"/>
   <tile gid="173"/>
   <tile gid="173"/>
   <tile gid="173"/>
   <tile gid="159"/>
   <tile gid="159"/>
   <tile gid="159"/>
   <tile gid="159"/>
   <tile gid="159"/>
   <tile gid="160"/>
   <tile/>
   <tile/>
   <tile/>
   <tile/>
   <tile/>
   <tile/>
   <tile/>
   <tile/>
   <tile/>
   <tile/>
   <tile gid="158"/>
   <tile gid="160"/>
   <tile/>
   <tile/>
   <tile/>
   <tile/>
   <tile/>
   <tile/>
   <tile gid="158"/>
   <tile/>
   <tile/>
   <tile/>
   <tile/>
   <tile/>
   <tile/>
   <tile/>
   <tile/>
   <tile/>
   <tile/>
   <tile/>
   <tile/>
   <tile/>
   <tile gid="150"/>
   <tile gid="159"/>
   <tile gid="159"/>
   <tile gid="159"/>
   <tile gid="173"/>
   <tile gid="173"/>
   <tile gid="159"/>
   <tile gid="149"/>
   <tile gid="159"/>
   <tile gid="149"/>
   <tile gid="159"/>
   <tile gid="160"/>
   <tile/>
   <tile/>
   <tile/>
   <tile/>
   <tile/>
   <tile/>
   <tile/>
   <tile/>
   <tile/>
   <tile/>
   <tile gid="193"/>
   <tile gid="150"/>
   <tile gid="151"/>
   <tile gid="145"/>
   <tile gid="165"/>
   <tile gid="159"/>
   <tile gid="149"/>
   <tile gid="159"/>
   <tile gid="159"/>
   <tile gid="159"/>
   <tile gid="165"/>
   <tile gid="159"/>
   <tile gid="159"/>
   <tile gid="159"/>
   <tile gid="159"/>
   <tile gid="159"/>
   <tile gid="159"/>
   <tile gid="159"/>
   <tile gid="159"/>
   <tile gid="149"/>
   <tile gid="159"/>
   <tile gid="159"/>
   <tile gid="165"/>
   <tile gid="159"/>
   <tile gid="159"/>
   <tile gid="159"/>
   <tile gid="149"/>
   <tile gid="159"/>
   <tile gid="159"/>
   <tile gid="159"/>
   <tile gid="159"/>
   <tile gid="159"/>
   <tile gid="159"/>
   <tile gid="159"/>
   <tile gid="159"/>
   <tile gid="159"/>
   <tile gid="159"/>
   <tile gid="159"/>
   <tile gid="159"/>
   <tile gid="159"/>
   <tile gid="159"/>
   <tile gid="159"/>
   <tile gid="159"/>
   <tile gid="159"/>
   <tile gid="159"/>
   <tile gid="159"/>
   <tile gid="159"/>
   <tile gid="159"/>
   <tile gid="159"/>
   <tile gid="159"/>
   <tile gid="159"/>
   <tile gid="159"/>
   <tile gid="159"/>
   <tile gid="159"/>
   <tile gid="159"/>
   <tile gid="159"/>
   <tile gid="159"/>
   <tile gid="159"/>
   <tile gid="159"/>
   <tile gid="159"/>
   <tile gid="149"/>
   <tile gid="159"/>
   <tile gid="159"/>
   <tile gid="159"/>
   <tile gid="159"/>
   <tile gid="149"/>
   <tile gid="159"/>
   <tile gid="159"/>
   <tile gid="159"/>
   <tile gid="159"/>
   <tile gid="159"/>
   <tile gid="159"/>
   <tile gid="159"/>
   <tile gid="143"/>
   <tile gid="144"/>
   <tile/>
   <tile/>
   <tile/>
   <tile/>
   <tile/>
   <tile/>
   <tile/>
   <tile/>
   <tile gid="158"/>
   <tile gid="160"/>
   <tile/>
   <tile/>
   <tile/>
   <tile/>
   <tile gid="142"/>
   <tile gid="143"/>
   <tile gid="159"/>
   <tile/>
   <tile/>
   <tile/>
   <tile/>
   <tile/>
   <tile/>
   <tile/>
   <tile/>
   <tile/>
   <tile/>
   <tile/>
   <tile/>
   <tile/>
   <tile gid="158"/>
   <tile gid="159"/>
   <tile gid="159"/>
   <tile gid="159"/>
   <tile gid="159"/>
   <tile gid="159"/>
   <tile gid="159"/>
   <tile gid="159"/>
   <tile gid="173"/>
   <tile gid="173"/>
   <tile gid="159"/>
   <tile gid="160"/>
   <tile/>
   <tile/>
   <tile/>
   <tile/>
   <tile/>
   <tile/>
   <tile gid="135"/>
   <tile gid="136"/>
   <tile gid="151"/>
   <tile gid="151"/>
   <tile gid="151"/>
   <tile gid="145"/>
   <tile gid="159"/>
   <tile gid="165"/>
   <tile gid="159"/>
   <tile gid="159"/>
   <tile gid="167"/>
   <tile gid="167"/>
   <tile gid="167"/>
   <tile gid="167"/>
   <tile gid="167"/>
   <tile gid="167"/>
   <tile gid="167"/>
   <tile gid="167"/>
   <tile gid="167"/>
   <tile gid="167"/>
   <tile gid="167"/>
   <tile gid="167"/>
   <tile gid="167"/>
   <tile gid="167"/>
   <tile gid="167"/>
   <tile gid="167"/>
   <tile gid="167"/>
   <tile gid="167"/>
   <tile gid="167"/>
   <tile gid="167"/>
   <tile gid="167"/>
   <tile gid="167"/>
   <tile gid="167"/>
   <tile gid="167"/>
   <tile gid="167"/>
   <tile gid="167"/>
   <tile gid="167"/>
   <tile gid="167"/>
   <tile gid="167"/>
   <tile gid="167"/>
   <tile gid="167"/>
   <tile gid="167"/>
   <tile gid="167"/>
   <tile gid="167"/>
   <tile gid="167"/>
   <tile gid="167"/>
   <tile gid="167"/>
   <tile gid="167"/>
   <tile gid="167"/>
   <tile gid="167"/>
   <tile gid="167"/>
   <tile gid="167"/>
   <tile gid="167"/>
   <tile gid="167"/>
   <tile gid="167"/>
   <tile gid="167"/>
   <tile gid="167"/>
   <tile gid="167"/>
   <tile gid="167"/>
   <tile gid="167"/>
   <tile gid="167"/>
   <tile gid="167"/>
   <tile gid="167"/>
   <tile gid="167"/>
   <tile gid="167"/>
   <tile gid="167"/>
   <tile gid="167"/>
   <tile gid="167"/>
   <tile gid="167"/>
   <tile gid="167"/>
   <tile gid="167"/>
   <tile gid="167"/>
   <tile gid="167"/>
   <tile gid="167"/>
   <tile gid="167"/>
   <tile gid="167"/>
   <tile gid="168"/>
   <tile/>
   <tile/>
   <tile/>
   <tile/>
   <tile/>
   <tile/>
   <tile/>
   <tile/>
   <tile/>
   <tile/>
   <tile gid="158"/>
   <tile gid="160"/>
   <tile/>
   <tile/>
   <tile/>
   <tile/>
   <tile/>
   <tile/>
   <tile gid="158"/>
   <tile/>
   <tile/>
   <tile/>
   <tile/>
   <tile/>
   <tile/>
   <tile/>
   <tile/>
   <tile/>
   <tile/>
   <tile/>
   <tile/>
   <tile/>
   <tile gid="158"/>
   <tile gid="159"/>
   <tile gid="159"/>
   <tile gid="149"/>
   <tile gid="149"/>
   <tile gid="159"/>
   <tile gid="159"/>
   <tile gid="173"/>
   <tile gid="159"/>
   <tile gid="159"/>
   <tile gid="159"/>
   <tile gid="160"/>
   <tile/>
   <tile/>
   <tile/>
   <tile/>
   <tile gid="150"/>
   <tile gid="151"/>
   <tile gid="145"/>
   <tile gid="159"/>
   <tile gid="159"/>
   <tile gid="159"/>
   <tile gid="149"/>
   <tile gid="165"/>
   <tile gid="159"/>
   <tile gid="167"/>
   <tile gid="167"/>
   <tile gid="167"/>
   <tile gid="175"/>
   <tile gid="175"/>
   <tile gid="175"/>
   <tile gid="175"/>
   <tile gid="175"/>
   <tile gid="175"/>
   <tile gid="175"/>
   <tile gid="175"/>
   <tile gid="175"/>
   <tile gid="175"/>
   <tile gid="175"/>
   <tile gid="175"/>
   <tile gid="175"/>
   <tile gid="175"/>
   <tile gid="175"/>
   <tile gid="175"/>
   <tile gid="175"/>
   <tile gid="175"/>
   <tile gid="175"/>
   <tile gid="175"/>
   <tile gid="175"/>
   <tile gid="175"/>
   <tile gid="175"/>
   <tile gid="175"/>
   <tile gid="175"/>
   <tile gid="175"/>
   <tile gid="175"/>
   <tile gid="175"/>
   <tile gid="175"/>
   <tile gid="175"/>
   <tile gid="175"/>
   <tile gid="175"/>
   <tile gid="175"/>
   <tile gid="175"/>
   <tile gid="175"/>
   <tile gid="175"/>
   <tile gid="175"/>
   <tile gid="175"/>
   <tile gid="175"/>
   <tile gid="175"/>
   <tile gid="175"/>
   <tile gid="175"/>
   <tile gid="175"/>
   <tile gid="175"/>
   <tile gid="175"/>
   <tile gid="175"/>
   <tile gid="175"/>
   <tile gid="175"/>
   <tile gid="175"/>
   <tile gid="175"/>
   <tile gid="175"/>
   <tile gid="175"/>
   <tile gid="175"/>
   <tile gid="175"/>
   <tile gid="175"/>
   <tile gid="175"/>
   <tile gid="175"/>
   <tile gid="175"/>
   <tile gid="175"/>
   <tile gid="175"/>
   <tile gid="175"/>
   <tile gid="175"/>
   <tile gid="175"/>
   <tile gid="175"/>
   <tile gid="175"/>
   <tile gid="175"/>
   <tile gid="176"/>
   <tile/>
   <tile/>
   <tile/>
   <tile/>
   <tile/>
   <tile/>
   <tile/>
   <tile/>
   <tile/>
   <tile/>
   <tile gid="158"/>
   <tile gid="160"/>
   <tile/>
   <tile/>
   <tile/>
   <tile/>
   <tile/>
   <tile/>
   <tile gid="158"/>
   <tile/>
   <tile/>
   <tile/>
   <tile/>
   <tile/>
   <tile/>
   <tile/>
   <tile/>
   <tile/>
   <tile/>
   <tile/>
   <tile/>
   <tile/>
   <tile gid="158"/>
   <tile gid="159"/>
   <tile gid="159"/>
   <tile gid="149"/>
   <tile gid="173"/>
   <tile gid="173"/>
   <tile gid="173"/>
   <tile gid="159"/>
   <tile gid="159"/>
   <tile gid="157"/>
   <tile gid="157"/>
   <tile gid="160"/>
   <tile/>
   <tile/>
   <tile/>
   <tile/>
   <tile gid="158"/>
   <tile gid="165"/>
   <tile gid="159"/>
   <tile gid="159"/>
   <tile gid="159"/>
   <tile gid="159"/>
   <tile gid="159"/>
   <tile gid="167"/>
   <tile gid="167"/>
   <tile gid="175"/>
   <tile gid="175"/>
   <tile gid="176"/>
   <tile/>
   <tile/>
   <tile/>
   <tile/>
   <tile/>
   <tile/>
   <tile/>
   <tile/>
   <tile/>
   <tile/>
   <tile/>
   <tile/>
   <tile/>
   <tile/>
   <tile/>
   <tile/>
   <tile/>
   <tile/>
   <tile/>
   <tile/>
   <tile/>
   <tile/>
   <tile/>
   <tile/>
   <tile/>
   <tile/>
   <tile/>
   <tile/>
   <tile/>
   <tile/>
   <tile/>
   <tile/>
   <tile/>
   <tile/>
   <tile/>
   <tile/>
   <tile/>
   <tile/>
   <tile/>
   <tile/>
   <tile/>
   <tile/>
   <tile/>
   <tile/>
   <tile/>
   <tile/>
   <tile/>
   <tile/>
   <tile/>
   <tile/>
   <tile/>
   <tile/>
   <tile/>
   <tile/>
   <tile/>
   <tile/>
   <tile/>
   <tile/>
   <tile/>
   <tile/>
   <tile/>
   <tile/>
   <tile/>
   <tile/>
   <tile/>
   <tile/>
   <tile/>
   <tile/>
   <tile/>
   <tile/>
   <tile/>
   <tile/>
   <tile/>
   <tile/>
   <tile/>
   <tile/>
   <tile/>
   <tile gid="158"/>
   <tile gid="160"/>
   <tile/>
   <tile/>
   <tile/>
   <tile/>
   <tile/>
   <tile/>
   <tile gid="158"/>
   <tile/>
   <tile/>
   <tile/>
   <tile/>
   <tile/>
   <tile/>
   <tile/>
   <tile/>
   <tile/>
   <tile/>
   <tile/>
   <tile/>
   <tile/>
   <tile gid="158"/>
   <tile gid="159"/>
   <tile gid="149"/>
   <tile gid="149"/>
   <tile gid="173"/>
   <tile gid="159"/>
   <tile gid="159"/>
   <tile gid="159"/>
   <tile gid="159"/>
   <tile gid="159"/>
   <tile gid="159"/>
   <tile gid="160"/>
   <tile/>
   <tile/>
   <tile/>
   <tile/>
   <tile gid="158"/>
   <tile gid="159"/>
   <tile gid="149"/>
   <tile gid="159"/>
   <tile gid="167"/>
   <tile gid="167"/>
   <tile gid="167"/>
   <tile gid="175"/>
   <tile gid="176"/>
   <tile/>
   <tile/>
   <tile/>
   <tile/>
   <tile/>
   <tile/>
   <tile/>
   <tile/>
   <tile/>
   <tile/>
   <tile/>
   <tile/>
   <tile/>
   <tile/>
   <tile/>
   <tile/>
   <tile/>
   <tile/>
   <tile/>
   <tile/>
   <tile/>
   <tile/>
   <tile/>
   <tile/>
   <tile/>
   <tile/>
   <tile/>
   <tile/>
   <tile/>
   <tile/>
   <tile/>
   <tile/>
   <tile/>
   <tile/>
   <tile/>
   <tile/>
   <tile/>
   <tile/>
   <tile/>
   <tile/>
   <tile/>
   <tile/>
   <tile/>
   <tile/>
   <tile/>
   <tile/>
   <tile/>
   <tile/>
   <tile/>
   <tile/>
   <tile/>
   <tile/>
   <tile/>
   <tile/>
   <tile/>
   <tile/>
   <tile/>
   <tile/>
   <tile/>
   <tile/>
   <tile/>
   <tile/>
   <tile/>
   <tile/>
   <tile/>
   <tile/>
   <tile/>
   <tile/>
   <tile/>
   <tile/>
   <tile/>
   <tile/>
   <tile/>
   <tile/>
   <tile/>
   <tile/>
   <tile/>
   <tile/>
   <tile/>
   <tile/>
   <tile gid="158"/>
   <tile gid="160"/>
   <tile/>
   <tile/>
   <tile/>
   <tile/>
   <tile/>
   <tile/>
   <tile gid="158"/>
   <tile/>
   <tile/>
   <tile/>
   <tile/>
   <tile/>
   <tile/>
   <tile/>
   <tile/>
   <tile/>
   <tile/>
   <tile gid="150"/>
   <tile gid="151"/>
   <tile gid="151"/>
   <tile gid="159"/>
   <tile gid="159"/>
   <tile gid="159"/>
   <tile gid="159"/>
   <tile gid="159"/>
   <tile gid="159"/>
   <tile gid="159"/>
   <tile gid="159"/>
   <tile gid="159"/>
   <tile gid="167"/>
   <tile gid="167"/>
   <tile gid="168"/>
   <tile/>
   <tile/>
   <tile/>
   <tile/>
   <tile gid="166"/>
   <tile gid="167"/>
   <tile gid="167"/>
   <tile gid="167"/>
   <tile gid="175"/>
   <tile gid="175"/>
   <tile gid="176"/>
   <tile/>
   <tile/>
   <tile/>
   <tile/>
   <tile/>
   <tile/>
   <tile/>
   <tile/>
   <tile/>
   <tile/>
   <tile/>
   <tile/>
   <tile/>
   <tile/>
   <tile/>
   <tile/>
   <tile/>
   <tile/>
   <tile/>
   <tile/>
   <tile/>
   <tile/>
   <tile/>
   <tile/>
   <tile/>
   <tile/>
   <tile/>
   <tile/>
   <tile/>
   <tile/>
   <tile/>
   <tile/>
   <tile/>
   <tile/>
   <tile/>
   <tile/>
   <tile/>
   <tile/>
   <tile/>
   <tile/>
   <tile/>
   <tile/>
   <tile/>
   <tile/>
   <tile/>
   <tile/>
   <tile/>
   <tile/>
   <tile/>
   <tile/>
   <tile/>
   <tile/>
   <tile/>
   <tile/>
   <tile/>
   <tile/>
   <tile/>
   <tile/>
   <tile/>
   <tile/>
   <tile/>
   <tile/>
   <tile/>
   <tile/>
   <tile/>
   <tile/>
   <tile/>
   <tile/>
   <tile/>
   <tile/>
   <tile/>
   <tile/>
   <tile/>
   <tile/>
   <tile/>
   <tile/>
   <tile/>
   <tile/>
   <tile gid="140"/>
   <tile/>
   <tile/>
   <tile/>
   <tile gid="158"/>
   <tile gid="160"/>
   <tile/>
   <tile/>
   <tile/>
   <tile/>
   <tile/>
   <tile/>
   <tile gid="158"/>
   <tile/>
   <tile/>
   <tile/>
   <tile/>
   <tile/>
   <tile/>
   <tile/>
   <tile/>
   <tile/>
   <tile/>
   <tile gid="158"/>
   <tile gid="159"/>
   <tile gid="159"/>
   <tile gid="159"/>
   <tile gid="173"/>
   <tile gid="159"/>
   <tile gid="173"/>
   <tile gid="159"/>
   <tile gid="159"/>
   <tile gid="159"/>
   <tile gid="167"/>
   <tile gid="168"/>
   <tile gid="175"/>
   <tile gid="175"/>
   <tile gid="176"/>
   <tile/>
   <tile/>
   <tile/>
   <tile/>
   <tile gid="174"/>
   <tile gid="175"/>
   <tile gid="175"/>
   <tile gid="176"/>
   <tile/>
   <tile/>
   <tile/>
   <tile/>
   <tile/>
   <tile/>
   <tile/>
   <tile/>
   <tile/>
   <tile/>
   <tile/>
   <tile/>
   <tile/>
   <tile/>
   <tile/>
   <tile/>
   <tile/>
   <tile/>
   <tile/>
   <tile/>
   <tile/>
   <tile/>
   <tile/>
   <tile/>
   <tile/>
   <tile/>
   <tile/>
   <tile/>
   <tile/>
   <tile/>
   <tile/>
   <tile/>
   <tile/>
   <tile/>
   <tile/>
   <tile/>
   <tile/>
   <tile/>
   <tile/>
   <tile/>
   <tile/>
   <tile/>
   <tile/>
   <tile/>
   <tile/>
   <tile/>
   <tile/>
   <tile/>
   <tile/>
   <tile/>
   <tile/>
   <tile/>
   <tile/>
   <tile/>
   <tile/>
   <tile/>
   <tile/>
   <tile/>
   <tile/>
   <tile/>
   <tile/>
   <tile/>
   <tile/>
   <tile/>
   <tile/>
   <tile/>
   <tile/>
   <tile/>
   <tile/>
   <tile/>
   <tile/>
   <tile/>
   <tile/>
   <tile/>
   <tile/>
   <tile/>
   <tile/>
   <tile/>
   <tile/>
   <tile/>
   <tile/>
   <tile/>
   <tile/>
   <tile/>
   <tile/>
   <tile gid="158"/>
   <tile gid="160"/>
   <tile/>
   <tile/>
   <tile/>
   <tile/>
   <tile/>
   <tile/>
   <tile gid="158"/>
   <tile/>
   <tile/>
   <tile/>
   <tile/>
   <tile/>
   <tile/>
   <tile/>
   <tile/>
   <tile/>
   <tile/>
   <tile gid="158"/>
   <tile gid="159"/>
   <tile gid="159"/>
   <tile gid="159"/>
   <tile gid="159"/>
   <tile gid="165"/>
   <tile gid="159"/>
   <tile gid="159"/>
   <tile gid="159"/>
   <tile gid="167"/>
   <tile gid="175"/>
   <tile gid="176"/>
   <tile/>
   <tile/>
   <tile/>
   <tile/>
   <tile/>
   <tile/>
   <tile/>
   <tile/>
   <tile/>
   <tile/>
   <tile/>
   <tile/>
   <tile/>
   <tile/>
   <tile/>
   <tile/>
   <tile/>
   <tile/>
   <tile/>
   <tile/>
   <tile/>
   <tile/>
   <tile/>
   <tile/>
   <tile/>
   <tile/>
   <tile/>
   <tile/>
   <tile/>
   <tile/>
   <tile/>
   <tile/>
   <tile/>
   <tile/>
   <tile/>
   <tile/>
   <tile/>
   <tile/>
   <tile/>
   <tile/>
   <tile/>
   <tile/>
   <tile/>
   <tile/>
   <tile/>
   <tile/>
   <tile/>
   <tile/>
   <tile/>
   <tile/>
   <tile/>
   <tile/>
   <tile/>
   <tile/>
   <tile/>
   <tile/>
   <tile/>
   <tile/>
   <tile/>
   <tile/>
   <tile/>
   <tile/>
   <tile/>
   <tile/>
   <tile/>
   <tile/>
   <tile/>
   <tile/>
   <tile/>
   <tile/>
   <tile/>
   <tile/>
   <tile/>
   <tile/>
   <tile/>
   <tile/>
   <tile/>
   <tile/>
   <tile/>
   <tile/>
   <tile/>
   <tile/>
   <tile/>
   <tile/>
   <tile/>
   <tile/>
   <tile/>
   <tile/>
   <tile/>
   <tile/>
   <tile/>
   <tile/>
   <tile/>
   <tile/>
   <tile/>
   <tile/>
   <tile gid="158"/>
   <tile gid="160"/>
   <tile/>
   <tile/>
   <tile/>
   <tile/>
   <tile/>
   <tile/>
   <tile gid="158"/>
   <tile/>
   <tile/>
   <tile/>
   <tile/>
   <tile/>
   <tile/>
   <tile/>
   <tile/>
   <tile/>
   <tile/>
   <tile gid="158"/>
   <tile gid="159"/>
   <tile gid="173"/>
   <tile gid="159"/>
   <tile gid="173"/>
   <tile gid="159"/>
   <tile gid="159"/>
   <tile gid="167"/>
   <tile gid="167"/>
   <tile gid="176"/>
   <tile/>
   <tile/>
   <tile/>
   <tile/>
   <tile/>
   <tile/>
   <tile/>
   <tile/>
   <tile/>
   <tile/>
   <tile/>
   <tile/>
   <tile/>
   <tile/>
   <tile/>
   <tile/>
   <tile/>
   <tile/>
   <tile/>
   <tile/>
   <tile/>
   <tile/>
   <tile gid="87"/>
   <tile gid="87"/>
   <tile gid="87"/>
   <tile gid="87"/>
   <tile gid="87"/>
   <tile gid="87"/>
   <tile gid="87"/>
   <tile gid="87"/>
   <tile gid="87"/>
   <tile gid="87"/>
   <tile gid="87"/>
   <tile gid="87"/>
   <tile gid="87"/>
   <tile gid="87"/>
   <tile gid="87"/>
   <tile gid="87"/>
   <tile gid="87"/>
   <tile gid="87"/>
   <tile gid="87"/>
   <tile gid="87"/>
   <tile gid="87"/>
   <tile gid="87"/>
   <tile gid="87"/>
   <tile gid="188"/>
   <tile/>
   <tile/>
   <tile/>
   <tile/>
   <tile/>
   <tile/>
   <tile/>
   <tile/>
   <tile/>
   <tile/>
   <tile/>
   <tile/>
   <tile/>
   <tile/>
   <tile/>
   <tile/>
   <tile/>
   <tile/>
   <tile/>
   <tile/>
   <tile/>
   <tile/>
   <tile/>
   <tile/>
   <tile/>
   <tile/>
   <tile/>
   <tile/>
   <tile/>
   <tile/>
   <tile/>
   <tile/>
   <tile/>
   <tile/>
   <tile/>
   <tile/>
   <tile gid="140"/>
   <tile/>
   <tile/>
   <tile/>
   <tile/>
   <tile/>
   <tile/>
   <tile/>
   <tile/>
   <tile/>
   <tile/>
   <tile/>
   <tile/>
   <tile/>
   <tile/>
   <tile/>
   <tile gid="166"/>
   <tile gid="168"/>
   <tile/>
   <tile/>
   <tile/>
   <tile/>
   <tile/>
   <tile/>
   <tile gid="158"/>
   <tile/>
   <tile/>
   <tile/>
   <tile/>
   <tile/>
   <tile/>
   <tile/>
   <tile gid="150"/>
   <tile gid="151"/>
   <tile gid="151"/>
   <tile gid="159"/>
   <tile gid="159"/>
   <tile gid="173"/>
   <tile gid="159"/>
   <tile gid="159"/>
   <tile gid="159"/>
   <tile gid="167"/>
   <tile gid="175"/>
   <tile gid="176"/>
   <tile/>
   <tile/>
   <tile/>
   <tile/>
   <tile/>
   <tile/>
   <tile gid="142"/>
   <tile gid="144"/>
   <tile/>
   <tile/>
   <tile/>
   <tile/>
   <tile/>
   <tile/>
   <tile/>
   <tile/>
   <tile/>
   <tile/>
   <tile/>
   <tile/>
   <tile/>
   <tile/>
   <tile/>
   <tile/>
   <tile/>
   <tile/>
   <tile/>
   <tile/>
   <tile/>
   <tile/>
   <tile/>
   <tile/>
   <tile/>
   <tile/>
   <tile/>
   <tile/>
   <tile/>
   <tile/>
   <tile/>
   <tile/>
   <tile/>
   <tile/>
   <tile/>
   <tile/>
   <tile/>
   <tile/>
   <tile/>
   <tile gid="87"/>
   <tile gid="87"/>
   <tile gid="87"/>
   <tile gid="87"/>
   <tile gid="87"/>
   <tile gid="87"/>
   <tile gid="87"/>
   <tile gid="87"/>
   <tile gid="87"/>
   <tile gid="87"/>
   <tile gid="87"/>
   <tile gid="87"/>
   <tile gid="87"/>
   <tile gid="87"/>
   <tile gid="87"/>
   <tile gid="87"/>
   <tile gid="87"/>
   <tile gid="87"/>
   <tile gid="87"/>
   <tile gid="87"/>
   <tile gid="188"/>
   <tile/>
   <tile/>
   <tile/>
   <tile/>
   <tile/>
   <tile/>
   <tile/>
   <tile/>
   <tile/>
   <tile/>
   <tile/>
   <tile/>
   <tile/>
   <tile/>
   <tile/>
   <tile/>
   <tile/>
   <tile/>
   <tile/>
   <tile/>
   <tile/>
   <tile/>
   <tile/>
   <tile/>
   <tile/>
   <tile/>
   <tile/>
   <tile/>
   <tile/>
   <tile/>
   <tile/>
   <tile gid="174"/>
   <tile gid="176"/>
   <tile/>
   <tile/>
   <tile/>
   <tile/>
   <tile/>
   <tile/>
   <tile gid="158"/>
   <tile/>
   <tile/>
   <tile/>
   <tile/>
   <tile/>
   <tile/>
   <tile/>
   <tile gid="158"/>
   <tile gid="159"/>
   <tile gid="159"/>
   <tile gid="159"/>
   <tile gid="159"/>
   <tile gid="159"/>
   <tile gid="159"/>
   <tile gid="167"/>
   <tile gid="167"/>
   <tile gid="176"/>
   <tile/>
   <tile/>
   <tile/>
   <tile/>
   <tile/>
   <tile/>
   <tile/>
   <tile/>
   <tile/>
   <tile/>
   <tile/>
   <tile/>
   <tile/>
   <tile/>
   <tile/>
   <tile/>
   <tile/>
   <tile/>
   <tile/>
   <tile/>
   <tile/>
   <tile/>
   <tile/>
   <tile/>
   <tile/>
   <tile/>
   <tile/>
   <tile/>
   <tile/>
   <tile/>
   <tile/>
   <tile/>
   <tile/>
   <tile/>
   <tile/>
   <tile/>
   <tile/>
   <tile/>
   <tile/>
   <tile/>
   <tile/>
   <tile/>
   <tile/>
   <tile/>
   <tile/>
   <tile/>
   <tile/>
   <tile/>
   <tile/>
   <tile/>
   <tile/>
   <tile/>
   <tile/>
   <tile/>
   <tile/>
   <tile/>
   <tile/>
   <tile/>
   <tile/>
   <tile/>
   <tile/>
   <tile/>
   <tile/>
   <tile/>
   <tile/>
   <tile/>
   <tile/>
   <tile/>
   <tile/>
   <tile/>
   <tile/>
   <tile/>
   <tile/>
   <tile/>
   <tile/>
   <tile/>
   <tile gid="140"/>
   <tile/>
   <tile/>
   <tile/>
   <tile/>
   <tile/>
   <tile/>
   <tile/>
   <tile/>
   <tile/>
   <tile/>
   <tile/>
   <tile/>
   <tile/>
   <tile/>
   <tile/>
   <tile/>
   <tile gid="140"/>
   <tile/>
   <tile/>
   <tile/>
   <tile/>
   <tile/>
   <tile/>
   <tile/>
   <tile/>
   <tile/>
   <tile/>
   <tile/>
   <tile/>
   <tile/>
   <tile/>
   <tile/>
   <tile gid="158"/>
   <tile/>
   <tile/>
   <tile/>
   <tile/>
   <tile/>
   <tile/>
   <tile/>
   <tile gid="158"/>
   <tile gid="173"/>
   <tile gid="159"/>
   <tile gid="173"/>
   <tile gid="159"/>
   <tile gid="159"/>
   <tile gid="167"/>
   <tile gid="175"/>
   <tile gid="176"/>
   <tile/>
   <tile/>
   <tile/>
   <tile/>
   <tile/>
   <tile/>
   <tile/>
   <tile/>
   <tile/>
   <tile/>
   <tile/>
   <tile/>
   <tile/>
   <tile/>
   <tile/>
   <tile/>
   <tile/>
   <tile/>
   <tile/>
   <tile/>
   <tile/>
   <tile/>
   <tile/>
   <tile/>
   <tile/>
   <tile/>
   <tile/>
   <tile/>
   <tile/>
   <tile/>
   <tile/>
   <tile/>
   <tile/>
   <tile/>
   <tile/>
   <tile/>
   <tile/>
   <tile/>
   <tile/>
   <tile/>
   <tile/>
   <tile/>
   <tile/>
   <tile/>
   <tile/>
   <tile/>
   <tile/>
   <tile/>
   <tile/>
   <tile/>
   <tile/>
   <tile/>
   <tile/>
   <tile/>
   <tile/>
   <tile/>
   <tile/>
   <tile/>
   <tile/>
   <tile/>
   <tile/>
   <tile/>
   <tile/>
   <tile/>
   <tile/>
   <tile/>
   <tile/>
   <tile/>
   <tile/>
   <tile/>
   <tile/>
   <tile/>
   <tile/>
   <tile/>
   <tile/>
   <tile/>
   <tile/>
   <tile/>
   <tile/>
   <tile/>
   <tile/>
   <tile/>
   <tile/>
   <tile/>
   <tile/>
   <tile/>
   <tile/>
   <tile/>
   <tile/>
   <tile/>
   <tile/>
   <tile/>
   <tile/>
   <tile/>
   <tile/>
   <tile/>
   <tile/>
   <tile/>
   <tile/>
   <tile/>
   <tile/>
   <tile/>
   <tile/>
   <tile/>
   <tile/>
   <tile/>
   <tile/>
   <tile/>
   <tile/>
   <tile/>
   <tile gid="158"/>
   <tile/>
   <tile/>
   <tile/>
   <tile/>
   <tile/>
   <tile/>
   <tile/>
   <tile gid="158"/>
   <tile gid="159"/>
   <tile gid="165"/>
   <tile gid="159"/>
   <tile gid="159"/>
   <tile gid="167"/>
   <tile gid="176"/>
   <tile/>
   <tile/>
   <tile/>
   <tile/>
   <tile/>
   <tile/>
   <tile/>
   <tile/>
   <tile/>
   <tile/>
   <tile/>
   <tile/>
   <tile/>
   <tile/>
   <tile gid="142"/>
   <tile gid="143"/>
   <tile gid="144"/>
   <tile/>
   <tile/>
   <tile/>
   <tile/>
   <tile/>
   <tile/>
   <tile/>
   <tile/>
   <tile/>
   <tile/>
   <tile/>
   <tile/>
   <tile/>
   <tile/>
   <tile/>
   <tile/>
   <tile/>
   <tile/>
   <tile/>
   <tile/>
   <tile/>
   <tile/>
   <tile/>
   <tile/>
   <tile/>
   <tile/>
   <tile/>
   <tile/>
   <tile/>
   <tile/>
   <tile/>
   <tile/>
   <tile/>
   <tile/>
   <tile/>
   <tile/>
   <tile/>
   <tile/>
   <tile/>
   <tile/>
   <tile/>
   <tile/>
   <tile/>
   <tile/>
   <tile/>
   <tile/>
   <tile/>
   <tile/>
   <tile/>
   <tile/>
   <tile/>
   <tile/>
   <tile/>
   <tile/>
   <tile/>
   <tile/>
   <tile/>
   <tile/>
   <tile/>
   <tile/>
   <tile/>
   <tile/>
   <tile/>
   <tile/>
   <tile/>
   <tile/>
   <tile/>
   <tile/>
   <tile/>
   <tile/>
   <tile/>
   <tile/>
   <tile/>
   <tile/>
   <tile/>
   <tile/>
   <tile/>
   <tile/>
   <tile/>
   <tile/>
   <tile/>
   <tile/>
   <tile/>
   <tile/>
   <tile/>
   <tile/>
   <tile/>
   <tile/>
   <tile/>
   <tile/>
   <tile/>
   <tile/>
   <tile/>
   <tile/>
   <tile/>
   <tile gid="158"/>
   <tile/>
   <tile/>
   <tile/>
   <tile/>
   <tile/>
   <tile/>
   <tile/>
   <tile gid="158"/>
   <tile gid="159"/>
   <tile gid="159"/>
   <tile gid="159"/>
   <tile gid="167"/>
   <tile gid="176"/>
   <tile/>
   <tile/>
   <tile/>
   <tile/>
   <tile/>
   <tile/>
   <tile/>
   <tile/>
   <tile/>
   <tile/>
   <tile/>
   <tile/>
   <tile/>
   <tile/>
   <tile/>
   <tile/>
   <tile/>
   <tile/>
   <tile/>
   <tile/>
   <tile/>
   <tile/>
   <tile/>
   <tile/>
   <tile/>
   <tile/>
   <tile/>
   <tile/>
   <tile/>
   <tile/>
   <tile/>
   <tile/>
   <tile/>
   <tile/>
   <tile/>
   <tile/>
   <tile/>
   <tile/>
   <tile/>
   <tile/>
   <tile/>
   <tile/>
   <tile/>
   <tile/>
   <tile/>
   <tile/>
   <tile/>
   <tile/>
   <tile/>
   <tile/>
   <tile/>
   <tile/>
   <tile/>
   <tile/>
   <tile/>
   <tile/>
   <tile/>
   <tile/>
   <tile/>
   <tile/>
   <tile/>
   <tile/>
   <tile/>
   <tile/>
   <tile/>
   <tile/>
   <tile/>
   <tile/>
   <tile/>
   <tile/>
   <tile/>
   <tile/>
   <tile/>
   <tile/>
   <tile/>
   <tile/>
   <tile/>
   <tile/>
   <tile/>
   <tile/>
   <tile/>
   <tile/>
   <tile/>
   <tile/>
   <tile/>
   <tile/>
   <tile/>
   <tile/>
   <tile/>
   <tile/>
   <tile/>
   <tile/>
   <tile/>
   <tile/>
   <tile/>
   <tile/>
   <tile/>
   <tile/>
   <tile/>
   <tile/>
   <tile/>
   <tile/>
   <tile/>
   <tile/>
   <tile/>
   <tile/>
   <tile/>
   <tile/>
   <tile/>
   <tile/>
   <tile/>
   <tile/>
   <tile/>
   <tile gid="158"/>
   <tile/>
   <tile/>
   <tile/>
   <tile gid="150"/>
   <tile gid="151"/>
   <tile gid="151"/>
   <tile gid="151"/>
   <tile gid="159"/>
   <tile gid="165"/>
   <tile gid="159"/>
   <tile gid="167"/>
   <tile gid="176"/>
   <tile/>
   <tile/>
   <tile/>
   <tile/>
   <tile/>
   <tile/>
   <tile/>
   <tile/>
   <tile/>
   <tile/>
   <tile/>
   <tile/>
   <tile/>
   <tile/>
   <tile/>
   <tile/>
   <tile/>
   <tile/>
   <tile/>
   <tile/>
   <tile/>
   <tile/>
   <tile/>
   <tile/>
   <tile/>
   <tile/>
   <tile/>
   <tile/>
   <tile/>
   <tile/>
   <tile/>
   <tile/>
   <tile/>
   <tile/>
   <tile/>
   <tile/>
   <tile/>
   <tile/>
   <tile/>
   <tile/>
   <tile/>
   <tile/>
   <tile/>
   <tile/>
   <tile/>
   <tile/>
   <tile/>
   <tile/>
   <tile/>
   <tile/>
   <tile/>
   <tile/>
   <tile/>
   <tile/>
   <tile/>
   <tile/>
   <tile/>
   <tile/>
   <tile/>
   <tile/>
   <tile/>
   <tile/>
   <tile/>
   <tile/>
   <tile/>
   <tile/>
   <tile/>
   <tile/>
   <tile/>
   <tile/>
   <tile/>
   <tile/>
   <tile/>
   <tile/>
   <tile/>
   <tile/>
   <tile/>
   <tile/>
   <tile/>
   <tile/>
   <tile/>
   <tile/>
   <tile/>
   <tile/>
   <tile/>
   <tile/>
   <tile/>
   <tile/>
   <tile/>
   <tile/>
   <tile/>
   <tile/>
   <tile/>
   <tile/>
   <tile/>
   <tile/>
   <tile/>
   <tile/>
   <tile/>
   <tile/>
   <tile/>
   <tile/>
   <tile/>
   <tile/>
   <tile/>
   <tile/>
   <tile/>
   <tile/>
   <tile/>
   <tile/>
   <tile/>
   <tile/>
   <tile/>
   <tile/>
   <tile gid="158"/>
   <tile/>
   <tile/>
   <tile/>
   <tile gid="158"/>
   <tile gid="159"/>
   <tile gid="159"/>
   <tile gid="159"/>
   <tile gid="159"/>
   <tile gid="159"/>
   <tile gid="167"/>
   <tile gid="176"/>
   <tile/>
   <tile/>
   <tile/>
   <tile/>
   <tile/>
   <tile/>
   <tile/>
   <tile/>
   <tile/>
   <tile/>
   <tile/>
   <tile/>
   <tile/>
   <tile/>
   <tile/>
   <tile/>
   <tile/>
   <tile/>
   <tile/>
   <tile/>
   <tile/>
   <tile/>
   <tile/>
   <tile/>
   <tile gid="140"/>
   <tile/>
   <tile/>
   <tile/>
   <tile/>
   <tile/>
   <tile/>
   <tile/>
   <tile/>
   <tile/>
   <tile/>
   <tile/>
   <tile/>
   <tile/>
   <tile/>
   <tile/>
   <tile/>
   <tile/>
   <tile/>
   <tile/>
   <tile/>
   <tile/>
   <tile/>
   <tile/>
   <tile/>
   <tile/>
   <tile/>
   <tile/>
   <tile/>
   <tile/>
   <tile/>
   <tile/>
   <tile/>
   <tile/>
   <tile/>
   <tile/>
   <tile/>
   <tile/>
   <tile/>
   <tile/>
   <tile/>
   <tile/>
   <tile/>
   <tile/>
   <tile/>
   <tile/>
   <tile/>
   <tile/>
   <tile/>
   <tile/>
   <tile/>
   <tile/>
   <tile/>
   <tile/>
   <tile/>
   <tile/>
   <tile/>
   <tile/>
   <tile/>
   <tile/>
   <tile/>
   <tile/>
   <tile/>
   <tile/>
   <tile/>
   <tile/>
   <tile/>
   <tile/>
   <tile/>
   <tile/>
   <tile/>
   <tile/>
   <tile/>
   <tile/>
   <tile/>
   <tile/>
   <tile/>
   <tile/>
   <tile/>
   <tile/>
   <tile/>
   <tile/>
   <tile/>
   <tile/>
   <tile/>
   <tile/>
   <tile/>
   <tile/>
   <tile gid="140"/>
   <tile/>
   <tile/>
   <tile gid="158"/>
   <tile/>
   <tile/>
   <tile/>
   <tile gid="158"/>
   <tile gid="159"/>
   <tile gid="159"/>
   <tile gid="165"/>
   <tile gid="159"/>
   <tile gid="167"/>
   <tile gid="176"/>
   <tile/>
   <tile/>
   <tile/>
   <tile/>
   <tile/>
   <tile/>
   <tile/>
   <tile/>
   <tile/>
   <tile/>
   <tile/>
   <tile/>
   <tile/>
   <tile/>
   <tile/>
   <tile/>
   <tile/>
   <tile/>
   <tile/>
   <tile/>
   <tile/>
   <tile/>
   <tile/>
   <tile/>
   <tile/>
   <tile/>
   <tile/>
   <tile/>
   <tile/>
   <tile/>
   <tile/>
   <tile/>
   <tile/>
   <tile/>
   <tile/>
   <tile/>
   <tile/>
   <tile/>
   <tile/>
   <tile/>
   <tile/>
   <tile/>
   <tile/>
   <tile/>
   <tile/>
   <tile/>
   <tile/>
   <tile/>
   <tile/>
   <tile/>
   <tile/>
   <tile/>
   <tile/>
   <tile/>
   <tile/>
   <tile/>
   <tile/>
   <tile/>
   <tile/>
   <tile/>
   <tile/>
   <tile/>
   <tile/>
   <tile/>
   <tile/>
   <tile/>
   <tile/>
   <tile/>
   <tile/>
   <tile/>
   <tile/>
   <tile/>
   <tile/>
   <tile/>
   <tile/>
   <tile/>
   <tile/>
   <tile/>
   <tile/>
   <tile/>
   <tile/>
   <tile/>
   <tile/>
   <tile/>
   <tile/>
   <tile/>
   <tile/>
   <tile/>
   <tile/>
   <tile/>
   <tile/>
   <tile/>
   <tile/>
   <tile/>
   <tile/>
   <tile/>
   <tile/>
   <tile/>
   <tile/>
   <tile/>
   <tile/>
   <tile/>
   <tile/>
   <tile/>
   <tile/>
   <tile/>
   <tile/>
   <tile/>
   <tile/>
   <tile/>
   <tile/>
   <tile/>
   <tile/>
   <tile/>
   <tile/>
   <tile/>
   <tile gid="158"/>
   <tile/>
   <tile gid="150"/>
   <tile gid="151"/>
   <tile gid="159"/>
   <tile gid="173"/>
   <tile gid="159"/>
   <tile gid="159"/>
   <tile gid="167"/>
   <tile gid="176"/>
   <tile/>
   <tile/>
   <tile/>
   <tile/>
   <tile/>
   <tile/>
   <tile/>
   <tile/>
   <tile/>
   <tile/>
   <tile/>
   <tile/>
   <tile/>
   <tile/>
   <tile/>
   <tile/>
   <tile/>
   <tile/>
   <tile/>
   <tile/>
   <tile/>
   <tile/>
   <tile/>
   <tile/>
   <tile/>
   <tile/>
   <tile/>
   <tile/>
   <tile/>
   <tile/>
   <tile/>
   <tile/>
   <tile/>
   <tile/>
   <tile/>
   <tile/>
   <tile/>
   <tile/>
   <tile/>
   <tile/>
   <tile/>
   <tile/>
   <tile/>
   <tile/>
   <tile/>
   <tile/>
   <tile/>
   <tile/>
   <tile/>
   <tile/>
   <tile/>
   <tile/>
   <tile/>
   <tile/>
   <tile/>
   <tile/>
   <tile/>
   <tile/>
   <tile/>
   <tile/>
   <tile/>
   <tile/>
   <tile/>
   <tile/>
   <tile/>
   <tile/>
   <tile/>
   <tile/>
   <tile/>
   <tile/>
   <tile/>
   <tile/>
   <tile/>
   <tile/>
   <tile/>
   <tile/>
   <tile/>
   <tile/>
   <tile/>
   <tile/>
   <tile/>
   <tile/>
   <tile/>
   <tile/>
   <tile/>
   <tile/>
   <tile/>
   <tile/>
   <tile/>
   <tile/>
   <tile/>
   <tile/>
   <tile/>
   <tile/>
   <tile/>
   <tile/>
   <tile/>
   <tile/>
   <tile/>
   <tile/>
   <tile/>
   <tile/>
   <tile/>
   <tile/>
   <tile/>
   <tile/>
   <tile/>
   <tile/>
   <tile/>
   <tile/>
   <tile/>
   <tile/>
   <tile/>
   <tile/>
   <tile/>
   <tile/>
   <tile/>
   <tile gid="158"/>
   <tile/>
   <tile gid="158"/>
   <tile gid="157"/>
   <tile gid="159"/>
   <tile gid="149"/>
   <tile gid="159"/>
   <tile gid="167"/>
   <tile gid="176"/>
   <tile/>
   <tile/>
   <tile/>
   <tile/>
   <tile/>
   <tile/>
   <tile/>
   <tile/>
   <tile/>
   <tile/>
   <tile/>
   <tile/>
   <tile/>
   <tile/>
   <tile/>
   <tile/>
   <tile/>
   <tile/>
   <tile/>
   <tile/>
   <tile/>
   <tile/>
   <tile/>
   <tile/>
   <tile/>
   <tile/>
   <tile/>
   <tile/>
   <tile/>
   <tile/>
   <tile/>
   <tile/>
   <tile/>
   <tile/>
   <tile/>
   <tile/>
   <tile/>
   <tile/>
   <tile/>
   <tile/>
   <tile/>
   <tile/>
   <tile/>
   <tile/>
   <tile/>
   <tile/>
   <tile/>
   <tile/>
   <tile/>
   <tile/>
   <tile/>
   <tile/>
   <tile/>
   <tile/>
   <tile/>
   <tile/>
   <tile/>
   <tile/>
   <tile/>
   <tile/>
   <tile/>
   <tile/>
   <tile/>
   <tile/>
   <tile/>
   <tile/>
   <tile/>
   <tile/>
   <tile/>
   <tile/>
   <tile/>
   <tile/>
   <tile/>
   <tile/>
   <tile/>
   <tile/>
   <tile/>
   <tile/>
   <tile/>
   <tile/>
   <tile/>
   <tile/>
   <tile/>
   <tile/>
   <tile/>
   <tile/>
   <tile/>
   <tile/>
   <tile/>
   <tile/>
   <tile/>
   <tile/>
   <tile/>
   <tile/>
   <tile/>
   <tile/>
   <tile/>
   <tile/>
   <tile/>
   <tile/>
   <tile/>
   <tile/>
   <tile/>
   <tile/>
   <tile/>
   <tile/>
   <tile/>
   <tile/>
   <tile/>
   <tile/>
   <tile/>
   <tile gid="140"/>
   <tile/>
   <tile/>
   <tile/>
   <tile/>
   <tile/>
   <tile/>
   <tile gid="158"/>
   <tile/>
   <tile gid="158"/>
   <tile gid="159"/>
   <tile gid="159"/>
   <tile gid="165"/>
   <tile gid="159"/>
   <tile gid="176"/>
   <tile/>
   <tile/>
   <tile/>
   <tile/>
   <tile/>
   <tile/>
   <tile/>
   <tile/>
   <tile/>
   <tile/>
   <tile/>
   <tile/>
   <tile/>
   <tile/>
   <tile/>
   <tile/>
   <tile/>
   <tile/>
   <tile/>
   <tile/>
   <tile/>
   <tile/>
   <tile/>
   <tile/>
   <tile/>
   <tile/>
   <tile/>
   <tile/>
   <tile/>
   <tile/>
   <tile/>
   <tile/>
   <tile/>
   <tile/>
   <tile/>
   <tile/>
   <tile/>
   <tile/>
   <tile/>
   <tile/>
   <tile/>
   <tile/>
   <tile/>
   <tile/>
   <tile/>
   <tile/>
   <tile/>
   <tile/>
   <tile/>
   <tile/>
   <tile/>
   <tile/>
   <tile/>
   <tile/>
   <tile/>
   <tile/>
   <tile/>
   <tile/>
   <tile/>
   <tile gid="142"/>
   <tile gid="144"/>
   <tile/>
   <tile/>
   <tile/>
   <tile/>
   <tile/>
   <tile/>
   <tile/>
   <tile gid="142"/>
   <tile gid="143"/>
   <tile gid="143"/>
   <tile gid="143"/>
   <tile gid="143"/>
   <tile gid="143"/>
   <tile gid="143"/>
   <tile gid="143"/>
   <tile gid="143"/>
   <tile gid="143"/>
   <tile gid="143"/>
   <tile gid="143"/>
   <tile gid="144"/>
   <tile/>
   <tile/>
   <tile/>
   <tile/>
   <tile/>
   <tile/>
   <tile/>
   <tile/>
   <tile gid="142"/>
   <tile gid="144"/>
   <tile/>
   <tile/>
   <tile/>
   <tile/>
   <tile/>
   <tile/>
   <tile/>
   <tile/>
   <tile/>
   <tile/>
   <tile/>
   <tile/>
   <tile/>
   <tile/>
   <tile/>
   <tile/>
   <tile/>
   <tile/>
   <tile/>
   <tile/>
   <tile/>
   <tile/>
   <tile/>
   <tile/>
   <tile/>
   <tile/>
   <tile/>
   <tile/>
   <tile gid="158"/>
   <tile/>
   <tile gid="158"/>
   <tile gid="159"/>
   <tile gid="173"/>
   <tile gid="159"/>
   <tile gid="160"/>
   <tile/>
   <tile/>
   <tile/>
   <tile/>
   <tile/>
   <tile/>
   <tile/>
   <tile/>
   <tile/>
   <tile/>
   <tile/>
   <tile/>
   <tile/>
   <tile/>
   <tile/>
   <tile/>
   <tile/>
   <tile/>
   <tile/>
   <tile/>
   <tile/>
   <tile/>
   <tile/>
   <tile/>
   <tile/>
   <tile/>
   <tile/>
   <tile/>
   <tile/>
   <tile/>
   <tile/>
   <tile/>
   <tile/>
   <tile/>
   <tile/>
   <tile/>
   <tile/>
   <tile/>
   <tile/>
   <tile/>
   <tile/>
   <tile/>
   <tile/>
   <tile/>
   <tile/>
   <tile/>
   <tile/>
   <tile/>
   <tile/>
   <tile/>
   <tile/>
   <tile/>
   <tile/>
   <tile/>
   <tile/>
   <tile/>
   <tile/>
   <tile/>
   <tile/>
   <tile/>
   <tile/>
   <tile/>
   <tile/>
   <tile/>
   <tile/>
   <tile/>
   <tile/>
   <tile/>
   <tile/>
   <tile/>
   <tile/>
   <tile/>
   <tile/>
   <tile/>
   <tile/>
   <tile/>
   <tile/>
   <tile/>
   <tile/>
   <tile/>
   <tile/>
   <tile/>
   <tile/>
   <tile/>
   <tile/>
   <tile/>
   <tile/>
   <tile/>
   <tile/>
   <tile/>
   <tile/>
   <tile/>
   <tile/>
   <tile/>
   <tile/>
   <tile/>
   <tile/>
   <tile/>
   <tile/>
   <tile/>
   <tile/>
   <tile/>
   <tile/>
   <tile/>
   <tile/>
   <tile/>
   <tile/>
   <tile/>
   <tile/>
   <tile/>
   <tile/>
   <tile/>
   <tile/>
   <tile/>
   <tile/>
   <tile/>
   <tile/>
   <tile/>
   <tile/>
   <tile/>
   <tile gid="158"/>
   <tile/>
   <tile gid="158"/>
   <tile gid="165"/>
   <tile gid="159"/>
   <tile gid="159"/>
   <tile gid="160"/>
   <tile gid="193"/>
   <tile/>
   <tile/>
   <tile gid="194"/>
   <tile gid="148"/>
   <tile gid="25"/>
   <tile gid="26"/>
   <tile gid="27"/>
   <tile gid="27"/>
   <tile gid="27"/>
   <tile gid="27"/>
   <tile gid="27"/>
   <tile gid="27"/>
   <tile gid="27"/>
   <tile gid="27"/>
   <tile gid="27"/>
   <tile gid="27"/>
   <tile gid="27"/>
   <tile gid="27"/>
   <tile gid="27"/>
   <tile gid="27"/>
   <tile gid="27"/>
   <tile gid="27"/>
   <tile gid="27"/>
   <tile gid="27"/>
   <tile gid="27"/>
   <tile gid="27"/>
   <tile gid="27"/>
   <tile gid="27"/>
   <tile gid="27"/>
   <tile gid="27"/>
   <tile gid="28"/>
   <tile gid="29"/>
   <tile gid="148"/>
   <tile/>
   <tile gid="194"/>
   <tile/>
   <tile/>
   <tile/>
   <tile/>
   <tile/>
   <tile/>
   <tile/>
   <tile/>
   <tile/>
   <tile/>
   <tile/>
   <tile/>
   <tile gid="193"/>
   <tile/>
   <tile gid="148"/>
   <tile gid="25"/>
   <tile gid="26"/>
   <tile gid="27"/>
   <tile gid="27"/>
   <tile gid="27"/>
   <tile gid="27"/>
   <tile gid="27"/>
   <tile gid="27"/>
   <tile gid="27"/>
   <tile gid="27"/>
   <tile gid="27"/>
   <tile gid="27"/>
   <tile gid="27"/>
   <tile gid="27"/>
   <tile gid="27"/>
   <tile gid="27"/>
   <tile gid="27"/>
   <tile gid="27"/>
   <tile gid="27"/>
   <tile gid="27"/>
   <tile gid="27"/>
   <tile gid="27"/>
   <tile gid="27"/>
   <tile gid="27"/>
   <tile gid="27"/>
   <tile gid="27"/>
   <tile gid="27"/>
   <tile gid="27"/>
   <tile gid="27"/>
   <tile gid="27"/>
   <tile gid="27"/>
   <tile gid="27"/>
   <tile gid="27"/>
   <tile gid="27"/>
   <tile gid="27"/>
   <tile gid="27"/>
   <tile gid="27"/>
   <tile gid="27"/>
   <tile gid="27"/>
   <tile gid="27"/>
   <tile gid="27"/>
   <tile gid="27"/>
   <tile gid="27"/>
   <tile gid="27"/>
   <tile gid="27"/>
   <tile gid="27"/>
   <tile gid="28"/>
   <tile gid="29"/>
   <tile gid="148"/>
   <tile/>
   <tile/>
   <tile/>
   <tile/>
   <tile gid="194"/>
   <tile/>
   <tile/>
   <tile/>
   <tile gid="193"/>
   <tile/>
   <tile/>
   <tile/>
   <tile gid="194"/>
   <tile/>
   <tile/>
   <tile gid="193"/>
   <tile/>
   <tile/>
   <tile gid="194"/>
   <tile/>
   <tile gid="158"/>
   <tile/>
   <tile gid="158"/>
   <tile gid="159"/>
   <tile gid="159"/>
   <tile gid="173"/>
   <tile gid="159"/>
   <tile gid="151"/>
   <tile gid="151"/>
   <tile gid="151"/>
   <tile gid="151"/>
   <tile gid="159"/>
   <tile gid="151"/>
   <tile gid="151"/>
   <tile gid="151"/>
   <tile gid="151"/>
   <tile gid="151"/>
   <tile gid="151"/>
   <tile gid="151"/>
   <tile gid="151"/>
   <tile gid="151"/>
   <tile gid="151"/>
   <tile gid="151"/>
   <tile gid="151"/>
   <tile gid="151"/>
   <tile gid="151"/>
   <tile gid="151"/>
   <tile gid="151"/>
   <tile gid="151"/>
   <tile gid="151"/>
   <tile gid="151"/>
   <tile gid="151"/>
   <tile gid="151"/>
   <tile gid="151"/>
   <tile gid="151"/>
   <tile gid="151"/>
   <tile gid="151"/>
   <tile gid="151"/>
   <tile gid="151"/>
   <tile gid="151"/>
   <tile gid="159"/>
   <tile gid="151"/>
   <tile gid="151"/>
   <tile gid="152"/>
   <tile/>
   <tile/>
   <tile/>
   <tile/>
   <tile/>
   <tile/>
   <tile/>
   <tile/>
   <tile/>
   <tile/>
   <tile gid="150"/>
   <tile gid="151"/>
   <tile gid="151"/>
   <tile gid="159"/>
   <tile gid="151"/>
   <tile gid="151"/>
   <tile gid="151"/>
   <tile gid="151"/>
   <tile gid="151"/>
   <tile gid="151"/>
   <tile gid="151"/>
   <tile gid="151"/>
   <tile gid="151"/>
   <tile gid="151"/>
   <tile gid="151"/>
   <tile gid="151"/>
   <tile gid="151"/>
   <tile gid="151"/>
   <tile gid="151"/>
   <tile gid="151"/>
   <tile gid="151"/>
   <tile gid="151"/>
   <tile gid="151"/>
   <tile gid="151"/>
   <tile gid="151"/>
   <tile gid="151"/>
   <tile gid="151"/>
   <tile gid="151"/>
   <tile gid="151"/>
   <tile gid="151"/>
   <tile gid="151"/>
   <tile gid="151"/>
   <tile gid="151"/>
   <tile gid="151"/>
   <tile gid="151"/>
   <tile gid="151"/>
   <tile gid="151"/>
   <tile gid="151"/>
   <tile gid="151"/>
   <tile gid="151"/>
   <tile gid="151"/>
   <tile gid="151"/>
   <tile gid="151"/>
   <tile gid="151"/>
   <tile gid="151"/>
   <tile gid="151"/>
   <tile gid="151"/>
   <tile gid="151"/>
   <tile gid="151"/>
   <tile gid="151"/>
   <tile gid="151"/>
   <tile gid="151"/>
   <tile gid="159"/>
   <tile gid="151"/>
   <tile gid="151"/>
   <tile gid="151"/>
   <tile gid="151"/>
   <tile gid="151"/>
   <tile gid="151"/>
   <tile gid="151"/>
   <tile gid="151"/>
   <tile gid="151"/>
   <tile gid="151"/>
   <tile gid="151"/>
   <tile gid="151"/>
   <tile gid="151"/>
   <tile gid="151"/>
   <tile gid="151"/>
   <tile gid="151"/>
   <tile gid="151"/>
   <tile gid="151"/>
   <tile gid="151"/>
   <tile gid="151"/>
   <tile gid="159"/>
   <tile/>
   <tile gid="166"/>
   <tile gid="167"/>
   <tile gid="167"/>
   <tile gid="167"/>
   <tile gid="167"/>
   <tile gid="167"/>
   <tile gid="167"/>
   <tile gid="167"/>
   <tile gid="167"/>
   <tile gid="167"/>
   <tile gid="167"/>
   <tile gid="167"/>
   <tile gid="167"/>
   <tile gid="167"/>
   <tile gid="167"/>
   <tile gid="167"/>
   <tile gid="167"/>
   <tile gid="167"/>
   <tile gid="167"/>
   <tile gid="167"/>
   <tile gid="167"/>
   <tile gid="167"/>
   <tile gid="167"/>
   <tile gid="167"/>
   <tile gid="167"/>
   <tile gid="167"/>
   <tile gid="167"/>
   <tile gid="167"/>
   <tile gid="167"/>
   <tile gid="167"/>
   <tile gid="167"/>
   <tile gid="167"/>
   <tile gid="167"/>
   <tile gid="167"/>
   <tile gid="167"/>
   <tile gid="167"/>
   <tile gid="167"/>
   <tile gid="167"/>
   <tile gid="167"/>
   <tile gid="167"/>
   <tile gid="167"/>
   <tile gid="168"/>
   <tile/>
   <tile/>
   <tile/>
   <tile/>
   <tile/>
   <tile/>
   <tile/>
   <tile/>
   <tile/>
   <tile/>
   <tile gid="166"/>
   <tile gid="167"/>
   <tile gid="167"/>
   <tile gid="167"/>
   <tile gid="167"/>
   <tile gid="167"/>
   <tile gid="167"/>
   <tile gid="167"/>
   <tile gid="167"/>
   <tile gid="167"/>
   <tile gid="167"/>
   <tile gid="167"/>
   <tile gid="167"/>
   <tile gid="167"/>
   <tile gid="167"/>
   <tile gid="167"/>
   <tile gid="167"/>
   <tile gid="167"/>
   <tile gid="167"/>
   <tile gid="167"/>
   <tile gid="167"/>
   <tile gid="167"/>
   <tile gid="167"/>
   <tile gid="167"/>
   <tile gid="167"/>
   <tile gid="167"/>
   <tile gid="167"/>
   <tile gid="167"/>
   <tile gid="167"/>
   <tile gid="167"/>
   <tile gid="167"/>
   <tile gid="167"/>
   <tile gid="167"/>
   <tile gid="167"/>
   <tile gid="167"/>
   <tile gid="167"/>
   <tile gid="167"/>
   <tile gid="167"/>
   <tile gid="167"/>
   <tile gid="167"/>
   <tile gid="167"/>
   <tile gid="167"/>
   <tile gid="167"/>
   <tile gid="167"/>
   <tile gid="167"/>
   <tile gid="167"/>
   <tile gid="167"/>
   <tile gid="167"/>
   <tile gid="167"/>
   <tile gid="167"/>
   <tile gid="167"/>
   <tile gid="167"/>
   <tile gid="167"/>
   <tile gid="167"/>
   <tile gid="167"/>
   <tile gid="167"/>
   <tile gid="167"/>
   <tile gid="167"/>
   <tile gid="167"/>
   <tile gid="167"/>
   <tile gid="167"/>
   <tile gid="167"/>
   <tile gid="167"/>
   <tile gid="167"/>
   <tile gid="167"/>
   <tile gid="167"/>
   <tile gid="167"/>
   <tile gid="167"/>
   <tile gid="167"/>
   <tile gid="167"/>
   <tile gid="167"/>
   <tile gid="167"/>
   <tile gid="167"/>
   <tile gid="167"/>
  </data>
 </layer>
 <objectgroup color="#000000" id="20" name="Map">
  <properties>
   <property name="Map" type="bool" value="true"/>
   <property name="Square" type="bool" value="true"/>
  </properties>
  <object id="352" x="128" y="6784" width="640" height="896"/>
  <object id="451" x="768" y="7424" width="4736" height="256"/>
  <object id="452" x="6784" y="7424" width="9472" height="256"/>
  <object id="453" x="16128" y="1408" width="128" height="6016"/>
  <object id="454" x="2688" y="2816" width="512" height="2688"/>
  <object id="455" x="2432" y="3200" width="256" height="2432"/>
  <object id="456" x="2048" y="3584" width="384" height="2304"/>
  <object id="457" x="1792" y="4096" width="256" height="2048"/>
  <object id="458" x="1664" y="4608" width="128" height="1664"/>
  <object id="459" x="1280" y="5248" width="384" height="1152"/>
  <object id="460" x="896" y="5760" width="384" height="1024"/>
  <object id="461" x="384" y="6400" width="512" height="384"/>
  <object id="462" x="2688" y="5504" width="128" height="128"/>
  <object id="463" x="2432" y="5632" width="128" height="128"/>
  <object id="464" x="2048" y="5888" width="128" height="128"/>
  <object id="465" x="1280" y="6400" width="256" height="128"/>
  <object id="466" x="1280" y="6528" width="128" height="128"/>
  <object id="467" x="768" y="6784" width="256" height="256"/>
  <object id="468" x="1024" y="6784" width="128" height="128"/>
  <object id="469" x="768" y="7040" width="128" height="128"/>
  <object id="470" x="1280" y="7296" width="128" height="128"/>
  <object id="471" x="4992" y="7296" width="128" height="128"/>
  <object id="472" x="4480" y="6528" width="128" height="60"/>
  <object id="473" x="3200" y="5760" width="256" height="61.3333"/>
  <object id="474" x="3584" y="6144" width="384" height="60"/>
  <object id="475" x="5376" y="5632" width="3072" height="128"/>
  <object id="476" x="8448" y="5760" width="2688" height="128"/>
  <object id="477" x="7168" y="7296" width="128" height="128"/>
  <object id="478" x="8448" y="7040" width="256" height="60"/>
  <object id="479" x="9600" y="7040" width="1664" height="64"/>
  <object id="480" x="11904" y="5888" width="128" height="64"/>
  <object id="481" x="13056" y="5632" width="128" height="66"/>
  <object id="482" x="14080" y="5888" width="128" height="62"/>
  <object id="483" x="13440" y="7296" width="128" height="128"/>
  <object id="484" x="15232" y="6912" width="128" height="63"/>
  <object id="485" x="15744" y="6528" width="128" height="61"/>
  <object id="486" x="14592" y="5248" width="128" height="62"/>
  <object id="487" x="12288" y="7040" width="256" height="64"/>
  <object id="488" x="15872" y="4608" width="256" height="61"/>
  <object id="489" x="13824" y="4608" width="256" height="64"/>
  <object id="490" x="15104" y="4224" width="256" height="1664"/>
  <object id="491" x="14336" y="4096" width="1280" height="128"/>
  <object id="492" x="8320" y="3584" width="5504" height="1408"/>
  <object id="493" x="14336" y="1408" width="1792" height="2176"/>
  <object id="494" x="4608" y="2176" width="9728" height="640"/>
  <object id="495" x="13184" y="2816" width="1152" height="768"/>
  <object id="496" x="4992" y="4352" width="3328" height="640"/>
  <object id="497" x="3712" y="4864" width="512" height="640"/>
  <object id="498" x="4224" y="4736" width="384" height="640"/>
  <object id="499" x="4608" y="4608" width="256" height="640"/>
  <object id="500" x="4864" y="4608" width="128" height="512"/>
  <object id="501" x="4992" y="4992" width="256" height="128"/>
  <object id="502" x="5248" y="4224" width="128" height="128"/>
  <object id="503" x="6144" y="3968" width="128" height="62.6667"/>
  <object id="504" x="7552" y="3840" width="128" height="62.6667"/>
  <object id="505" x="8192" y="3584" width="128" height="128"/>
  <object id="506" x="8192" y="4224" width="128" height="128"/>
  <object id="507" x="3712" y="2816" width="1280" height="768"/>
  <object id="508" x="3712" y="3584" width="256" height="768"/>
  <object id="509" x="3968" y="3584" width="768" height="256"/>
  <object id="510" x="3968" y="3840" width="512" height="128"/>
  <object id="511" x="3968" y="3968" width="256" height="128"/>
  <object id="512" x="3968" y="4096" width="128" height="128"/>
  <object id="513" x="4224" y="2560" width="384" height="256"/>
  <object id="514" x="16000" y="0" width="256" height="1408"/>
  <object id="515" x="8448" y="0" width="7552" height="256"/>
  <object id="516" x="8448" y="256" width="896" height="512"/>
  <object id="517" x="9344" y="256" width="256" height="128"/>
  <object id="518" x="8192" y="768" width="896" height="256"/>
  <object id="519" x="7936" y="1024" width="1024" height="128"/>
  <object id="520" x="7936" y="1152" width="768" height="128"/>
  <object id="521" x="7936" y="1280" width="512" height="128"/>
  <object id="522" x="7936" y="1408" width="256" height="128"/>
  <object id="527" x="6784" y="7680" width="128" height="384"/>
  <object id="528" x="5376" y="7680" width="128" height="384"/>
  <object id="529" x="0" y="0" width="128" height="7680"/>
  <object id="530" x="128" y="0" width="8320" height="128"/>
  <object id="567" x="8320" y="2816" width="4864" height="256"/>
  <object id="568" x="4992" y="2816" width="3328" height="128"/>
 </objectgroup>
 <objectgroup id="27" name="Rampa">
  <properties>
   <property name="Polygon" type="bool" value="true"/>
  </properties>
  <object id="693" x="3968" y="4864">
   <polygon points="0,0 256,0 256,-128"/>
  </object>
  <object id="694" x="15360" y="4352">
   <polygon points="0,0 0,-128 256,-128"/>
  </object>
  <object id="695" x="15104" y="4480">
   <polygon points="0,0 0,-256 -512,-256"/>
  </object>
 </objectgroup>
 <objectgroup color="#aa0000" id="21" name="Spikes" visible="0">
  <properties>
   <property name="Danger" type="bool" value="true"/>
   <property name="Square" type="bool" value="true"/>
  </properties>
  <object id="402" x="7296" y="7344" width="6144" height="80"/>
  <object id="403" x="1408" y="7344" width="3584" height="80"/>
  <object id="523" x="5376" y="4281.58" width="2816" height="70.4242"/>
  <object id="524" x="8243.52" y="3712" width="76.4848" height="512"/>
 </objectgroup>
 <layer id="10" name="GroundNavLayer" width="127" height="60" visible="0">
  <properties>
   <property name="Ground" type="bool" value="true"/>
   <property name="Navigation" type="bool" value="true"/>
  </properties>
  <data>
   <tile/>
   <tile/>
   <tile/>
   <tile/>
   <tile/>
   <tile/>
   <tile/>
   <tile/>
   <tile/>
   <tile/>
   <tile/>
   <tile/>
   <tile/>
   <tile/>
   <tile/>
   <tile/>
   <tile/>
   <tile/>
   <tile/>
   <tile/>
   <tile/>
   <tile/>
   <tile/>
   <tile/>
   <tile/>
   <tile/>
   <tile/>
   <tile/>
   <tile/>
   <tile/>
   <tile/>
   <tile/>
   <tile/>
   <tile/>
   <tile/>
   <tile/>
   <tile/>
   <tile/>
   <tile/>
   <tile/>
   <tile/>
   <tile/>
   <tile/>
   <tile/>
   <tile/>
   <tile/>
   <tile/>
   <tile/>
   <tile/>
   <tile/>
   <tile/>
   <tile/>
   <tile/>
   <tile/>
   <tile/>
   <tile/>
   <tile/>
   <tile/>
   <tile/>
   <tile/>
   <tile/>
   <tile/>
   <tile/>
   <tile/>
   <tile/>
   <tile/>
   <tile gid="65"/>
   <tile gid="65"/>
   <tile gid="65"/>
   <tile gid="65"/>
   <tile gid="65"/>
   <tile gid="65"/>
   <tile gid="65"/>
   <tile gid="65"/>
   <tile gid="65"/>
   <tile gid="65"/>
   <tile gid="65"/>
   <tile gid="65"/>
   <tile gid="65"/>
   <tile gid="65"/>
   <tile gid="65"/>
   <tile gid="65"/>
   <tile gid="65"/>
   <tile gid="65"/>
   <tile gid="65"/>
   <tile gid="65"/>
   <tile gid="65"/>
   <tile gid="65"/>
   <tile gid="65"/>
   <tile gid="65"/>
   <tile gid="65"/>
   <tile gid="65"/>
   <tile gid="65"/>
   <tile gid="65"/>
   <tile gid="65"/>
   <tile gid="65"/>
   <tile gid="65"/>
   <tile gid="65"/>
   <tile gid="65"/>
   <tile gid="65"/>
   <tile gid="65"/>
   <tile gid="65"/>
   <tile gid="65"/>
   <tile gid="65"/>
   <tile gid="65"/>
   <tile gid="65"/>
   <tile gid="65"/>
   <tile gid="65"/>
   <tile gid="65"/>
   <tile gid="65"/>
   <tile gid="65"/>
   <tile gid="65"/>
   <tile gid="65"/>
   <tile gid="65"/>
   <tile gid="65"/>
   <tile gid="65"/>
   <tile gid="65"/>
   <tile gid="65"/>
   <tile gid="65"/>
   <tile gid="65"/>
   <tile gid="65"/>
   <tile gid="65"/>
   <tile gid="65"/>
   <tile gid="65"/>
   <tile gid="65"/>
   <tile gid="65"/>
   <tile gid="65"/>
   <tile/>
   <tile/>
   <tile/>
   <tile/>
   <tile/>
   <tile/>
   <tile/>
   <tile/>
   <tile/>
   <tile/>
   <tile/>
   <tile/>
   <tile/>
   <tile/>
   <tile/>
   <tile/>
   <tile/>
   <tile/>
   <tile/>
   <tile/>
   <tile/>
   <tile/>
   <tile/>
   <tile/>
   <tile/>
   <tile/>
   <tile/>
   <tile/>
   <tile/>
   <tile/>
   <tile/>
   <tile/>
   <tile/>
   <tile/>
   <tile/>
   <tile/>
   <tile/>
   <tile/>
   <tile/>
   <tile/>
   <tile/>
   <tile/>
   <tile/>
   <tile/>
   <tile/>
   <tile/>
   <tile/>
   <tile/>
   <tile/>
   <tile/>
   <tile/>
   <tile/>
   <tile/>
   <tile/>
   <tile/>
   <tile/>
   <tile/>
   <tile/>
   <tile/>
   <tile/>
   <tile/>
   <tile/>
   <tile/>
   <tile/>
   <tile/>
   <tile/>
   <tile gid="65"/>
   <tile gid="65"/>
   <tile gid="65"/>
   <tile gid="65"/>
   <tile gid="65"/>
   <tile gid="65"/>
   <tile gid="65"/>
   <tile gid="65"/>
   <tile gid="65"/>
   <tile gid="65"/>
   <tile gid="65"/>
   <tile gid="65"/>
   <tile gid="65"/>
   <tile gid="65"/>
   <tile gid="65"/>
   <tile gid="65"/>
   <tile gid="65"/>
   <tile gid="65"/>
   <tile gid="65"/>
   <tile gid="65"/>
   <tile gid="65"/>
   <tile gid="65"/>
   <tile gid="65"/>
   <tile gid="65"/>
   <tile gid="65"/>
   <tile gid="65"/>
   <tile gid="65"/>
   <tile gid="65"/>
   <tile gid="65"/>
   <tile gid="65"/>
   <tile gid="65"/>
   <tile gid="65"/>
   <tile gid="65"/>
   <tile gid="65"/>
   <tile gid="65"/>
   <tile gid="65"/>
   <tile gid="65"/>
   <tile gid="65"/>
   <tile gid="65"/>
   <tile gid="65"/>
   <tile gid="65"/>
   <tile gid="65"/>
   <tile gid="65"/>
   <tile gid="65"/>
   <tile gid="65"/>
   <tile gid="65"/>
   <tile gid="65"/>
   <tile gid="66"/>
   <tile gid="65"/>
   <tile gid="65"/>
   <tile gid="65"/>
   <tile gid="65"/>
   <tile gid="65"/>
   <tile gid="65"/>
   <tile gid="65"/>
   <tile gid="65"/>
   <tile gid="65"/>
   <tile gid="65"/>
   <tile gid="65"/>
   <tile gid="65"/>
   <tile gid="65"/>
   <tile/>
   <tile/>
   <tile/>
   <tile/>
   <tile/>
   <tile/>
   <tile/>
   <tile/>
   <tile/>
   <tile/>
   <tile/>
   <tile/>
   <tile/>
   <tile/>
   <tile/>
   <tile/>
   <tile/>
   <tile/>
   <tile/>
   <tile/>
   <tile/>
   <tile/>
   <tile/>
   <tile/>
   <tile/>
   <tile/>
   <tile/>
   <tile/>
   <tile/>
   <tile/>
   <tile/>
   <tile/>
   <tile/>
   <tile/>
   <tile/>
   <tile/>
   <tile/>
   <tile/>
   <tile/>
   <tile/>
   <tile/>
   <tile/>
   <tile/>
   <tile/>
   <tile/>
   <tile/>
   <tile/>
   <tile/>
   <tile/>
   <tile/>
   <tile/>
   <tile/>
   <tile/>
   <tile/>
   <tile/>
   <tile/>
   <tile/>
   <tile/>
   <tile/>
   <tile/>
   <tile/>
   <tile/>
   <tile/>
   <tile/>
   <tile/>
   <tile/>
   <tile gid="65"/>
   <tile gid="65"/>
   <tile gid="65"/>
   <tile gid="65"/>
   <tile gid="65"/>
   <tile gid="65"/>
   <tile gid="65"/>
   <tile gid="65"/>
   <tile gid="65"/>
   <tile/>
   <tile/>
   <tile/>
   <tile/>
   <tile/>
   <tile/>
   <tile/>
   <tile/>
   <tile/>
   <tile/>
   <tile/>
   <tile/>
   <tile/>
   <tile/>
   <tile/>
   <tile/>
   <tile/>
   <tile/>
   <tile/>
   <tile/>
   <tile/>
   <tile/>
   <tile/>
   <tile/>
   <tile/>
   <tile/>
   <tile/>
   <tile/>
   <tile/>
   <tile/>
   <tile/>
   <tile/>
   <tile/>
   <tile/>
   <tile/>
   <tile/>
   <tile/>
   <tile gid="66"/>
   <tile gid="66"/>
   <tile/>
   <tile/>
   <tile/>
   <tile/>
   <tile/>
   <tile/>
   <tile/>
   <tile/>
   <tile/>
   <tile/>
   <tile/>
   <tile gid="65"/>
   <tile gid="65"/>
   <tile/>
   <tile/>
   <tile/>
   <tile/>
   <tile/>
   <tile/>
   <tile/>
   <tile/>
   <tile/>
   <tile/>
   <tile/>
   <tile/>
   <tile/>
   <tile/>
   <tile/>
   <tile/>
   <tile/>
   <tile/>
   <tile/>
   <tile/>
   <tile/>
   <tile/>
   <tile/>
   <tile/>
   <tile/>
   <tile/>
   <tile/>
   <tile/>
   <tile/>
   <tile/>
   <tile/>
   <tile/>
   <tile/>
   <tile/>
   <tile/>
   <tile/>
   <tile/>
   <tile/>
   <tile/>
   <tile/>
   <tile/>
   <tile/>
   <tile/>
   <tile/>
   <tile/>
   <tile/>
   <tile/>
   <tile/>
   <tile/>
   <tile/>
   <tile/>
   <tile/>
   <tile/>
   <tile/>
   <tile/>
   <tile/>
   <tile/>
   <tile/>
   <tile/>
   <tile/>
   <tile/>
   <tile/>
   <tile/>
   <tile/>
   <tile/>
   <tile/>
   <tile gid="65"/>
   <tile gid="65"/>
   <tile gid="65"/>
   <tile gid="65"/>
   <tile gid="65"/>
   <tile gid="65"/>
   <tile gid="65"/>
   <tile/>
   <tile/>
   <tile/>
   <tile/>
   <tile/>
   <tile/>
   <tile/>
   <tile/>
   <tile/>
   <tile/>
   <tile/>
   <tile/>
   <tile/>
   <tile/>
   <tile/>
   <tile/>
   <tile/>
   <tile/>
   <tile/>
   <tile/>
   <tile/>
   <tile/>
   <tile/>
   <tile/>
   <tile/>
   <tile/>
   <tile/>
   <tile/>
   <tile/>
   <tile/>
   <tile/>
   <tile/>
   <tile/>
   <tile/>
   <tile/>
   <tile/>
   <tile/>
   <tile/>
   <tile/>
   <tile gid="66"/>
   <tile gid="66"/>
   <tile/>
   <tile/>
   <tile/>
   <tile/>
   <tile/>
   <tile/>
   <tile/>
   <tile/>
   <tile/>
   <tile/>
   <tile/>
   <tile gid="65"/>
   <tile gid="65"/>
   <tile/>
   <tile/>
   <tile/>
   <tile/>
   <tile/>
   <tile/>
   <tile/>
   <tile/>
   <tile/>
   <tile/>
   <tile/>
   <tile/>
   <tile/>
   <tile/>
   <tile/>
   <tile/>
   <tile/>
   <tile/>
   <tile/>
   <tile/>
   <tile/>
   <tile/>
   <tile/>
   <tile/>
   <tile/>
   <tile/>
   <tile/>
   <tile/>
   <tile/>
   <tile/>
   <tile/>
   <tile/>
   <tile/>
   <tile/>
   <tile/>
   <tile/>
   <tile/>
   <tile/>
   <tile/>
   <tile/>
   <tile/>
   <tile/>
   <tile/>
   <tile/>
   <tile/>
   <tile/>
   <tile/>
   <tile/>
   <tile/>
   <tile/>
   <tile/>
   <tile/>
   <tile/>
   <tile/>
   <tile/>
   <tile/>
   <tile/>
   <tile/>
   <tile/>
   <tile/>
   <tile/>
   <tile/>
   <tile/>
   <tile/>
   <tile/>
   <tile/>
   <tile gid="65"/>
   <tile gid="65"/>
   <tile gid="65"/>
   <tile gid="65"/>
   <tile gid="65"/>
   <tile gid="65"/>
   <tile gid="65"/>
   <tile/>
   <tile/>
   <tile/>
   <tile/>
   <tile/>
   <tile/>
   <tile/>
   <tile/>
   <tile/>
   <tile/>
   <tile/>
   <tile/>
   <tile/>
   <tile/>
   <tile/>
   <tile/>
   <tile/>
   <tile/>
   <tile/>
   <tile/>
   <tile/>
   <tile/>
   <tile/>
   <tile/>
   <tile/>
   <tile/>
   <tile/>
   <tile/>
   <tile/>
   <tile/>
   <tile/>
   <tile/>
   <tile/>
   <tile/>
   <tile/>
   <tile/>
   <tile/>
   <tile/>
   <tile/>
   <tile gid="66"/>
   <tile gid="66"/>
   <tile/>
   <tile/>
   <tile/>
   <tile/>
   <tile/>
   <tile/>
   <tile/>
   <tile/>
   <tile/>
   <tile/>
   <tile/>
   <tile gid="65"/>
   <tile gid="65"/>
   <tile/>
   <tile/>
   <tile/>
   <tile/>
   <tile/>
   <tile/>
   <tile/>
   <tile/>
   <tile/>
   <tile/>
   <tile/>
   <tile/>
   <tile/>
   <tile/>
   <tile/>
   <tile/>
   <tile/>
   <tile/>
   <tile/>
   <tile/>
   <tile/>
   <tile/>
   <tile/>
   <tile/>
   <tile/>
   <tile/>
   <tile/>
   <tile/>
   <tile/>
   <tile/>
   <tile/>
   <tile/>
   <tile/>
   <tile/>
   <tile/>
   <tile/>
   <tile/>
   <tile/>
   <tile/>
   <tile/>
   <tile/>
   <tile/>
   <tile/>
   <tile/>
   <tile/>
   <tile/>
   <tile/>
   <tile/>
   <tile/>
   <tile/>
   <tile/>
   <tile/>
   <tile/>
   <tile/>
   <tile/>
   <tile/>
   <tile/>
   <tile/>
   <tile/>
   <tile/>
   <tile/>
   <tile/>
   <tile/>
   <tile/>
   <tile/>
   <tile/>
   <tile gid="65"/>
   <tile gid="65"/>
   <tile gid="65"/>
   <tile gid="65"/>
   <tile gid="65"/>
   <tile gid="65"/>
   <tile gid="65"/>
   <tile/>
   <tile/>
   <tile/>
   <tile/>
   <tile/>
   <tile/>
   <tile/>
   <tile/>
   <tile/>
   <tile/>
   <tile/>
   <tile/>
   <tile/>
   <tile/>
   <tile/>
   <tile/>
   <tile/>
   <tile/>
   <tile/>
   <tile/>
   <tile/>
   <tile/>
   <tile/>
   <tile/>
   <tile/>
   <tile/>
   <tile/>
   <tile/>
   <tile/>
   <tile/>
   <tile/>
   <tile/>
   <tile/>
   <tile/>
   <tile/>
   <tile/>
   <tile/>
   <tile/>
   <tile/>
   <tile gid="66"/>
   <tile gid="66"/>
   <tile/>
   <tile/>
   <tile/>
   <tile/>
   <tile/>
   <tile/>
   <tile/>
   <tile/>
   <tile/>
   <tile/>
   <tile/>
   <tile gid="65"/>
   <tile gid="65"/>
   <tile/>
   <tile/>
   <tile/>
   <tile/>
   <tile/>
   <tile/>
   <tile/>
   <tile/>
   <tile/>
   <tile/>
   <tile/>
   <tile/>
   <tile/>
   <tile/>
   <tile/>
   <tile/>
   <tile/>
   <tile/>
   <tile/>
   <tile/>
   <tile/>
   <tile/>
   <tile/>
   <tile/>
   <tile/>
   <tile/>
   <tile/>
   <tile/>
   <tile/>
   <tile/>
   <tile/>
   <tile/>
   <tile/>
   <tile/>
   <tile/>
   <tile/>
   <tile/>
   <tile/>
   <tile/>
   <tile/>
   <tile/>
   <tile/>
   <tile/>
   <tile/>
   <tile/>
   <tile/>
   <tile/>
   <tile/>
   <tile/>
   <tile/>
   <tile/>
   <tile/>
   <tile/>
   <tile/>
   <tile/>
   <tile/>
   <tile/>
   <tile/>
   <tile/>
   <tile/>
   <tile/>
   <tile/>
   <tile/>
   <tile/>
   <tile gid="65"/>
   <tile gid="65"/>
   <tile gid="65"/>
   <tile gid="65"/>
   <tile gid="65"/>
   <tile gid="65"/>
   <tile gid="65"/>
   <tile/>
   <tile/>
   <tile/>
   <tile/>
   <tile/>
   <tile/>
   <tile/>
   <tile/>
   <tile/>
   <tile/>
   <tile/>
   <tile/>
   <tile/>
   <tile/>
   <tile/>
   <tile/>
   <tile/>
   <tile/>
   <tile/>
   <tile/>
   <tile/>
   <tile/>
   <tile/>
   <tile/>
   <tile/>
   <tile/>
   <tile/>
   <tile/>
   <tile/>
   <tile/>
   <tile/>
   <tile/>
   <tile/>
   <tile/>
   <tile/>
   <tile/>
   <tile/>
   <tile/>
   <tile/>
   <tile/>
   <tile/>
   <tile gid="66"/>
   <tile gid="66"/>
   <tile/>
   <tile/>
   <tile/>
   <tile/>
   <tile/>
   <tile/>
   <tile/>
   <tile/>
   <tile/>
   <tile/>
   <tile/>
   <tile gid="65"/>
   <tile gid="65"/>
   <tile/>
   <tile/>
   <tile/>
   <tile/>
   <tile/>
   <tile/>
   <tile/>
   <tile/>
   <tile/>
   <tile/>
   <tile/>
   <tile/>
   <tile/>
   <tile/>
   <tile/>
   <tile/>
   <tile/>
   <tile/>
   <tile/>
   <tile/>
   <tile/>
   <tile/>
   <tile/>
   <tile/>
   <tile/>
   <tile/>
   <tile/>
   <tile/>
   <tile/>
   <tile/>
   <tile/>
   <tile/>
   <tile/>
   <tile/>
   <tile/>
   <tile/>
   <tile/>
   <tile/>
   <tile/>
   <tile/>
   <tile/>
   <tile/>
   <tile/>
   <tile/>
   <tile/>
   <tile/>
   <tile/>
   <tile/>
   <tile/>
   <tile/>
   <tile/>
   <tile/>
   <tile/>
   <tile/>
   <tile/>
   <tile/>
   <tile/>
   <tile/>
   <tile/>
   <tile/>
   <tile/>
   <tile/>
   <tile/>
   <tile/>
   <tile gid="65"/>
   <tile gid="65"/>
   <tile gid="65"/>
   <tile gid="65"/>
   <tile gid="65"/>
   <tile gid="65"/>
   <tile gid="65"/>
   <tile/>
   <tile/>
   <tile/>
   <tile/>
   <tile/>
   <tile/>
   <tile/>
   <tile/>
   <tile/>
   <tile/>
   <tile/>
   <tile/>
   <tile/>
   <tile/>
   <tile/>
   <tile/>
   <tile/>
   <tile/>
   <tile/>
   <tile/>
   <tile/>
   <tile/>
   <tile/>
   <tile/>
   <tile/>
   <tile/>
   <tile/>
   <tile/>
   <tile/>
   <tile/>
   <tile/>
   <tile/>
   <tile/>
   <tile/>
   <tile/>
   <tile/>
   <tile/>
   <tile/>
   <tile/>
   <tile/>
   <tile/>
   <tile gid="66"/>
   <tile gid="66"/>
   <tile/>
   <tile/>
   <tile/>
   <tile/>
   <tile/>
   <tile/>
   <tile/>
   <tile/>
   <tile/>
   <tile/>
   <tile/>
   <tile gid="65"/>
   <tile gid="65"/>
   <tile/>
   <tile/>
   <tile/>
   <tile/>
   <tile/>
   <tile/>
   <tile/>
   <tile/>
   <tile/>
   <tile/>
   <tile/>
   <tile/>
   <tile/>
   <tile/>
   <tile/>
   <tile/>
   <tile/>
   <tile/>
   <tile/>
   <tile/>
   <tile/>
   <tile/>
   <tile/>
   <tile/>
   <tile/>
   <tile/>
   <tile/>
   <tile/>
   <tile/>
   <tile/>
   <tile/>
   <tile/>
   <tile/>
   <tile/>
   <tile/>
   <tile/>
   <tile/>
   <tile/>
   <tile/>
   <tile/>
   <tile/>
   <tile/>
   <tile/>
   <tile/>
   <tile/>
   <tile/>
   <tile/>
   <tile/>
   <tile/>
   <tile/>
   <tile/>
   <tile/>
   <tile/>
   <tile/>
   <tile/>
   <tile/>
   <tile/>
   <tile/>
   <tile/>
   <tile/>
   <tile/>
   <tile/>
   <tile gid="65"/>
   <tile gid="65"/>
   <tile gid="65"/>
   <tile gid="65"/>
   <tile gid="65"/>
   <tile gid="65"/>
   <tile gid="65"/>
   <tile gid="65"/>
   <tile/>
   <tile/>
   <tile/>
   <tile/>
   <tile/>
   <tile/>
   <tile/>
   <tile/>
   <tile/>
   <tile/>
   <tile/>
   <tile/>
   <tile/>
   <tile/>
   <tile/>
   <tile/>
   <tile/>
   <tile/>
   <tile/>
   <tile/>
   <tile/>
   <tile/>
   <tile/>
   <tile/>
   <tile/>
   <tile/>
   <tile/>
   <tile/>
   <tile/>
   <tile/>
   <tile/>
   <tile/>
   <tile/>
   <tile/>
   <tile/>
   <tile/>
   <tile/>
   <tile/>
   <tile/>
   <tile/>
   <tile/>
   <tile/>
   <tile gid="66"/>
   <tile gid="66"/>
   <tile/>
   <tile/>
   <tile/>
   <tile/>
   <tile/>
   <tile/>
   <tile/>
   <tile/>
   <tile/>
   <tile/>
   <tile/>
   <tile gid="65"/>
   <tile gid="65"/>
   <tile/>
   <tile/>
   <tile/>
   <tile/>
   <tile/>
   <tile/>
   <tile/>
   <tile/>
   <tile/>
   <tile/>
   <tile/>
   <tile/>
   <tile/>
   <tile/>
   <tile/>
   <tile/>
   <tile/>
   <tile/>
   <tile/>
   <tile/>
   <tile/>
   <tile/>
   <tile/>
   <tile/>
   <tile/>
   <tile/>
   <tile/>
   <tile/>
   <tile/>
   <tile/>
   <tile/>
   <tile/>
   <tile/>
   <tile/>
   <tile/>
   <tile/>
   <tile/>
   <tile/>
   <tile/>
   <tile/>
   <tile/>
   <tile/>
   <tile/>
   <tile/>
   <tile/>
   <tile/>
   <tile/>
   <tile/>
   <tile/>
   <tile/>
   <tile/>
   <tile/>
   <tile/>
   <tile/>
   <tile/>
   <tile/>
   <tile/>
   <tile/>
   <tile/>
   <tile/>
   <tile/>
   <tile/>
   <tile gid="65"/>
   <tile gid="65"/>
   <tile gid="65"/>
   <tile gid="65"/>
   <tile gid="65"/>
   <tile gid="65"/>
   <tile/>
   <tile/>
   <tile/>
   <tile/>
   <tile/>
   <tile/>
   <tile/>
   <tile/>
   <tile/>
   <tile/>
   <tile/>
   <tile/>
   <tile/>
   <tile/>
   <tile/>
   <tile/>
   <tile/>
   <tile/>
   <tile/>
   <tile/>
   <tile/>
   <tile/>
   <tile/>
   <tile/>
   <tile/>
   <tile/>
   <tile/>
   <tile/>
   <tile/>
   <tile/>
   <tile/>
   <tile/>
   <tile/>
   <tile/>
   <tile/>
   <tile/>
   <tile/>
   <tile/>
   <tile/>
   <tile/>
   <tile/>
   <tile/>
   <tile/>
   <tile/>
   <tile gid="66"/>
   <tile gid="66"/>
   <tile/>
   <tile/>
   <tile/>
   <tile/>
   <tile/>
   <tile/>
   <tile/>
   <tile/>
   <tile/>
   <tile/>
   <tile/>
   <tile gid="65"/>
   <tile gid="65"/>
   <tile/>
   <tile/>
   <tile/>
   <tile/>
   <tile/>
   <tile/>
   <tile/>
   <tile/>
   <tile/>
   <tile/>
   <tile/>
   <tile/>
   <tile/>
   <tile/>
   <tile/>
   <tile/>
   <tile/>
   <tile/>
   <tile/>
   <tile/>
   <tile/>
   <tile/>
   <tile/>
   <tile/>
   <tile/>
   <tile/>
   <tile/>
   <tile/>
   <tile/>
   <tile/>
   <tile/>
   <tile/>
   <tile/>
   <tile/>
   <tile/>
   <tile/>
   <tile/>
   <tile/>
   <tile/>
   <tile/>
   <tile/>
   <tile/>
   <tile/>
   <tile/>
   <tile/>
   <tile/>
   <tile/>
   <tile/>
   <tile/>
   <tile/>
   <tile/>
   <tile/>
   <tile/>
   <tile/>
   <tile/>
   <tile/>
   <tile/>
   <tile/>
   <tile/>
   <tile/>
   <tile/>
   <tile/>
   <tile gid="65"/>
   <tile gid="65"/>
   <tile gid="65"/>
   <tile gid="65"/>
   <tile/>
   <tile/>
   <tile/>
   <tile/>
   <tile/>
   <tile/>
   <tile/>
   <tile/>
   <tile/>
   <tile/>
   <tile/>
   <tile/>
   <tile/>
   <tile/>
   <tile/>
   <tile/>
   <tile/>
   <tile/>
   <tile/>
   <tile/>
   <tile/>
   <tile/>
   <tile/>
   <tile/>
   <tile/>
   <tile/>
   <tile/>
   <tile/>
   <tile/>
   <tile/>
   <tile/>
   <tile/>
   <tile/>
   <tile/>
   <tile/>
   <tile/>
   <tile/>
   <tile/>
   <tile/>
   <tile/>
   <tile/>
   <tile/>
   <tile/>
   <tile/>
   <tile/>
   <tile/>
   <tile gid="66"/>
   <tile gid="66"/>
   <tile/>
   <tile/>
   <tile/>
   <tile/>
   <tile/>
   <tile/>
   <tile/>
   <tile/>
   <tile/>
   <tile/>
   <tile/>
   <tile gid="65"/>
   <tile gid="65"/>
   <tile/>
   <tile/>
   <tile/>
   <tile/>
   <tile/>
   <tile/>
   <tile/>
   <tile/>
   <tile/>
   <tile/>
   <tile/>
   <tile/>
   <tile/>
   <tile/>
   <tile/>
   <tile/>
   <tile/>
   <tile/>
   <tile/>
   <tile/>
   <tile/>
   <tile/>
   <tile/>
   <tile/>
   <tile/>
   <tile/>
   <tile/>
   <tile/>
   <tile/>
   <tile/>
   <tile/>
   <tile/>
   <tile/>
   <tile/>
   <tile/>
   <tile/>
   <tile/>
   <tile/>
   <tile/>
   <tile/>
   <tile/>
   <tile/>
   <tile/>
   <tile/>
   <tile/>
   <tile/>
   <tile/>
   <tile/>
   <tile/>
   <tile/>
   <tile/>
   <tile/>
   <tile/>
   <tile/>
   <tile/>
   <tile/>
   <tile/>
   <tile/>
   <tile/>
   <tile/>
   <tile/>
   <tile/>
   <tile gid="65"/>
   <tile gid="65"/>
   <tile/>
   <tile/>
   <tile/>
   <tile/>
   <tile/>
   <tile/>
   <tile/>
   <tile/>
   <tile/>
   <tile/>
   <tile/>
   <tile/>
   <tile/>
   <tile/>
   <tile/>
   <tile/>
   <tile/>
   <tile/>
   <tile/>
   <tile/>
   <tile/>
   <tile/>
   <tile/>
   <tile/>
   <tile/>
   <tile/>
   <tile/>
   <tile/>
   <tile/>
   <tile/>
   <tile/>
   <tile/>
   <tile/>
   <tile/>
   <tile/>
   <tile/>
   <tile/>
   <tile/>
   <tile/>
   <tile/>
   <tile/>
   <tile/>
   <tile/>
   <tile/>
   <tile/>
   <tile/>
   <tile/>
   <tile/>
   <tile gid="65"/>
   <tile gid="65"/>
   <tile gid="65"/>
   <tile gid="65"/>
   <tile gid="65"/>
   <tile gid="65"/>
   <tile gid="65"/>
   <tile gid="65"/>
   <tile gid="65"/>
   <tile gid="65"/>
   <tile gid="65"/>
   <tile gid="65"/>
   <tile gid="65"/>
   <tile gid="65"/>
   <tile gid="65"/>
   <tile/>
   <tile/>
   <tile/>
   <tile/>
   <tile/>
   <tile/>
   <tile/>
   <tile/>
   <tile/>
   <tile/>
   <tile/>
   <tile/>
   <tile/>
   <tile/>
   <tile/>
   <tile/>
   <tile/>
   <tile/>
   <tile/>
   <tile/>
   <tile/>
   <tile/>
   <tile/>
   <tile/>
   <tile/>
   <tile/>
   <tile/>
   <tile/>
   <tile/>
   <tile/>
   <tile/>
   <tile/>
   <tile/>
   <tile/>
   <tile/>
   <tile/>
   <tile/>
   <tile/>
   <tile/>
   <tile/>
   <tile/>
   <tile/>
   <tile/>
   <tile/>
   <tile/>
   <tile/>
   <tile/>
   <tile/>
   <tile/>
   <tile/>
   <tile/>
   <tile/>
   <tile/>
   <tile/>
   <tile/>
   <tile/>
   <tile/>
   <tile/>
   <tile/>
   <tile/>
   <tile/>
   <tile/>
   <tile gid="65"/>
   <tile gid="65"/>
   <tile/>
   <tile/>
   <tile/>
   <tile/>
   <tile/>
   <tile/>
   <tile/>
   <tile/>
   <tile/>
   <tile/>
   <tile/>
   <tile/>
   <tile/>
   <tile/>
   <tile/>
   <tile/>
   <tile/>
   <tile/>
   <tile/>
   <tile/>
   <tile/>
   <tile/>
   <tile/>
   <tile/>
   <tile/>
   <tile/>
   <tile/>
   <tile/>
   <tile/>
   <tile/>
   <tile/>
   <tile/>
   <tile/>
   <tile/>
   <tile/>
   <tile/>
   <tile/>
   <tile/>
   <tile/>
   <tile/>
   <tile/>
   <tile/>
   <tile/>
   <tile/>
   <tile/>
   <tile/>
   <tile/>
   <tile/>
   <tile gid="65"/>
   <tile gid="65"/>
   <tile gid="65"/>
   <tile gid="65"/>
   <tile gid="65"/>
   <tile gid="65"/>
   <tile gid="65"/>
   <tile gid="65"/>
   <tile gid="65"/>
   <tile gid="65"/>
   <tile gid="65"/>
   <tile gid="65"/>
   <tile gid="65"/>
   <tile gid="65"/>
   <tile gid="65"/>
   <tile/>
   <tile/>
   <tile/>
   <tile/>
   <tile/>
   <tile/>
   <tile/>
   <tile/>
   <tile/>
   <tile/>
   <tile/>
   <tile/>
   <tile/>
   <tile/>
   <tile/>
   <tile/>
   <tile/>
   <tile/>
   <tile/>
   <tile/>
   <tile/>
   <tile/>
   <tile/>
   <tile/>
   <tile/>
   <tile/>
   <tile/>
   <tile/>
   <tile/>
   <tile/>
   <tile/>
   <tile/>
   <tile/>
   <tile/>
   <tile/>
   <tile/>
   <tile/>
   <tile/>
   <tile/>
   <tile/>
   <tile/>
   <tile/>
   <tile/>
   <tile/>
   <tile/>
   <tile/>
   <tile/>
   <tile/>
   <tile/>
   <tile/>
   <tile/>
   <tile/>
   <tile/>
   <tile/>
   <tile/>
   <tile/>
   <tile/>
   <tile/>
   <tile/>
   <tile/>
   <tile/>
   <tile/>
   <tile gid="65"/>
   <tile gid="65"/>
   <tile/>
   <tile/>
   <tile/>
   <tile/>
   <tile/>
   <tile/>
   <tile/>
   <tile/>
   <tile/>
   <tile/>
   <tile/>
   <tile/>
   <tile/>
   <tile/>
   <tile/>
   <tile/>
   <tile/>
   <tile/>
   <tile/>
   <tile/>
   <tile/>
   <tile/>
   <tile/>
   <tile/>
   <tile/>
   <tile/>
   <tile/>
   <tile/>
   <tile/>
   <tile/>
   <tile/>
   <tile/>
   <tile/>
   <tile/>
   <tile/>
   <tile/>
   <tile/>
   <tile/>
   <tile/>
   <tile/>
   <tile/>
   <tile/>
   <tile/>
   <tile/>
   <tile/>
   <tile/>
   <tile/>
   <tile/>
   <tile gid="65"/>
   <tile gid="65"/>
   <tile gid="65"/>
   <tile gid="65"/>
   <tile gid="65"/>
   <tile gid="65"/>
   <tile gid="65"/>
   <tile gid="65"/>
   <tile gid="65"/>
   <tile gid="65"/>
   <tile gid="65"/>
   <tile gid="65"/>
   <tile gid="65"/>
   <tile gid="65"/>
   <tile gid="65"/>
   <tile/>
   <tile/>
   <tile/>
   <tile/>
   <tile/>
   <tile/>
   <tile/>
   <tile/>
   <tile/>
   <tile/>
   <tile/>
   <tile/>
   <tile/>
   <tile/>
   <tile/>
   <tile/>
   <tile/>
   <tile/>
   <tile/>
   <tile/>
   <tile/>
   <tile/>
   <tile/>
   <tile/>
   <tile/>
   <tile/>
   <tile/>
   <tile/>
   <tile/>
   <tile/>
   <tile/>
   <tile/>
   <tile/>
   <tile/>
   <tile/>
   <tile/>
   <tile/>
   <tile/>
   <tile/>
   <tile/>
   <tile/>
   <tile/>
   <tile/>
   <tile/>
   <tile/>
   <tile/>
   <tile/>
   <tile/>
   <tile/>
   <tile/>
   <tile/>
   <tile/>
   <tile/>
   <tile/>
   <tile/>
   <tile/>
   <tile/>
   <tile/>
   <tile/>
   <tile/>
   <tile/>
   <tile/>
   <tile gid="65"/>
   <tile gid="65"/>
   <tile/>
   <tile/>
   <tile/>
   <tile/>
   <tile/>
   <tile/>
   <tile/>
   <tile/>
   <tile/>
   <tile/>
   <tile/>
   <tile/>
   <tile/>
   <tile/>
   <tile/>
   <tile/>
   <tile/>
   <tile/>
   <tile/>
   <tile/>
   <tile/>
   <tile/>
   <tile/>
   <tile/>
   <tile/>
   <tile/>
   <tile/>
   <tile/>
   <tile/>
   <tile/>
   <tile/>
   <tile/>
   <tile/>
   <tile/>
   <tile/>
   <tile/>
   <tile/>
   <tile/>
   <tile/>
   <tile/>
   <tile/>
   <tile/>
   <tile/>
   <tile/>
   <tile/>
   <tile/>
   <tile/>
   <tile/>
   <tile gid="65"/>
   <tile gid="65"/>
   <tile gid="65"/>
   <tile gid="65"/>
   <tile gid="65"/>
   <tile gid="65"/>
   <tile gid="65"/>
   <tile gid="65"/>
   <tile gid="65"/>
   <tile gid="65"/>
   <tile gid="65"/>
   <tile gid="65"/>
   <tile gid="65"/>
   <tile gid="65"/>
   <tile gid="65"/>
   <tile/>
   <tile/>
   <tile/>
   <tile/>
   <tile/>
   <tile/>
   <tile/>
   <tile/>
   <tile/>
   <tile/>
   <tile/>
   <tile/>
   <tile/>
   <tile/>
   <tile/>
   <tile/>
   <tile/>
   <tile/>
   <tile/>
   <tile/>
   <tile/>
   <tile/>
   <tile/>
   <tile/>
   <tile/>
   <tile/>
   <tile/>
   <tile/>
   <tile/>
   <tile/>
   <tile/>
   <tile/>
   <tile/>
   <tile/>
   <tile/>
   <tile/>
   <tile/>
   <tile/>
   <tile/>
   <tile/>
   <tile/>
   <tile/>
   <tile/>
   <tile/>
   <tile/>
   <tile/>
   <tile/>
   <tile/>
   <tile/>
   <tile/>
   <tile/>
   <tile/>
   <tile/>
   <tile/>
   <tile/>
   <tile/>
   <tile/>
   <tile/>
   <tile/>
   <tile/>
   <tile/>
   <tile/>
   <tile gid="65"/>
   <tile gid="65"/>
   <tile/>
   <tile/>
   <tile/>
   <tile/>
   <tile/>
   <tile/>
   <tile/>
   <tile/>
   <tile/>
   <tile/>
   <tile/>
   <tile/>
   <tile/>
   <tile/>
   <tile/>
   <tile/>
   <tile/>
   <tile/>
   <tile/>
   <tile/>
   <tile/>
   <tile/>
   <tile/>
   <tile/>
   <tile/>
   <tile/>
   <tile/>
   <tile/>
   <tile/>
   <tile/>
   <tile/>
   <tile/>
   <tile/>
   <tile/>
   <tile/>
   <tile/>
   <tile/>
   <tile/>
   <tile/>
   <tile/>
   <tile/>
   <tile/>
   <tile/>
   <tile/>
   <tile/>
   <tile/>
   <tile/>
   <tile/>
   <tile gid="65"/>
   <tile gid="65"/>
   <tile gid="65"/>
   <tile gid="65"/>
   <tile gid="65"/>
   <tile gid="65"/>
   <tile gid="65"/>
   <tile gid="65"/>
   <tile gid="65"/>
   <tile gid="65"/>
   <tile gid="65"/>
   <tile gid="65"/>
   <tile gid="65"/>
   <tile gid="65"/>
   <tile gid="65"/>
   <tile/>
   <tile/>
   <tile/>
   <tile/>
   <tile/>
   <tile/>
   <tile/>
   <tile/>
   <tile/>
   <tile/>
   <tile/>
   <tile/>
   <tile/>
   <tile/>
   <tile/>
   <tile/>
   <tile/>
   <tile/>
   <tile/>
   <tile/>
   <tile/>
   <tile/>
   <tile/>
   <tile/>
   <tile/>
   <tile/>
   <tile/>
   <tile/>
   <tile/>
   <tile/>
   <tile/>
   <tile/>
   <tile/>
   <tile/>
   <tile/>
   <tile/>
   <tile/>
   <tile/>
   <tile/>
   <tile/>
   <tile/>
   <tile/>
   <tile/>
   <tile/>
   <tile/>
   <tile/>
   <tile/>
   <tile/>
   <tile/>
   <tile/>
   <tile/>
   <tile/>
   <tile/>
   <tile/>
   <tile/>
   <tile/>
   <tile/>
   <tile/>
   <tile/>
   <tile/>
   <tile/>
   <tile/>
   <tile gid="65"/>
   <tile gid="65"/>
   <tile/>
   <tile/>
   <tile/>
   <tile/>
   <tile/>
   <tile/>
   <tile/>
   <tile/>
   <tile/>
   <tile/>
   <tile/>
   <tile/>
   <tile/>
   <tile/>
   <tile/>
   <tile/>
   <tile/>
   <tile/>
   <tile/>
   <tile/>
   <tile/>
   <tile/>
   <tile/>
   <tile/>
   <tile/>
   <tile/>
   <tile/>
   <tile/>
   <tile/>
   <tile/>
   <tile/>
   <tile/>
   <tile/>
   <tile/>
   <tile/>
   <tile/>
   <tile/>
   <tile/>
   <tile/>
   <tile/>
   <tile/>
   <tile/>
   <tile/>
   <tile/>
   <tile/>
   <tile/>
   <tile/>
   <tile/>
   <tile gid="65"/>
   <tile gid="65"/>
   <tile gid="65"/>
   <tile gid="65"/>
   <tile gid="65"/>
   <tile gid="65"/>
   <tile gid="65"/>
   <tile gid="65"/>
   <tile gid="65"/>
   <tile gid="65"/>
   <tile gid="65"/>
   <tile gid="65"/>
   <tile gid="65"/>
   <tile gid="65"/>
   <tile gid="65"/>
   <tile/>
   <tile/>
   <tile/>
   <tile/>
   <tile/>
   <tile/>
   <tile/>
   <tile/>
   <tile/>
   <tile/>
   <tile/>
   <tile/>
   <tile/>
   <tile/>
   <tile/>
   <tile/>
   <tile/>
   <tile/>
   <tile/>
   <tile/>
   <tile/>
   <tile/>
   <tile/>
   <tile/>
   <tile/>
   <tile/>
   <tile/>
   <tile/>
   <tile/>
   <tile/>
   <tile/>
   <tile/>
   <tile/>
   <tile/>
   <tile/>
   <tile/>
   <tile gid="65"/>
   <tile gid="65"/>
   <tile gid="65"/>
   <tile gid="65"/>
   <tile gid="65"/>
   <tile gid="65"/>
   <tile gid="65"/>
   <tile gid="65"/>
   <tile gid="65"/>
   <tile gid="65"/>
   <tile gid="65"/>
   <tile gid="65"/>
   <tile gid="65"/>
   <tile gid="65"/>
   <tile gid="65"/>
   <tile gid="65"/>
   <tile gid="65"/>
   <tile gid="65"/>
   <tile gid="65"/>
   <tile gid="65"/>
   <tile gid="65"/>
   <tile gid="65"/>
   <tile gid="65"/>
   <tile gid="65"/>
   <tile gid="65"/>
   <tile gid="65"/>
   <tile gid="65"/>
   <tile gid="65"/>
   <tile gid="65"/>
   <tile gid="65"/>
   <tile gid="65"/>
   <tile gid="65"/>
   <tile gid="65"/>
   <tile gid="65"/>
   <tile gid="65"/>
   <tile gid="65"/>
   <tile gid="65"/>
   <tile gid="65"/>
   <tile gid="65"/>
   <tile gid="65"/>
   <tile gid="65"/>
   <tile gid="65"/>
   <tile gid="65"/>
   <tile gid="65"/>
   <tile gid="65"/>
   <tile gid="65"/>
   <tile gid="65"/>
   <tile gid="65"/>
   <tile gid="65"/>
   <tile gid="65"/>
   <tile gid="65"/>
   <tile gid="65"/>
   <tile gid="65"/>
   <tile gid="65"/>
   <tile gid="65"/>
   <tile gid="65"/>
   <tile gid="65"/>
   <tile gid="65"/>
   <tile gid="65"/>
   <tile gid="65"/>
   <tile gid="65"/>
   <tile gid="65"/>
   <tile gid="65"/>
   <tile gid="65"/>
   <tile gid="65"/>
   <tile gid="65"/>
   <tile gid="65"/>
   <tile gid="65"/>
   <tile gid="65"/>
   <tile gid="65"/>
   <tile gid="65"/>
   <tile gid="65"/>
   <tile gid="65"/>
   <tile gid="65"/>
   <tile gid="65"/>
   <tile gid="65"/>
   <tile gid="65"/>
   <tile gid="65"/>
   <tile gid="65"/>
   <tile gid="65"/>
   <tile gid="65"/>
   <tile gid="65"/>
   <tile gid="65"/>
   <tile gid="65"/>
   <tile gid="65"/>
   <tile gid="65"/>
   <tile gid="65"/>
   <tile gid="65"/>
   <tile gid="65"/>
   <tile gid="65"/>
   <tile gid="65"/>
   <tile/>
   <tile/>
   <tile/>
   <tile/>
   <tile/>
   <tile/>
   <tile/>
   <tile/>
   <tile/>
   <tile/>
   <tile/>
   <tile/>
   <tile/>
   <tile/>
   <tile/>
   <tile/>
   <tile/>
   <tile/>
   <tile/>
   <tile/>
   <tile/>
   <tile/>
   <tile/>
   <tile/>
   <tile/>
   <tile/>
   <tile/>
   <tile/>
   <tile/>
   <tile/>
   <tile/>
   <tile/>
   <tile/>
   <tile/>
   <tile/>
   <tile/>
   <tile gid="65"/>
   <tile gid="65"/>
   <tile gid="65"/>
   <tile gid="65"/>
   <tile gid="65"/>
   <tile gid="65"/>
   <tile gid="65"/>
   <tile gid="65"/>
   <tile gid="65"/>
   <tile gid="65"/>
   <tile gid="65"/>
   <tile gid="65"/>
   <tile gid="65"/>
   <tile gid="65"/>
   <tile gid="65"/>
   <tile gid="65"/>
   <tile gid="65"/>
   <tile gid="65"/>
   <tile gid="65"/>
   <tile gid="65"/>
   <tile gid="65"/>
   <tile gid="65"/>
   <tile gid="65"/>
   <tile gid="65"/>
   <tile gid="65"/>
   <tile gid="65"/>
   <tile gid="65"/>
   <tile gid="65"/>
   <tile gid="65"/>
   <tile gid="65"/>
   <tile gid="65"/>
   <tile gid="65"/>
   <tile gid="65"/>
   <tile gid="65"/>
   <tile gid="65"/>
   <tile gid="65"/>
   <tile gid="65"/>
   <tile gid="65"/>
   <tile gid="65"/>
   <tile gid="65"/>
   <tile gid="65"/>
   <tile gid="65"/>
   <tile gid="65"/>
   <tile gid="65"/>
   <tile gid="65"/>
   <tile gid="65"/>
   <tile gid="65"/>
   <tile gid="65"/>
   <tile gid="65"/>
   <tile gid="65"/>
   <tile gid="65"/>
   <tile gid="65"/>
   <tile gid="65"/>
   <tile gid="65"/>
   <tile gid="65"/>
   <tile gid="65"/>
   <tile gid="65"/>
   <tile gid="65"/>
   <tile gid="65"/>
   <tile gid="65"/>
   <tile gid="65"/>
   <tile gid="65"/>
   <tile gid="65"/>
   <tile gid="65"/>
   <tile gid="65"/>
   <tile gid="65"/>
   <tile gid="65"/>
   <tile gid="65"/>
   <tile gid="65"/>
   <tile gid="65"/>
   <tile gid="65"/>
   <tile gid="65"/>
   <tile gid="65"/>
   <tile gid="65"/>
   <tile gid="65"/>
   <tile gid="65"/>
   <tile gid="65"/>
   <tile gid="65"/>
   <tile gid="65"/>
   <tile gid="65"/>
   <tile gid="65"/>
   <tile gid="65"/>
   <tile gid="65"/>
   <tile gid="65"/>
   <tile gid="65"/>
   <tile gid="65"/>
   <tile gid="65"/>
   <tile gid="65"/>
   <tile gid="65"/>
   <tile gid="65"/>
   <tile gid="65"/>
   <tile/>
   <tile/>
   <tile/>
   <tile/>
   <tile/>
   <tile/>
   <tile/>
   <tile/>
   <tile/>
   <tile/>
   <tile/>
   <tile/>
   <tile/>
   <tile/>
   <tile/>
   <tile/>
   <tile/>
   <tile/>
   <tile/>
   <tile/>
   <tile/>
   <tile/>
   <tile/>
   <tile/>
   <tile/>
   <tile/>
   <tile/>
   <tile/>
   <tile/>
   <tile/>
   <tile/>
   <tile/>
   <tile/>
   <tile/>
   <tile/>
   <tile/>
   <tile gid="65"/>
   <tile gid="65"/>
   <tile gid="65"/>
   <tile gid="65"/>
   <tile gid="65"/>
   <tile gid="65"/>
   <tile gid="65"/>
   <tile gid="65"/>
   <tile gid="65"/>
   <tile gid="65"/>
   <tile gid="65"/>
   <tile gid="65"/>
   <tile gid="65"/>
   <tile gid="65"/>
   <tile gid="65"/>
   <tile gid="65"/>
   <tile gid="65"/>
   <tile gid="65"/>
   <tile gid="65"/>
   <tile gid="65"/>
   <tile gid="65"/>
   <tile gid="65"/>
   <tile gid="65"/>
   <tile gid="65"/>
   <tile gid="65"/>
   <tile gid="65"/>
   <tile gid="65"/>
   <tile gid="65"/>
   <tile gid="65"/>
   <tile gid="65"/>
   <tile gid="65"/>
   <tile gid="65"/>
   <tile gid="65"/>
   <tile gid="65"/>
   <tile gid="65"/>
   <tile gid="65"/>
   <tile gid="65"/>
   <tile gid="65"/>
   <tile gid="65"/>
   <tile gid="65"/>
   <tile gid="65"/>
   <tile gid="65"/>
   <tile gid="65"/>
   <tile gid="65"/>
   <tile gid="65"/>
   <tile gid="65"/>
   <tile gid="65"/>
   <tile gid="65"/>
   <tile gid="65"/>
   <tile gid="65"/>
   <tile gid="65"/>
   <tile gid="65"/>
   <tile gid="65"/>
   <tile gid="65"/>
   <tile gid="65"/>
   <tile gid="65"/>
   <tile gid="65"/>
   <tile gid="65"/>
   <tile gid="65"/>
   <tile gid="65"/>
   <tile gid="65"/>
   <tile gid="65"/>
   <tile gid="65"/>
   <tile gid="65"/>
   <tile gid="65"/>
   <tile gid="65"/>
   <tile gid="65"/>
   <tile gid="65"/>
   <tile gid="65"/>
   <tile gid="65"/>
   <tile gid="65"/>
   <tile gid="65"/>
   <tile gid="65"/>
   <tile gid="65"/>
   <tile gid="65"/>
   <tile gid="65"/>
   <tile gid="65"/>
   <tile gid="65"/>
   <tile gid="65"/>
   <tile gid="65"/>
   <tile gid="65"/>
   <tile gid="65"/>
   <tile gid="65"/>
   <tile gid="65"/>
   <tile gid="65"/>
   <tile gid="65"/>
   <tile gid="65"/>
   <tile gid="65"/>
   <tile gid="65"/>
   <tile gid="65"/>
   <tile gid="65"/>
   <tile/>
   <tile/>
   <tile/>
   <tile/>
   <tile/>
   <tile/>
   <tile/>
   <tile/>
   <tile/>
   <tile/>
   <tile/>
   <tile/>
   <tile/>
   <tile/>
   <tile/>
   <tile/>
   <tile/>
   <tile/>
   <tile/>
   <tile/>
   <tile/>
   <tile/>
   <tile/>
   <tile/>
   <tile/>
   <tile/>
   <tile/>
   <tile/>
   <tile/>
   <tile/>
   <tile/>
   <tile/>
   <tile/>
   <tile gid="65"/>
   <tile gid="65"/>
   <tile gid="65"/>
   <tile gid="65"/>
   <tile gid="65"/>
   <tile gid="65"/>
   <tile gid="65"/>
   <tile gid="65"/>
   <tile gid="65"/>
   <tile gid="65"/>
   <tile gid="65"/>
   <tile gid="65"/>
   <tile gid="65"/>
   <tile gid="65"/>
   <tile gid="65"/>
   <tile gid="65"/>
   <tile gid="65"/>
   <tile gid="65"/>
   <tile gid="65"/>
   <tile gid="65"/>
   <tile gid="65"/>
   <tile gid="65"/>
   <tile gid="65"/>
   <tile gid="65"/>
   <tile gid="65"/>
   <tile gid="65"/>
   <tile gid="65"/>
   <tile gid="65"/>
   <tile gid="65"/>
   <tile gid="65"/>
   <tile gid="65"/>
   <tile gid="65"/>
   <tile gid="65"/>
   <tile gid="65"/>
   <tile gid="65"/>
   <tile gid="65"/>
   <tile gid="65"/>
   <tile gid="65"/>
   <tile gid="65"/>
   <tile gid="65"/>
   <tile gid="65"/>
   <tile gid="65"/>
   <tile gid="65"/>
   <tile gid="65"/>
   <tile gid="65"/>
   <tile gid="65"/>
   <tile gid="65"/>
   <tile gid="65"/>
   <tile gid="65"/>
   <tile gid="65"/>
   <tile gid="65"/>
   <tile gid="65"/>
   <tile gid="65"/>
   <tile gid="65"/>
   <tile gid="65"/>
   <tile gid="65"/>
   <tile gid="65"/>
   <tile gid="65"/>
   <tile gid="65"/>
   <tile gid="65"/>
   <tile gid="65"/>
   <tile gid="65"/>
   <tile gid="65"/>
   <tile gid="65"/>
   <tile gid="65"/>
   <tile gid="65"/>
   <tile gid="65"/>
   <tile gid="65"/>
   <tile gid="65"/>
   <tile gid="65"/>
   <tile gid="65"/>
   <tile gid="65"/>
   <tile gid="65"/>
   <tile gid="65"/>
   <tile gid="65"/>
   <tile gid="65"/>
   <tile gid="65"/>
   <tile gid="65"/>
   <tile gid="65"/>
   <tile gid="65"/>
   <tile gid="65"/>
   <tile gid="65"/>
   <tile gid="65"/>
   <tile gid="65"/>
   <tile gid="65"/>
   <tile gid="65"/>
   <tile gid="65"/>
   <tile gid="65"/>
   <tile gid="65"/>
   <tile gid="65"/>
   <tile gid="65"/>
   <tile gid="65"/>
   <tile gid="65"/>
   <tile gid="65"/>
   <tile/>
   <tile/>
   <tile/>
   <tile/>
   <tile/>
   <tile/>
   <tile/>
   <tile/>
   <tile/>
   <tile/>
   <tile/>
   <tile/>
   <tile/>
   <tile/>
   <tile/>
   <tile/>
   <tile/>
   <tile/>
   <tile/>
   <tile/>
   <tile/>
   <tile/>
   <tile/>
   <tile/>
   <tile/>
   <tile/>
   <tile/>
   <tile/>
   <tile/>
   <tile/>
   <tile/>
   <tile/>
   <tile/>
   <tile gid="65"/>
   <tile gid="65"/>
   <tile gid="65"/>
   <tile gid="65"/>
   <tile gid="65"/>
   <tile gid="65"/>
   <tile gid="65"/>
   <tile gid="65"/>
   <tile gid="65"/>
   <tile gid="65"/>
   <tile gid="65"/>
   <tile gid="65"/>
   <tile gid="65"/>
   <tile gid="65"/>
   <tile gid="65"/>
   <tile gid="65"/>
   <tile gid="65"/>
   <tile gid="65"/>
   <tile gid="65"/>
   <tile gid="65"/>
   <tile gid="65"/>
   <tile gid="65"/>
   <tile gid="65"/>
   <tile gid="65"/>
   <tile gid="65"/>
   <tile gid="65"/>
   <tile gid="65"/>
   <tile gid="65"/>
   <tile gid="65"/>
   <tile gid="65"/>
   <tile gid="65"/>
   <tile gid="65"/>
   <tile gid="65"/>
   <tile gid="65"/>
   <tile gid="65"/>
   <tile gid="65"/>
   <tile gid="65"/>
   <tile gid="65"/>
   <tile gid="65"/>
   <tile gid="65"/>
   <tile gid="65"/>
   <tile gid="65"/>
   <tile gid="65"/>
   <tile gid="65"/>
   <tile gid="65"/>
   <tile gid="65"/>
   <tile gid="65"/>
   <tile gid="65"/>
   <tile gid="65"/>
   <tile gid="65"/>
   <tile gid="65"/>
   <tile gid="65"/>
   <tile gid="65"/>
   <tile gid="65"/>
   <tile gid="65"/>
   <tile gid="65"/>
   <tile gid="65"/>
   <tile gid="65"/>
   <tile gid="65"/>
   <tile gid="65"/>
   <tile gid="65"/>
   <tile gid="65"/>
   <tile gid="65"/>
   <tile gid="65"/>
   <tile gid="65"/>
   <tile gid="65"/>
   <tile gid="65"/>
   <tile gid="65"/>
   <tile gid="65"/>
   <tile gid="65"/>
   <tile gid="65"/>
   <tile gid="65"/>
   <tile gid="65"/>
   <tile gid="65"/>
   <tile gid="65"/>
   <tile gid="65"/>
   <tile gid="65"/>
   <tile gid="65"/>
   <tile gid="65"/>
   <tile gid="65"/>
   <tile gid="65"/>
   <tile gid="65"/>
   <tile gid="65"/>
   <tile gid="65"/>
   <tile gid="65"/>
   <tile gid="65"/>
   <tile gid="65"/>
   <tile gid="65"/>
   <tile gid="65"/>
   <tile gid="65"/>
   <tile gid="65"/>
   <tile gid="65"/>
   <tile gid="65"/>
   <tile gid="65"/>
   <tile/>
   <tile/>
   <tile/>
   <tile/>
   <tile/>
   <tile/>
   <tile/>
   <tile/>
   <tile/>
   <tile/>
   <tile/>
   <tile/>
   <tile/>
   <tile/>
   <tile/>
   <tile/>
   <tile/>
   <tile/>
   <tile/>
   <tile/>
   <tile/>
   <tile gid="65"/>
   <tile gid="65"/>
   <tile gid="65"/>
   <tile gid="65"/>
   <tile gid="65"/>
   <tile gid="65"/>
   <tile gid="65"/>
   <tile gid="65"/>
   <tile gid="65"/>
   <tile gid="65"/>
   <tile gid="65"/>
   <tile gid="65"/>
   <tile gid="65"/>
   <tile gid="65"/>
   <tile gid="65"/>
   <tile gid="65"/>
   <tile gid="65"/>
   <tile gid="65"/>
   <tile/>
   <tile/>
   <tile/>
   <tile/>
   <tile/>
   <tile/>
   <tile/>
   <tile/>
   <tile/>
   <tile/>
   <tile/>
   <tile/>
   <tile/>
   <tile/>
   <tile/>
   <tile/>
   <tile/>
   <tile/>
   <tile/>
   <tile/>
   <tile/>
   <tile/>
   <tile/>
   <tile/>
   <tile/>
   <tile/>
   <tile/>
   <tile/>
   <tile/>
   <tile/>
   <tile/>
   <tile/>
   <tile/>
   <tile/>
   <tile/>
   <tile/>
   <tile/>
   <tile/>
   <tile/>
   <tile/>
   <tile/>
   <tile/>
   <tile/>
   <tile/>
   <tile/>
   <tile/>
   <tile/>
   <tile/>
   <tile/>
   <tile/>
   <tile/>
   <tile/>
   <tile/>
   <tile/>
   <tile/>
   <tile/>
   <tile/>
   <tile/>
   <tile/>
   <tile/>
   <tile/>
   <tile/>
   <tile/>
   <tile/>
   <tile gid="65"/>
   <tile gid="65"/>
   <tile gid="65"/>
   <tile gid="65"/>
   <tile gid="65"/>
   <tile gid="65"/>
   <tile gid="65"/>
   <tile gid="65"/>
   <tile gid="65"/>
   <tile gid="65"/>
   <tile gid="65"/>
   <tile gid="65"/>
   <tile gid="65"/>
   <tile gid="65"/>
   <tile gid="65"/>
   <tile gid="65"/>
   <tile gid="65"/>
   <tile gid="65"/>
   <tile gid="65"/>
   <tile gid="65"/>
   <tile gid="65"/>
   <tile gid="65"/>
   <tile gid="65"/>
   <tile gid="65"/>
   <tile/>
   <tile/>
   <tile/>
   <tile/>
   <tile/>
   <tile/>
   <tile/>
   <tile/>
   <tile/>
   <tile/>
   <tile/>
   <tile/>
   <tile/>
   <tile/>
   <tile/>
   <tile/>
   <tile/>
   <tile/>
   <tile/>
   <tile/>
   <tile/>
   <tile gid="65"/>
   <tile gid="65"/>
   <tile gid="65"/>
   <tile gid="65"/>
   <tile gid="65"/>
   <tile gid="65"/>
   <tile gid="65"/>
   <tile gid="65"/>
   <tile gid="65"/>
   <tile gid="65"/>
   <tile gid="65"/>
   <tile gid="65"/>
   <tile gid="65"/>
   <tile gid="65"/>
   <tile gid="65"/>
   <tile gid="65"/>
   <tile gid="65"/>
   <tile gid="65"/>
   <tile/>
   <tile/>
   <tile/>
   <tile/>
   <tile/>
   <tile/>
   <tile/>
   <tile/>
   <tile/>
   <tile/>
   <tile/>
   <tile/>
   <tile/>
   <tile/>
   <tile/>
   <tile/>
   <tile/>
   <tile/>
   <tile/>
   <tile/>
   <tile/>
   <tile/>
   <tile/>
   <tile/>
   <tile/>
   <tile/>
   <tile/>
   <tile/>
   <tile/>
   <tile/>
   <tile/>
   <tile/>
   <tile/>
   <tile/>
   <tile/>
   <tile/>
   <tile/>
   <tile/>
   <tile/>
   <tile/>
   <tile/>
   <tile/>
   <tile/>
   <tile/>
   <tile/>
   <tile/>
   <tile/>
   <tile/>
   <tile/>
   <tile/>
   <tile/>
   <tile/>
   <tile/>
   <tile/>
   <tile/>
   <tile/>
   <tile/>
   <tile/>
   <tile/>
   <tile/>
   <tile/>
   <tile/>
   <tile/>
   <tile/>
   <tile gid="65"/>
   <tile gid="65"/>
   <tile gid="65"/>
   <tile gid="65"/>
   <tile gid="65"/>
   <tile gid="65"/>
   <tile gid="65"/>
   <tile gid="65"/>
   <tile gid="65"/>
   <tile gid="65"/>
   <tile gid="65"/>
   <tile gid="65"/>
   <tile gid="65"/>
   <tile gid="65"/>
   <tile gid="65"/>
   <tile gid="65"/>
   <tile gid="65"/>
   <tile gid="65"/>
   <tile gid="65"/>
   <tile gid="65"/>
   <tile gid="65"/>
   <tile gid="65"/>
   <tile gid="65"/>
   <tile gid="65"/>
   <tile/>
   <tile/>
   <tile/>
   <tile/>
   <tile/>
   <tile/>
   <tile/>
   <tile/>
   <tile/>
   <tile/>
   <tile/>
   <tile/>
   <tile/>
   <tile/>
   <tile/>
   <tile/>
   <tile/>
   <tile/>
   <tile/>
   <tile/>
   <tile/>
   <tile gid="65"/>
   <tile gid="65"/>
   <tile gid="65"/>
   <tile gid="65"/>
   <tile/>
   <tile/>
   <tile/>
   <tile/>
   <tile gid="65"/>
   <tile gid="65"/>
   <tile gid="65"/>
   <tile gid="65"/>
   <tile gid="65"/>
   <tile gid="65"/>
   <tile gid="65"/>
   <tile gid="65"/>
   <tile gid="65"/>
   <tile gid="65"/>
   <tile/>
   <tile/>
   <tile/>
   <tile/>
   <tile/>
   <tile/>
   <tile/>
   <tile/>
   <tile/>
   <tile/>
   <tile/>
   <tile/>
   <tile/>
   <tile/>
   <tile/>
   <tile/>
   <tile/>
   <tile/>
   <tile/>
   <tile/>
   <tile/>
   <tile/>
   <tile/>
   <tile/>
   <tile/>
   <tile/>
   <tile/>
   <tile/>
   <tile/>
   <tile/>
   <tile/>
   <tile/>
   <tile/>
   <tile/>
   <tile/>
   <tile/>
   <tile/>
   <tile/>
   <tile/>
   <tile/>
   <tile/>
   <tile/>
   <tile/>
   <tile/>
   <tile/>
   <tile/>
   <tile/>
   <tile/>
   <tile/>
   <tile/>
   <tile/>
   <tile/>
   <tile/>
   <tile/>
   <tile/>
   <tile/>
   <tile/>
   <tile/>
   <tile/>
   <tile/>
   <tile/>
   <tile/>
   <tile/>
   <tile/>
   <tile gid="65"/>
   <tile gid="65"/>
   <tile gid="65"/>
   <tile gid="65"/>
   <tile gid="65"/>
   <tile gid="65"/>
   <tile gid="65"/>
   <tile gid="65"/>
   <tile gid="65"/>
   <tile gid="65"/>
   <tile gid="65"/>
   <tile gid="65"/>
   <tile gid="65"/>
   <tile gid="65"/>
   <tile gid="65"/>
   <tile gid="65"/>
   <tile gid="65"/>
   <tile gid="65"/>
   <tile gid="65"/>
   <tile gid="65"/>
   <tile gid="65"/>
   <tile gid="65"/>
   <tile gid="65"/>
   <tile gid="65"/>
   <tile/>
   <tile/>
   <tile/>
   <tile/>
   <tile/>
   <tile/>
   <tile/>
   <tile/>
   <tile/>
   <tile/>
   <tile/>
   <tile/>
   <tile/>
   <tile/>
   <tile/>
   <tile/>
   <tile/>
   <tile/>
   <tile/>
   <tile gid="65"/>
   <tile gid="65"/>
   <tile gid="65"/>
   <tile gid="65"/>
   <tile gid="65"/>
   <tile gid="65"/>
   <tile/>
   <tile/>
   <tile/>
   <tile/>
   <tile gid="65"/>
   <tile gid="65"/>
   <tile gid="65"/>
   <tile gid="65"/>
   <tile gid="65"/>
   <tile gid="65"/>
   <tile gid="65"/>
   <tile gid="65"/>
   <tile gid="65"/>
   <tile gid="65"/>
   <tile/>
   <tile/>
   <tile/>
   <tile/>
   <tile/>
   <tile/>
   <tile/>
   <tile/>
   <tile/>
   <tile/>
   <tile/>
   <tile/>
   <tile/>
   <tile/>
   <tile/>
   <tile/>
   <tile/>
   <tile/>
   <tile/>
   <tile/>
   <tile/>
   <tile/>
   <tile/>
   <tile/>
   <tile/>
   <tile/>
   <tile/>
   <tile/>
   <tile/>
   <tile/>
   <tile/>
   <tile/>
   <tile/>
   <tile/>
   <tile/>
   <tile/>
   <tile/>
   <tile/>
   <tile/>
   <tile/>
   <tile/>
   <tile/>
   <tile/>
   <tile/>
   <tile/>
   <tile/>
   <tile/>
   <tile/>
   <tile/>
   <tile/>
   <tile/>
   <tile/>
   <tile/>
   <tile/>
   <tile/>
   <tile/>
   <tile/>
   <tile/>
   <tile/>
   <tile/>
   <tile/>
   <tile/>
   <tile/>
   <tile/>
   <tile gid="65"/>
   <tile gid="65"/>
   <tile gid="65"/>
   <tile gid="65"/>
   <tile gid="65"/>
   <tile gid="65"/>
   <tile gid="65"/>
   <tile gid="65"/>
   <tile gid="65"/>
   <tile gid="65"/>
   <tile gid="65"/>
   <tile gid="65"/>
   <tile gid="65"/>
   <tile gid="65"/>
   <tile gid="65"/>
   <tile gid="65"/>
   <tile gid="65"/>
   <tile gid="65"/>
   <tile gid="65"/>
   <tile gid="65"/>
   <tile gid="65"/>
   <tile gid="65"/>
   <tile gid="65"/>
   <tile gid="65"/>
   <tile/>
   <tile/>
   <tile/>
   <tile/>
   <tile/>
   <tile/>
   <tile/>
   <tile/>
   <tile/>
   <tile/>
   <tile/>
   <tile/>
   <tile/>
   <tile/>
   <tile/>
   <tile/>
   <tile/>
   <tile/>
   <tile/>
   <tile gid="65"/>
   <tile gid="65"/>
   <tile gid="65"/>
   <tile gid="65"/>
   <tile gid="65"/>
   <tile gid="65"/>
   <tile/>
   <tile/>
   <tile/>
   <tile/>
   <tile gid="65"/>
   <tile gid="65"/>
   <tile gid="65"/>
   <tile gid="65"/>
   <tile gid="65"/>
   <tile gid="65"/>
   <tile gid="65"/>
   <tile gid="65"/>
   <tile gid="65"/>
   <tile gid="65"/>
   <tile/>
   <tile/>
   <tile/>
   <tile/>
   <tile/>
   <tile/>
   <tile/>
   <tile/>
   <tile/>
   <tile/>
   <tile/>
   <tile/>
   <tile/>
   <tile/>
   <tile/>
   <tile/>
   <tile/>
   <tile/>
   <tile/>
   <tile/>
   <tile/>
   <tile/>
   <tile/>
   <tile/>
   <tile/>
   <tile/>
   <tile/>
   <tile/>
   <tile/>
   <tile/>
   <tile/>
   <tile/>
   <tile/>
   <tile/>
   <tile/>
   <tile/>
   <tile/>
   <tile/>
   <tile/>
   <tile/>
   <tile/>
   <tile/>
   <tile/>
   <tile/>
   <tile/>
   <tile/>
   <tile/>
   <tile/>
   <tile/>
   <tile/>
   <tile/>
   <tile/>
   <tile/>
   <tile/>
   <tile/>
   <tile/>
   <tile/>
   <tile/>
   <tile/>
   <tile/>
   <tile/>
   <tile/>
   <tile/>
   <tile/>
   <tile gid="65"/>
   <tile gid="65"/>
   <tile gid="65"/>
   <tile gid="65"/>
   <tile gid="65"/>
   <tile gid="65"/>
   <tile gid="65"/>
   <tile gid="65"/>
   <tile gid="65"/>
   <tile gid="65"/>
   <tile gid="65"/>
   <tile gid="65"/>
   <tile gid="65"/>
   <tile gid="65"/>
   <tile gid="65"/>
   <tile gid="65"/>
   <tile gid="65"/>
   <tile gid="65"/>
   <tile gid="65"/>
   <tile gid="65"/>
   <tile gid="65"/>
   <tile gid="65"/>
   <tile gid="65"/>
   <tile gid="65"/>
   <tile/>
   <tile/>
   <tile/>
   <tile/>
   <tile/>
   <tile/>
   <tile/>
   <tile/>
   <tile/>
   <tile/>
   <tile/>
   <tile/>
   <tile/>
   <tile/>
   <tile/>
   <tile/>
   <tile/>
   <tile/>
   <tile/>
   <tile gid="65"/>
   <tile gid="65"/>
   <tile gid="65"/>
   <tile gid="65"/>
   <tile gid="65"/>
   <tile gid="65"/>
   <tile/>
   <tile/>
   <tile/>
   <tile/>
   <tile gid="65"/>
   <tile gid="65"/>
   <tile gid="65"/>
   <tile gid="65"/>
   <tile gid="65"/>
   <tile gid="65"/>
   <tile gid="65"/>
   <tile gid="65"/>
   <tile gid="65"/>
   <tile gid="65"/>
   <tile/>
   <tile/>
   <tile/>
   <tile/>
   <tile/>
   <tile/>
   <tile/>
   <tile/>
   <tile/>
   <tile/>
   <tile/>
   <tile/>
   <tile/>
   <tile/>
   <tile/>
   <tile/>
   <tile/>
   <tile/>
   <tile/>
   <tile/>
   <tile/>
   <tile/>
   <tile/>
   <tile/>
   <tile/>
   <tile/>
   <tile/>
   <tile/>
   <tile/>
   <tile/>
   <tile/>
   <tile/>
   <tile/>
   <tile/>
   <tile/>
   <tile/>
   <tile/>
   <tile/>
   <tile/>
   <tile/>
   <tile/>
   <tile/>
   <tile/>
   <tile/>
   <tile/>
   <tile/>
   <tile/>
   <tile/>
   <tile/>
   <tile/>
   <tile/>
   <tile/>
   <tile/>
   <tile/>
   <tile/>
   <tile/>
   <tile/>
   <tile/>
   <tile/>
   <tile/>
   <tile/>
   <tile/>
   <tile/>
   <tile/>
   <tile gid="65"/>
   <tile gid="65"/>
   <tile gid="65"/>
   <tile gid="65"/>
   <tile gid="65"/>
   <tile gid="65"/>
   <tile gid="65"/>
   <tile gid="65"/>
   <tile gid="65"/>
   <tile gid="65"/>
   <tile gid="65"/>
   <tile gid="65"/>
   <tile gid="65"/>
   <tile gid="65"/>
   <tile gid="65"/>
   <tile gid="65"/>
   <tile gid="65"/>
   <tile gid="65"/>
   <tile gid="65"/>
   <tile gid="65"/>
   <tile gid="65"/>
   <tile gid="65"/>
   <tile gid="65"/>
   <tile gid="65"/>
   <tile/>
   <tile/>
   <tile/>
   <tile/>
   <tile/>
   <tile/>
   <tile/>
   <tile/>
   <tile/>
   <tile/>
   <tile/>
   <tile/>
   <tile/>
   <tile/>
   <tile/>
   <tile/>
   <tile gid="65"/>
   <tile gid="65"/>
   <tile gid="65"/>
   <tile gid="65"/>
   <tile gid="65"/>
   <tile gid="65"/>
   <tile gid="65"/>
   <tile gid="65"/>
   <tile gid="65"/>
   <tile/>
   <tile/>
   <tile/>
   <tile/>
   <tile gid="65"/>
   <tile gid="65"/>
   <tile gid="65"/>
   <tile gid="65"/>
   <tile gid="65"/>
   <tile gid="65"/>
   <tile gid="65"/>
   <tile gid="65"/>
   <tile/>
   <tile/>
   <tile/>
   <tile/>
   <tile/>
   <tile/>
   <tile/>
   <tile/>
   <tile/>
   <tile/>
   <tile/>
   <tile/>
   <tile/>
   <tile/>
   <tile/>
   <tile/>
   <tile/>
   <tile/>
   <tile/>
   <tile/>
   <tile/>
   <tile/>
   <tile/>
   <tile/>
   <tile/>
   <tile/>
   <tile/>
   <tile gid="65"/>
   <tile gid="65"/>
   <tile gid="65"/>
   <tile gid="65"/>
   <tile gid="65"/>
   <tile gid="65"/>
   <tile gid="65"/>
   <tile gid="65"/>
   <tile gid="65"/>
   <tile gid="65"/>
   <tile gid="65"/>
   <tile gid="65"/>
   <tile gid="65"/>
   <tile gid="65"/>
   <tile gid="65"/>
   <tile gid="65"/>
   <tile gid="65"/>
   <tile gid="65"/>
   <tile gid="65"/>
   <tile gid="65"/>
   <tile gid="65"/>
   <tile gid="65"/>
   <tile gid="65"/>
   <tile gid="65"/>
   <tile gid="65"/>
   <tile gid="65"/>
   <tile gid="65"/>
   <tile gid="65"/>
   <tile gid="65"/>
   <tile gid="65"/>
   <tile gid="65"/>
   <tile gid="65"/>
   <tile gid="65"/>
   <tile gid="65"/>
   <tile gid="65"/>
   <tile gid="65"/>
   <tile gid="65"/>
   <tile gid="65"/>
   <tile gid="65"/>
   <tile gid="65"/>
   <tile gid="65"/>
   <tile gid="65"/>
   <tile gid="65"/>
   <tile gid="65"/>
   <tile/>
   <tile/>
   <tile/>
   <tile/>
   <tile/>
   <tile/>
   <tile/>
   <tile/>
   <tile/>
   <tile/>
   <tile/>
   <tile/>
   <tile/>
   <tile/>
   <tile/>
   <tile/>
   <tile/>
   <tile/>
   <tile gid="65"/>
   <tile/>
   <tile/>
   <tile/>
   <tile/>
   <tile/>
   <tile/>
   <tile/>
   <tile/>
   <tile/>
   <tile/>
   <tile/>
   <tile/>
   <tile/>
   <tile/>
   <tile/>
   <tile/>
   <tile gid="65"/>
   <tile gid="65"/>
   <tile gid="65"/>
   <tile gid="65"/>
   <tile gid="65"/>
   <tile gid="65"/>
   <tile gid="65"/>
   <tile gid="65"/>
   <tile gid="65"/>
   <tile/>
   <tile/>
   <tile/>
   <tile/>
   <tile gid="65"/>
   <tile gid="65"/>
   <tile gid="65"/>
   <tile gid="65"/>
   <tile gid="65"/>
   <tile gid="65"/>
   <tile gid="65"/>
   <tile gid="65"/>
   <tile/>
   <tile/>
   <tile/>
   <tile/>
   <tile/>
   <tile/>
   <tile/>
   <tile/>
   <tile/>
   <tile/>
   <tile/>
   <tile/>
   <tile/>
   <tile/>
   <tile/>
   <tile/>
   <tile/>
   <tile/>
   <tile/>
   <tile/>
   <tile/>
   <tile/>
   <tile/>
   <tile/>
   <tile/>
   <tile/>
   <tile/>
   <tile gid="65"/>
   <tile gid="65"/>
   <tile gid="65"/>
   <tile gid="65"/>
   <tile gid="65"/>
   <tile gid="65"/>
   <tile gid="65"/>
   <tile gid="65"/>
   <tile gid="65"/>
   <tile gid="65"/>
   <tile gid="65"/>
   <tile gid="65"/>
   <tile gid="65"/>
   <tile gid="65"/>
   <tile gid="65"/>
   <tile gid="65"/>
   <tile gid="65"/>
   <tile gid="65"/>
   <tile gid="65"/>
   <tile gid="65"/>
   <tile gid="65"/>
   <tile gid="65"/>
   <tile gid="65"/>
   <tile gid="65"/>
   <tile gid="65"/>
   <tile gid="65"/>
   <tile gid="65"/>
   <tile gid="65"/>
   <tile gid="65"/>
   <tile gid="65"/>
   <tile gid="65"/>
   <tile gid="65"/>
   <tile gid="65"/>
   <tile gid="65"/>
   <tile gid="65"/>
   <tile gid="65"/>
   <tile gid="65"/>
   <tile gid="65"/>
   <tile gid="65"/>
   <tile gid="65"/>
   <tile gid="65"/>
   <tile gid="65"/>
   <tile gid="65"/>
   <tile gid="65"/>
   <tile/>
   <tile/>
   <tile/>
   <tile/>
   <tile/>
   <tile/>
   <tile/>
   <tile/>
   <tile/>
   <tile/>
   <tile/>
   <tile/>
   <tile/>
   <tile/>
   <tile/>
   <tile/>
   <tile/>
   <tile/>
   <tile gid="65"/>
   <tile/>
   <tile/>
   <tile/>
   <tile/>
   <tile/>
   <tile/>
   <tile/>
   <tile/>
   <tile/>
   <tile/>
   <tile/>
   <tile/>
   <tile/>
   <tile/>
   <tile/>
   <tile/>
   <tile gid="65"/>
   <tile gid="65"/>
   <tile gid="65"/>
   <tile gid="65"/>
   <tile gid="65"/>
   <tile gid="65"/>
   <tile gid="65"/>
   <tile gid="65"/>
   <tile gid="65"/>
   <tile/>
   <tile/>
   <tile/>
   <tile/>
   <tile gid="65"/>
   <tile gid="65"/>
   <tile gid="65"/>
   <tile gid="65"/>
   <tile gid="65"/>
   <tile gid="65"/>
   <tile/>
   <tile/>
   <tile/>
   <tile/>
   <tile/>
   <tile/>
   <tile/>
   <tile/>
   <tile/>
   <tile/>
   <tile/>
   <tile/>
   <tile/>
   <tile/>
   <tile/>
   <tile/>
   <tile/>
   <tile/>
   <tile/>
   <tile/>
   <tile/>
   <tile/>
   <tile/>
   <tile/>
   <tile gid="65"/>
   <tile/>
   <tile/>
   <tile/>
   <tile/>
   <tile gid="65"/>
   <tile gid="65"/>
   <tile gid="65"/>
   <tile gid="65"/>
   <tile gid="65"/>
   <tile gid="65"/>
   <tile gid="65"/>
   <tile gid="65"/>
   <tile gid="65"/>
   <tile gid="65"/>
   <tile gid="65"/>
   <tile gid="65"/>
   <tile gid="65"/>
   <tile gid="65"/>
   <tile gid="65"/>
   <tile gid="65"/>
   <tile gid="65"/>
   <tile gid="65"/>
   <tile gid="65"/>
   <tile gid="65"/>
   <tile gid="65"/>
   <tile gid="65"/>
   <tile gid="65"/>
   <tile gid="65"/>
   <tile gid="65"/>
   <tile gid="65"/>
   <tile gid="65"/>
   <tile gid="65"/>
   <tile gid="65"/>
   <tile gid="65"/>
   <tile gid="65"/>
   <tile gid="65"/>
   <tile gid="65"/>
   <tile gid="65"/>
   <tile gid="65"/>
   <tile gid="65"/>
   <tile gid="65"/>
   <tile gid="65"/>
   <tile gid="65"/>
   <tile gid="65"/>
   <tile gid="65"/>
   <tile gid="65"/>
   <tile gid="65"/>
   <tile gid="65"/>
   <tile/>
   <tile/>
   <tile/>
   <tile/>
   <tile/>
   <tile/>
   <tile/>
   <tile/>
   <tile/>
   <tile/>
   <tile/>
   <tile/>
   <tile/>
   <tile/>
   <tile/>
   <tile/>
   <tile/>
   <tile/>
   <tile gid="65"/>
   <tile/>
   <tile/>
   <tile/>
   <tile/>
   <tile/>
   <tile/>
   <tile/>
   <tile/>
   <tile/>
   <tile/>
   <tile/>
   <tile/>
   <tile/>
   <tile/>
   <tile/>
   <tile/>
   <tile gid="65"/>
   <tile gid="65"/>
   <tile gid="65"/>
   <tile gid="65"/>
   <tile gid="65"/>
   <tile gid="65"/>
   <tile gid="65"/>
   <tile gid="65"/>
   <tile gid="65"/>
   <tile/>
   <tile/>
   <tile/>
   <tile/>
   <tile gid="65"/>
   <tile gid="65"/>
   <tile gid="65"/>
   <tile gid="65"/>
   <tile/>
   <tile/>
   <tile/>
   <tile/>
   <tile/>
   <tile/>
   <tile/>
   <tile/>
   <tile/>
   <tile/>
   <tile/>
   <tile/>
   <tile/>
   <tile/>
   <tile/>
   <tile gid="65"/>
   <tile/>
   <tile/>
   <tile/>
   <tile/>
   <tile/>
   <tile/>
   <tile/>
   <tile/>
   <tile/>
   <tile/>
   <tile/>
   <tile/>
   <tile/>
   <tile/>
   <tile/>
   <tile gid="65"/>
   <tile gid="65"/>
   <tile gid="65"/>
   <tile gid="65"/>
   <tile gid="65"/>
   <tile gid="65"/>
   <tile gid="65"/>
   <tile gid="65"/>
   <tile gid="65"/>
   <tile gid="65"/>
   <tile gid="65"/>
   <tile gid="65"/>
   <tile gid="65"/>
   <tile gid="65"/>
   <tile gid="65"/>
   <tile gid="65"/>
   <tile gid="65"/>
   <tile gid="65"/>
   <tile gid="65"/>
   <tile gid="65"/>
   <tile gid="65"/>
   <tile gid="65"/>
   <tile gid="65"/>
   <tile gid="65"/>
   <tile gid="65"/>
   <tile gid="65"/>
   <tile gid="65"/>
   <tile gid="65"/>
   <tile gid="65"/>
   <tile gid="65"/>
   <tile gid="65"/>
   <tile gid="65"/>
   <tile gid="65"/>
   <tile gid="65"/>
   <tile gid="65"/>
   <tile gid="65"/>
   <tile gid="65"/>
   <tile gid="65"/>
   <tile gid="65"/>
   <tile gid="65"/>
   <tile gid="65"/>
   <tile gid="65"/>
   <tile gid="65"/>
   <tile gid="65"/>
   <tile/>
   <tile/>
   <tile/>
   <tile/>
   <tile/>
   <tile/>
   <tile/>
   <tile/>
   <tile/>
   <tile/>
   <tile/>
   <tile/>
   <tile/>
   <tile/>
   <tile/>
   <tile/>
   <tile/>
   <tile/>
   <tile gid="65"/>
   <tile/>
   <tile/>
   <tile/>
   <tile/>
   <tile/>
   <tile/>
   <tile/>
   <tile/>
   <tile/>
   <tile/>
   <tile/>
   <tile/>
   <tile/>
   <tile/>
   <tile gid="65"/>
   <tile gid="65"/>
   <tile gid="65"/>
   <tile gid="65"/>
   <tile gid="65"/>
   <tile gid="65"/>
   <tile gid="65"/>
   <tile gid="65"/>
   <tile gid="65"/>
   <tile gid="65"/>
   <tile gid="65"/>
   <tile/>
   <tile/>
   <tile/>
   <tile/>
   <tile gid="65"/>
   <tile gid="65"/>
   <tile gid="65"/>
   <tile/>
   <tile/>
   <tile/>
   <tile/>
   <tile/>
   <tile/>
   <tile/>
   <tile/>
   <tile/>
   <tile/>
   <tile/>
   <tile/>
   <tile/>
   <tile/>
   <tile/>
   <tile/>
   <tile/>
   <tile/>
   <tile/>
   <tile/>
   <tile/>
   <tile/>
   <tile/>
   <tile/>
   <tile/>
   <tile/>
   <tile/>
   <tile/>
   <tile/>
   <tile/>
   <tile/>
   <tile/>
   <tile gid="65"/>
   <tile gid="65"/>
   <tile gid="65"/>
   <tile gid="65"/>
   <tile gid="65"/>
   <tile gid="65"/>
   <tile gid="65"/>
   <tile gid="65"/>
   <tile gid="65"/>
   <tile gid="65"/>
   <tile gid="65"/>
   <tile gid="65"/>
   <tile gid="65"/>
   <tile gid="65"/>
   <tile gid="65"/>
   <tile gid="65"/>
   <tile gid="65"/>
   <tile gid="65"/>
   <tile gid="65"/>
   <tile gid="65"/>
   <tile gid="65"/>
   <tile gid="65"/>
   <tile gid="65"/>
   <tile gid="65"/>
   <tile gid="65"/>
   <tile gid="65"/>
   <tile gid="65"/>
   <tile gid="65"/>
   <tile gid="65"/>
   <tile gid="65"/>
   <tile gid="65"/>
   <tile gid="65"/>
   <tile gid="65"/>
   <tile gid="65"/>
   <tile gid="65"/>
   <tile gid="65"/>
   <tile gid="65"/>
   <tile gid="65"/>
   <tile gid="65"/>
   <tile gid="65"/>
   <tile gid="65"/>
   <tile gid="65"/>
   <tile gid="65"/>
   <tile gid="65"/>
   <tile/>
   <tile/>
   <tile/>
   <tile/>
   <tile gid="65"/>
   <tile gid="65"/>
   <tile gid="65"/>
   <tile gid="65"/>
   <tile gid="65"/>
   <tile gid="65"/>
   <tile gid="65"/>
   <tile gid="65"/>
   <tile gid="65"/>
   <tile gid="65"/>
   <tile/>
   <tile/>
   <tile/>
   <tile/>
   <tile gid="65"/>
   <tile/>
   <tile/>
   <tile/>
   <tile/>
   <tile/>
   <tile/>
   <tile/>
   <tile/>
   <tile/>
   <tile/>
   <tile/>
   <tile/>
   <tile/>
   <tile/>
   <tile gid="65"/>
   <tile gid="65"/>
   <tile gid="65"/>
   <tile gid="65"/>
   <tile gid="65"/>
   <tile gid="65"/>
   <tile gid="65"/>
   <tile gid="65"/>
   <tile gid="65"/>
   <tile gid="65"/>
   <tile gid="65"/>
   <tile/>
   <tile/>
   <tile/>
   <tile/>
   <tile gid="65"/>
   <tile gid="65"/>
   <tile/>
   <tile/>
   <tile/>
   <tile/>
   <tile/>
   <tile/>
   <tile/>
   <tile/>
   <tile/>
   <tile/>
   <tile gid="65"/>
   <tile gid="65"/>
   <tile gid="65"/>
   <tile gid="65"/>
   <tile gid="65"/>
   <tile gid="65"/>
   <tile gid="65"/>
   <tile gid="65"/>
   <tile gid="65"/>
   <tile gid="65"/>
   <tile gid="65"/>
   <tile gid="65"/>
   <tile gid="65"/>
   <tile gid="65"/>
   <tile gid="65"/>
   <tile gid="65"/>
   <tile gid="65"/>
   <tile gid="65"/>
   <tile gid="65"/>
   <tile gid="65"/>
   <tile gid="65"/>
   <tile gid="65"/>
   <tile gid="65"/>
   <tile gid="65"/>
   <tile gid="65"/>
   <tile gid="65"/>
   <tile gid="65"/>
   <tile gid="65"/>
   <tile gid="65"/>
   <tile gid="65"/>
   <tile gid="65"/>
   <tile gid="65"/>
   <tile gid="65"/>
   <tile gid="65"/>
   <tile gid="65"/>
   <tile gid="65"/>
   <tile gid="65"/>
   <tile gid="65"/>
   <tile gid="65"/>
   <tile gid="65"/>
   <tile gid="65"/>
   <tile gid="65"/>
   <tile gid="65"/>
   <tile gid="65"/>
   <tile gid="65"/>
   <tile gid="65"/>
   <tile gid="65"/>
   <tile gid="65"/>
   <tile gid="65"/>
   <tile gid="65"/>
   <tile gid="65"/>
   <tile gid="65"/>
   <tile gid="65"/>
   <tile gid="65"/>
   <tile gid="65"/>
   <tile gid="65"/>
   <tile gid="65"/>
   <tile gid="65"/>
   <tile gid="65"/>
   <tile gid="65"/>
   <tile gid="65"/>
   <tile gid="65"/>
   <tile gid="65"/>
   <tile gid="65"/>
   <tile gid="65"/>
   <tile gid="65"/>
   <tile gid="65"/>
   <tile/>
   <tile/>
   <tile/>
   <tile/>
   <tile/>
   <tile/>
   <tile/>
   <tile/>
   <tile/>
   <tile/>
   <tile gid="65"/>
   <tile gid="65"/>
   <tile/>
   <tile/>
   <tile/>
   <tile/>
   <tile/>
   <tile/>
   <tile gid="65"/>
   <tile/>
   <tile/>
   <tile/>
   <tile/>
   <tile/>
   <tile/>
   <tile/>
   <tile/>
   <tile/>
   <tile/>
   <tile/>
   <tile/>
   <tile/>
   <tile/>
   <tile gid="65"/>
   <tile gid="65"/>
   <tile gid="65"/>
   <tile gid="65"/>
   <tile gid="65"/>
   <tile gid="65"/>
   <tile gid="65"/>
   <tile gid="65"/>
   <tile gid="65"/>
   <tile gid="65"/>
   <tile gid="65"/>
   <tile/>
   <tile/>
   <tile/>
   <tile/>
   <tile/>
   <tile/>
   <tile/>
   <tile/>
   <tile/>
   <tile/>
   <tile/>
   <tile/>
   <tile/>
   <tile/>
   <tile gid="65"/>
   <tile gid="65"/>
   <tile gid="65"/>
   <tile gid="65"/>
   <tile gid="65"/>
   <tile gid="65"/>
   <tile gid="65"/>
   <tile gid="65"/>
   <tile gid="65"/>
   <tile gid="65"/>
   <tile gid="65"/>
   <tile gid="65"/>
   <tile gid="65"/>
   <tile gid="65"/>
   <tile gid="65"/>
   <tile gid="65"/>
   <tile gid="65"/>
   <tile gid="65"/>
   <tile gid="65"/>
   <tile gid="65"/>
   <tile gid="65"/>
   <tile gid="65"/>
   <tile gid="65"/>
   <tile gid="65"/>
   <tile gid="65"/>
   <tile gid="65"/>
   <tile gid="65"/>
   <tile gid="65"/>
   <tile gid="65"/>
   <tile gid="65"/>
   <tile gid="65"/>
   <tile gid="65"/>
   <tile gid="65"/>
   <tile gid="65"/>
   <tile gid="65"/>
   <tile gid="65"/>
   <tile gid="65"/>
   <tile gid="65"/>
   <tile gid="65"/>
   <tile gid="65"/>
   <tile gid="65"/>
   <tile gid="65"/>
   <tile gid="65"/>
   <tile gid="65"/>
   <tile gid="65"/>
   <tile gid="65"/>
   <tile gid="65"/>
   <tile gid="65"/>
   <tile gid="65"/>
   <tile gid="65"/>
   <tile gid="65"/>
   <tile gid="65"/>
   <tile gid="65"/>
   <tile gid="65"/>
   <tile gid="65"/>
   <tile gid="65"/>
   <tile gid="65"/>
   <tile gid="65"/>
   <tile gid="65"/>
   <tile gid="65"/>
   <tile gid="65"/>
   <tile gid="65"/>
   <tile gid="65"/>
   <tile gid="65"/>
   <tile gid="65"/>
   <tile gid="65"/>
   <tile gid="65"/>
   <tile gid="65"/>
   <tile gid="65"/>
   <tile/>
   <tile/>
   <tile/>
   <tile/>
   <tile/>
   <tile/>
   <tile/>
   <tile/>
   <tile/>
   <tile/>
   <tile gid="65"/>
   <tile gid="65"/>
   <tile/>
   <tile/>
   <tile/>
   <tile/>
   <tile/>
   <tile/>
   <tile gid="65"/>
   <tile/>
   <tile/>
   <tile/>
   <tile/>
   <tile/>
   <tile/>
   <tile/>
   <tile/>
   <tile/>
   <tile/>
   <tile/>
   <tile/>
   <tile/>
   <tile/>
   <tile gid="65"/>
   <tile gid="65"/>
   <tile gid="65"/>
   <tile gid="65"/>
   <tile gid="65"/>
   <tile gid="65"/>
   <tile gid="65"/>
   <tile gid="65"/>
   <tile gid="65"/>
   <tile gid="65"/>
   <tile gid="65"/>
   <tile/>
   <tile/>
   <tile/>
   <tile/>
   <tile/>
   <tile/>
   <tile/>
   <tile/>
   <tile/>
   <tile/>
   <tile/>
   <tile/>
   <tile/>
   <tile/>
   <tile gid="65"/>
   <tile gid="65"/>
   <tile gid="65"/>
   <tile gid="65"/>
   <tile gid="65"/>
   <tile gid="65"/>
   <tile gid="65"/>
   <tile gid="65"/>
   <tile gid="65"/>
   <tile gid="65"/>
   <tile gid="65"/>
   <tile gid="65"/>
   <tile gid="65"/>
   <tile gid="65"/>
   <tile gid="65"/>
   <tile gid="65"/>
   <tile gid="65"/>
   <tile gid="65"/>
   <tile gid="65"/>
   <tile gid="65"/>
   <tile gid="65"/>
   <tile gid="65"/>
   <tile gid="65"/>
   <tile gid="65"/>
   <tile gid="65"/>
   <tile gid="65"/>
   <tile gid="65"/>
   <tile gid="65"/>
   <tile gid="65"/>
   <tile gid="65"/>
   <tile gid="65"/>
   <tile gid="65"/>
   <tile gid="65"/>
   <tile gid="65"/>
   <tile gid="65"/>
   <tile gid="65"/>
   <tile gid="65"/>
   <tile gid="65"/>
   <tile gid="65"/>
   <tile gid="65"/>
   <tile gid="65"/>
   <tile gid="65"/>
   <tile gid="65"/>
   <tile gid="65"/>
   <tile gid="65"/>
   <tile gid="65"/>
   <tile gid="65"/>
   <tile gid="65"/>
   <tile gid="65"/>
   <tile gid="65"/>
   <tile gid="65"/>
   <tile gid="65"/>
   <tile gid="65"/>
   <tile gid="65"/>
   <tile gid="65"/>
   <tile gid="65"/>
   <tile gid="65"/>
   <tile gid="65"/>
   <tile gid="65"/>
   <tile gid="65"/>
   <tile gid="65"/>
   <tile gid="65"/>
   <tile gid="65"/>
   <tile gid="65"/>
   <tile gid="65"/>
   <tile gid="65"/>
   <tile gid="65"/>
   <tile gid="65"/>
   <tile gid="65"/>
   <tile/>
   <tile/>
   <tile/>
   <tile/>
   <tile/>
   <tile/>
   <tile/>
   <tile/>
   <tile/>
   <tile/>
   <tile gid="65"/>
   <tile gid="65"/>
   <tile/>
   <tile/>
   <tile/>
   <tile/>
   <tile/>
   <tile/>
   <tile gid="65"/>
   <tile/>
   <tile/>
   <tile/>
   <tile/>
   <tile/>
   <tile/>
   <tile/>
   <tile/>
   <tile/>
   <tile/>
   <tile/>
   <tile/>
   <tile/>
   <tile gid="65"/>
   <tile gid="65"/>
   <tile gid="65"/>
   <tile gid="65"/>
   <tile gid="65"/>
   <tile gid="65"/>
   <tile gid="65"/>
   <tile gid="65"/>
   <tile gid="65"/>
   <tile gid="65"/>
   <tile gid="65"/>
   <tile gid="65"/>
   <tile/>
   <tile/>
   <tile/>
   <tile/>
   <tile/>
   <tile/>
   <tile/>
   <tile/>
   <tile/>
   <tile/>
   <tile/>
   <tile gid="65"/>
   <tile gid="65"/>
   <tile gid="65"/>
   <tile gid="65"/>
   <tile gid="65"/>
   <tile gid="65"/>
   <tile gid="65"/>
   <tile gid="65"/>
   <tile gid="65"/>
   <tile gid="65"/>
   <tile gid="65"/>
   <tile gid="65"/>
   <tile gid="65"/>
   <tile gid="65"/>
   <tile gid="65"/>
   <tile gid="65"/>
   <tile gid="65"/>
   <tile gid="65"/>
   <tile gid="65"/>
   <tile gid="65"/>
   <tile gid="65"/>
   <tile gid="65"/>
   <tile gid="65"/>
   <tile gid="65"/>
   <tile gid="65"/>
   <tile gid="65"/>
   <tile gid="65"/>
   <tile gid="65"/>
   <tile gid="65"/>
   <tile gid="65"/>
   <tile gid="65"/>
   <tile gid="65"/>
   <tile gid="65"/>
   <tile gid="65"/>
   <tile gid="65"/>
   <tile gid="65"/>
   <tile gid="65"/>
   <tile gid="65"/>
   <tile gid="65"/>
   <tile gid="65"/>
   <tile gid="65"/>
   <tile gid="65"/>
   <tile gid="65"/>
   <tile gid="65"/>
   <tile gid="65"/>
   <tile gid="65"/>
   <tile gid="65"/>
   <tile gid="65"/>
   <tile gid="65"/>
   <tile gid="65"/>
   <tile gid="65"/>
   <tile gid="65"/>
   <tile gid="65"/>
   <tile gid="65"/>
   <tile gid="65"/>
   <tile gid="65"/>
   <tile gid="65"/>
   <tile gid="65"/>
   <tile gid="65"/>
   <tile gid="65"/>
   <tile gid="65"/>
   <tile gid="65"/>
   <tile gid="65"/>
   <tile gid="65"/>
   <tile gid="65"/>
   <tile gid="65"/>
   <tile gid="65"/>
   <tile gid="65"/>
   <tile gid="65"/>
   <tile gid="65"/>
   <tile gid="65"/>
   <tile gid="65"/>
   <tile gid="65"/>
   <tile gid="65"/>
   <tile/>
   <tile/>
   <tile/>
   <tile/>
   <tile/>
   <tile/>
   <tile/>
   <tile/>
   <tile gid="65"/>
   <tile gid="65"/>
   <tile/>
   <tile/>
   <tile/>
   <tile/>
   <tile gid="65"/>
   <tile gid="65"/>
   <tile gid="65"/>
   <tile/>
   <tile/>
   <tile/>
   <tile/>
   <tile/>
   <tile/>
   <tile/>
   <tile/>
   <tile/>
   <tile/>
   <tile/>
   <tile/>
   <tile/>
   <tile gid="65"/>
   <tile gid="65"/>
   <tile gid="65"/>
   <tile gid="65"/>
   <tile gid="65"/>
   <tile gid="65"/>
   <tile gid="65"/>
   <tile gid="65"/>
   <tile gid="65"/>
   <tile gid="65"/>
   <tile gid="65"/>
   <tile gid="65"/>
   <tile/>
   <tile/>
   <tile/>
   <tile/>
   <tile/>
   <tile/>
   <tile/>
   <tile/>
   <tile gid="65"/>
   <tile gid="65"/>
   <tile gid="65"/>
   <tile gid="65"/>
   <tile gid="65"/>
   <tile gid="65"/>
   <tile gid="65"/>
   <tile gid="65"/>
   <tile gid="65"/>
   <tile gid="65"/>
   <tile gid="65"/>
   <tile gid="65"/>
   <tile gid="65"/>
   <tile gid="65"/>
   <tile gid="65"/>
   <tile gid="65"/>
   <tile gid="65"/>
   <tile gid="65"/>
   <tile gid="65"/>
   <tile gid="65"/>
   <tile gid="65"/>
   <tile gid="65"/>
   <tile gid="65"/>
   <tile gid="65"/>
   <tile gid="65"/>
   <tile gid="65"/>
   <tile gid="65"/>
   <tile gid="65"/>
   <tile gid="65"/>
   <tile gid="65"/>
   <tile gid="65"/>
   <tile gid="65"/>
   <tile gid="65"/>
   <tile gid="65"/>
   <tile gid="65"/>
   <tile gid="65"/>
   <tile gid="65"/>
   <tile gid="65"/>
   <tile gid="65"/>
   <tile gid="65"/>
   <tile gid="65"/>
   <tile gid="65"/>
   <tile gid="65"/>
   <tile gid="65"/>
   <tile gid="65"/>
   <tile gid="65"/>
   <tile gid="65"/>
   <tile gid="65"/>
   <tile gid="65"/>
   <tile gid="65"/>
   <tile gid="65"/>
   <tile gid="65"/>
   <tile gid="65"/>
   <tile gid="65"/>
   <tile gid="65"/>
   <tile gid="65"/>
   <tile gid="65"/>
   <tile gid="65"/>
   <tile gid="65"/>
   <tile gid="65"/>
   <tile gid="65"/>
   <tile gid="65"/>
   <tile gid="65"/>
   <tile gid="65"/>
   <tile gid="65"/>
   <tile gid="65"/>
   <tile gid="65"/>
   <tile gid="65"/>
   <tile gid="65"/>
   <tile gid="65"/>
   <tile gid="65"/>
   <tile gid="65"/>
   <tile gid="65"/>
   <tile gid="65"/>
   <tile gid="65"/>
   <tile/>
   <tile/>
   <tile/>
   <tile/>
   <tile/>
   <tile/>
   <tile/>
   <tile/>
   <tile/>
   <tile/>
   <tile gid="65"/>
   <tile gid="65"/>
   <tile/>
   <tile/>
   <tile/>
   <tile/>
   <tile/>
   <tile/>
   <tile gid="65"/>
   <tile/>
   <tile/>
   <tile/>
   <tile/>
   <tile/>
   <tile/>
   <tile/>
   <tile/>
   <tile/>
   <tile/>
   <tile/>
   <tile/>
   <tile/>
   <tile gid="65"/>
   <tile gid="65"/>
   <tile gid="65"/>
   <tile gid="65"/>
   <tile gid="65"/>
   <tile gid="65"/>
   <tile gid="65"/>
   <tile gid="65"/>
   <tile gid="65"/>
   <tile gid="65"/>
   <tile gid="65"/>
   <tile gid="65"/>
   <tile/>
   <tile/>
   <tile/>
   <tile/>
   <tile gid="65"/>
   <tile gid="65"/>
   <tile gid="65"/>
   <tile gid="65"/>
   <tile gid="65"/>
   <tile gid="65"/>
   <tile gid="65"/>
   <tile gid="65"/>
   <tile gid="65"/>
   <tile gid="65"/>
   <tile gid="65"/>
   <tile gid="65"/>
   <tile gid="65"/>
   <tile gid="65"/>
   <tile gid="65"/>
   <tile gid="65"/>
   <tile gid="65"/>
   <tile gid="65"/>
   <tile gid="65"/>
   <tile gid="65"/>
   <tile gid="65"/>
   <tile gid="65"/>
   <tile gid="65"/>
   <tile gid="65"/>
   <tile gid="65"/>
   <tile gid="65"/>
   <tile gid="65"/>
   <tile gid="65"/>
   <tile gid="65"/>
   <tile gid="65"/>
   <tile gid="65"/>
   <tile gid="65"/>
   <tile gid="65"/>
   <tile gid="65"/>
   <tile gid="65"/>
   <tile gid="65"/>
   <tile gid="65"/>
   <tile gid="65"/>
   <tile gid="65"/>
   <tile gid="65"/>
   <tile gid="65"/>
   <tile gid="65"/>
   <tile gid="65"/>
   <tile gid="65"/>
   <tile gid="65"/>
   <tile gid="65"/>
   <tile gid="65"/>
   <tile gid="65"/>
   <tile gid="65"/>
   <tile gid="65"/>
   <tile gid="65"/>
   <tile gid="65"/>
   <tile gid="65"/>
   <tile gid="65"/>
   <tile gid="65"/>
   <tile gid="65"/>
   <tile gid="65"/>
   <tile gid="65"/>
   <tile gid="65"/>
   <tile gid="65"/>
   <tile gid="65"/>
   <tile gid="65"/>
   <tile gid="65"/>
   <tile gid="65"/>
   <tile gid="65"/>
   <tile gid="65"/>
   <tile gid="65"/>
   <tile gid="65"/>
   <tile gid="65"/>
   <tile gid="65"/>
   <tile gid="65"/>
   <tile gid="65"/>
   <tile gid="65"/>
   <tile gid="65"/>
   <tile gid="65"/>
   <tile gid="65"/>
   <tile gid="65"/>
   <tile gid="65"/>
   <tile gid="65"/>
   <tile/>
   <tile/>
   <tile/>
   <tile/>
   <tile/>
   <tile/>
   <tile/>
   <tile/>
   <tile/>
   <tile/>
   <tile gid="65"/>
   <tile gid="65"/>
   <tile/>
   <tile/>
   <tile/>
   <tile/>
   <tile/>
   <tile/>
   <tile gid="65"/>
   <tile/>
   <tile/>
   <tile/>
   <tile/>
   <tile/>
   <tile/>
   <tile/>
   <tile/>
   <tile/>
   <tile/>
   <tile/>
   <tile/>
   <tile/>
   <tile gid="65"/>
   <tile gid="65"/>
   <tile gid="65"/>
   <tile gid="65"/>
   <tile gid="65"/>
   <tile gid="65"/>
   <tile gid="65"/>
   <tile gid="65"/>
   <tile gid="65"/>
   <tile gid="65"/>
   <tile gid="65"/>
   <tile gid="65"/>
   <tile/>
   <tile/>
   <tile/>
   <tile/>
   <tile gid="65"/>
   <tile gid="65"/>
   <tile gid="65"/>
   <tile gid="65"/>
   <tile gid="65"/>
   <tile gid="65"/>
   <tile gid="65"/>
   <tile gid="65"/>
   <tile gid="65"/>
   <tile gid="65"/>
   <tile gid="65"/>
   <tile gid="65"/>
   <tile/>
   <tile/>
   <tile/>
   <tile/>
   <tile/>
   <tile/>
   <tile/>
   <tile/>
   <tile/>
   <tile/>
   <tile/>
   <tile/>
   <tile/>
   <tile/>
   <tile/>
   <tile/>
   <tile/>
   <tile/>
   <tile/>
   <tile/>
   <tile/>
   <tile/>
   <tile/>
   <tile/>
   <tile/>
   <tile/>
   <tile/>
   <tile/>
   <tile/>
   <tile/>
   <tile/>
   <tile/>
   <tile/>
   <tile/>
   <tile/>
   <tile/>
   <tile/>
   <tile/>
   <tile/>
   <tile/>
   <tile/>
   <tile/>
   <tile/>
   <tile/>
   <tile/>
   <tile/>
   <tile/>
   <tile/>
   <tile/>
   <tile/>
   <tile/>
   <tile/>
   <tile/>
   <tile/>
   <tile/>
   <tile/>
   <tile/>
   <tile/>
   <tile/>
   <tile/>
   <tile/>
   <tile/>
   <tile/>
   <tile/>
   <tile/>
   <tile/>
   <tile/>
   <tile/>
   <tile/>
   <tile/>
   <tile/>
   <tile/>
   <tile/>
   <tile/>
   <tile/>
   <tile/>
   <tile/>
   <tile gid="65"/>
   <tile gid="65"/>
   <tile/>
   <tile/>
   <tile/>
   <tile/>
   <tile/>
   <tile/>
   <tile gid="65"/>
   <tile/>
   <tile/>
   <tile/>
   <tile/>
   <tile/>
   <tile/>
   <tile/>
   <tile/>
   <tile/>
   <tile/>
   <tile/>
   <tile/>
   <tile/>
   <tile gid="65"/>
   <tile gid="65"/>
   <tile gid="65"/>
   <tile gid="65"/>
   <tile gid="65"/>
   <tile gid="65"/>
   <tile gid="65"/>
   <tile gid="65"/>
   <tile gid="65"/>
   <tile gid="65"/>
   <tile gid="65"/>
   <tile gid="65"/>
   <tile/>
   <tile/>
   <tile/>
   <tile/>
   <tile gid="65"/>
   <tile gid="65"/>
   <tile gid="65"/>
   <tile gid="65"/>
   <tile gid="65"/>
   <tile gid="65"/>
   <tile gid="65"/>
   <tile gid="65"/>
   <tile gid="65"/>
   <tile/>
   <tile/>
   <tile/>
   <tile/>
   <tile/>
   <tile/>
   <tile/>
   <tile/>
   <tile/>
   <tile/>
   <tile/>
   <tile/>
   <tile/>
   <tile/>
   <tile/>
   <tile/>
   <tile/>
   <tile/>
   <tile/>
   <tile/>
   <tile/>
   <tile/>
   <tile/>
   <tile/>
   <tile/>
   <tile/>
   <tile/>
   <tile/>
   <tile/>
   <tile/>
   <tile/>
   <tile/>
   <tile/>
   <tile/>
   <tile/>
   <tile/>
   <tile/>
   <tile/>
   <tile/>
   <tile/>
   <tile/>
   <tile/>
   <tile/>
   <tile/>
   <tile/>
   <tile/>
   <tile/>
   <tile/>
   <tile/>
   <tile/>
   <tile/>
   <tile/>
   <tile/>
   <tile/>
   <tile/>
   <tile/>
   <tile/>
   <tile/>
   <tile/>
   <tile/>
   <tile/>
   <tile/>
   <tile/>
   <tile/>
   <tile/>
   <tile/>
   <tile/>
   <tile/>
   <tile/>
   <tile/>
   <tile/>
   <tile/>
   <tile/>
   <tile/>
   <tile/>
   <tile/>
   <tile/>
   <tile/>
   <tile/>
   <tile/>
   <tile gid="65"/>
   <tile gid="65"/>
   <tile/>
   <tile/>
   <tile/>
   <tile/>
   <tile/>
   <tile/>
   <tile gid="65"/>
   <tile/>
   <tile/>
   <tile/>
   <tile/>
   <tile/>
   <tile/>
   <tile/>
   <tile/>
   <tile/>
   <tile/>
   <tile gid="65"/>
   <tile gid="65"/>
   <tile gid="65"/>
   <tile gid="65"/>
   <tile gid="65"/>
   <tile gid="65"/>
   <tile gid="65"/>
   <tile gid="65"/>
   <tile gid="65"/>
   <tile gid="65"/>
   <tile gid="65"/>
   <tile gid="65"/>
   <tile gid="65"/>
   <tile gid="65"/>
   <tile gid="65"/>
   <tile/>
   <tile/>
   <tile/>
   <tile/>
   <tile gid="65"/>
   <tile gid="65"/>
   <tile gid="65"/>
   <tile gid="65"/>
   <tile gid="65"/>
   <tile gid="65"/>
   <tile gid="65"/>
   <tile/>
   <tile/>
   <tile/>
   <tile/>
   <tile/>
   <tile/>
   <tile/>
   <tile/>
   <tile/>
   <tile/>
   <tile/>
   <tile/>
   <tile/>
   <tile/>
   <tile/>
   <tile/>
   <tile/>
   <tile/>
   <tile/>
   <tile/>
   <tile/>
   <tile/>
   <tile/>
   <tile/>
   <tile/>
   <tile/>
   <tile/>
   <tile/>
   <tile/>
   <tile/>
   <tile/>
   <tile/>
   <tile/>
   <tile/>
   <tile/>
   <tile/>
   <tile/>
   <tile/>
   <tile/>
   <tile/>
   <tile/>
   <tile/>
   <tile/>
   <tile/>
   <tile/>
   <tile/>
   <tile/>
   <tile/>
   <tile/>
   <tile/>
   <tile/>
   <tile/>
   <tile/>
   <tile/>
   <tile/>
   <tile/>
   <tile/>
   <tile/>
   <tile/>
   <tile/>
   <tile/>
   <tile/>
   <tile/>
   <tile/>
   <tile/>
   <tile/>
   <tile/>
   <tile/>
   <tile/>
   <tile/>
   <tile/>
   <tile/>
   <tile/>
   <tile/>
   <tile/>
   <tile/>
   <tile/>
   <tile/>
   <tile gid="65"/>
   <tile/>
   <tile/>
   <tile/>
   <tile gid="65"/>
   <tile gid="65"/>
   <tile/>
   <tile/>
   <tile/>
   <tile/>
   <tile/>
   <tile/>
   <tile gid="65"/>
   <tile/>
   <tile/>
   <tile/>
   <tile/>
   <tile/>
   <tile/>
   <tile/>
   <tile/>
   <tile/>
   <tile/>
   <tile gid="65"/>
   <tile gid="65"/>
   <tile gid="65"/>
   <tile gid="65"/>
   <tile gid="65"/>
   <tile gid="65"/>
   <tile gid="65"/>
   <tile gid="65"/>
   <tile gid="65"/>
   <tile gid="65"/>
   <tile gid="65"/>
   <tile gid="65"/>
   <tile gid="65"/>
   <tile gid="65"/>
   <tile gid="65"/>
   <tile/>
   <tile/>
   <tile/>
   <tile/>
   <tile gid="65"/>
   <tile gid="65"/>
   <tile gid="65"/>
   <tile gid="65"/>
   <tile/>
   <tile/>
   <tile/>
   <tile/>
   <tile/>
   <tile/>
   <tile/>
   <tile/>
   <tile/>
   <tile/>
   <tile/>
   <tile/>
   <tile/>
   <tile/>
   <tile/>
   <tile/>
   <tile/>
   <tile/>
   <tile/>
   <tile/>
   <tile/>
   <tile/>
   <tile/>
   <tile/>
   <tile/>
   <tile/>
   <tile/>
   <tile/>
   <tile/>
   <tile/>
   <tile/>
   <tile/>
   <tile/>
   <tile/>
   <tile/>
   <tile/>
   <tile/>
   <tile/>
   <tile/>
   <tile/>
   <tile/>
   <tile/>
   <tile/>
   <tile/>
   <tile/>
   <tile/>
   <tile/>
   <tile/>
   <tile/>
   <tile/>
   <tile/>
   <tile/>
   <tile/>
   <tile/>
   <tile/>
   <tile/>
   <tile/>
   <tile/>
   <tile/>
   <tile/>
   <tile/>
   <tile/>
   <tile/>
   <tile/>
   <tile/>
   <tile/>
   <tile/>
   <tile/>
   <tile/>
   <tile/>
   <tile/>
   <tile/>
   <tile/>
   <tile/>
   <tile/>
   <tile/>
   <tile/>
   <tile/>
   <tile/>
   <tile/>
   <tile/>
   <tile/>
   <tile/>
   <tile/>
   <tile/>
   <tile gid="65"/>
   <tile gid="65"/>
   <tile/>
   <tile/>
   <tile/>
   <tile/>
   <tile/>
   <tile/>
   <tile gid="65"/>
   <tile/>
   <tile/>
   <tile/>
   <tile/>
   <tile/>
   <tile/>
   <tile/>
   <tile/>
   <tile/>
   <tile/>
   <tile gid="65"/>
   <tile gid="65"/>
   <tile gid="65"/>
   <tile gid="65"/>
   <tile gid="65"/>
   <tile gid="65"/>
   <tile gid="65"/>
   <tile gid="65"/>
   <tile gid="65"/>
   <tile gid="65"/>
   <tile gid="65"/>
   <tile gid="65"/>
   <tile/>
   <tile/>
   <tile/>
   <tile/>
   <tile/>
   <tile/>
   <tile/>
   <tile/>
   <tile/>
   <tile/>
   <tile/>
   <tile/>
   <tile/>
   <tile/>
   <tile/>
   <tile/>
   <tile/>
   <tile/>
   <tile/>
   <tile/>
   <tile/>
   <tile/>
   <tile/>
   <tile/>
   <tile/>
   <tile/>
   <tile/>
   <tile/>
   <tile/>
   <tile/>
   <tile/>
   <tile/>
   <tile/>
   <tile/>
   <tile/>
   <tile/>
   <tile/>
   <tile/>
   <tile/>
   <tile/>
   <tile/>
   <tile/>
   <tile/>
   <tile/>
   <tile/>
   <tile/>
   <tile/>
   <tile/>
   <tile/>
   <tile/>
   <tile/>
   <tile/>
   <tile/>
   <tile/>
   <tile/>
   <tile/>
   <tile/>
   <tile/>
   <tile/>
   <tile/>
   <tile/>
   <tile/>
   <tile/>
   <tile/>
   <tile/>
   <tile/>
   <tile/>
   <tile/>
   <tile/>
   <tile/>
   <tile/>
   <tile/>
   <tile/>
   <tile/>
   <tile/>
   <tile/>
   <tile/>
   <tile/>
   <tile/>
   <tile/>
   <tile/>
   <tile/>
   <tile/>
   <tile/>
   <tile/>
   <tile/>
   <tile/>
   <tile/>
   <tile/>
   <tile/>
   <tile/>
   <tile/>
   <tile/>
   <tile/>
   <tile/>
   <tile/>
   <tile gid="65"/>
   <tile gid="65"/>
   <tile/>
   <tile/>
   <tile/>
   <tile/>
   <tile/>
   <tile/>
   <tile gid="65"/>
   <tile/>
   <tile/>
   <tile/>
   <tile/>
   <tile/>
   <tile/>
   <tile/>
   <tile/>
   <tile/>
   <tile/>
   <tile gid="65"/>
   <tile gid="65"/>
   <tile gid="65"/>
   <tile gid="65"/>
   <tile gid="65"/>
   <tile gid="65"/>
   <tile gid="65"/>
   <tile gid="65"/>
   <tile gid="65"/>
   <tile gid="65"/>
   <tile/>
   <tile/>
   <tile/>
   <tile/>
   <tile/>
   <tile/>
   <tile/>
   <tile/>
   <tile/>
   <tile/>
   <tile/>
   <tile/>
   <tile/>
   <tile/>
   <tile/>
   <tile/>
   <tile/>
   <tile/>
   <tile/>
   <tile/>
   <tile/>
   <tile/>
   <tile gid="65"/>
   <tile gid="65"/>
   <tile gid="65"/>
   <tile gid="65"/>
   <tile gid="65"/>
   <tile gid="65"/>
   <tile gid="65"/>
   <tile gid="65"/>
   <tile gid="65"/>
   <tile gid="65"/>
   <tile gid="65"/>
   <tile gid="65"/>
   <tile gid="65"/>
   <tile gid="65"/>
   <tile gid="65"/>
   <tile gid="65"/>
   <tile gid="65"/>
   <tile gid="65"/>
   <tile gid="65"/>
   <tile gid="65"/>
   <tile gid="65"/>
   <tile gid="65"/>
   <tile gid="65"/>
   <tile gid="65"/>
   <tile/>
   <tile/>
   <tile/>
   <tile/>
   <tile/>
   <tile/>
   <tile/>
   <tile/>
   <tile/>
   <tile/>
   <tile/>
   <tile/>
   <tile/>
   <tile/>
   <tile/>
   <tile/>
   <tile/>
   <tile/>
   <tile/>
   <tile/>
   <tile/>
   <tile/>
   <tile/>
   <tile/>
   <tile/>
   <tile/>
   <tile/>
   <tile/>
   <tile/>
   <tile/>
   <tile/>
   <tile/>
   <tile/>
   <tile/>
   <tile/>
   <tile/>
   <tile gid="65"/>
   <tile/>
   <tile/>
   <tile/>
   <tile/>
   <tile/>
   <tile/>
   <tile/>
   <tile/>
   <tile/>
   <tile/>
   <tile/>
   <tile/>
   <tile/>
   <tile/>
   <tile/>
   <tile gid="65"/>
   <tile gid="65"/>
   <tile/>
   <tile/>
   <tile/>
   <tile/>
   <tile/>
   <tile/>
   <tile gid="65"/>
   <tile/>
   <tile/>
   <tile/>
   <tile/>
   <tile/>
   <tile/>
   <tile/>
   <tile gid="65"/>
   <tile gid="65"/>
   <tile gid="65"/>
   <tile gid="65"/>
   <tile gid="65"/>
   <tile gid="65"/>
   <tile gid="65"/>
   <tile gid="65"/>
   <tile gid="65"/>
   <tile gid="65"/>
   <tile gid="65"/>
   <tile gid="65"/>
   <tile/>
   <tile/>
   <tile/>
   <tile/>
   <tile/>
   <tile/>
   <tile gid="65"/>
   <tile gid="65"/>
   <tile/>
   <tile/>
   <tile/>
   <tile/>
   <tile/>
   <tile/>
   <tile/>
   <tile/>
   <tile/>
   <tile/>
   <tile/>
   <tile/>
   <tile/>
   <tile/>
   <tile/>
   <tile/>
   <tile/>
   <tile/>
   <tile/>
   <tile/>
   <tile/>
   <tile/>
   <tile/>
   <tile/>
   <tile/>
   <tile/>
   <tile/>
   <tile/>
   <tile/>
   <tile/>
   <tile/>
   <tile/>
   <tile/>
   <tile/>
   <tile/>
   <tile/>
   <tile/>
   <tile/>
   <tile/>
   <tile gid="65"/>
   <tile gid="65"/>
   <tile gid="65"/>
   <tile gid="65"/>
   <tile gid="65"/>
   <tile gid="65"/>
   <tile gid="65"/>
   <tile gid="65"/>
   <tile gid="65"/>
   <tile gid="65"/>
   <tile gid="65"/>
   <tile gid="65"/>
   <tile gid="65"/>
   <tile gid="65"/>
   <tile gid="65"/>
   <tile gid="65"/>
   <tile gid="65"/>
   <tile gid="65"/>
   <tile gid="65"/>
   <tile gid="65"/>
   <tile gid="65"/>
   <tile/>
   <tile/>
   <tile/>
   <tile/>
   <tile/>
   <tile/>
   <tile/>
   <tile/>
   <tile/>
   <tile/>
   <tile/>
   <tile/>
   <tile/>
   <tile/>
   <tile/>
   <tile/>
   <tile/>
   <tile/>
   <tile/>
   <tile/>
   <tile/>
   <tile/>
   <tile/>
   <tile/>
   <tile/>
   <tile/>
   <tile/>
   <tile/>
   <tile/>
   <tile/>
   <tile/>
   <tile gid="65"/>
   <tile gid="65"/>
   <tile/>
   <tile/>
   <tile/>
   <tile/>
   <tile/>
   <tile/>
   <tile gid="65"/>
   <tile/>
   <tile/>
   <tile/>
   <tile/>
   <tile/>
   <tile/>
   <tile/>
   <tile gid="65"/>
   <tile gid="65"/>
   <tile gid="65"/>
   <tile gid="65"/>
   <tile gid="65"/>
   <tile gid="65"/>
   <tile gid="65"/>
   <tile gid="65"/>
   <tile gid="65"/>
   <tile gid="65"/>
   <tile/>
   <tile/>
   <tile/>
   <tile/>
   <tile/>
   <tile/>
   <tile/>
   <tile/>
   <tile/>
   <tile/>
   <tile/>
   <tile/>
   <tile/>
   <tile/>
   <tile/>
   <tile/>
   <tile/>
   <tile/>
   <tile/>
   <tile/>
   <tile/>
   <tile/>
   <tile/>
   <tile/>
   <tile/>
   <tile/>
   <tile/>
   <tile/>
   <tile/>
   <tile/>
   <tile/>
   <tile/>
   <tile/>
   <tile/>
   <tile/>
   <tile/>
   <tile/>
   <tile/>
   <tile/>
   <tile/>
   <tile/>
   <tile/>
   <tile/>
   <tile/>
   <tile/>
   <tile/>
   <tile/>
   <tile/>
   <tile/>
   <tile/>
   <tile/>
   <tile/>
   <tile/>
   <tile/>
   <tile/>
   <tile/>
   <tile/>
   <tile/>
   <tile/>
   <tile/>
   <tile/>
   <tile/>
   <tile/>
   <tile/>
   <tile/>
   <tile/>
   <tile/>
   <tile/>
   <tile/>
   <tile/>
   <tile/>
   <tile/>
   <tile/>
   <tile/>
   <tile/>
   <tile/>
   <tile gid="65"/>
   <tile/>
   <tile/>
   <tile/>
   <tile/>
   <tile/>
   <tile/>
   <tile/>
   <tile/>
   <tile/>
   <tile/>
   <tile/>
   <tile/>
   <tile/>
   <tile/>
   <tile/>
   <tile/>
   <tile gid="65"/>
   <tile/>
   <tile/>
   <tile/>
   <tile/>
   <tile/>
   <tile/>
   <tile/>
   <tile/>
   <tile/>
   <tile/>
   <tile/>
   <tile/>
   <tile/>
   <tile/>
   <tile/>
   <tile gid="65"/>
   <tile/>
   <tile/>
   <tile/>
   <tile/>
   <tile/>
   <tile/>
   <tile/>
   <tile gid="65"/>
   <tile gid="65"/>
   <tile gid="65"/>
   <tile gid="65"/>
   <tile gid="65"/>
   <tile gid="65"/>
   <tile gid="65"/>
   <tile gid="65"/>
   <tile gid="65"/>
   <tile/>
   <tile/>
   <tile/>
   <tile/>
   <tile/>
   <tile/>
   <tile/>
   <tile/>
   <tile/>
   <tile/>
   <tile/>
   <tile/>
   <tile/>
   <tile/>
   <tile/>
   <tile/>
   <tile/>
   <tile/>
   <tile/>
   <tile/>
   <tile/>
   <tile/>
   <tile/>
   <tile/>
   <tile/>
   <tile/>
   <tile/>
   <tile/>
   <tile/>
   <tile/>
   <tile/>
   <tile/>
   <tile/>
   <tile/>
   <tile/>
   <tile/>
   <tile/>
   <tile/>
   <tile/>
   <tile/>
   <tile/>
   <tile/>
   <tile/>
   <tile/>
   <tile/>
   <tile/>
   <tile/>
   <tile/>
   <tile/>
   <tile/>
   <tile/>
   <tile/>
   <tile/>
   <tile/>
   <tile/>
   <tile/>
   <tile/>
   <tile/>
   <tile/>
   <tile/>
   <tile/>
   <tile/>
   <tile/>
   <tile/>
   <tile/>
   <tile/>
   <tile/>
   <tile/>
   <tile/>
   <tile/>
   <tile/>
   <tile/>
   <tile/>
   <tile/>
   <tile/>
   <tile/>
   <tile/>
   <tile/>
   <tile/>
   <tile/>
   <tile/>
   <tile/>
   <tile/>
   <tile/>
   <tile/>
   <tile/>
   <tile/>
   <tile/>
   <tile/>
   <tile/>
   <tile/>
   <tile/>
   <tile/>
   <tile/>
   <tile/>
   <tile/>
   <tile/>
   <tile/>
   <tile/>
   <tile/>
   <tile/>
   <tile/>
   <tile/>
   <tile/>
   <tile/>
   <tile/>
   <tile/>
   <tile/>
   <tile/>
   <tile/>
   <tile gid="65"/>
   <tile/>
   <tile/>
   <tile/>
   <tile/>
   <tile/>
   <tile/>
   <tile/>
   <tile gid="65"/>
   <tile gid="65"/>
   <tile gid="65"/>
   <tile gid="65"/>
   <tile gid="65"/>
   <tile gid="65"/>
   <tile gid="65"/>
   <tile/>
   <tile/>
   <tile/>
   <tile/>
   <tile/>
   <tile/>
   <tile/>
   <tile/>
   <tile/>
   <tile/>
   <tile/>
   <tile/>
   <tile/>
   <tile/>
   <tile gid="65"/>
   <tile gid="65"/>
   <tile gid="65"/>
   <tile/>
   <tile/>
   <tile/>
   <tile/>
   <tile/>
   <tile/>
   <tile/>
   <tile/>
   <tile/>
   <tile/>
   <tile/>
   <tile/>
   <tile/>
   <tile/>
   <tile/>
   <tile/>
   <tile/>
   <tile/>
   <tile/>
   <tile/>
   <tile/>
   <tile/>
   <tile/>
   <tile/>
   <tile/>
   <tile/>
   <tile/>
   <tile/>
   <tile/>
   <tile/>
   <tile/>
   <tile/>
   <tile/>
   <tile/>
   <tile/>
   <tile/>
   <tile/>
   <tile/>
   <tile/>
   <tile/>
   <tile/>
   <tile/>
   <tile/>
   <tile/>
   <tile/>
   <tile/>
   <tile/>
   <tile/>
   <tile/>
   <tile/>
   <tile/>
   <tile/>
   <tile/>
   <tile/>
   <tile/>
   <tile/>
   <tile/>
   <tile/>
   <tile/>
   <tile/>
   <tile/>
   <tile/>
   <tile/>
   <tile/>
   <tile/>
   <tile/>
   <tile/>
   <tile/>
   <tile/>
   <tile/>
   <tile/>
   <tile/>
   <tile/>
   <tile/>
   <tile/>
   <tile/>
   <tile/>
   <tile/>
   <tile/>
   <tile/>
   <tile/>
   <tile/>
   <tile/>
   <tile/>
   <tile/>
   <tile/>
   <tile/>
   <tile/>
   <tile/>
   <tile/>
   <tile/>
   <tile/>
   <tile/>
   <tile/>
   <tile/>
   <tile gid="65"/>
   <tile/>
   <tile/>
   <tile/>
   <tile/>
   <tile/>
   <tile/>
   <tile/>
   <tile gid="65"/>
   <tile gid="65"/>
   <tile gid="65"/>
   <tile gid="65"/>
   <tile gid="65"/>
   <tile gid="65"/>
   <tile/>
   <tile/>
   <tile/>
   <tile/>
   <tile/>
   <tile/>
   <tile/>
   <tile/>
   <tile/>
   <tile/>
   <tile/>
   <tile/>
   <tile/>
   <tile/>
   <tile/>
   <tile/>
   <tile/>
   <tile/>
   <tile/>
   <tile/>
   <tile/>
   <tile/>
   <tile/>
   <tile/>
   <tile/>
   <tile/>
   <tile/>
   <tile/>
   <tile/>
   <tile/>
   <tile/>
   <tile/>
   <tile/>
   <tile/>
   <tile/>
   <tile/>
   <tile/>
   <tile/>
   <tile/>
   <tile/>
   <tile/>
   <tile/>
   <tile/>
   <tile/>
   <tile/>
   <tile/>
   <tile/>
   <tile/>
   <tile/>
   <tile/>
   <tile/>
   <tile/>
   <tile/>
   <tile/>
   <tile/>
   <tile/>
   <tile/>
   <tile/>
   <tile/>
   <tile/>
   <tile/>
   <tile/>
   <tile/>
   <tile/>
   <tile/>
   <tile/>
   <tile/>
   <tile/>
   <tile/>
   <tile/>
   <tile/>
   <tile/>
   <tile/>
   <tile/>
   <tile/>
   <tile/>
   <tile/>
   <tile/>
   <tile/>
   <tile/>
   <tile/>
   <tile/>
   <tile/>
   <tile/>
   <tile/>
   <tile/>
   <tile/>
   <tile/>
   <tile/>
   <tile/>
   <tile/>
   <tile/>
   <tile/>
   <tile/>
   <tile/>
   <tile/>
   <tile/>
   <tile/>
   <tile/>
   <tile/>
   <tile/>
   <tile/>
   <tile/>
   <tile/>
   <tile/>
   <tile/>
   <tile/>
   <tile/>
   <tile/>
   <tile/>
   <tile/>
   <tile/>
   <tile/>
   <tile gid="65"/>
   <tile/>
   <tile/>
   <tile/>
   <tile gid="65"/>
   <tile gid="65"/>
   <tile gid="65"/>
   <tile gid="65"/>
   <tile gid="65"/>
   <tile gid="65"/>
   <tile gid="65"/>
   <tile gid="65"/>
   <tile gid="65"/>
   <tile/>
   <tile/>
   <tile/>
   <tile/>
   <tile/>
   <tile/>
   <tile/>
   <tile/>
   <tile/>
   <tile/>
   <tile/>
   <tile/>
   <tile/>
   <tile/>
   <tile/>
   <tile/>
   <tile/>
   <tile/>
   <tile/>
   <tile/>
   <tile/>
   <tile/>
   <tile/>
   <tile/>
   <tile/>
   <tile/>
   <tile/>
   <tile/>
   <tile/>
   <tile/>
   <tile/>
   <tile/>
   <tile/>
   <tile/>
   <tile/>
   <tile/>
   <tile/>
   <tile/>
   <tile/>
   <tile/>
   <tile/>
   <tile/>
   <tile/>
   <tile/>
   <tile/>
   <tile/>
   <tile/>
   <tile/>
   <tile/>
   <tile/>
   <tile/>
   <tile/>
   <tile/>
   <tile/>
   <tile/>
   <tile/>
   <tile/>
   <tile/>
   <tile/>
   <tile/>
   <tile/>
   <tile/>
   <tile/>
   <tile/>
   <tile/>
   <tile/>
   <tile/>
   <tile/>
   <tile/>
   <tile/>
   <tile/>
   <tile/>
   <tile/>
   <tile/>
   <tile/>
   <tile/>
   <tile/>
   <tile/>
   <tile/>
   <tile/>
   <tile/>
   <tile/>
   <tile/>
   <tile/>
   <tile/>
   <tile/>
   <tile/>
   <tile/>
   <tile/>
   <tile/>
   <tile/>
   <tile/>
   <tile/>
   <tile/>
   <tile/>
   <tile/>
   <tile/>
   <tile/>
   <tile/>
   <tile/>
   <tile/>
   <tile/>
   <tile/>
   <tile/>
   <tile/>
   <tile/>
   <tile/>
   <tile/>
   <tile/>
   <tile/>
   <tile/>
   <tile/>
   <tile/>
   <tile/>
   <tile gid="65"/>
   <tile/>
   <tile/>
   <tile/>
   <tile gid="65"/>
   <tile gid="65"/>
   <tile gid="65"/>
   <tile gid="65"/>
   <tile gid="65"/>
   <tile gid="65"/>
   <tile gid="65"/>
   <tile gid="65"/>
   <tile/>
   <tile/>
   <tile/>
   <tile/>
   <tile/>
   <tile/>
   <tile/>
   <tile/>
   <tile/>
   <tile/>
   <tile/>
   <tile/>
   <tile/>
   <tile/>
   <tile/>
   <tile/>
   <tile/>
   <tile/>
   <tile/>
   <tile/>
   <tile/>
   <tile/>
   <tile/>
   <tile/>
   <tile gid="65"/>
   <tile/>
   <tile/>
   <tile/>
   <tile/>
   <tile/>
   <tile/>
   <tile/>
   <tile/>
   <tile/>
   <tile/>
   <tile/>
   <tile/>
   <tile/>
   <tile/>
   <tile/>
   <tile/>
   <tile/>
   <tile/>
   <tile/>
   <tile/>
   <tile/>
   <tile/>
   <tile/>
   <tile/>
   <tile/>
   <tile/>
   <tile/>
   <tile/>
   <tile/>
   <tile/>
   <tile/>
   <tile/>
   <tile/>
   <tile/>
   <tile/>
   <tile/>
   <tile/>
   <tile/>
   <tile/>
   <tile/>
   <tile/>
   <tile/>
   <tile/>
   <tile/>
   <tile/>
   <tile/>
   <tile/>
   <tile/>
   <tile/>
   <tile/>
   <tile/>
   <tile/>
   <tile/>
   <tile/>
   <tile/>
   <tile/>
   <tile/>
   <tile/>
   <tile/>
   <tile/>
   <tile/>
   <tile/>
   <tile/>
   <tile/>
   <tile/>
   <tile/>
   <tile/>
   <tile/>
   <tile/>
   <tile/>
   <tile/>
   <tile/>
   <tile/>
   <tile/>
   <tile/>
   <tile/>
   <tile/>
   <tile/>
   <tile/>
   <tile/>
   <tile/>
   <tile/>
   <tile/>
   <tile/>
   <tile/>
   <tile/>
   <tile/>
   <tile gid="65"/>
   <tile/>
   <tile/>
   <tile gid="65"/>
   <tile/>
   <tile/>
   <tile/>
   <tile gid="65"/>
   <tile gid="65"/>
   <tile gid="65"/>
   <tile gid="65"/>
   <tile gid="65"/>
   <tile gid="65"/>
   <tile gid="65"/>
   <tile/>
   <tile/>
   <tile/>
   <tile/>
   <tile/>
   <tile/>
   <tile/>
   <tile/>
   <tile/>
   <tile/>
   <tile/>
   <tile/>
   <tile/>
   <tile/>
   <tile/>
   <tile/>
   <tile/>
   <tile/>
   <tile/>
   <tile/>
   <tile/>
   <tile/>
   <tile/>
   <tile/>
   <tile/>
   <tile/>
   <tile/>
   <tile/>
   <tile/>
   <tile/>
   <tile/>
   <tile/>
   <tile/>
   <tile/>
   <tile/>
   <tile/>
   <tile/>
   <tile/>
   <tile/>
   <tile/>
   <tile/>
   <tile/>
   <tile/>
   <tile/>
   <tile/>
   <tile/>
   <tile/>
   <tile/>
   <tile/>
   <tile/>
   <tile/>
   <tile/>
   <tile/>
   <tile/>
   <tile/>
   <tile/>
   <tile/>
   <tile/>
   <tile/>
   <tile/>
   <tile/>
   <tile/>
   <tile/>
   <tile/>
   <tile/>
   <tile/>
   <tile/>
   <tile/>
   <tile/>
   <tile/>
   <tile/>
   <tile/>
   <tile/>
   <tile/>
   <tile/>
   <tile/>
   <tile/>
   <tile/>
   <tile/>
   <tile/>
   <tile/>
   <tile/>
   <tile/>
   <tile/>
   <tile/>
   <tile/>
   <tile/>
   <tile/>
   <tile/>
   <tile/>
   <tile/>
   <tile/>
   <tile/>
   <tile/>
   <tile/>
   <tile/>
   <tile/>
   <tile/>
   <tile/>
   <tile/>
   <tile/>
   <tile/>
   <tile/>
   <tile/>
   <tile/>
   <tile/>
   <tile/>
   <tile/>
   <tile/>
   <tile/>
   <tile/>
   <tile/>
   <tile/>
   <tile/>
   <tile/>
   <tile/>
   <tile gid="65"/>
   <tile/>
   <tile gid="65"/>
   <tile gid="65"/>
   <tile gid="65"/>
   <tile gid="65"/>
   <tile gid="65"/>
   <tile gid="65"/>
   <tile gid="65"/>
   <tile gid="65"/>
   <tile/>
   <tile/>
   <tile/>
   <tile/>
   <tile/>
   <tile/>
   <tile/>
   <tile/>
   <tile/>
   <tile/>
   <tile/>
   <tile/>
   <tile/>
   <tile/>
   <tile/>
   <tile/>
   <tile/>
   <tile/>
   <tile/>
   <tile/>
   <tile/>
   <tile/>
   <tile/>
   <tile/>
   <tile/>
   <tile/>
   <tile/>
   <tile/>
   <tile/>
   <tile/>
   <tile/>
   <tile/>
   <tile/>
   <tile/>
   <tile/>
   <tile/>
   <tile/>
   <tile/>
   <tile/>
   <tile/>
   <tile/>
   <tile/>
   <tile/>
   <tile/>
   <tile/>
   <tile/>
   <tile/>
   <tile/>
   <tile/>
   <tile/>
   <tile/>
   <tile/>
   <tile/>
   <tile/>
   <tile/>
   <tile/>
   <tile/>
   <tile/>
   <tile/>
   <tile/>
   <tile/>
   <tile/>
   <tile/>
   <tile/>
   <tile/>
   <tile/>
   <tile/>
   <tile/>
   <tile/>
   <tile/>
   <tile/>
   <tile/>
   <tile/>
   <tile/>
   <tile/>
   <tile/>
   <tile/>
   <tile/>
   <tile/>
   <tile/>
   <tile/>
   <tile/>
   <tile/>
   <tile/>
   <tile/>
   <tile/>
   <tile/>
   <tile/>
   <tile/>
   <tile/>
   <tile/>
   <tile/>
   <tile/>
   <tile/>
   <tile/>
   <tile/>
   <tile/>
   <tile/>
   <tile/>
   <tile/>
   <tile/>
   <tile/>
   <tile/>
   <tile/>
   <tile/>
   <tile/>
   <tile/>
   <tile/>
   <tile/>
   <tile/>
   <tile/>
   <tile/>
   <tile/>
   <tile/>
   <tile/>
   <tile/>
   <tile/>
   <tile gid="65"/>
   <tile/>
   <tile gid="65"/>
   <tile gid="65"/>
   <tile gid="65"/>
   <tile gid="65"/>
   <tile gid="65"/>
   <tile gid="65"/>
   <tile gid="65"/>
   <tile/>
   <tile/>
   <tile/>
   <tile/>
   <tile/>
   <tile/>
   <tile/>
   <tile/>
   <tile/>
   <tile/>
   <tile/>
   <tile/>
   <tile/>
   <tile/>
   <tile/>
   <tile/>
   <tile/>
   <tile/>
   <tile/>
   <tile/>
   <tile/>
   <tile/>
   <tile/>
   <tile/>
   <tile/>
   <tile/>
   <tile/>
   <tile/>
   <tile/>
   <tile/>
   <tile/>
   <tile/>
   <tile/>
   <tile/>
   <tile/>
   <tile/>
   <tile/>
   <tile/>
   <tile/>
   <tile/>
   <tile/>
   <tile/>
   <tile/>
   <tile/>
   <tile/>
   <tile/>
   <tile/>
   <tile/>
   <tile/>
   <tile/>
   <tile/>
   <tile/>
   <tile/>
   <tile/>
   <tile/>
   <tile/>
   <tile/>
   <tile/>
   <tile/>
   <tile/>
   <tile/>
   <tile/>
   <tile/>
   <tile/>
   <tile/>
   <tile/>
   <tile/>
   <tile/>
   <tile/>
   <tile/>
   <tile/>
   <tile/>
   <tile/>
   <tile/>
   <tile/>
   <tile/>
   <tile/>
   <tile/>
   <tile/>
   <tile/>
   <tile/>
   <tile/>
   <tile/>
   <tile/>
   <tile/>
   <tile/>
   <tile/>
   <tile/>
   <tile/>
   <tile/>
   <tile/>
   <tile/>
   <tile/>
   <tile/>
   <tile/>
   <tile/>
   <tile/>
   <tile/>
   <tile/>
   <tile/>
   <tile/>
   <tile/>
   <tile/>
   <tile/>
   <tile/>
   <tile/>
   <tile/>
   <tile/>
   <tile/>
   <tile/>
   <tile/>
   <tile gid="65"/>
   <tile/>
   <tile/>
   <tile/>
   <tile/>
   <tile/>
   <tile/>
   <tile gid="65"/>
   <tile/>
   <tile gid="65"/>
   <tile gid="65"/>
   <tile gid="65"/>
   <tile gid="65"/>
   <tile gid="65"/>
   <tile gid="65"/>
   <tile/>
   <tile/>
   <tile/>
   <tile/>
   <tile/>
   <tile/>
   <tile/>
   <tile/>
   <tile/>
   <tile/>
   <tile/>
   <tile/>
   <tile/>
   <tile/>
   <tile/>
   <tile/>
   <tile/>
   <tile/>
   <tile/>
   <tile/>
   <tile/>
   <tile/>
   <tile/>
   <tile/>
   <tile/>
   <tile/>
   <tile/>
   <tile/>
   <tile/>
   <tile/>
   <tile/>
   <tile/>
   <tile/>
   <tile/>
   <tile/>
   <tile/>
   <tile/>
   <tile/>
   <tile/>
   <tile/>
   <tile/>
   <tile/>
   <tile/>
   <tile/>
   <tile/>
   <tile/>
   <tile/>
   <tile/>
   <tile/>
   <tile/>
   <tile/>
   <tile/>
   <tile/>
   <tile/>
   <tile/>
   <tile/>
   <tile/>
   <tile/>
   <tile/>
   <tile gid="65"/>
   <tile gid="65"/>
   <tile/>
   <tile/>
   <tile/>
   <tile/>
   <tile/>
   <tile/>
   <tile/>
   <tile gid="65"/>
   <tile gid="65"/>
   <tile gid="65"/>
   <tile gid="65"/>
   <tile gid="65"/>
   <tile gid="65"/>
   <tile gid="65"/>
   <tile gid="65"/>
   <tile gid="65"/>
   <tile gid="65"/>
   <tile gid="65"/>
   <tile gid="65"/>
   <tile gid="65"/>
   <tile/>
   <tile/>
   <tile/>
   <tile/>
   <tile/>
   <tile/>
   <tile/>
   <tile/>
   <tile gid="65"/>
   <tile gid="65"/>
   <tile/>
   <tile/>
   <tile/>
   <tile/>
   <tile/>
   <tile/>
   <tile/>
   <tile/>
   <tile/>
   <tile/>
   <tile/>
   <tile/>
   <tile/>
   <tile/>
   <tile/>
   <tile/>
   <tile/>
   <tile/>
   <tile/>
   <tile/>
   <tile/>
   <tile/>
   <tile/>
   <tile/>
   <tile/>
   <tile/>
   <tile/>
   <tile/>
   <tile gid="65"/>
   <tile/>
   <tile gid="65"/>
   <tile gid="65"/>
   <tile gid="65"/>
   <tile gid="65"/>
   <tile gid="65"/>
   <tile/>
   <tile/>
   <tile/>
   <tile/>
   <tile/>
   <tile/>
   <tile/>
   <tile/>
   <tile/>
   <tile/>
   <tile/>
   <tile/>
   <tile/>
   <tile/>
   <tile/>
   <tile/>
   <tile/>
   <tile/>
   <tile/>
   <tile/>
   <tile/>
   <tile/>
   <tile/>
   <tile/>
   <tile/>
   <tile/>
   <tile/>
   <tile/>
   <tile/>
   <tile/>
   <tile/>
   <tile/>
   <tile/>
   <tile/>
   <tile/>
   <tile/>
   <tile/>
   <tile/>
   <tile/>
   <tile/>
   <tile/>
   <tile/>
   <tile/>
   <tile/>
   <tile/>
   <tile/>
   <tile/>
   <tile/>
   <tile/>
   <tile/>
   <tile/>
   <tile/>
   <tile/>
   <tile/>
   <tile/>
   <tile/>
   <tile/>
   <tile/>
   <tile/>
   <tile/>
   <tile/>
   <tile/>
   <tile/>
   <tile/>
   <tile/>
   <tile/>
   <tile/>
   <tile/>
   <tile/>
   <tile/>
   <tile/>
   <tile/>
   <tile/>
   <tile/>
   <tile/>
   <tile/>
   <tile/>
   <tile/>
   <tile/>
   <tile/>
   <tile/>
   <tile/>
   <tile/>
   <tile/>
   <tile/>
   <tile/>
   <tile/>
   <tile/>
   <tile/>
   <tile/>
   <tile/>
   <tile/>
   <tile/>
   <tile/>
   <tile/>
   <tile/>
   <tile/>
   <tile/>
   <tile/>
   <tile/>
   <tile/>
   <tile/>
   <tile/>
   <tile/>
   <tile/>
   <tile/>
   <tile/>
   <tile/>
   <tile/>
   <tile/>
   <tile/>
   <tile/>
   <tile/>
   <tile/>
   <tile/>
   <tile/>
   <tile/>
   <tile/>
   <tile/>
   <tile/>
   <tile gid="65"/>
   <tile/>
   <tile gid="65"/>
   <tile gid="65"/>
   <tile gid="65"/>
   <tile gid="65"/>
   <tile gid="65"/>
   <tile/>
   <tile/>
   <tile/>
   <tile/>
   <tile gid="65"/>
   <tile gid="65"/>
   <tile gid="65"/>
   <tile gid="65"/>
   <tile gid="65"/>
   <tile gid="65"/>
   <tile gid="65"/>
   <tile gid="65"/>
   <tile gid="65"/>
   <tile gid="65"/>
   <tile gid="65"/>
   <tile gid="65"/>
   <tile gid="65"/>
   <tile gid="65"/>
   <tile gid="65"/>
   <tile gid="65"/>
   <tile gid="65"/>
   <tile gid="65"/>
   <tile gid="65"/>
   <tile gid="65"/>
   <tile gid="65"/>
   <tile gid="65"/>
   <tile gid="65"/>
   <tile gid="65"/>
   <tile gid="65"/>
   <tile gid="65"/>
   <tile gid="65"/>
   <tile gid="65"/>
   <tile gid="65"/>
   <tile gid="65"/>
   <tile/>
   <tile/>
   <tile/>
   <tile/>
   <tile/>
   <tile/>
   <tile/>
   <tile/>
   <tile/>
   <tile/>
   <tile/>
   <tile/>
   <tile/>
   <tile/>
   <tile/>
   <tile/>
   <tile gid="65"/>
   <tile gid="65"/>
   <tile gid="65"/>
   <tile gid="65"/>
   <tile gid="65"/>
   <tile gid="65"/>
   <tile gid="65"/>
   <tile gid="65"/>
   <tile gid="65"/>
   <tile gid="65"/>
   <tile gid="65"/>
   <tile gid="65"/>
   <tile gid="65"/>
   <tile gid="65"/>
   <tile gid="65"/>
   <tile gid="65"/>
   <tile gid="65"/>
   <tile gid="65"/>
   <tile gid="65"/>
   <tile gid="65"/>
   <tile gid="65"/>
   <tile gid="65"/>
   <tile gid="65"/>
   <tile gid="65"/>
   <tile gid="65"/>
   <tile gid="65"/>
   <tile gid="65"/>
   <tile gid="65"/>
   <tile gid="65"/>
   <tile gid="65"/>
   <tile gid="65"/>
   <tile gid="65"/>
   <tile gid="65"/>
   <tile gid="65"/>
   <tile gid="65"/>
   <tile gid="65"/>
   <tile gid="65"/>
   <tile gid="65"/>
   <tile gid="65"/>
   <tile gid="65"/>
   <tile gid="65"/>
   <tile gid="65"/>
   <tile gid="65"/>
   <tile gid="65"/>
   <tile gid="65"/>
   <tile gid="65"/>
   <tile gid="65"/>
   <tile gid="65"/>
   <tile gid="65"/>
   <tile gid="65"/>
   <tile/>
   <tile/>
   <tile/>
   <tile/>
   <tile/>
   <tile/>
   <tile/>
   <tile/>
   <tile/>
   <tile/>
   <tile/>
   <tile/>
   <tile/>
   <tile/>
   <tile/>
   <tile/>
   <tile/>
   <tile/>
   <tile/>
   <tile/>
   <tile gid="65"/>
   <tile/>
   <tile gid="65"/>
   <tile gid="65"/>
   <tile gid="65"/>
   <tile gid="65"/>
   <tile gid="65"/>
   <tile gid="65"/>
   <tile gid="65"/>
   <tile gid="65"/>
   <tile gid="65"/>
   <tile gid="65"/>
   <tile gid="65"/>
   <tile gid="65"/>
   <tile gid="65"/>
   <tile gid="65"/>
   <tile gid="65"/>
   <tile gid="65"/>
   <tile gid="65"/>
   <tile gid="65"/>
   <tile gid="65"/>
   <tile gid="65"/>
   <tile gid="65"/>
   <tile gid="65"/>
   <tile gid="65"/>
   <tile gid="65"/>
   <tile gid="65"/>
   <tile gid="65"/>
   <tile gid="65"/>
   <tile gid="65"/>
   <tile gid="65"/>
   <tile gid="65"/>
   <tile gid="65"/>
   <tile gid="65"/>
   <tile gid="65"/>
   <tile gid="65"/>
   <tile gid="65"/>
   <tile gid="65"/>
   <tile gid="65"/>
   <tile gid="65"/>
   <tile gid="65"/>
   <tile gid="65"/>
   <tile gid="65"/>
   <tile gid="65"/>
   <tile/>
   <tile/>
   <tile/>
   <tile/>
   <tile/>
   <tile/>
   <tile/>
   <tile/>
   <tile/>
   <tile/>
   <tile gid="65"/>
   <tile gid="65"/>
   <tile gid="65"/>
   <tile gid="65"/>
   <tile gid="65"/>
   <tile gid="65"/>
   <tile gid="65"/>
   <tile gid="65"/>
   <tile gid="65"/>
   <tile gid="65"/>
   <tile gid="65"/>
   <tile gid="65"/>
   <tile gid="65"/>
   <tile gid="65"/>
   <tile gid="65"/>
   <tile gid="65"/>
   <tile gid="65"/>
   <tile gid="65"/>
   <tile gid="65"/>
   <tile gid="65"/>
   <tile gid="65"/>
   <tile gid="65"/>
   <tile gid="65"/>
   <tile gid="65"/>
   <tile gid="65"/>
   <tile gid="65"/>
   <tile gid="65"/>
   <tile gid="65"/>
   <tile gid="65"/>
   <tile gid="65"/>
   <tile gid="65"/>
   <tile gid="65"/>
   <tile gid="65"/>
   <tile gid="65"/>
   <tile gid="65"/>
   <tile gid="65"/>
   <tile gid="65"/>
   <tile gid="65"/>
   <tile gid="65"/>
   <tile gid="65"/>
   <tile gid="65"/>
   <tile gid="65"/>
   <tile gid="65"/>
   <tile gid="65"/>
   <tile gid="65"/>
   <tile gid="65"/>
   <tile gid="65"/>
   <tile gid="65"/>
   <tile gid="65"/>
   <tile gid="65"/>
   <tile gid="65"/>
   <tile gid="65"/>
   <tile gid="65"/>
   <tile gid="65"/>
   <tile gid="65"/>
   <tile gid="65"/>
   <tile gid="65"/>
   <tile gid="65"/>
   <tile gid="65"/>
   <tile gid="65"/>
   <tile gid="65"/>
   <tile gid="65"/>
   <tile gid="65"/>
   <tile gid="65"/>
   <tile gid="65"/>
   <tile gid="65"/>
   <tile gid="65"/>
   <tile gid="65"/>
   <tile gid="65"/>
   <tile gid="65"/>
   <tile gid="65"/>
   <tile gid="65"/>
   <tile gid="65"/>
   <tile gid="65"/>
   <tile/>
   <tile gid="65"/>
   <tile gid="65"/>
   <tile gid="65"/>
   <tile gid="65"/>
   <tile gid="65"/>
   <tile gid="65"/>
   <tile gid="65"/>
   <tile gid="65"/>
   <tile gid="65"/>
   <tile gid="65"/>
   <tile gid="65"/>
   <tile gid="65"/>
   <tile gid="65"/>
   <tile gid="65"/>
   <tile gid="65"/>
   <tile gid="65"/>
   <tile gid="65"/>
   <tile gid="65"/>
   <tile gid="65"/>
   <tile gid="65"/>
   <tile gid="65"/>
   <tile gid="65"/>
   <tile gid="65"/>
   <tile gid="65"/>
   <tile gid="65"/>
   <tile gid="65"/>
   <tile gid="65"/>
   <tile gid="65"/>
   <tile gid="65"/>
   <tile gid="65"/>
   <tile gid="65"/>
   <tile gid="65"/>
   <tile gid="65"/>
   <tile gid="65"/>
   <tile gid="65"/>
   <tile gid="65"/>
   <tile gid="65"/>
   <tile gid="65"/>
   <tile gid="65"/>
   <tile gid="65"/>
   <tile gid="65"/>
   <tile gid="65"/>
   <tile/>
   <tile/>
   <tile/>
   <tile/>
   <tile/>
   <tile/>
   <tile/>
   <tile/>
   <tile/>
   <tile/>
   <tile gid="65"/>
   <tile gid="65"/>
   <tile gid="65"/>
   <tile gid="65"/>
   <tile gid="65"/>
   <tile gid="65"/>
   <tile gid="65"/>
   <tile gid="65"/>
   <tile gid="65"/>
   <tile gid="65"/>
   <tile gid="65"/>
   <tile gid="65"/>
   <tile gid="65"/>
   <tile gid="65"/>
   <tile gid="65"/>
   <tile gid="65"/>
   <tile gid="65"/>
   <tile gid="65"/>
   <tile gid="65"/>
   <tile gid="65"/>
   <tile gid="65"/>
   <tile gid="65"/>
   <tile gid="65"/>
   <tile gid="65"/>
   <tile gid="65"/>
   <tile gid="65"/>
   <tile gid="65"/>
   <tile gid="65"/>
   <tile gid="65"/>
   <tile gid="65"/>
   <tile gid="65"/>
   <tile gid="65"/>
   <tile gid="65"/>
   <tile gid="65"/>
   <tile gid="65"/>
   <tile gid="65"/>
   <tile gid="65"/>
   <tile gid="65"/>
   <tile gid="65"/>
   <tile gid="65"/>
   <tile gid="65"/>
   <tile gid="65"/>
   <tile gid="65"/>
   <tile gid="65"/>
   <tile gid="65"/>
   <tile gid="65"/>
   <tile gid="65"/>
   <tile gid="65"/>
   <tile gid="65"/>
   <tile gid="65"/>
   <tile gid="65"/>
   <tile gid="65"/>
   <tile gid="65"/>
   <tile gid="65"/>
   <tile gid="65"/>
   <tile gid="65"/>
   <tile gid="65"/>
   <tile gid="65"/>
   <tile gid="65"/>
   <tile gid="65"/>
   <tile gid="65"/>
   <tile gid="65"/>
   <tile gid="65"/>
   <tile gid="65"/>
   <tile gid="65"/>
   <tile gid="65"/>
   <tile gid="65"/>
   <tile gid="65"/>
   <tile gid="65"/>
   <tile gid="65"/>
   <tile gid="65"/>
   <tile gid="65"/>
   <tile gid="65"/>
   <tile gid="65"/>
  </data>
 </layer>
 <layer id="26" name="AirNavLayer" width="127" height="60" visible="0">
  <properties>
   <property name="Air" type="bool" value="true"/>
   <property name="Navigation" type="bool" value="true"/>
  </properties>
  <data>
   <tile/>
   <tile/>
   <tile/>
   <tile/>
   <tile/>
   <tile/>
   <tile/>
   <tile/>
   <tile/>
   <tile/>
   <tile/>
   <tile/>
   <tile/>
   <tile/>
   <tile/>
   <tile/>
   <tile/>
   <tile/>
   <tile/>
   <tile/>
   <tile/>
   <tile/>
   <tile/>
   <tile/>
   <tile/>
   <tile/>
   <tile/>
   <tile/>
   <tile/>
   <tile/>
   <tile/>
   <tile/>
   <tile/>
   <tile/>
   <tile/>
   <tile/>
   <tile/>
   <tile/>
   <tile/>
   <tile/>
   <tile/>
   <tile/>
   <tile/>
   <tile/>
   <tile/>
   <tile/>
   <tile/>
   <tile/>
   <tile/>
   <tile/>
   <tile/>
   <tile/>
   <tile/>
   <tile/>
   <tile/>
   <tile/>
   <tile/>
   <tile/>
   <tile/>
   <tile/>
   <tile/>
   <tile/>
   <tile/>
   <tile/>
   <tile/>
   <tile/>
   <tile gid="65"/>
   <tile gid="65"/>
   <tile gid="65"/>
   <tile gid="65"/>
   <tile gid="65"/>
   <tile gid="65"/>
   <tile gid="65"/>
   <tile gid="65"/>
   <tile gid="65"/>
   <tile gid="65"/>
   <tile gid="65"/>
   <tile gid="65"/>
   <tile gid="65"/>
   <tile gid="65"/>
   <tile gid="65"/>
   <tile gid="65"/>
   <tile gid="65"/>
   <tile gid="65"/>
   <tile gid="65"/>
   <tile gid="65"/>
   <tile gid="65"/>
   <tile gid="65"/>
   <tile gid="65"/>
   <tile gid="65"/>
   <tile gid="65"/>
   <tile gid="65"/>
   <tile gid="65"/>
   <tile gid="65"/>
   <tile gid="65"/>
   <tile gid="65"/>
   <tile gid="65"/>
   <tile gid="65"/>
   <tile gid="65"/>
   <tile gid="65"/>
   <tile gid="65"/>
   <tile gid="65"/>
   <tile gid="65"/>
   <tile gid="65"/>
   <tile gid="65"/>
   <tile gid="65"/>
   <tile gid="65"/>
   <tile gid="65"/>
   <tile gid="65"/>
   <tile gid="65"/>
   <tile gid="65"/>
   <tile gid="65"/>
   <tile gid="65"/>
   <tile gid="65"/>
   <tile gid="65"/>
   <tile gid="65"/>
   <tile gid="65"/>
   <tile gid="65"/>
   <tile gid="65"/>
   <tile gid="65"/>
   <tile gid="65"/>
   <tile gid="65"/>
   <tile gid="65"/>
   <tile gid="65"/>
   <tile gid="65"/>
   <tile gid="65"/>
   <tile gid="65"/>
   <tile/>
   <tile/>
   <tile/>
   <tile/>
   <tile/>
   <tile/>
   <tile/>
   <tile/>
   <tile/>
   <tile/>
   <tile/>
   <tile/>
   <tile/>
   <tile/>
   <tile/>
   <tile/>
   <tile/>
   <tile/>
   <tile/>
   <tile/>
   <tile/>
   <tile/>
   <tile/>
   <tile/>
   <tile/>
   <tile/>
   <tile/>
   <tile/>
   <tile/>
   <tile/>
   <tile/>
   <tile/>
   <tile/>
   <tile/>
   <tile/>
   <tile/>
   <tile/>
   <tile/>
   <tile/>
   <tile/>
   <tile/>
   <tile/>
   <tile/>
   <tile/>
   <tile/>
   <tile/>
   <tile/>
   <tile/>
   <tile/>
   <tile/>
   <tile/>
   <tile/>
   <tile/>
   <tile/>
   <tile/>
   <tile/>
   <tile/>
   <tile/>
   <tile/>
   <tile/>
   <tile/>
   <tile/>
   <tile/>
   <tile/>
   <tile/>
   <tile/>
   <tile gid="65"/>
   <tile gid="65"/>
   <tile gid="65"/>
   <tile gid="65"/>
   <tile gid="65"/>
   <tile gid="65"/>
   <tile gid="65"/>
   <tile gid="65"/>
   <tile gid="65"/>
   <tile gid="65"/>
   <tile gid="65"/>
   <tile gid="65"/>
   <tile gid="65"/>
   <tile gid="65"/>
   <tile gid="65"/>
   <tile gid="65"/>
   <tile gid="65"/>
   <tile gid="65"/>
   <tile gid="65"/>
   <tile gid="65"/>
   <tile gid="65"/>
   <tile gid="65"/>
   <tile gid="65"/>
   <tile gid="65"/>
   <tile gid="65"/>
   <tile gid="65"/>
   <tile gid="65"/>
   <tile gid="65"/>
   <tile gid="65"/>
   <tile gid="65"/>
   <tile gid="65"/>
   <tile gid="65"/>
   <tile gid="65"/>
   <tile gid="65"/>
   <tile gid="65"/>
   <tile gid="65"/>
   <tile gid="65"/>
   <tile gid="65"/>
   <tile gid="65"/>
   <tile gid="65"/>
   <tile gid="65"/>
   <tile gid="65"/>
   <tile gid="65"/>
   <tile gid="65"/>
   <tile gid="65"/>
   <tile gid="65"/>
   <tile gid="65"/>
   <tile gid="66"/>
   <tile gid="65"/>
   <tile gid="65"/>
   <tile gid="65"/>
   <tile gid="65"/>
   <tile gid="65"/>
   <tile gid="65"/>
   <tile gid="65"/>
   <tile gid="65"/>
   <tile gid="65"/>
   <tile gid="65"/>
   <tile gid="65"/>
   <tile gid="65"/>
   <tile gid="65"/>
   <tile/>
   <tile/>
   <tile/>
   <tile/>
   <tile/>
   <tile/>
   <tile/>
   <tile/>
   <tile/>
   <tile/>
   <tile/>
   <tile/>
   <tile/>
   <tile/>
   <tile/>
   <tile/>
   <tile/>
   <tile/>
   <tile/>
   <tile/>
   <tile/>
   <tile/>
   <tile/>
   <tile/>
   <tile/>
   <tile/>
   <tile/>
   <tile/>
   <tile/>
   <tile/>
   <tile/>
   <tile/>
   <tile/>
   <tile/>
   <tile/>
   <tile/>
   <tile/>
   <tile/>
   <tile/>
   <tile/>
   <tile/>
   <tile/>
   <tile/>
   <tile/>
   <tile/>
   <tile/>
   <tile/>
   <tile/>
   <tile/>
   <tile/>
   <tile/>
   <tile/>
   <tile/>
   <tile/>
   <tile/>
   <tile/>
   <tile/>
   <tile/>
   <tile/>
   <tile/>
   <tile/>
   <tile/>
   <tile/>
   <tile/>
   <tile/>
   <tile/>
   <tile gid="65"/>
   <tile gid="65"/>
   <tile gid="65"/>
   <tile gid="65"/>
   <tile gid="65"/>
   <tile gid="65"/>
   <tile gid="65"/>
   <tile gid="65"/>
   <tile gid="65"/>
   <tile/>
   <tile/>
   <tile/>
   <tile/>
   <tile/>
   <tile/>
   <tile/>
   <tile/>
   <tile/>
   <tile/>
   <tile/>
   <tile/>
   <tile/>
   <tile/>
   <tile/>
   <tile/>
   <tile/>
   <tile/>
   <tile/>
   <tile/>
   <tile/>
   <tile/>
   <tile/>
   <tile/>
   <tile/>
   <tile/>
   <tile/>
   <tile/>
   <tile/>
   <tile/>
   <tile/>
   <tile/>
   <tile/>
   <tile/>
   <tile/>
   <tile/>
   <tile/>
   <tile gid="66"/>
   <tile gid="66"/>
   <tile/>
   <tile/>
   <tile/>
   <tile/>
   <tile/>
   <tile/>
   <tile/>
   <tile/>
   <tile/>
   <tile/>
   <tile/>
   <tile gid="65"/>
   <tile gid="65"/>
   <tile/>
   <tile/>
   <tile/>
   <tile/>
   <tile/>
   <tile/>
   <tile/>
   <tile/>
   <tile/>
   <tile/>
   <tile/>
   <tile/>
   <tile/>
   <tile/>
   <tile/>
   <tile/>
   <tile/>
   <tile/>
   <tile/>
   <tile/>
   <tile/>
   <tile/>
   <tile/>
   <tile/>
   <tile/>
   <tile/>
   <tile/>
   <tile/>
   <tile/>
   <tile/>
   <tile/>
   <tile/>
   <tile/>
   <tile/>
   <tile/>
   <tile/>
   <tile/>
   <tile/>
   <tile/>
   <tile/>
   <tile/>
   <tile/>
   <tile/>
   <tile/>
   <tile/>
   <tile/>
   <tile/>
   <tile/>
   <tile/>
   <tile/>
   <tile/>
   <tile/>
   <tile/>
   <tile/>
   <tile/>
   <tile/>
   <tile/>
   <tile/>
   <tile/>
   <tile/>
   <tile/>
   <tile/>
   <tile/>
   <tile/>
   <tile/>
   <tile/>
   <tile gid="65"/>
   <tile gid="65"/>
   <tile gid="65"/>
   <tile gid="65"/>
   <tile gid="65"/>
   <tile gid="65"/>
   <tile gid="65"/>
   <tile/>
   <tile/>
   <tile/>
   <tile/>
   <tile/>
   <tile/>
   <tile/>
   <tile/>
   <tile/>
   <tile/>
   <tile/>
   <tile/>
   <tile/>
   <tile/>
   <tile/>
   <tile/>
   <tile/>
   <tile/>
   <tile/>
   <tile/>
   <tile/>
   <tile/>
   <tile/>
   <tile/>
   <tile/>
   <tile/>
   <tile/>
   <tile/>
   <tile/>
   <tile/>
   <tile/>
   <tile/>
   <tile/>
   <tile/>
   <tile/>
   <tile/>
   <tile/>
   <tile/>
   <tile/>
   <tile gid="66"/>
   <tile gid="66"/>
   <tile/>
   <tile/>
   <tile/>
   <tile/>
   <tile/>
   <tile/>
   <tile/>
   <tile/>
   <tile/>
   <tile/>
   <tile/>
   <tile gid="65"/>
   <tile gid="65"/>
   <tile/>
   <tile/>
   <tile/>
   <tile/>
   <tile/>
   <tile/>
   <tile/>
   <tile/>
   <tile/>
   <tile/>
   <tile/>
   <tile/>
   <tile/>
   <tile/>
   <tile/>
   <tile/>
   <tile/>
   <tile/>
   <tile/>
   <tile/>
   <tile/>
   <tile/>
   <tile/>
   <tile/>
   <tile/>
   <tile/>
   <tile/>
   <tile/>
   <tile/>
   <tile/>
   <tile/>
   <tile/>
   <tile/>
   <tile/>
   <tile/>
   <tile/>
   <tile/>
   <tile/>
   <tile/>
   <tile/>
   <tile/>
   <tile/>
   <tile/>
   <tile/>
   <tile/>
   <tile/>
   <tile/>
   <tile/>
   <tile/>
   <tile/>
   <tile/>
   <tile/>
   <tile/>
   <tile/>
   <tile/>
   <tile/>
   <tile/>
   <tile/>
   <tile/>
   <tile/>
   <tile/>
   <tile/>
   <tile/>
   <tile/>
   <tile/>
   <tile/>
   <tile gid="65"/>
   <tile gid="65"/>
   <tile gid="65"/>
   <tile gid="65"/>
   <tile gid="65"/>
   <tile gid="65"/>
   <tile gid="65"/>
   <tile/>
   <tile/>
   <tile/>
   <tile/>
   <tile/>
   <tile/>
   <tile/>
   <tile/>
   <tile/>
   <tile/>
   <tile/>
   <tile/>
   <tile/>
   <tile/>
   <tile/>
   <tile/>
   <tile/>
   <tile/>
   <tile/>
   <tile/>
   <tile/>
   <tile/>
   <tile/>
   <tile/>
   <tile/>
   <tile/>
   <tile/>
   <tile/>
   <tile/>
   <tile/>
   <tile/>
   <tile/>
   <tile/>
   <tile/>
   <tile/>
   <tile/>
   <tile/>
   <tile/>
   <tile/>
   <tile gid="66"/>
   <tile gid="66"/>
   <tile/>
   <tile/>
   <tile/>
   <tile/>
   <tile/>
   <tile/>
   <tile/>
   <tile/>
   <tile/>
   <tile/>
   <tile/>
   <tile gid="65"/>
   <tile gid="65"/>
   <tile/>
   <tile/>
   <tile/>
   <tile/>
   <tile/>
   <tile/>
   <tile/>
   <tile/>
   <tile/>
   <tile/>
   <tile/>
   <tile/>
   <tile/>
   <tile/>
   <tile/>
   <tile/>
   <tile/>
   <tile/>
   <tile/>
   <tile/>
   <tile/>
   <tile/>
   <tile/>
   <tile/>
   <tile/>
   <tile/>
   <tile/>
   <tile/>
   <tile/>
   <tile/>
   <tile/>
   <tile/>
   <tile/>
   <tile/>
   <tile/>
   <tile/>
   <tile/>
   <tile/>
   <tile/>
   <tile/>
   <tile/>
   <tile/>
   <tile/>
   <tile/>
   <tile/>
   <tile/>
   <tile/>
   <tile/>
   <tile/>
   <tile/>
   <tile/>
   <tile/>
   <tile/>
   <tile/>
   <tile/>
   <tile/>
   <tile/>
   <tile/>
   <tile/>
   <tile/>
   <tile/>
   <tile/>
   <tile/>
   <tile/>
   <tile/>
   <tile/>
   <tile gid="65"/>
   <tile gid="65"/>
   <tile gid="65"/>
   <tile gid="65"/>
   <tile gid="65"/>
   <tile gid="65"/>
   <tile gid="65"/>
   <tile/>
   <tile/>
   <tile/>
   <tile/>
   <tile/>
   <tile/>
   <tile/>
   <tile/>
   <tile/>
   <tile/>
   <tile/>
   <tile/>
   <tile/>
   <tile/>
   <tile/>
   <tile/>
   <tile/>
   <tile/>
   <tile/>
   <tile/>
   <tile/>
   <tile/>
   <tile/>
   <tile/>
   <tile/>
   <tile/>
   <tile/>
   <tile/>
   <tile/>
   <tile/>
   <tile/>
   <tile/>
   <tile/>
   <tile/>
   <tile/>
   <tile/>
   <tile/>
   <tile/>
   <tile/>
   <tile gid="66"/>
   <tile gid="66"/>
   <tile/>
   <tile/>
   <tile/>
   <tile/>
   <tile/>
   <tile/>
   <tile/>
   <tile/>
   <tile/>
   <tile/>
   <tile/>
   <tile gid="65"/>
   <tile gid="65"/>
   <tile/>
   <tile/>
   <tile/>
   <tile/>
   <tile/>
   <tile/>
   <tile/>
   <tile/>
   <tile/>
   <tile/>
   <tile/>
   <tile/>
   <tile/>
   <tile/>
   <tile/>
   <tile/>
   <tile/>
   <tile/>
   <tile/>
   <tile/>
   <tile/>
   <tile/>
   <tile/>
   <tile/>
   <tile/>
   <tile/>
   <tile/>
   <tile/>
   <tile/>
   <tile/>
   <tile/>
   <tile/>
   <tile/>
   <tile/>
   <tile/>
   <tile/>
   <tile/>
   <tile/>
   <tile/>
   <tile/>
   <tile/>
   <tile/>
   <tile/>
   <tile/>
   <tile/>
   <tile/>
   <tile/>
   <tile/>
   <tile/>
   <tile/>
   <tile/>
   <tile/>
   <tile/>
   <tile/>
   <tile/>
   <tile/>
   <tile/>
   <tile/>
   <tile/>
   <tile/>
   <tile/>
   <tile/>
   <tile/>
   <tile/>
   <tile gid="65"/>
   <tile gid="65"/>
   <tile gid="65"/>
   <tile gid="65"/>
   <tile gid="65"/>
   <tile gid="65"/>
   <tile gid="65"/>
   <tile/>
   <tile/>
   <tile/>
   <tile/>
   <tile/>
   <tile/>
   <tile/>
   <tile/>
   <tile/>
   <tile/>
   <tile/>
   <tile/>
   <tile/>
   <tile/>
   <tile/>
   <tile/>
   <tile/>
   <tile/>
   <tile/>
   <tile/>
   <tile/>
   <tile/>
   <tile/>
   <tile/>
   <tile/>
   <tile/>
   <tile/>
   <tile/>
   <tile/>
   <tile/>
   <tile/>
   <tile/>
   <tile/>
   <tile/>
   <tile/>
   <tile/>
   <tile/>
   <tile/>
   <tile/>
   <tile/>
   <tile/>
   <tile gid="66"/>
   <tile gid="66"/>
   <tile/>
   <tile/>
   <tile/>
   <tile/>
   <tile/>
   <tile/>
   <tile/>
   <tile/>
   <tile/>
   <tile/>
   <tile/>
   <tile gid="65"/>
   <tile gid="65"/>
   <tile/>
   <tile/>
   <tile/>
   <tile/>
   <tile/>
   <tile/>
   <tile/>
   <tile/>
   <tile/>
   <tile/>
   <tile/>
   <tile/>
   <tile/>
   <tile/>
   <tile/>
   <tile/>
   <tile/>
   <tile/>
   <tile/>
   <tile/>
   <tile/>
   <tile/>
   <tile/>
   <tile/>
   <tile/>
   <tile/>
   <tile/>
   <tile/>
   <tile/>
   <tile/>
   <tile/>
   <tile/>
   <tile/>
   <tile/>
   <tile/>
   <tile/>
   <tile/>
   <tile/>
   <tile/>
   <tile/>
   <tile/>
   <tile/>
   <tile/>
   <tile/>
   <tile/>
   <tile/>
   <tile/>
   <tile/>
   <tile/>
   <tile/>
   <tile/>
   <tile/>
   <tile/>
   <tile/>
   <tile/>
   <tile/>
   <tile/>
   <tile/>
   <tile/>
   <tile/>
   <tile/>
   <tile/>
   <tile/>
   <tile/>
   <tile gid="65"/>
   <tile gid="65"/>
   <tile gid="65"/>
   <tile gid="65"/>
   <tile gid="65"/>
   <tile gid="65"/>
   <tile gid="65"/>
   <tile/>
   <tile/>
   <tile/>
   <tile/>
   <tile/>
   <tile/>
   <tile/>
   <tile/>
   <tile/>
   <tile/>
   <tile/>
   <tile/>
   <tile/>
   <tile/>
   <tile/>
   <tile/>
   <tile/>
   <tile/>
   <tile/>
   <tile/>
   <tile/>
   <tile/>
   <tile/>
   <tile/>
   <tile/>
   <tile/>
   <tile/>
   <tile/>
   <tile/>
   <tile/>
   <tile/>
   <tile/>
   <tile/>
   <tile/>
   <tile/>
   <tile/>
   <tile/>
   <tile/>
   <tile/>
   <tile/>
   <tile/>
   <tile gid="66"/>
   <tile gid="66"/>
   <tile/>
   <tile/>
   <tile/>
   <tile/>
   <tile/>
   <tile/>
   <tile/>
   <tile/>
   <tile/>
   <tile/>
   <tile/>
   <tile gid="65"/>
   <tile gid="65"/>
   <tile/>
   <tile/>
   <tile/>
   <tile/>
   <tile/>
   <tile/>
   <tile/>
   <tile/>
   <tile/>
   <tile/>
   <tile/>
   <tile/>
   <tile/>
   <tile/>
   <tile/>
   <tile/>
   <tile/>
   <tile/>
   <tile/>
   <tile/>
   <tile/>
   <tile/>
   <tile/>
   <tile/>
   <tile/>
   <tile/>
   <tile/>
   <tile/>
   <tile/>
   <tile/>
   <tile/>
   <tile/>
   <tile/>
   <tile/>
   <tile/>
   <tile/>
   <tile/>
   <tile/>
   <tile/>
   <tile/>
   <tile/>
   <tile/>
   <tile/>
   <tile/>
   <tile/>
   <tile/>
   <tile/>
   <tile/>
   <tile/>
   <tile/>
   <tile/>
   <tile/>
   <tile/>
   <tile/>
   <tile/>
   <tile/>
   <tile/>
   <tile/>
   <tile/>
   <tile/>
   <tile/>
   <tile/>
   <tile gid="65"/>
   <tile gid="65"/>
   <tile gid="65"/>
   <tile gid="65"/>
   <tile gid="65"/>
   <tile gid="65"/>
   <tile gid="65"/>
   <tile gid="65"/>
   <tile/>
   <tile/>
   <tile/>
   <tile/>
   <tile/>
   <tile/>
   <tile/>
   <tile/>
   <tile/>
   <tile/>
   <tile/>
   <tile/>
   <tile/>
   <tile/>
   <tile/>
   <tile/>
   <tile/>
   <tile/>
   <tile/>
   <tile/>
   <tile/>
   <tile/>
   <tile/>
   <tile/>
   <tile/>
   <tile/>
   <tile/>
   <tile/>
   <tile/>
   <tile/>
   <tile/>
   <tile/>
   <tile/>
   <tile/>
   <tile/>
   <tile/>
   <tile/>
   <tile/>
   <tile/>
   <tile/>
   <tile/>
   <tile/>
   <tile gid="66"/>
   <tile gid="66"/>
   <tile/>
   <tile/>
   <tile/>
   <tile/>
   <tile/>
   <tile/>
   <tile/>
   <tile/>
   <tile/>
   <tile/>
   <tile/>
   <tile gid="65"/>
   <tile gid="65"/>
   <tile/>
   <tile/>
   <tile/>
   <tile/>
   <tile/>
   <tile/>
   <tile/>
   <tile/>
   <tile/>
   <tile/>
   <tile/>
   <tile/>
   <tile/>
   <tile/>
   <tile/>
   <tile/>
   <tile/>
   <tile/>
   <tile/>
   <tile/>
   <tile/>
   <tile/>
   <tile/>
   <tile/>
   <tile/>
   <tile/>
   <tile/>
   <tile/>
   <tile/>
   <tile/>
   <tile/>
   <tile/>
   <tile/>
   <tile/>
   <tile/>
   <tile/>
   <tile/>
   <tile/>
   <tile/>
   <tile/>
   <tile/>
   <tile/>
   <tile/>
   <tile/>
   <tile/>
   <tile/>
   <tile/>
   <tile/>
   <tile/>
   <tile/>
   <tile/>
   <tile/>
   <tile/>
   <tile/>
   <tile/>
   <tile/>
   <tile/>
   <tile/>
   <tile/>
   <tile/>
   <tile/>
   <tile/>
   <tile gid="65"/>
   <tile gid="65"/>
   <tile gid="65"/>
   <tile gid="65"/>
   <tile gid="65"/>
   <tile gid="65"/>
   <tile/>
   <tile/>
   <tile/>
   <tile/>
   <tile/>
   <tile/>
   <tile/>
   <tile/>
   <tile/>
   <tile/>
   <tile/>
   <tile/>
   <tile/>
   <tile/>
   <tile/>
   <tile/>
   <tile/>
   <tile/>
   <tile/>
   <tile/>
   <tile/>
   <tile/>
   <tile/>
   <tile/>
   <tile/>
   <tile/>
   <tile/>
   <tile/>
   <tile/>
   <tile/>
   <tile/>
   <tile/>
   <tile/>
   <tile/>
   <tile/>
   <tile/>
   <tile/>
   <tile/>
   <tile/>
   <tile/>
   <tile/>
   <tile/>
   <tile/>
   <tile/>
   <tile gid="66"/>
   <tile gid="66"/>
   <tile/>
   <tile/>
   <tile/>
   <tile/>
   <tile/>
   <tile/>
   <tile/>
   <tile/>
   <tile/>
   <tile/>
   <tile/>
   <tile gid="65"/>
   <tile gid="65"/>
   <tile/>
   <tile/>
   <tile/>
   <tile/>
   <tile/>
   <tile/>
   <tile/>
   <tile/>
   <tile/>
   <tile/>
   <tile/>
   <tile/>
   <tile/>
   <tile/>
   <tile/>
   <tile/>
   <tile/>
   <tile/>
   <tile/>
   <tile/>
   <tile/>
   <tile/>
   <tile/>
   <tile/>
   <tile/>
   <tile/>
   <tile/>
   <tile/>
   <tile/>
   <tile/>
   <tile/>
   <tile/>
   <tile/>
   <tile/>
   <tile/>
   <tile/>
   <tile/>
   <tile/>
   <tile/>
   <tile/>
   <tile/>
   <tile/>
   <tile/>
   <tile/>
   <tile/>
   <tile/>
   <tile/>
   <tile/>
   <tile/>
   <tile/>
   <tile/>
   <tile/>
   <tile/>
   <tile/>
   <tile/>
   <tile/>
   <tile/>
   <tile/>
   <tile/>
   <tile/>
   <tile/>
   <tile/>
   <tile gid="65"/>
   <tile gid="65"/>
   <tile gid="65"/>
   <tile gid="65"/>
   <tile/>
   <tile/>
   <tile/>
   <tile/>
   <tile/>
   <tile/>
   <tile/>
   <tile/>
   <tile/>
   <tile/>
   <tile/>
   <tile/>
   <tile/>
   <tile/>
   <tile/>
   <tile/>
   <tile/>
   <tile/>
   <tile/>
   <tile/>
   <tile/>
   <tile/>
   <tile/>
   <tile/>
   <tile/>
   <tile/>
   <tile/>
   <tile/>
   <tile/>
   <tile/>
   <tile/>
   <tile/>
   <tile/>
   <tile/>
   <tile/>
   <tile/>
   <tile/>
   <tile/>
   <tile/>
   <tile/>
   <tile/>
   <tile/>
   <tile/>
   <tile/>
   <tile/>
   <tile/>
   <tile gid="66"/>
   <tile gid="66"/>
   <tile/>
   <tile/>
   <tile/>
   <tile/>
   <tile/>
   <tile/>
   <tile/>
   <tile/>
   <tile/>
   <tile/>
   <tile/>
   <tile gid="65"/>
   <tile gid="65"/>
   <tile/>
   <tile/>
   <tile/>
   <tile/>
   <tile/>
   <tile/>
   <tile/>
   <tile/>
   <tile/>
   <tile/>
   <tile/>
   <tile/>
   <tile/>
   <tile/>
   <tile/>
   <tile/>
   <tile/>
   <tile/>
   <tile/>
   <tile/>
   <tile/>
   <tile/>
   <tile/>
   <tile/>
   <tile/>
   <tile/>
   <tile/>
   <tile/>
   <tile/>
   <tile/>
   <tile/>
   <tile/>
   <tile/>
   <tile/>
   <tile/>
   <tile/>
   <tile/>
   <tile/>
   <tile/>
   <tile/>
   <tile/>
   <tile/>
   <tile/>
   <tile/>
   <tile/>
   <tile/>
   <tile/>
   <tile/>
   <tile/>
   <tile/>
   <tile/>
   <tile/>
   <tile/>
   <tile/>
   <tile/>
   <tile/>
   <tile/>
   <tile/>
   <tile/>
   <tile/>
   <tile/>
   <tile/>
   <tile gid="65"/>
   <tile gid="65"/>
   <tile/>
   <tile/>
   <tile/>
   <tile/>
   <tile/>
   <tile/>
   <tile/>
   <tile/>
   <tile/>
   <tile/>
   <tile/>
   <tile/>
   <tile/>
   <tile/>
   <tile/>
   <tile/>
   <tile/>
   <tile/>
   <tile/>
   <tile/>
   <tile/>
   <tile/>
   <tile/>
   <tile/>
   <tile/>
   <tile/>
   <tile/>
   <tile/>
   <tile/>
   <tile/>
   <tile/>
   <tile/>
   <tile/>
   <tile/>
   <tile/>
   <tile/>
   <tile/>
   <tile/>
   <tile/>
   <tile/>
   <tile/>
   <tile/>
   <tile/>
   <tile/>
   <tile/>
   <tile/>
   <tile/>
   <tile/>
   <tile gid="65"/>
   <tile gid="65"/>
   <tile gid="65"/>
   <tile gid="65"/>
   <tile gid="65"/>
   <tile gid="65"/>
   <tile gid="65"/>
   <tile gid="65"/>
   <tile gid="65"/>
   <tile gid="65"/>
   <tile gid="65"/>
   <tile gid="65"/>
   <tile gid="65"/>
   <tile gid="65"/>
   <tile gid="65"/>
   <tile/>
   <tile/>
   <tile/>
   <tile/>
   <tile/>
   <tile/>
   <tile/>
   <tile/>
   <tile/>
   <tile/>
   <tile/>
   <tile/>
   <tile/>
   <tile/>
   <tile/>
   <tile/>
   <tile/>
   <tile/>
   <tile/>
   <tile/>
   <tile/>
   <tile/>
   <tile/>
   <tile/>
   <tile/>
   <tile/>
   <tile/>
   <tile/>
   <tile/>
   <tile/>
   <tile/>
   <tile/>
   <tile/>
   <tile/>
   <tile/>
   <tile/>
   <tile/>
   <tile/>
   <tile/>
   <tile/>
   <tile/>
   <tile/>
   <tile/>
   <tile/>
   <tile/>
   <tile/>
   <tile/>
   <tile/>
   <tile/>
   <tile/>
   <tile/>
   <tile/>
   <tile/>
   <tile/>
   <tile/>
   <tile/>
   <tile/>
   <tile/>
   <tile/>
   <tile/>
   <tile/>
   <tile/>
   <tile gid="65"/>
   <tile gid="65"/>
   <tile/>
   <tile/>
   <tile/>
   <tile/>
   <tile/>
   <tile/>
   <tile/>
   <tile/>
   <tile/>
   <tile/>
   <tile/>
   <tile/>
   <tile/>
   <tile/>
   <tile/>
   <tile/>
   <tile/>
   <tile/>
   <tile/>
   <tile/>
   <tile/>
   <tile/>
   <tile/>
   <tile/>
   <tile/>
   <tile/>
   <tile/>
   <tile/>
   <tile/>
   <tile/>
   <tile/>
   <tile/>
   <tile/>
   <tile/>
   <tile/>
   <tile/>
   <tile/>
   <tile/>
   <tile/>
   <tile/>
   <tile/>
   <tile/>
   <tile/>
   <tile/>
   <tile/>
   <tile/>
   <tile/>
   <tile/>
   <tile gid="65"/>
   <tile gid="65"/>
   <tile gid="65"/>
   <tile gid="65"/>
   <tile gid="65"/>
   <tile gid="65"/>
   <tile gid="65"/>
   <tile gid="65"/>
   <tile gid="65"/>
   <tile gid="65"/>
   <tile gid="65"/>
   <tile gid="65"/>
   <tile gid="65"/>
   <tile gid="65"/>
   <tile gid="65"/>
   <tile/>
   <tile/>
   <tile/>
   <tile/>
   <tile/>
   <tile/>
   <tile/>
   <tile/>
   <tile/>
   <tile/>
   <tile/>
   <tile/>
   <tile/>
   <tile/>
   <tile/>
   <tile/>
   <tile/>
   <tile/>
   <tile/>
   <tile/>
   <tile/>
   <tile/>
   <tile/>
   <tile/>
   <tile/>
   <tile/>
   <tile/>
   <tile/>
   <tile/>
   <tile/>
   <tile/>
   <tile/>
   <tile/>
   <tile/>
   <tile/>
   <tile/>
   <tile/>
   <tile/>
   <tile/>
   <tile/>
   <tile/>
   <tile/>
   <tile/>
   <tile/>
   <tile/>
   <tile/>
   <tile/>
   <tile/>
   <tile/>
   <tile/>
   <tile/>
   <tile/>
   <tile/>
   <tile/>
   <tile/>
   <tile/>
   <tile/>
   <tile/>
   <tile/>
   <tile/>
   <tile/>
   <tile/>
   <tile gid="65"/>
   <tile gid="65"/>
   <tile/>
   <tile/>
   <tile/>
   <tile/>
   <tile/>
   <tile/>
   <tile/>
   <tile/>
   <tile/>
   <tile/>
   <tile/>
   <tile/>
   <tile/>
   <tile/>
   <tile/>
   <tile/>
   <tile/>
   <tile/>
   <tile/>
   <tile/>
   <tile/>
   <tile/>
   <tile/>
   <tile/>
   <tile/>
   <tile/>
   <tile/>
   <tile/>
   <tile/>
   <tile/>
   <tile/>
   <tile/>
   <tile/>
   <tile/>
   <tile/>
   <tile/>
   <tile/>
   <tile/>
   <tile/>
   <tile/>
   <tile/>
   <tile/>
   <tile/>
   <tile/>
   <tile/>
   <tile/>
   <tile/>
   <tile/>
   <tile gid="65"/>
   <tile gid="65"/>
   <tile gid="65"/>
   <tile gid="65"/>
   <tile gid="65"/>
   <tile gid="65"/>
   <tile gid="65"/>
   <tile gid="65"/>
   <tile gid="65"/>
   <tile gid="65"/>
   <tile gid="65"/>
   <tile gid="65"/>
   <tile gid="65"/>
   <tile gid="65"/>
   <tile gid="65"/>
   <tile/>
   <tile/>
   <tile/>
   <tile/>
   <tile/>
   <tile/>
   <tile/>
   <tile/>
   <tile/>
   <tile/>
   <tile/>
   <tile/>
   <tile/>
   <tile/>
   <tile/>
   <tile/>
   <tile/>
   <tile/>
   <tile/>
   <tile/>
   <tile/>
   <tile/>
   <tile/>
   <tile/>
   <tile/>
   <tile/>
   <tile/>
   <tile/>
   <tile/>
   <tile/>
   <tile/>
   <tile/>
   <tile/>
   <tile/>
   <tile/>
   <tile/>
   <tile/>
   <tile/>
   <tile/>
   <tile/>
   <tile/>
   <tile/>
   <tile/>
   <tile/>
   <tile/>
   <tile/>
   <tile/>
   <tile/>
   <tile/>
   <tile/>
   <tile/>
   <tile/>
   <tile/>
   <tile/>
   <tile/>
   <tile/>
   <tile/>
   <tile/>
   <tile/>
   <tile/>
   <tile/>
   <tile/>
   <tile gid="65"/>
   <tile gid="65"/>
   <tile/>
   <tile/>
   <tile/>
   <tile/>
   <tile/>
   <tile/>
   <tile/>
   <tile/>
   <tile/>
   <tile/>
   <tile/>
   <tile/>
   <tile/>
   <tile/>
   <tile/>
   <tile/>
   <tile/>
   <tile/>
   <tile/>
   <tile/>
   <tile/>
   <tile/>
   <tile/>
   <tile/>
   <tile/>
   <tile/>
   <tile/>
   <tile/>
   <tile/>
   <tile/>
   <tile/>
   <tile/>
   <tile/>
   <tile/>
   <tile/>
   <tile/>
   <tile/>
   <tile/>
   <tile/>
   <tile/>
   <tile/>
   <tile/>
   <tile/>
   <tile/>
   <tile/>
   <tile/>
   <tile/>
   <tile/>
   <tile gid="65"/>
   <tile gid="65"/>
   <tile gid="65"/>
   <tile gid="65"/>
   <tile gid="65"/>
   <tile gid="65"/>
   <tile gid="65"/>
   <tile gid="65"/>
   <tile gid="65"/>
   <tile gid="65"/>
   <tile gid="65"/>
   <tile gid="65"/>
   <tile gid="65"/>
   <tile gid="65"/>
   <tile gid="65"/>
   <tile/>
   <tile/>
   <tile/>
   <tile/>
   <tile/>
   <tile/>
   <tile/>
   <tile/>
   <tile/>
   <tile/>
   <tile/>
   <tile/>
   <tile/>
   <tile/>
   <tile/>
   <tile/>
   <tile/>
   <tile/>
   <tile/>
   <tile/>
   <tile/>
   <tile/>
   <tile/>
   <tile/>
   <tile/>
   <tile/>
   <tile/>
   <tile/>
   <tile/>
   <tile/>
   <tile/>
   <tile/>
   <tile/>
   <tile/>
   <tile/>
   <tile/>
   <tile/>
   <tile/>
   <tile/>
   <tile/>
   <tile/>
   <tile/>
   <tile/>
   <tile/>
   <tile/>
   <tile/>
   <tile/>
   <tile/>
   <tile/>
   <tile/>
   <tile/>
   <tile/>
   <tile/>
   <tile/>
   <tile/>
   <tile/>
   <tile/>
   <tile/>
   <tile/>
   <tile/>
   <tile/>
   <tile/>
   <tile gid="65"/>
   <tile gid="65"/>
   <tile/>
   <tile/>
   <tile/>
   <tile/>
   <tile/>
   <tile/>
   <tile/>
   <tile/>
   <tile/>
   <tile/>
   <tile/>
   <tile/>
   <tile/>
   <tile/>
   <tile/>
   <tile/>
   <tile/>
   <tile/>
   <tile/>
   <tile/>
   <tile/>
   <tile/>
   <tile/>
   <tile/>
   <tile/>
   <tile/>
   <tile/>
   <tile/>
   <tile/>
   <tile/>
   <tile/>
   <tile/>
   <tile/>
   <tile/>
   <tile/>
   <tile/>
   <tile/>
   <tile/>
   <tile/>
   <tile/>
   <tile/>
   <tile/>
   <tile/>
   <tile/>
   <tile/>
   <tile/>
   <tile/>
   <tile/>
   <tile gid="65"/>
   <tile gid="65"/>
   <tile gid="65"/>
   <tile gid="65"/>
   <tile gid="65"/>
   <tile gid="65"/>
   <tile gid="65"/>
   <tile gid="65"/>
   <tile gid="65"/>
   <tile gid="65"/>
   <tile gid="65"/>
   <tile gid="65"/>
   <tile gid="65"/>
   <tile gid="65"/>
   <tile gid="65"/>
   <tile/>
   <tile/>
   <tile/>
   <tile/>
   <tile/>
   <tile/>
   <tile/>
   <tile/>
   <tile/>
   <tile/>
   <tile/>
   <tile/>
   <tile/>
   <tile/>
   <tile/>
   <tile/>
   <tile/>
   <tile/>
   <tile/>
   <tile/>
   <tile/>
   <tile/>
   <tile/>
   <tile/>
   <tile/>
   <tile/>
   <tile/>
   <tile/>
   <tile/>
   <tile/>
   <tile/>
   <tile/>
   <tile/>
   <tile/>
   <tile/>
   <tile/>
   <tile/>
   <tile/>
   <tile/>
   <tile/>
   <tile/>
   <tile/>
   <tile/>
   <tile/>
   <tile/>
   <tile/>
   <tile/>
   <tile/>
   <tile/>
   <tile/>
   <tile/>
   <tile/>
   <tile/>
   <tile/>
   <tile/>
   <tile/>
   <tile/>
   <tile/>
   <tile/>
   <tile/>
   <tile/>
   <tile/>
   <tile gid="65"/>
   <tile gid="65"/>
   <tile/>
   <tile/>
   <tile/>
   <tile/>
   <tile/>
   <tile/>
   <tile/>
   <tile/>
   <tile/>
   <tile/>
   <tile/>
   <tile/>
   <tile/>
   <tile/>
   <tile/>
   <tile/>
   <tile/>
   <tile/>
   <tile/>
   <tile/>
   <tile/>
   <tile/>
   <tile/>
   <tile/>
   <tile/>
   <tile/>
   <tile/>
   <tile/>
   <tile/>
   <tile/>
   <tile/>
   <tile/>
   <tile/>
   <tile/>
   <tile/>
   <tile/>
   <tile/>
   <tile/>
   <tile/>
   <tile/>
   <tile/>
   <tile/>
   <tile/>
   <tile/>
   <tile/>
   <tile/>
   <tile/>
   <tile/>
   <tile gid="65"/>
   <tile gid="65"/>
   <tile gid="65"/>
   <tile gid="65"/>
   <tile gid="65"/>
   <tile gid="65"/>
   <tile gid="65"/>
   <tile gid="65"/>
   <tile gid="65"/>
   <tile gid="65"/>
   <tile gid="65"/>
   <tile gid="65"/>
   <tile gid="65"/>
   <tile gid="65"/>
   <tile gid="65"/>
   <tile/>
   <tile/>
   <tile/>
   <tile/>
   <tile/>
   <tile/>
   <tile/>
   <tile/>
   <tile/>
   <tile/>
   <tile/>
   <tile/>
   <tile/>
   <tile/>
   <tile/>
   <tile/>
   <tile/>
   <tile/>
   <tile/>
   <tile/>
   <tile/>
   <tile/>
   <tile/>
   <tile/>
   <tile/>
   <tile/>
   <tile/>
   <tile/>
   <tile/>
   <tile/>
   <tile/>
   <tile/>
   <tile/>
   <tile/>
   <tile/>
   <tile/>
   <tile gid="65"/>
   <tile gid="65"/>
   <tile gid="65"/>
   <tile gid="65"/>
   <tile gid="65"/>
   <tile gid="65"/>
   <tile gid="65"/>
   <tile gid="65"/>
   <tile gid="65"/>
   <tile gid="65"/>
   <tile gid="65"/>
   <tile gid="65"/>
   <tile gid="65"/>
   <tile gid="65"/>
   <tile gid="65"/>
   <tile gid="65"/>
   <tile gid="65"/>
   <tile gid="65"/>
   <tile gid="65"/>
   <tile gid="65"/>
   <tile gid="65"/>
   <tile gid="65"/>
   <tile gid="65"/>
   <tile gid="65"/>
   <tile gid="65"/>
   <tile gid="65"/>
   <tile gid="65"/>
   <tile gid="65"/>
   <tile gid="65"/>
   <tile gid="65"/>
   <tile gid="65"/>
   <tile gid="65"/>
   <tile gid="65"/>
   <tile gid="65"/>
   <tile gid="65"/>
   <tile gid="65"/>
   <tile gid="65"/>
   <tile gid="65"/>
   <tile gid="65"/>
   <tile gid="65"/>
   <tile gid="65"/>
   <tile gid="65"/>
   <tile gid="65"/>
   <tile gid="65"/>
   <tile gid="65"/>
   <tile gid="65"/>
   <tile gid="65"/>
   <tile gid="65"/>
   <tile gid="65"/>
   <tile gid="65"/>
   <tile gid="65"/>
   <tile gid="65"/>
   <tile gid="65"/>
   <tile gid="65"/>
   <tile gid="65"/>
   <tile gid="65"/>
   <tile gid="65"/>
   <tile gid="65"/>
   <tile gid="65"/>
   <tile gid="65"/>
   <tile gid="65"/>
   <tile gid="65"/>
   <tile gid="65"/>
   <tile gid="65"/>
   <tile gid="65"/>
   <tile gid="65"/>
   <tile gid="65"/>
   <tile gid="65"/>
   <tile gid="65"/>
   <tile gid="65"/>
   <tile gid="65"/>
   <tile gid="65"/>
   <tile gid="65"/>
   <tile gid="65"/>
   <tile gid="65"/>
   <tile gid="65"/>
   <tile gid="65"/>
   <tile gid="65"/>
   <tile gid="65"/>
   <tile gid="65"/>
   <tile gid="65"/>
   <tile gid="65"/>
   <tile gid="65"/>
   <tile gid="65"/>
   <tile gid="65"/>
   <tile gid="65"/>
   <tile gid="65"/>
   <tile gid="65"/>
   <tile gid="65"/>
   <tile gid="65"/>
   <tile gid="65"/>
   <tile/>
   <tile/>
   <tile/>
   <tile/>
   <tile/>
   <tile/>
   <tile/>
   <tile/>
   <tile/>
   <tile/>
   <tile/>
   <tile/>
   <tile/>
   <tile/>
   <tile/>
   <tile/>
   <tile/>
   <tile/>
   <tile/>
   <tile/>
   <tile/>
   <tile/>
   <tile/>
   <tile/>
   <tile/>
   <tile/>
   <tile/>
   <tile/>
   <tile/>
   <tile/>
   <tile/>
   <tile/>
   <tile/>
   <tile/>
   <tile/>
   <tile/>
   <tile gid="65"/>
   <tile gid="65"/>
   <tile gid="65"/>
   <tile gid="65"/>
   <tile gid="65"/>
   <tile gid="65"/>
   <tile gid="65"/>
   <tile gid="65"/>
   <tile gid="65"/>
   <tile gid="65"/>
   <tile gid="65"/>
   <tile gid="65"/>
   <tile gid="65"/>
   <tile gid="65"/>
   <tile gid="65"/>
   <tile gid="65"/>
   <tile gid="65"/>
   <tile gid="65"/>
   <tile gid="65"/>
   <tile gid="65"/>
   <tile gid="65"/>
   <tile gid="65"/>
   <tile gid="65"/>
   <tile gid="65"/>
   <tile gid="65"/>
   <tile gid="65"/>
   <tile gid="65"/>
   <tile gid="65"/>
   <tile gid="65"/>
   <tile gid="65"/>
   <tile gid="65"/>
   <tile gid="65"/>
   <tile gid="65"/>
   <tile gid="65"/>
   <tile gid="65"/>
   <tile gid="65"/>
   <tile gid="65"/>
   <tile gid="65"/>
   <tile gid="65"/>
   <tile gid="65"/>
   <tile gid="65"/>
   <tile gid="65"/>
   <tile gid="65"/>
   <tile gid="65"/>
   <tile gid="65"/>
   <tile gid="65"/>
   <tile gid="65"/>
   <tile gid="65"/>
   <tile gid="65"/>
   <tile gid="65"/>
   <tile gid="65"/>
   <tile gid="65"/>
   <tile gid="65"/>
   <tile gid="65"/>
   <tile gid="65"/>
   <tile gid="65"/>
   <tile gid="65"/>
   <tile gid="65"/>
   <tile gid="65"/>
   <tile gid="65"/>
   <tile gid="65"/>
   <tile gid="65"/>
   <tile gid="65"/>
   <tile gid="65"/>
   <tile gid="65"/>
   <tile gid="65"/>
   <tile gid="65"/>
   <tile gid="65"/>
   <tile gid="65"/>
   <tile gid="65"/>
   <tile gid="65"/>
   <tile gid="65"/>
   <tile gid="65"/>
   <tile gid="65"/>
   <tile gid="65"/>
   <tile gid="65"/>
   <tile gid="65"/>
   <tile gid="65"/>
   <tile gid="65"/>
   <tile gid="65"/>
   <tile gid="65"/>
   <tile gid="65"/>
   <tile gid="65"/>
   <tile gid="65"/>
   <tile gid="65"/>
   <tile gid="65"/>
   <tile gid="65"/>
   <tile gid="65"/>
   <tile gid="65"/>
   <tile gid="65"/>
   <tile gid="65"/>
   <tile/>
   <tile/>
   <tile/>
   <tile/>
   <tile/>
   <tile/>
   <tile/>
   <tile/>
   <tile/>
   <tile/>
   <tile/>
   <tile/>
   <tile/>
   <tile/>
   <tile/>
   <tile/>
   <tile/>
   <tile/>
   <tile/>
   <tile/>
   <tile/>
   <tile/>
   <tile/>
   <tile/>
   <tile/>
   <tile/>
   <tile/>
   <tile/>
   <tile/>
   <tile/>
   <tile/>
   <tile/>
   <tile/>
   <tile/>
   <tile/>
   <tile/>
   <tile gid="65"/>
   <tile gid="65"/>
   <tile gid="65"/>
   <tile gid="65"/>
   <tile gid="65"/>
   <tile gid="65"/>
   <tile gid="65"/>
   <tile gid="65"/>
   <tile gid="65"/>
   <tile gid="65"/>
   <tile gid="65"/>
   <tile gid="65"/>
   <tile gid="65"/>
   <tile gid="65"/>
   <tile gid="65"/>
   <tile gid="65"/>
   <tile gid="65"/>
   <tile gid="65"/>
   <tile gid="65"/>
   <tile gid="65"/>
   <tile gid="65"/>
   <tile gid="65"/>
   <tile gid="65"/>
   <tile gid="65"/>
   <tile gid="65"/>
   <tile gid="65"/>
   <tile gid="65"/>
   <tile gid="65"/>
   <tile gid="65"/>
   <tile gid="65"/>
   <tile gid="65"/>
   <tile gid="65"/>
   <tile gid="65"/>
   <tile gid="65"/>
   <tile gid="65"/>
   <tile gid="65"/>
   <tile gid="65"/>
   <tile gid="65"/>
   <tile gid="65"/>
   <tile gid="65"/>
   <tile gid="65"/>
   <tile gid="65"/>
   <tile gid="65"/>
   <tile gid="65"/>
   <tile gid="65"/>
   <tile gid="65"/>
   <tile gid="65"/>
   <tile gid="65"/>
   <tile gid="65"/>
   <tile gid="65"/>
   <tile gid="65"/>
   <tile gid="65"/>
   <tile gid="65"/>
   <tile gid="65"/>
   <tile gid="65"/>
   <tile gid="65"/>
   <tile gid="65"/>
   <tile gid="65"/>
   <tile gid="65"/>
   <tile gid="65"/>
   <tile gid="65"/>
   <tile gid="65"/>
   <tile gid="65"/>
   <tile gid="65"/>
   <tile gid="65"/>
   <tile gid="65"/>
   <tile gid="65"/>
   <tile gid="65"/>
   <tile gid="65"/>
   <tile gid="65"/>
   <tile gid="65"/>
   <tile gid="65"/>
   <tile gid="65"/>
   <tile gid="65"/>
   <tile gid="65"/>
   <tile gid="65"/>
   <tile gid="65"/>
   <tile gid="65"/>
   <tile gid="65"/>
   <tile gid="65"/>
   <tile gid="65"/>
   <tile gid="65"/>
   <tile gid="65"/>
   <tile gid="65"/>
   <tile gid="65"/>
   <tile gid="65"/>
   <tile gid="65"/>
   <tile gid="65"/>
   <tile gid="65"/>
   <tile gid="65"/>
   <tile gid="65"/>
   <tile/>
   <tile/>
   <tile/>
   <tile/>
   <tile/>
   <tile/>
   <tile/>
   <tile/>
   <tile/>
   <tile/>
   <tile/>
   <tile/>
   <tile/>
   <tile/>
   <tile/>
   <tile/>
   <tile/>
   <tile/>
   <tile/>
   <tile/>
   <tile/>
   <tile/>
   <tile/>
   <tile/>
   <tile/>
   <tile/>
   <tile/>
   <tile/>
   <tile/>
   <tile/>
   <tile/>
   <tile/>
   <tile/>
   <tile gid="65"/>
   <tile gid="65"/>
   <tile gid="65"/>
   <tile gid="65"/>
   <tile gid="65"/>
   <tile gid="65"/>
   <tile gid="65"/>
   <tile gid="65"/>
   <tile gid="65"/>
   <tile gid="65"/>
   <tile gid="65"/>
   <tile gid="65"/>
   <tile gid="65"/>
   <tile gid="65"/>
   <tile gid="65"/>
   <tile gid="65"/>
   <tile gid="65"/>
   <tile gid="65"/>
   <tile gid="65"/>
   <tile gid="65"/>
   <tile gid="65"/>
   <tile gid="65"/>
   <tile gid="65"/>
   <tile gid="65"/>
   <tile gid="65"/>
   <tile gid="65"/>
   <tile gid="65"/>
   <tile gid="65"/>
   <tile gid="65"/>
   <tile gid="65"/>
   <tile gid="65"/>
   <tile gid="65"/>
   <tile gid="65"/>
   <tile gid="65"/>
   <tile gid="65"/>
   <tile gid="65"/>
   <tile gid="65"/>
   <tile gid="65"/>
   <tile gid="65"/>
   <tile gid="65"/>
   <tile gid="65"/>
   <tile gid="65"/>
   <tile gid="65"/>
   <tile gid="65"/>
   <tile gid="65"/>
   <tile gid="65"/>
   <tile gid="65"/>
   <tile gid="65"/>
   <tile gid="65"/>
   <tile gid="65"/>
   <tile gid="65"/>
   <tile gid="65"/>
   <tile gid="65"/>
   <tile gid="65"/>
   <tile gid="65"/>
   <tile gid="65"/>
   <tile gid="65"/>
   <tile gid="65"/>
   <tile gid="65"/>
   <tile gid="65"/>
   <tile gid="65"/>
   <tile gid="65"/>
   <tile gid="65"/>
   <tile gid="65"/>
   <tile gid="65"/>
   <tile gid="65"/>
   <tile gid="65"/>
   <tile gid="65"/>
   <tile gid="65"/>
   <tile gid="65"/>
   <tile gid="65"/>
   <tile gid="65"/>
   <tile gid="65"/>
   <tile gid="65"/>
   <tile gid="65"/>
   <tile gid="65"/>
   <tile gid="65"/>
   <tile gid="65"/>
   <tile gid="65"/>
   <tile gid="65"/>
   <tile gid="65"/>
   <tile gid="65"/>
   <tile gid="65"/>
   <tile gid="65"/>
   <tile gid="65"/>
   <tile gid="65"/>
   <tile gid="65"/>
   <tile gid="65"/>
   <tile gid="65"/>
   <tile gid="65"/>
   <tile gid="65"/>
   <tile gid="65"/>
   <tile gid="65"/>
   <tile gid="65"/>
   <tile/>
   <tile/>
   <tile/>
   <tile/>
   <tile/>
   <tile/>
   <tile/>
   <tile/>
   <tile/>
   <tile/>
   <tile/>
   <tile/>
   <tile/>
   <tile/>
   <tile/>
   <tile/>
   <tile/>
   <tile/>
   <tile/>
   <tile/>
   <tile/>
   <tile/>
   <tile/>
   <tile/>
   <tile/>
   <tile/>
   <tile/>
   <tile/>
   <tile/>
   <tile/>
   <tile/>
   <tile/>
   <tile/>
   <tile gid="65"/>
   <tile gid="65"/>
   <tile gid="65"/>
   <tile gid="65"/>
   <tile gid="65"/>
   <tile gid="65"/>
   <tile gid="65"/>
   <tile gid="65"/>
   <tile gid="65"/>
   <tile gid="65"/>
   <tile gid="65"/>
   <tile gid="65"/>
   <tile gid="65"/>
   <tile gid="65"/>
   <tile gid="65"/>
   <tile gid="65"/>
   <tile gid="65"/>
   <tile gid="65"/>
   <tile gid="65"/>
   <tile gid="65"/>
   <tile gid="65"/>
   <tile gid="65"/>
   <tile gid="65"/>
   <tile gid="65"/>
   <tile gid="65"/>
   <tile gid="65"/>
   <tile gid="65"/>
   <tile gid="65"/>
   <tile gid="65"/>
   <tile gid="65"/>
   <tile gid="65"/>
   <tile gid="65"/>
   <tile gid="65"/>
   <tile gid="65"/>
   <tile gid="65"/>
   <tile gid="65"/>
   <tile gid="65"/>
   <tile gid="65"/>
   <tile gid="65"/>
   <tile gid="65"/>
   <tile gid="65"/>
   <tile gid="65"/>
   <tile gid="65"/>
   <tile gid="65"/>
   <tile gid="65"/>
   <tile gid="65"/>
   <tile gid="65"/>
   <tile gid="65"/>
   <tile gid="65"/>
   <tile gid="65"/>
   <tile gid="65"/>
   <tile gid="65"/>
   <tile gid="65"/>
   <tile gid="65"/>
   <tile gid="65"/>
   <tile gid="65"/>
   <tile gid="65"/>
   <tile gid="65"/>
   <tile gid="65"/>
   <tile gid="65"/>
   <tile gid="65"/>
   <tile gid="65"/>
   <tile gid="65"/>
   <tile gid="65"/>
   <tile gid="65"/>
   <tile gid="65"/>
   <tile gid="65"/>
   <tile gid="65"/>
   <tile gid="65"/>
   <tile gid="65"/>
   <tile gid="65"/>
   <tile gid="65"/>
   <tile gid="65"/>
   <tile gid="65"/>
   <tile gid="65"/>
   <tile gid="65"/>
   <tile gid="65"/>
   <tile gid="65"/>
   <tile gid="65"/>
   <tile gid="65"/>
   <tile gid="65"/>
   <tile gid="65"/>
   <tile gid="65"/>
   <tile gid="65"/>
   <tile gid="65"/>
   <tile gid="65"/>
   <tile gid="65"/>
   <tile gid="65"/>
   <tile gid="65"/>
   <tile gid="65"/>
   <tile gid="65"/>
   <tile gid="65"/>
   <tile gid="65"/>
   <tile gid="65"/>
   <tile/>
   <tile/>
   <tile/>
   <tile/>
   <tile/>
   <tile/>
   <tile/>
   <tile/>
   <tile/>
   <tile/>
   <tile/>
   <tile/>
   <tile/>
   <tile/>
   <tile/>
   <tile/>
   <tile/>
   <tile/>
   <tile/>
   <tile/>
   <tile/>
   <tile gid="65"/>
   <tile gid="65"/>
   <tile gid="65"/>
   <tile gid="65"/>
   <tile gid="65"/>
   <tile gid="65"/>
   <tile gid="65"/>
   <tile gid="65"/>
   <tile gid="65"/>
   <tile gid="65"/>
   <tile gid="65"/>
   <tile gid="65"/>
   <tile gid="65"/>
   <tile gid="65"/>
   <tile gid="65"/>
   <tile gid="65"/>
   <tile gid="65"/>
   <tile gid="65"/>
   <tile/>
   <tile/>
   <tile/>
   <tile/>
   <tile/>
   <tile/>
   <tile/>
   <tile/>
   <tile/>
   <tile/>
   <tile/>
   <tile/>
   <tile/>
   <tile/>
   <tile/>
   <tile/>
   <tile/>
   <tile/>
   <tile/>
   <tile/>
   <tile/>
   <tile/>
   <tile/>
   <tile/>
   <tile/>
   <tile/>
   <tile/>
   <tile/>
   <tile/>
   <tile/>
   <tile/>
   <tile/>
   <tile/>
   <tile/>
   <tile/>
   <tile/>
   <tile/>
   <tile/>
   <tile/>
   <tile/>
   <tile/>
   <tile/>
   <tile/>
   <tile/>
   <tile/>
   <tile/>
   <tile/>
   <tile/>
   <tile/>
   <tile/>
   <tile/>
   <tile/>
   <tile/>
   <tile/>
   <tile/>
   <tile/>
   <tile/>
   <tile/>
   <tile/>
   <tile/>
   <tile/>
   <tile/>
   <tile/>
   <tile/>
   <tile gid="65"/>
   <tile gid="65"/>
   <tile gid="65"/>
   <tile gid="65"/>
   <tile gid="65"/>
   <tile gid="65"/>
   <tile gid="65"/>
   <tile gid="65"/>
   <tile gid="65"/>
   <tile gid="65"/>
   <tile gid="65"/>
   <tile gid="65"/>
   <tile gid="65"/>
   <tile gid="65"/>
   <tile gid="65"/>
   <tile gid="65"/>
   <tile gid="65"/>
   <tile gid="65"/>
   <tile gid="65"/>
   <tile gid="65"/>
   <tile gid="65"/>
   <tile gid="65"/>
   <tile gid="65"/>
   <tile gid="65"/>
   <tile/>
   <tile/>
   <tile/>
   <tile/>
   <tile/>
   <tile/>
   <tile/>
   <tile/>
   <tile/>
   <tile/>
   <tile/>
   <tile/>
   <tile/>
   <tile/>
   <tile/>
   <tile/>
   <tile/>
   <tile/>
   <tile/>
   <tile/>
   <tile/>
   <tile gid="65"/>
   <tile gid="65"/>
   <tile gid="65"/>
   <tile gid="65"/>
   <tile gid="65"/>
   <tile gid="65"/>
   <tile gid="65"/>
   <tile gid="65"/>
   <tile gid="65"/>
   <tile gid="65"/>
   <tile gid="65"/>
   <tile gid="65"/>
   <tile gid="65"/>
   <tile gid="65"/>
   <tile gid="65"/>
   <tile gid="65"/>
   <tile gid="65"/>
   <tile gid="65"/>
   <tile/>
   <tile/>
   <tile/>
   <tile/>
   <tile/>
   <tile/>
   <tile/>
   <tile/>
   <tile/>
   <tile/>
   <tile/>
   <tile/>
   <tile/>
   <tile/>
   <tile/>
   <tile/>
   <tile/>
   <tile/>
   <tile/>
   <tile/>
   <tile/>
   <tile/>
   <tile/>
   <tile/>
   <tile/>
   <tile/>
   <tile/>
   <tile/>
   <tile/>
   <tile/>
   <tile/>
   <tile/>
   <tile/>
   <tile/>
   <tile/>
   <tile/>
   <tile/>
   <tile/>
   <tile/>
   <tile/>
   <tile/>
   <tile/>
   <tile/>
   <tile/>
   <tile/>
   <tile/>
   <tile/>
   <tile/>
   <tile/>
   <tile/>
   <tile/>
   <tile/>
   <tile/>
   <tile/>
   <tile/>
   <tile/>
   <tile/>
   <tile/>
   <tile/>
   <tile/>
   <tile/>
   <tile/>
   <tile/>
   <tile/>
   <tile gid="65"/>
   <tile gid="65"/>
   <tile gid="65"/>
   <tile gid="65"/>
   <tile gid="65"/>
   <tile gid="65"/>
   <tile gid="65"/>
   <tile gid="65"/>
   <tile gid="65"/>
   <tile gid="65"/>
   <tile gid="65"/>
   <tile gid="65"/>
   <tile gid="65"/>
   <tile gid="65"/>
   <tile gid="65"/>
   <tile gid="65"/>
   <tile gid="65"/>
   <tile gid="65"/>
   <tile gid="65"/>
   <tile gid="65"/>
   <tile gid="65"/>
   <tile gid="65"/>
   <tile gid="65"/>
   <tile gid="65"/>
   <tile/>
   <tile/>
   <tile/>
   <tile/>
   <tile/>
   <tile/>
   <tile/>
   <tile/>
   <tile/>
   <tile/>
   <tile/>
   <tile/>
   <tile/>
   <tile/>
   <tile/>
   <tile/>
   <tile/>
   <tile/>
   <tile/>
   <tile/>
   <tile/>
   <tile gid="65"/>
   <tile gid="65"/>
   <tile gid="65"/>
   <tile gid="65"/>
   <tile/>
   <tile/>
   <tile/>
   <tile/>
   <tile gid="65"/>
   <tile gid="65"/>
   <tile gid="65"/>
   <tile gid="65"/>
   <tile gid="65"/>
   <tile gid="65"/>
   <tile gid="65"/>
   <tile gid="65"/>
   <tile gid="65"/>
   <tile gid="65"/>
   <tile/>
   <tile/>
   <tile/>
   <tile/>
   <tile/>
   <tile/>
   <tile/>
   <tile/>
   <tile/>
   <tile/>
   <tile/>
   <tile/>
   <tile/>
   <tile/>
   <tile/>
   <tile/>
   <tile/>
   <tile/>
   <tile/>
   <tile/>
   <tile/>
   <tile/>
   <tile/>
   <tile/>
   <tile/>
   <tile/>
   <tile/>
   <tile/>
   <tile/>
   <tile/>
   <tile/>
   <tile/>
   <tile/>
   <tile/>
   <tile/>
   <tile/>
   <tile/>
   <tile/>
   <tile/>
   <tile/>
   <tile/>
   <tile/>
   <tile/>
   <tile/>
   <tile/>
   <tile/>
   <tile/>
   <tile/>
   <tile/>
   <tile/>
   <tile/>
   <tile/>
   <tile/>
   <tile/>
   <tile/>
   <tile/>
   <tile/>
   <tile/>
   <tile/>
   <tile/>
   <tile/>
   <tile/>
   <tile/>
   <tile/>
   <tile gid="65"/>
   <tile gid="65"/>
   <tile gid="65"/>
   <tile gid="65"/>
   <tile gid="65"/>
   <tile gid="65"/>
   <tile gid="65"/>
   <tile gid="65"/>
   <tile gid="65"/>
   <tile gid="65"/>
   <tile gid="65"/>
   <tile gid="65"/>
   <tile gid="65"/>
   <tile gid="65"/>
   <tile gid="65"/>
   <tile gid="65"/>
   <tile gid="65"/>
   <tile gid="65"/>
   <tile gid="65"/>
   <tile gid="65"/>
   <tile gid="65"/>
   <tile gid="65"/>
   <tile gid="65"/>
   <tile gid="65"/>
   <tile/>
   <tile/>
   <tile/>
   <tile/>
   <tile/>
   <tile/>
   <tile/>
   <tile/>
   <tile/>
   <tile/>
   <tile/>
   <tile/>
   <tile/>
   <tile/>
   <tile/>
   <tile/>
   <tile/>
   <tile/>
   <tile/>
   <tile gid="65"/>
   <tile gid="65"/>
   <tile gid="65"/>
   <tile gid="65"/>
   <tile gid="65"/>
   <tile gid="65"/>
   <tile/>
   <tile/>
   <tile/>
   <tile/>
   <tile gid="65"/>
   <tile gid="65"/>
   <tile gid="65"/>
   <tile gid="65"/>
   <tile gid="65"/>
   <tile gid="65"/>
   <tile gid="65"/>
   <tile gid="65"/>
   <tile gid="65"/>
   <tile gid="65"/>
   <tile/>
   <tile/>
   <tile/>
   <tile/>
   <tile/>
   <tile/>
   <tile/>
   <tile/>
   <tile/>
   <tile/>
   <tile/>
   <tile/>
   <tile/>
   <tile/>
   <tile/>
   <tile/>
   <tile/>
   <tile/>
   <tile/>
   <tile/>
   <tile/>
   <tile/>
   <tile/>
   <tile/>
   <tile/>
   <tile/>
   <tile/>
   <tile/>
   <tile/>
   <tile/>
   <tile/>
   <tile/>
   <tile/>
   <tile/>
   <tile/>
   <tile/>
   <tile/>
   <tile/>
   <tile/>
   <tile/>
   <tile/>
   <tile/>
   <tile/>
   <tile/>
   <tile/>
   <tile/>
   <tile/>
   <tile/>
   <tile/>
   <tile/>
   <tile/>
   <tile/>
   <tile/>
   <tile/>
   <tile/>
   <tile/>
   <tile/>
   <tile/>
   <tile/>
   <tile/>
   <tile/>
   <tile/>
   <tile/>
   <tile/>
   <tile gid="65"/>
   <tile gid="65"/>
   <tile gid="65"/>
   <tile gid="65"/>
   <tile gid="65"/>
   <tile gid="65"/>
   <tile gid="65"/>
   <tile gid="65"/>
   <tile gid="65"/>
   <tile gid="65"/>
   <tile gid="65"/>
   <tile gid="65"/>
   <tile gid="65"/>
   <tile gid="65"/>
   <tile gid="65"/>
   <tile gid="65"/>
   <tile gid="65"/>
   <tile gid="65"/>
   <tile gid="65"/>
   <tile gid="65"/>
   <tile gid="65"/>
   <tile gid="65"/>
   <tile gid="65"/>
   <tile gid="65"/>
   <tile/>
   <tile/>
   <tile/>
   <tile/>
   <tile/>
   <tile/>
   <tile/>
   <tile/>
   <tile/>
   <tile/>
   <tile/>
   <tile/>
   <tile/>
   <tile/>
   <tile/>
   <tile/>
   <tile/>
   <tile/>
   <tile/>
   <tile gid="65"/>
   <tile gid="65"/>
   <tile gid="65"/>
   <tile gid="65"/>
   <tile gid="65"/>
   <tile gid="65"/>
   <tile/>
   <tile/>
   <tile/>
   <tile/>
   <tile gid="65"/>
   <tile gid="65"/>
   <tile gid="65"/>
   <tile gid="65"/>
   <tile gid="65"/>
   <tile gid="65"/>
   <tile gid="65"/>
   <tile gid="65"/>
   <tile gid="65"/>
   <tile gid="65"/>
   <tile/>
   <tile/>
   <tile/>
   <tile/>
   <tile/>
   <tile/>
   <tile/>
   <tile/>
   <tile/>
   <tile/>
   <tile/>
   <tile/>
   <tile/>
   <tile/>
   <tile/>
   <tile/>
   <tile/>
   <tile/>
   <tile/>
   <tile/>
   <tile/>
   <tile/>
   <tile/>
   <tile/>
   <tile/>
   <tile/>
   <tile/>
   <tile/>
   <tile/>
   <tile/>
   <tile/>
   <tile/>
   <tile/>
   <tile/>
   <tile/>
   <tile/>
   <tile/>
   <tile/>
   <tile/>
   <tile/>
   <tile/>
   <tile/>
   <tile/>
   <tile/>
   <tile/>
   <tile/>
   <tile/>
   <tile/>
   <tile/>
   <tile/>
   <tile/>
   <tile/>
   <tile/>
   <tile/>
   <tile/>
   <tile/>
   <tile/>
   <tile/>
   <tile/>
   <tile/>
   <tile/>
   <tile/>
   <tile/>
   <tile/>
   <tile gid="65"/>
   <tile gid="65"/>
   <tile gid="65"/>
   <tile gid="65"/>
   <tile gid="65"/>
   <tile gid="65"/>
   <tile gid="65"/>
   <tile gid="65"/>
   <tile gid="65"/>
   <tile gid="65"/>
   <tile gid="65"/>
   <tile gid="65"/>
   <tile gid="65"/>
   <tile gid="65"/>
   <tile gid="65"/>
   <tile gid="65"/>
   <tile gid="65"/>
   <tile gid="65"/>
   <tile gid="65"/>
   <tile gid="65"/>
   <tile gid="65"/>
   <tile gid="65"/>
   <tile gid="65"/>
   <tile gid="65"/>
   <tile/>
   <tile/>
   <tile/>
   <tile/>
   <tile/>
   <tile/>
   <tile/>
   <tile/>
   <tile/>
   <tile/>
   <tile/>
   <tile/>
   <tile/>
   <tile/>
   <tile/>
   <tile/>
   <tile/>
   <tile/>
   <tile/>
   <tile gid="65"/>
   <tile gid="65"/>
   <tile gid="65"/>
   <tile gid="65"/>
   <tile gid="65"/>
   <tile gid="65"/>
   <tile/>
   <tile/>
   <tile/>
   <tile/>
   <tile gid="65"/>
   <tile gid="65"/>
   <tile gid="65"/>
   <tile gid="65"/>
   <tile gid="65"/>
   <tile gid="65"/>
   <tile gid="65"/>
   <tile gid="65"/>
   <tile gid="65"/>
   <tile gid="65"/>
   <tile/>
   <tile/>
   <tile/>
   <tile/>
   <tile/>
   <tile/>
   <tile/>
   <tile/>
   <tile/>
   <tile/>
   <tile/>
   <tile/>
   <tile/>
   <tile/>
   <tile/>
   <tile/>
   <tile/>
   <tile/>
   <tile/>
   <tile/>
   <tile/>
   <tile/>
   <tile/>
   <tile/>
   <tile/>
   <tile/>
   <tile/>
   <tile/>
   <tile/>
   <tile/>
   <tile/>
   <tile/>
   <tile/>
   <tile/>
   <tile/>
   <tile/>
   <tile/>
   <tile/>
   <tile/>
   <tile/>
   <tile/>
   <tile/>
   <tile/>
   <tile/>
   <tile/>
   <tile/>
   <tile/>
   <tile/>
   <tile/>
   <tile/>
   <tile/>
   <tile/>
   <tile/>
   <tile/>
   <tile/>
   <tile/>
   <tile/>
   <tile/>
   <tile/>
   <tile/>
   <tile/>
   <tile/>
   <tile/>
   <tile/>
   <tile gid="65"/>
   <tile gid="65"/>
   <tile gid="65"/>
   <tile gid="65"/>
   <tile gid="65"/>
   <tile gid="65"/>
   <tile gid="65"/>
   <tile gid="65"/>
   <tile gid="65"/>
   <tile gid="65"/>
   <tile gid="65"/>
   <tile gid="65"/>
   <tile gid="65"/>
   <tile gid="65"/>
   <tile gid="65"/>
   <tile gid="65"/>
   <tile gid="65"/>
   <tile gid="65"/>
   <tile gid="65"/>
   <tile gid="65"/>
   <tile gid="65"/>
   <tile gid="65"/>
   <tile gid="65"/>
   <tile gid="65"/>
   <tile/>
   <tile/>
   <tile/>
   <tile/>
   <tile/>
   <tile/>
   <tile/>
   <tile/>
   <tile/>
   <tile/>
   <tile/>
   <tile/>
   <tile/>
   <tile/>
   <tile/>
   <tile/>
   <tile gid="65"/>
   <tile gid="65"/>
   <tile gid="65"/>
   <tile gid="65"/>
   <tile gid="65"/>
   <tile gid="65"/>
   <tile gid="65"/>
   <tile gid="65"/>
   <tile gid="65"/>
   <tile/>
   <tile/>
   <tile/>
   <tile/>
   <tile gid="65"/>
   <tile gid="65"/>
   <tile gid="65"/>
   <tile gid="65"/>
   <tile gid="65"/>
   <tile gid="65"/>
   <tile gid="65"/>
   <tile gid="65"/>
   <tile/>
   <tile/>
   <tile/>
   <tile/>
   <tile/>
   <tile/>
   <tile/>
   <tile/>
   <tile/>
   <tile/>
   <tile/>
   <tile/>
   <tile/>
   <tile/>
   <tile/>
   <tile/>
   <tile/>
   <tile/>
   <tile/>
   <tile/>
   <tile/>
   <tile/>
   <tile/>
   <tile/>
   <tile/>
   <tile/>
   <tile/>
   <tile gid="65"/>
   <tile gid="65"/>
   <tile gid="65"/>
   <tile gid="65"/>
   <tile gid="65"/>
   <tile gid="65"/>
   <tile gid="65"/>
   <tile gid="65"/>
   <tile gid="65"/>
   <tile gid="65"/>
   <tile gid="65"/>
   <tile gid="65"/>
   <tile gid="65"/>
   <tile gid="65"/>
   <tile gid="65"/>
   <tile gid="65"/>
   <tile gid="65"/>
   <tile gid="65"/>
   <tile gid="65"/>
   <tile gid="65"/>
   <tile gid="65"/>
   <tile gid="65"/>
   <tile gid="65"/>
   <tile gid="65"/>
   <tile gid="65"/>
   <tile gid="65"/>
   <tile gid="65"/>
   <tile gid="65"/>
   <tile gid="65"/>
   <tile gid="65"/>
   <tile gid="65"/>
   <tile gid="65"/>
   <tile gid="65"/>
   <tile gid="65"/>
   <tile gid="65"/>
   <tile gid="65"/>
   <tile gid="65"/>
   <tile gid="65"/>
   <tile gid="65"/>
   <tile gid="65"/>
   <tile gid="65"/>
   <tile gid="65"/>
   <tile gid="65"/>
   <tile gid="65"/>
   <tile/>
   <tile/>
   <tile/>
   <tile/>
   <tile/>
   <tile/>
   <tile/>
   <tile/>
   <tile/>
   <tile/>
   <tile/>
   <tile/>
   <tile/>
   <tile/>
   <tile/>
   <tile/>
   <tile/>
   <tile/>
   <tile gid="65"/>
   <tile/>
   <tile/>
   <tile/>
   <tile/>
   <tile/>
   <tile/>
   <tile/>
   <tile/>
   <tile/>
   <tile/>
   <tile/>
   <tile/>
   <tile/>
   <tile/>
   <tile/>
   <tile/>
   <tile gid="65"/>
   <tile gid="65"/>
   <tile gid="65"/>
   <tile gid="65"/>
   <tile gid="65"/>
   <tile gid="65"/>
   <tile gid="65"/>
   <tile gid="65"/>
   <tile gid="65"/>
   <tile/>
   <tile/>
   <tile/>
   <tile/>
   <tile gid="65"/>
   <tile gid="65"/>
   <tile gid="65"/>
   <tile gid="65"/>
   <tile gid="65"/>
   <tile gid="65"/>
   <tile gid="65"/>
   <tile gid="65"/>
   <tile/>
   <tile/>
   <tile/>
   <tile/>
   <tile/>
   <tile/>
   <tile/>
   <tile/>
   <tile/>
   <tile/>
   <tile/>
   <tile/>
   <tile/>
   <tile/>
   <tile/>
   <tile/>
   <tile/>
   <tile/>
   <tile/>
   <tile/>
   <tile/>
   <tile/>
   <tile/>
   <tile/>
   <tile/>
   <tile/>
   <tile/>
   <tile gid="65"/>
   <tile gid="65"/>
   <tile gid="65"/>
   <tile gid="65"/>
   <tile gid="65"/>
   <tile gid="65"/>
   <tile gid="65"/>
   <tile gid="65"/>
   <tile gid="65"/>
   <tile gid="65"/>
   <tile gid="65"/>
   <tile gid="65"/>
   <tile gid="65"/>
   <tile gid="65"/>
   <tile gid="65"/>
   <tile gid="65"/>
   <tile gid="65"/>
   <tile gid="65"/>
   <tile gid="65"/>
   <tile gid="65"/>
   <tile gid="65"/>
   <tile gid="65"/>
   <tile gid="65"/>
   <tile gid="65"/>
   <tile gid="65"/>
   <tile gid="65"/>
   <tile gid="65"/>
   <tile gid="65"/>
   <tile gid="65"/>
   <tile gid="65"/>
   <tile gid="65"/>
   <tile gid="65"/>
   <tile gid="65"/>
   <tile gid="65"/>
   <tile gid="65"/>
   <tile gid="65"/>
   <tile gid="65"/>
   <tile gid="65"/>
   <tile gid="65"/>
   <tile gid="65"/>
   <tile gid="65"/>
   <tile gid="65"/>
   <tile gid="65"/>
   <tile gid="65"/>
   <tile/>
   <tile/>
   <tile/>
   <tile/>
   <tile/>
   <tile/>
   <tile/>
   <tile/>
   <tile/>
   <tile/>
   <tile/>
   <tile/>
   <tile/>
   <tile/>
   <tile/>
   <tile/>
   <tile/>
   <tile/>
   <tile gid="65"/>
   <tile/>
   <tile/>
   <tile/>
   <tile/>
   <tile/>
   <tile/>
   <tile/>
   <tile/>
   <tile/>
   <tile/>
   <tile/>
   <tile/>
   <tile/>
   <tile/>
   <tile/>
   <tile/>
   <tile gid="65"/>
   <tile gid="65"/>
   <tile gid="65"/>
   <tile gid="65"/>
   <tile gid="65"/>
   <tile gid="65"/>
   <tile gid="65"/>
   <tile gid="65"/>
   <tile gid="65"/>
   <tile/>
   <tile/>
   <tile/>
   <tile/>
   <tile gid="65"/>
   <tile gid="65"/>
   <tile gid="65"/>
   <tile gid="65"/>
   <tile gid="65"/>
   <tile gid="65"/>
   <tile/>
   <tile/>
   <tile/>
   <tile/>
   <tile/>
   <tile/>
   <tile/>
   <tile/>
   <tile/>
   <tile/>
   <tile/>
   <tile/>
   <tile/>
   <tile/>
   <tile/>
   <tile/>
   <tile/>
   <tile/>
   <tile/>
   <tile/>
   <tile/>
   <tile/>
   <tile/>
   <tile/>
   <tile gid="65"/>
   <tile/>
   <tile/>
   <tile/>
   <tile/>
   <tile gid="65"/>
   <tile gid="65"/>
   <tile gid="65"/>
   <tile gid="65"/>
   <tile gid="65"/>
   <tile gid="65"/>
   <tile gid="65"/>
   <tile gid="65"/>
   <tile gid="65"/>
   <tile gid="65"/>
   <tile gid="65"/>
   <tile gid="65"/>
   <tile gid="65"/>
   <tile gid="65"/>
   <tile gid="65"/>
   <tile gid="65"/>
   <tile gid="65"/>
   <tile gid="65"/>
   <tile gid="65"/>
   <tile gid="65"/>
   <tile gid="65"/>
   <tile gid="65"/>
   <tile gid="65"/>
   <tile gid="65"/>
   <tile gid="65"/>
   <tile gid="65"/>
   <tile gid="65"/>
   <tile gid="65"/>
   <tile gid="65"/>
   <tile gid="65"/>
   <tile gid="65"/>
   <tile gid="65"/>
   <tile gid="65"/>
   <tile gid="65"/>
   <tile gid="65"/>
   <tile gid="65"/>
   <tile gid="65"/>
   <tile gid="65"/>
   <tile gid="65"/>
   <tile gid="65"/>
   <tile gid="65"/>
   <tile gid="65"/>
   <tile gid="65"/>
   <tile gid="65"/>
   <tile/>
   <tile/>
   <tile/>
   <tile/>
   <tile/>
   <tile/>
   <tile/>
   <tile/>
   <tile/>
   <tile/>
   <tile/>
   <tile/>
   <tile/>
   <tile/>
   <tile/>
   <tile/>
   <tile/>
   <tile/>
   <tile gid="65"/>
   <tile/>
   <tile/>
   <tile/>
   <tile/>
   <tile/>
   <tile/>
   <tile/>
   <tile/>
   <tile/>
   <tile/>
   <tile/>
   <tile/>
   <tile/>
   <tile/>
   <tile/>
   <tile/>
   <tile gid="65"/>
   <tile gid="65"/>
   <tile gid="65"/>
   <tile gid="65"/>
   <tile gid="65"/>
   <tile gid="65"/>
   <tile gid="65"/>
   <tile gid="65"/>
   <tile gid="65"/>
   <tile/>
   <tile/>
   <tile/>
   <tile/>
   <tile gid="65"/>
   <tile gid="65"/>
   <tile gid="65"/>
   <tile gid="65"/>
   <tile/>
   <tile/>
   <tile/>
   <tile/>
   <tile/>
   <tile/>
   <tile/>
   <tile/>
   <tile/>
   <tile/>
   <tile/>
   <tile/>
   <tile/>
   <tile/>
   <tile/>
   <tile gid="65"/>
   <tile/>
   <tile/>
   <tile/>
   <tile/>
   <tile/>
   <tile/>
   <tile/>
   <tile/>
   <tile/>
   <tile/>
   <tile/>
   <tile/>
   <tile/>
   <tile/>
   <tile/>
   <tile gid="65"/>
   <tile gid="65"/>
   <tile gid="65"/>
   <tile gid="65"/>
   <tile gid="65"/>
   <tile gid="65"/>
   <tile gid="65"/>
   <tile gid="65"/>
   <tile gid="65"/>
   <tile gid="65"/>
   <tile gid="65"/>
   <tile gid="65"/>
   <tile gid="65"/>
   <tile gid="65"/>
   <tile gid="65"/>
   <tile gid="65"/>
   <tile gid="65"/>
   <tile gid="65"/>
   <tile gid="65"/>
   <tile gid="65"/>
   <tile gid="65"/>
   <tile gid="65"/>
   <tile gid="65"/>
   <tile gid="65"/>
   <tile gid="65"/>
   <tile gid="65"/>
   <tile gid="65"/>
   <tile gid="65"/>
   <tile gid="65"/>
   <tile gid="65"/>
   <tile gid="65"/>
   <tile gid="65"/>
   <tile gid="65"/>
   <tile gid="65"/>
   <tile gid="65"/>
   <tile gid="65"/>
   <tile gid="65"/>
   <tile gid="65"/>
   <tile gid="65"/>
   <tile gid="65"/>
   <tile gid="65"/>
   <tile gid="65"/>
   <tile gid="65"/>
   <tile gid="65"/>
   <tile/>
   <tile/>
   <tile/>
   <tile/>
   <tile/>
   <tile/>
   <tile/>
   <tile/>
   <tile/>
   <tile/>
   <tile/>
   <tile/>
   <tile/>
   <tile/>
   <tile/>
   <tile/>
   <tile/>
   <tile/>
   <tile gid="65"/>
   <tile/>
   <tile/>
   <tile/>
   <tile/>
   <tile/>
   <tile/>
   <tile/>
   <tile/>
   <tile/>
   <tile/>
   <tile/>
   <tile/>
   <tile/>
   <tile/>
   <tile gid="65"/>
   <tile gid="65"/>
   <tile gid="65"/>
   <tile gid="65"/>
   <tile gid="65"/>
   <tile gid="65"/>
   <tile gid="65"/>
   <tile gid="65"/>
   <tile gid="65"/>
   <tile gid="65"/>
   <tile gid="65"/>
   <tile/>
   <tile/>
   <tile/>
   <tile/>
   <tile gid="65"/>
   <tile gid="65"/>
   <tile gid="65"/>
   <tile/>
   <tile/>
   <tile/>
   <tile/>
   <tile/>
   <tile/>
   <tile/>
   <tile/>
   <tile/>
   <tile/>
   <tile/>
   <tile/>
   <tile/>
   <tile/>
   <tile/>
   <tile/>
   <tile/>
   <tile/>
   <tile/>
   <tile/>
   <tile/>
   <tile/>
   <tile/>
   <tile/>
   <tile/>
   <tile/>
   <tile/>
   <tile/>
   <tile/>
   <tile/>
   <tile/>
   <tile/>
   <tile gid="65"/>
   <tile gid="65"/>
   <tile gid="65"/>
   <tile gid="65"/>
   <tile gid="65"/>
   <tile gid="65"/>
   <tile gid="65"/>
   <tile gid="65"/>
   <tile gid="65"/>
   <tile gid="65"/>
   <tile gid="65"/>
   <tile gid="65"/>
   <tile gid="65"/>
   <tile gid="65"/>
   <tile gid="65"/>
   <tile gid="65"/>
   <tile gid="65"/>
   <tile gid="65"/>
   <tile gid="65"/>
   <tile gid="65"/>
   <tile gid="65"/>
   <tile gid="65"/>
   <tile gid="65"/>
   <tile gid="65"/>
   <tile gid="65"/>
   <tile gid="65"/>
   <tile gid="65"/>
   <tile gid="65"/>
   <tile gid="65"/>
   <tile gid="65"/>
   <tile gid="65"/>
   <tile gid="65"/>
   <tile gid="65"/>
   <tile gid="65"/>
   <tile gid="65"/>
   <tile gid="65"/>
   <tile gid="65"/>
   <tile gid="65"/>
   <tile gid="65"/>
   <tile gid="65"/>
   <tile gid="65"/>
   <tile gid="65"/>
   <tile gid="65"/>
   <tile gid="65"/>
   <tile/>
   <tile/>
   <tile/>
   <tile/>
   <tile gid="65"/>
   <tile gid="65"/>
   <tile gid="65"/>
   <tile gid="65"/>
   <tile gid="65"/>
   <tile gid="65"/>
   <tile gid="65"/>
   <tile gid="65"/>
   <tile gid="65"/>
   <tile gid="65"/>
   <tile/>
   <tile/>
   <tile/>
   <tile/>
   <tile gid="65"/>
   <tile/>
   <tile/>
   <tile/>
   <tile/>
   <tile/>
   <tile/>
   <tile/>
   <tile/>
   <tile/>
   <tile/>
   <tile/>
   <tile/>
   <tile/>
   <tile/>
   <tile gid="65"/>
   <tile gid="65"/>
   <tile gid="65"/>
   <tile gid="65"/>
   <tile gid="65"/>
   <tile gid="65"/>
   <tile gid="65"/>
   <tile gid="65"/>
   <tile gid="65"/>
   <tile gid="65"/>
   <tile gid="65"/>
   <tile/>
   <tile/>
   <tile/>
   <tile/>
   <tile gid="65"/>
   <tile gid="65"/>
   <tile/>
   <tile/>
   <tile/>
   <tile/>
   <tile/>
   <tile/>
   <tile/>
   <tile/>
   <tile/>
   <tile/>
   <tile gid="65"/>
   <tile gid="65"/>
   <tile gid="65"/>
   <tile gid="65"/>
   <tile gid="65"/>
   <tile gid="65"/>
   <tile gid="65"/>
   <tile gid="65"/>
   <tile gid="65"/>
   <tile gid="65"/>
   <tile gid="65"/>
   <tile gid="65"/>
   <tile gid="65"/>
   <tile gid="65"/>
   <tile gid="65"/>
   <tile gid="65"/>
   <tile gid="65"/>
   <tile gid="65"/>
   <tile gid="65"/>
   <tile gid="65"/>
   <tile gid="65"/>
   <tile gid="65"/>
   <tile gid="65"/>
   <tile gid="65"/>
   <tile gid="65"/>
   <tile gid="65"/>
   <tile gid="65"/>
   <tile gid="65"/>
   <tile gid="65"/>
   <tile gid="65"/>
   <tile gid="65"/>
   <tile gid="65"/>
   <tile gid="65"/>
   <tile gid="65"/>
   <tile gid="65"/>
   <tile gid="65"/>
   <tile gid="65"/>
   <tile gid="65"/>
   <tile gid="65"/>
   <tile gid="65"/>
   <tile gid="65"/>
   <tile gid="65"/>
   <tile gid="65"/>
   <tile gid="65"/>
   <tile gid="65"/>
   <tile gid="65"/>
   <tile gid="65"/>
   <tile gid="65"/>
   <tile gid="65"/>
   <tile gid="65"/>
   <tile gid="65"/>
   <tile gid="65"/>
   <tile gid="65"/>
   <tile gid="65"/>
   <tile gid="65"/>
   <tile gid="65"/>
   <tile gid="65"/>
   <tile gid="65"/>
   <tile gid="65"/>
   <tile gid="65"/>
   <tile gid="65"/>
   <tile gid="65"/>
   <tile gid="65"/>
   <tile gid="65"/>
   <tile gid="65"/>
   <tile gid="65"/>
   <tile gid="65"/>
   <tile/>
   <tile/>
   <tile/>
   <tile/>
   <tile/>
   <tile/>
   <tile/>
   <tile/>
   <tile/>
   <tile/>
   <tile gid="65"/>
   <tile gid="65"/>
   <tile/>
   <tile/>
   <tile/>
   <tile/>
   <tile/>
   <tile/>
   <tile gid="65"/>
   <tile/>
   <tile/>
   <tile/>
   <tile/>
   <tile/>
   <tile/>
   <tile/>
   <tile/>
   <tile/>
   <tile/>
   <tile/>
   <tile/>
   <tile/>
   <tile/>
   <tile gid="65"/>
   <tile gid="65"/>
   <tile gid="65"/>
   <tile gid="65"/>
   <tile gid="65"/>
   <tile gid="65"/>
   <tile gid="65"/>
   <tile gid="65"/>
   <tile gid="65"/>
   <tile gid="65"/>
   <tile gid="65"/>
   <tile/>
   <tile/>
   <tile/>
   <tile/>
   <tile/>
   <tile/>
   <tile/>
   <tile/>
   <tile/>
   <tile/>
   <tile/>
   <tile/>
   <tile/>
   <tile/>
   <tile gid="65"/>
   <tile gid="65"/>
   <tile gid="65"/>
   <tile gid="65"/>
   <tile gid="65"/>
   <tile gid="65"/>
   <tile gid="65"/>
   <tile gid="65"/>
   <tile gid="65"/>
   <tile gid="65"/>
   <tile gid="65"/>
   <tile gid="65"/>
   <tile gid="65"/>
   <tile gid="65"/>
   <tile gid="65"/>
   <tile gid="65"/>
   <tile gid="65"/>
   <tile gid="65"/>
   <tile gid="65"/>
   <tile gid="65"/>
   <tile gid="65"/>
   <tile gid="65"/>
   <tile gid="65"/>
   <tile gid="65"/>
   <tile gid="65"/>
   <tile gid="65"/>
   <tile gid="65"/>
   <tile gid="65"/>
   <tile gid="65"/>
   <tile gid="65"/>
   <tile gid="65"/>
   <tile gid="65"/>
   <tile gid="65"/>
   <tile gid="65"/>
   <tile gid="65"/>
   <tile gid="65"/>
   <tile gid="65"/>
   <tile gid="65"/>
   <tile gid="65"/>
   <tile gid="65"/>
   <tile gid="65"/>
   <tile gid="65"/>
   <tile gid="65"/>
   <tile gid="65"/>
   <tile gid="65"/>
   <tile gid="65"/>
   <tile gid="65"/>
   <tile gid="65"/>
   <tile gid="65"/>
   <tile gid="65"/>
   <tile gid="65"/>
   <tile gid="65"/>
   <tile gid="65"/>
   <tile gid="65"/>
   <tile gid="65"/>
   <tile gid="65"/>
   <tile gid="65"/>
   <tile gid="65"/>
   <tile gid="65"/>
   <tile gid="65"/>
   <tile gid="65"/>
   <tile gid="65"/>
   <tile gid="65"/>
   <tile gid="65"/>
   <tile gid="65"/>
   <tile gid="65"/>
   <tile gid="65"/>
   <tile gid="65"/>
   <tile gid="65"/>
   <tile/>
   <tile/>
   <tile/>
   <tile/>
   <tile/>
   <tile/>
   <tile/>
   <tile/>
   <tile/>
   <tile/>
   <tile gid="65"/>
   <tile gid="65"/>
   <tile/>
   <tile/>
   <tile/>
   <tile/>
   <tile/>
   <tile/>
   <tile gid="65"/>
   <tile/>
   <tile/>
   <tile/>
   <tile/>
   <tile/>
   <tile/>
   <tile/>
   <tile/>
   <tile/>
   <tile/>
   <tile/>
   <tile/>
   <tile/>
   <tile/>
   <tile gid="65"/>
   <tile gid="65"/>
   <tile gid="65"/>
   <tile gid="65"/>
   <tile gid="65"/>
   <tile gid="65"/>
   <tile gid="65"/>
   <tile gid="65"/>
   <tile gid="65"/>
   <tile gid="65"/>
   <tile gid="65"/>
   <tile/>
   <tile/>
   <tile/>
   <tile/>
   <tile/>
   <tile/>
   <tile/>
   <tile/>
   <tile/>
   <tile/>
   <tile/>
   <tile/>
   <tile/>
   <tile/>
   <tile gid="65"/>
   <tile gid="65"/>
   <tile gid="65"/>
   <tile gid="65"/>
   <tile gid="65"/>
   <tile gid="65"/>
   <tile gid="65"/>
   <tile gid="65"/>
   <tile gid="65"/>
   <tile gid="65"/>
   <tile gid="65"/>
   <tile gid="65"/>
   <tile gid="65"/>
   <tile gid="65"/>
   <tile gid="65"/>
   <tile gid="65"/>
   <tile gid="65"/>
   <tile gid="65"/>
   <tile gid="65"/>
   <tile gid="65"/>
   <tile gid="65"/>
   <tile gid="65"/>
   <tile gid="65"/>
   <tile gid="65"/>
   <tile gid="65"/>
   <tile gid="65"/>
   <tile gid="65"/>
   <tile gid="65"/>
   <tile gid="65"/>
   <tile gid="65"/>
   <tile gid="65"/>
   <tile gid="65"/>
   <tile gid="65"/>
   <tile gid="65"/>
   <tile gid="65"/>
   <tile gid="65"/>
   <tile gid="65"/>
   <tile gid="65"/>
   <tile gid="65"/>
   <tile gid="65"/>
   <tile gid="65"/>
   <tile gid="65"/>
   <tile gid="65"/>
   <tile gid="65"/>
   <tile gid="65"/>
   <tile gid="65"/>
   <tile gid="65"/>
   <tile gid="65"/>
   <tile gid="65"/>
   <tile gid="65"/>
   <tile gid="65"/>
   <tile gid="65"/>
   <tile gid="65"/>
   <tile gid="65"/>
   <tile gid="65"/>
   <tile gid="65"/>
   <tile gid="65"/>
   <tile gid="65"/>
   <tile gid="65"/>
   <tile gid="65"/>
   <tile gid="65"/>
   <tile gid="65"/>
   <tile gid="65"/>
   <tile gid="65"/>
   <tile gid="65"/>
   <tile gid="65"/>
   <tile gid="65"/>
   <tile gid="65"/>
   <tile gid="65"/>
   <tile/>
   <tile/>
   <tile/>
   <tile/>
   <tile/>
   <tile/>
   <tile/>
   <tile/>
   <tile/>
   <tile/>
   <tile gid="65"/>
   <tile gid="65"/>
   <tile/>
   <tile/>
   <tile/>
   <tile/>
   <tile/>
   <tile/>
   <tile gid="65"/>
   <tile/>
   <tile/>
   <tile/>
   <tile/>
   <tile/>
   <tile/>
   <tile/>
   <tile/>
   <tile/>
   <tile/>
   <tile/>
   <tile/>
   <tile/>
   <tile gid="65"/>
   <tile gid="65"/>
   <tile gid="65"/>
   <tile gid="65"/>
   <tile gid="65"/>
   <tile gid="65"/>
   <tile gid="65"/>
   <tile gid="65"/>
   <tile gid="65"/>
   <tile gid="65"/>
   <tile gid="65"/>
   <tile gid="65"/>
   <tile/>
   <tile/>
   <tile/>
   <tile/>
   <tile/>
   <tile/>
   <tile/>
   <tile/>
   <tile/>
   <tile/>
   <tile/>
   <tile gid="65"/>
   <tile gid="65"/>
   <tile gid="65"/>
   <tile gid="65"/>
   <tile gid="65"/>
   <tile gid="65"/>
   <tile gid="65"/>
   <tile gid="65"/>
   <tile gid="65"/>
   <tile gid="65"/>
   <tile gid="65"/>
   <tile gid="65"/>
   <tile gid="65"/>
   <tile gid="65"/>
   <tile gid="65"/>
   <tile gid="65"/>
   <tile gid="65"/>
   <tile gid="65"/>
   <tile gid="65"/>
   <tile gid="65"/>
   <tile gid="65"/>
   <tile gid="65"/>
   <tile gid="65"/>
   <tile gid="65"/>
   <tile gid="65"/>
   <tile gid="65"/>
   <tile gid="65"/>
   <tile gid="65"/>
   <tile gid="65"/>
   <tile gid="65"/>
   <tile gid="65"/>
   <tile gid="65"/>
   <tile gid="65"/>
   <tile gid="65"/>
   <tile gid="65"/>
   <tile gid="65"/>
   <tile gid="65"/>
   <tile gid="65"/>
   <tile gid="65"/>
   <tile gid="65"/>
   <tile gid="65"/>
   <tile gid="65"/>
   <tile gid="65"/>
   <tile gid="65"/>
   <tile gid="65"/>
   <tile gid="65"/>
   <tile gid="65"/>
   <tile gid="65"/>
   <tile gid="65"/>
   <tile gid="65"/>
   <tile gid="65"/>
   <tile gid="65"/>
   <tile gid="65"/>
   <tile gid="65"/>
   <tile gid="65"/>
   <tile gid="65"/>
   <tile gid="65"/>
   <tile gid="65"/>
   <tile gid="65"/>
   <tile gid="65"/>
   <tile gid="65"/>
   <tile gid="65"/>
   <tile gid="65"/>
   <tile gid="65"/>
   <tile gid="65"/>
   <tile gid="65"/>
   <tile gid="65"/>
   <tile gid="65"/>
   <tile gid="65"/>
   <tile gid="65"/>
   <tile gid="65"/>
   <tile gid="65"/>
   <tile gid="65"/>
   <tile gid="65"/>
   <tile/>
   <tile/>
   <tile/>
   <tile/>
   <tile/>
   <tile/>
   <tile/>
   <tile/>
   <tile gid="65"/>
   <tile gid="65"/>
   <tile/>
   <tile/>
   <tile/>
   <tile/>
   <tile gid="65"/>
   <tile gid="65"/>
   <tile gid="65"/>
   <tile/>
   <tile/>
   <tile/>
   <tile/>
   <tile/>
   <tile/>
   <tile/>
   <tile/>
   <tile/>
   <tile/>
   <tile/>
   <tile/>
   <tile/>
   <tile gid="65"/>
   <tile gid="65"/>
   <tile gid="65"/>
   <tile gid="65"/>
   <tile gid="65"/>
   <tile gid="65"/>
   <tile gid="65"/>
   <tile gid="65"/>
   <tile gid="65"/>
   <tile gid="65"/>
   <tile gid="65"/>
   <tile gid="65"/>
   <tile/>
   <tile/>
   <tile/>
   <tile/>
   <tile/>
   <tile/>
   <tile/>
   <tile/>
   <tile gid="65"/>
   <tile gid="65"/>
   <tile gid="65"/>
   <tile gid="65"/>
   <tile gid="65"/>
   <tile gid="65"/>
   <tile gid="65"/>
   <tile gid="65"/>
   <tile gid="65"/>
   <tile gid="65"/>
   <tile gid="65"/>
   <tile gid="65"/>
   <tile gid="65"/>
   <tile gid="65"/>
   <tile gid="65"/>
   <tile gid="65"/>
   <tile gid="65"/>
   <tile gid="65"/>
   <tile gid="65"/>
   <tile gid="65"/>
   <tile gid="65"/>
   <tile gid="65"/>
   <tile gid="65"/>
   <tile gid="65"/>
   <tile gid="65"/>
   <tile gid="65"/>
   <tile gid="65"/>
   <tile gid="65"/>
   <tile gid="65"/>
   <tile gid="65"/>
   <tile gid="65"/>
   <tile gid="65"/>
   <tile gid="65"/>
   <tile gid="65"/>
   <tile gid="65"/>
   <tile gid="65"/>
   <tile gid="65"/>
   <tile gid="65"/>
   <tile gid="65"/>
   <tile gid="65"/>
   <tile gid="65"/>
   <tile gid="65"/>
   <tile gid="65"/>
   <tile gid="65"/>
   <tile gid="65"/>
   <tile gid="65"/>
   <tile gid="65"/>
   <tile gid="65"/>
   <tile gid="65"/>
   <tile gid="65"/>
   <tile gid="65"/>
   <tile gid="65"/>
   <tile gid="65"/>
   <tile gid="65"/>
   <tile gid="65"/>
   <tile gid="65"/>
   <tile gid="65"/>
   <tile gid="65"/>
   <tile gid="65"/>
   <tile gid="65"/>
   <tile gid="65"/>
   <tile gid="65"/>
   <tile gid="65"/>
   <tile gid="65"/>
   <tile gid="65"/>
   <tile gid="65"/>
   <tile gid="65"/>
   <tile gid="65"/>
   <tile gid="65"/>
   <tile gid="65"/>
   <tile gid="65"/>
   <tile gid="65"/>
   <tile gid="65"/>
   <tile gid="65"/>
   <tile gid="65"/>
   <tile/>
   <tile/>
   <tile/>
   <tile/>
   <tile/>
   <tile/>
   <tile/>
   <tile/>
   <tile/>
   <tile/>
   <tile gid="65"/>
   <tile gid="65"/>
   <tile/>
   <tile/>
   <tile/>
   <tile/>
   <tile/>
   <tile/>
   <tile gid="65"/>
   <tile/>
   <tile/>
   <tile/>
   <tile/>
   <tile/>
   <tile/>
   <tile/>
   <tile/>
   <tile/>
   <tile/>
   <tile/>
   <tile/>
   <tile/>
   <tile gid="65"/>
   <tile gid="65"/>
   <tile gid="65"/>
   <tile gid="65"/>
   <tile gid="65"/>
   <tile gid="65"/>
   <tile gid="65"/>
   <tile gid="65"/>
   <tile gid="65"/>
   <tile gid="65"/>
   <tile gid="65"/>
   <tile gid="65"/>
   <tile/>
   <tile/>
   <tile/>
   <tile/>
   <tile gid="65"/>
   <tile gid="65"/>
   <tile gid="65"/>
   <tile gid="65"/>
   <tile gid="65"/>
   <tile gid="65"/>
   <tile gid="65"/>
   <tile gid="65"/>
   <tile gid="65"/>
   <tile gid="65"/>
   <tile gid="65"/>
   <tile gid="65"/>
   <tile gid="65"/>
   <tile gid="65"/>
   <tile gid="65"/>
   <tile gid="65"/>
   <tile gid="65"/>
   <tile gid="65"/>
   <tile gid="65"/>
   <tile gid="65"/>
   <tile gid="65"/>
   <tile gid="65"/>
   <tile gid="65"/>
   <tile gid="65"/>
   <tile gid="65"/>
   <tile gid="65"/>
   <tile gid="65"/>
   <tile gid="65"/>
   <tile gid="65"/>
   <tile gid="65"/>
   <tile gid="65"/>
   <tile gid="65"/>
   <tile gid="65"/>
   <tile gid="65"/>
   <tile gid="65"/>
   <tile gid="65"/>
   <tile gid="65"/>
   <tile gid="65"/>
   <tile gid="65"/>
   <tile gid="65"/>
   <tile gid="65"/>
   <tile gid="65"/>
   <tile gid="65"/>
   <tile gid="65"/>
   <tile gid="65"/>
   <tile gid="65"/>
   <tile gid="65"/>
   <tile gid="65"/>
   <tile gid="65"/>
   <tile gid="65"/>
   <tile gid="65"/>
   <tile gid="65"/>
   <tile gid="65"/>
   <tile gid="65"/>
   <tile gid="65"/>
   <tile gid="65"/>
   <tile gid="65"/>
   <tile gid="65"/>
   <tile gid="65"/>
   <tile gid="65"/>
   <tile gid="65"/>
   <tile gid="65"/>
   <tile gid="65"/>
   <tile gid="65"/>
   <tile gid="65"/>
   <tile gid="65"/>
   <tile gid="65"/>
   <tile gid="65"/>
   <tile gid="65"/>
   <tile gid="65"/>
   <tile gid="65"/>
   <tile gid="65"/>
   <tile gid="65"/>
   <tile gid="65"/>
   <tile gid="65"/>
   <tile gid="65"/>
   <tile gid="65"/>
   <tile gid="65"/>
   <tile gid="65"/>
   <tile/>
   <tile/>
   <tile/>
   <tile/>
   <tile/>
   <tile/>
   <tile/>
   <tile/>
   <tile/>
   <tile/>
   <tile gid="65"/>
   <tile gid="65"/>
   <tile/>
   <tile/>
   <tile/>
   <tile/>
   <tile/>
   <tile/>
   <tile gid="65"/>
   <tile/>
   <tile/>
   <tile/>
   <tile/>
   <tile/>
   <tile/>
   <tile/>
   <tile/>
   <tile/>
   <tile/>
   <tile/>
   <tile/>
   <tile/>
   <tile gid="65"/>
   <tile gid="65"/>
   <tile gid="65"/>
   <tile gid="65"/>
   <tile gid="65"/>
   <tile gid="65"/>
   <tile gid="65"/>
   <tile gid="65"/>
   <tile gid="65"/>
   <tile gid="65"/>
   <tile gid="65"/>
   <tile gid="65"/>
   <tile/>
   <tile/>
   <tile/>
   <tile/>
   <tile gid="65"/>
   <tile gid="65"/>
   <tile gid="65"/>
   <tile gid="65"/>
   <tile gid="65"/>
   <tile gid="65"/>
   <tile gid="65"/>
   <tile gid="65"/>
   <tile gid="65"/>
   <tile gid="65"/>
   <tile gid="65"/>
   <tile gid="65"/>
   <tile/>
   <tile/>
   <tile/>
   <tile/>
   <tile/>
   <tile/>
   <tile/>
   <tile/>
   <tile/>
   <tile/>
   <tile/>
   <tile/>
   <tile/>
   <tile/>
   <tile/>
   <tile/>
   <tile/>
   <tile/>
   <tile/>
   <tile/>
   <tile/>
   <tile/>
   <tile/>
   <tile/>
   <tile/>
   <tile/>
   <tile/>
   <tile/>
   <tile/>
   <tile/>
   <tile/>
   <tile/>
   <tile/>
   <tile/>
   <tile/>
   <tile/>
   <tile/>
   <tile/>
   <tile/>
   <tile/>
   <tile/>
   <tile/>
   <tile/>
   <tile/>
   <tile/>
   <tile/>
   <tile/>
   <tile/>
   <tile/>
   <tile/>
   <tile/>
   <tile/>
   <tile/>
   <tile/>
   <tile/>
   <tile/>
   <tile/>
   <tile/>
   <tile/>
   <tile/>
   <tile/>
   <tile/>
   <tile/>
   <tile/>
   <tile/>
   <tile/>
   <tile/>
   <tile/>
   <tile/>
   <tile/>
   <tile/>
   <tile/>
   <tile/>
   <tile/>
   <tile/>
   <tile/>
   <tile/>
   <tile gid="65"/>
   <tile gid="65"/>
   <tile/>
   <tile/>
   <tile/>
   <tile/>
   <tile/>
   <tile/>
   <tile gid="65"/>
   <tile/>
   <tile/>
   <tile/>
   <tile/>
   <tile/>
   <tile/>
   <tile/>
   <tile/>
   <tile/>
   <tile/>
   <tile/>
   <tile/>
   <tile/>
   <tile gid="65"/>
   <tile gid="65"/>
   <tile gid="65"/>
   <tile gid="65"/>
   <tile gid="65"/>
   <tile gid="65"/>
   <tile gid="65"/>
   <tile gid="65"/>
   <tile gid="65"/>
   <tile gid="65"/>
   <tile gid="65"/>
   <tile gid="65"/>
   <tile/>
   <tile/>
   <tile/>
   <tile/>
   <tile gid="65"/>
   <tile gid="65"/>
   <tile gid="65"/>
   <tile gid="65"/>
   <tile gid="65"/>
   <tile gid="65"/>
   <tile gid="65"/>
   <tile gid="65"/>
   <tile gid="65"/>
   <tile/>
   <tile/>
   <tile/>
   <tile/>
   <tile/>
   <tile/>
   <tile/>
   <tile/>
   <tile/>
   <tile/>
   <tile/>
   <tile/>
   <tile/>
   <tile/>
   <tile/>
   <tile/>
   <tile/>
   <tile/>
   <tile/>
   <tile/>
   <tile/>
   <tile/>
   <tile/>
   <tile/>
   <tile/>
   <tile/>
   <tile/>
   <tile/>
   <tile/>
   <tile/>
   <tile/>
   <tile/>
   <tile/>
   <tile/>
   <tile/>
   <tile/>
   <tile/>
   <tile/>
   <tile/>
   <tile/>
   <tile/>
   <tile/>
   <tile/>
   <tile/>
   <tile/>
   <tile/>
   <tile/>
   <tile/>
   <tile/>
   <tile/>
   <tile/>
   <tile/>
   <tile/>
   <tile/>
   <tile/>
   <tile/>
   <tile/>
   <tile/>
   <tile/>
   <tile/>
   <tile/>
   <tile/>
   <tile/>
   <tile/>
   <tile/>
   <tile/>
   <tile/>
   <tile/>
   <tile/>
   <tile/>
   <tile/>
   <tile/>
   <tile/>
   <tile/>
   <tile/>
   <tile/>
   <tile/>
   <tile/>
   <tile/>
   <tile/>
   <tile gid="65"/>
   <tile gid="65"/>
   <tile/>
   <tile/>
   <tile/>
   <tile/>
   <tile/>
   <tile/>
   <tile gid="65"/>
   <tile/>
   <tile/>
   <tile/>
   <tile/>
   <tile/>
   <tile/>
   <tile/>
   <tile/>
   <tile/>
   <tile/>
   <tile gid="65"/>
   <tile gid="65"/>
   <tile gid="65"/>
   <tile gid="65"/>
   <tile gid="65"/>
   <tile gid="65"/>
   <tile gid="65"/>
   <tile gid="65"/>
   <tile gid="65"/>
   <tile gid="65"/>
   <tile gid="65"/>
   <tile gid="65"/>
   <tile gid="65"/>
   <tile gid="65"/>
   <tile gid="65"/>
   <tile/>
   <tile/>
   <tile/>
   <tile/>
   <tile gid="65"/>
   <tile gid="65"/>
   <tile gid="65"/>
   <tile gid="65"/>
   <tile gid="65"/>
   <tile gid="65"/>
   <tile gid="65"/>
   <tile/>
   <tile/>
   <tile/>
   <tile/>
   <tile/>
   <tile/>
   <tile/>
   <tile/>
   <tile/>
   <tile/>
   <tile/>
   <tile/>
   <tile/>
   <tile/>
   <tile/>
   <tile/>
   <tile/>
   <tile/>
   <tile/>
   <tile/>
   <tile/>
   <tile/>
   <tile/>
   <tile/>
   <tile/>
   <tile/>
   <tile/>
   <tile/>
   <tile/>
   <tile/>
   <tile/>
   <tile/>
   <tile/>
   <tile/>
   <tile/>
   <tile/>
   <tile/>
   <tile/>
   <tile/>
   <tile/>
   <tile/>
   <tile/>
   <tile/>
   <tile/>
   <tile/>
   <tile/>
   <tile/>
   <tile/>
   <tile/>
   <tile/>
   <tile/>
   <tile/>
   <tile/>
   <tile/>
   <tile/>
   <tile/>
   <tile/>
   <tile/>
   <tile/>
   <tile/>
   <tile/>
   <tile/>
   <tile/>
   <tile/>
   <tile/>
   <tile/>
   <tile/>
   <tile/>
   <tile/>
   <tile/>
   <tile/>
   <tile/>
   <tile/>
   <tile/>
   <tile/>
   <tile/>
   <tile/>
   <tile/>
   <tile gid="65"/>
   <tile/>
   <tile/>
   <tile/>
   <tile gid="65"/>
   <tile gid="65"/>
   <tile/>
   <tile/>
   <tile/>
   <tile/>
   <tile/>
   <tile/>
   <tile gid="65"/>
   <tile/>
   <tile/>
   <tile/>
   <tile/>
   <tile/>
   <tile/>
   <tile/>
   <tile/>
   <tile/>
   <tile/>
   <tile gid="65"/>
   <tile gid="65"/>
   <tile gid="65"/>
   <tile gid="65"/>
   <tile gid="65"/>
   <tile gid="65"/>
   <tile gid="65"/>
   <tile gid="65"/>
   <tile gid="65"/>
   <tile gid="65"/>
   <tile gid="65"/>
   <tile gid="65"/>
   <tile gid="65"/>
   <tile gid="65"/>
   <tile gid="65"/>
   <tile/>
   <tile/>
   <tile/>
   <tile/>
   <tile gid="65"/>
   <tile gid="65"/>
   <tile gid="65"/>
   <tile gid="65"/>
   <tile/>
   <tile/>
   <tile/>
   <tile/>
   <tile/>
   <tile/>
   <tile/>
   <tile/>
   <tile/>
   <tile/>
   <tile/>
   <tile/>
   <tile/>
   <tile/>
   <tile/>
   <tile/>
   <tile/>
   <tile/>
   <tile/>
   <tile/>
   <tile/>
   <tile/>
   <tile/>
   <tile/>
   <tile/>
   <tile/>
   <tile/>
   <tile/>
   <tile/>
   <tile/>
   <tile/>
   <tile/>
   <tile/>
   <tile/>
   <tile/>
   <tile/>
   <tile/>
   <tile/>
   <tile/>
   <tile/>
   <tile/>
   <tile/>
   <tile/>
   <tile/>
   <tile/>
   <tile/>
   <tile/>
   <tile/>
   <tile/>
   <tile/>
   <tile/>
   <tile/>
   <tile/>
   <tile/>
   <tile/>
   <tile/>
   <tile/>
   <tile/>
   <tile/>
   <tile/>
   <tile/>
   <tile/>
   <tile/>
   <tile/>
   <tile/>
   <tile/>
   <tile/>
   <tile/>
   <tile/>
   <tile/>
   <tile/>
   <tile/>
   <tile/>
   <tile/>
   <tile/>
   <tile/>
   <tile/>
   <tile/>
   <tile/>
   <tile/>
   <tile/>
   <tile/>
   <tile/>
   <tile/>
   <tile/>
   <tile gid="65"/>
   <tile gid="65"/>
   <tile/>
   <tile/>
   <tile/>
   <tile/>
   <tile/>
   <tile/>
   <tile gid="65"/>
   <tile/>
   <tile/>
   <tile/>
   <tile/>
   <tile/>
   <tile/>
   <tile/>
   <tile/>
   <tile/>
   <tile/>
   <tile gid="65"/>
   <tile gid="65"/>
   <tile gid="65"/>
   <tile gid="65"/>
   <tile gid="65"/>
   <tile gid="65"/>
   <tile gid="65"/>
   <tile gid="65"/>
   <tile gid="65"/>
   <tile gid="65"/>
   <tile gid="65"/>
   <tile gid="65"/>
   <tile/>
   <tile/>
   <tile/>
   <tile/>
   <tile/>
   <tile/>
   <tile/>
   <tile/>
   <tile/>
   <tile/>
   <tile/>
   <tile/>
   <tile/>
   <tile/>
   <tile/>
   <tile/>
   <tile/>
   <tile/>
   <tile/>
   <tile/>
   <tile/>
   <tile/>
   <tile/>
   <tile/>
   <tile/>
   <tile/>
   <tile/>
   <tile/>
   <tile/>
   <tile/>
   <tile/>
   <tile/>
   <tile/>
   <tile/>
   <tile/>
   <tile/>
   <tile/>
   <tile/>
   <tile/>
   <tile/>
   <tile/>
   <tile/>
   <tile/>
   <tile/>
   <tile/>
   <tile/>
   <tile/>
   <tile/>
   <tile/>
   <tile/>
   <tile/>
   <tile/>
   <tile/>
   <tile/>
   <tile/>
   <tile/>
   <tile/>
   <tile/>
   <tile/>
   <tile/>
   <tile/>
   <tile/>
   <tile/>
   <tile/>
   <tile/>
   <tile/>
   <tile/>
   <tile/>
   <tile/>
   <tile/>
   <tile/>
   <tile/>
   <tile/>
   <tile/>
   <tile/>
   <tile/>
   <tile/>
   <tile/>
   <tile/>
   <tile/>
   <tile/>
   <tile/>
   <tile/>
   <tile/>
   <tile/>
   <tile/>
   <tile/>
   <tile/>
   <tile/>
   <tile/>
   <tile/>
   <tile/>
   <tile/>
   <tile/>
   <tile/>
   <tile/>
   <tile gid="65"/>
   <tile gid="65"/>
   <tile/>
   <tile/>
   <tile/>
   <tile/>
   <tile/>
   <tile/>
   <tile gid="65"/>
   <tile/>
   <tile/>
   <tile/>
   <tile/>
   <tile/>
   <tile/>
   <tile/>
   <tile/>
   <tile/>
   <tile/>
   <tile gid="65"/>
   <tile gid="65"/>
   <tile gid="65"/>
   <tile gid="65"/>
   <tile gid="65"/>
   <tile gid="65"/>
   <tile gid="65"/>
   <tile gid="65"/>
   <tile gid="65"/>
   <tile gid="65"/>
   <tile/>
   <tile/>
   <tile/>
   <tile/>
   <tile/>
   <tile/>
   <tile/>
   <tile/>
   <tile/>
   <tile/>
   <tile/>
   <tile/>
   <tile/>
   <tile/>
   <tile/>
   <tile/>
   <tile/>
   <tile/>
   <tile/>
   <tile/>
   <tile/>
   <tile/>
   <tile gid="65"/>
   <tile gid="65"/>
   <tile gid="65"/>
   <tile gid="65"/>
   <tile gid="65"/>
   <tile gid="65"/>
   <tile gid="65"/>
   <tile gid="65"/>
   <tile gid="65"/>
   <tile gid="65"/>
   <tile gid="65"/>
   <tile gid="65"/>
   <tile gid="65"/>
   <tile gid="65"/>
   <tile gid="65"/>
   <tile gid="65"/>
   <tile gid="65"/>
   <tile gid="65"/>
   <tile gid="65"/>
   <tile gid="65"/>
   <tile gid="65"/>
   <tile gid="65"/>
   <tile gid="65"/>
   <tile gid="65"/>
   <tile/>
   <tile/>
   <tile/>
   <tile/>
   <tile/>
   <tile/>
   <tile/>
   <tile/>
   <tile/>
   <tile/>
   <tile/>
   <tile/>
   <tile/>
   <tile/>
   <tile/>
   <tile/>
   <tile/>
   <tile/>
   <tile/>
   <tile/>
   <tile/>
   <tile/>
   <tile/>
   <tile/>
   <tile/>
   <tile/>
   <tile/>
   <tile/>
   <tile/>
   <tile/>
   <tile/>
   <tile/>
   <tile/>
   <tile/>
   <tile/>
   <tile/>
   <tile gid="65"/>
   <tile/>
   <tile/>
   <tile/>
   <tile/>
   <tile/>
   <tile/>
   <tile/>
   <tile/>
   <tile/>
   <tile/>
   <tile/>
   <tile/>
   <tile/>
   <tile/>
   <tile/>
   <tile gid="65"/>
   <tile gid="65"/>
   <tile/>
   <tile/>
   <tile/>
   <tile/>
   <tile/>
   <tile/>
   <tile gid="65"/>
   <tile/>
   <tile/>
   <tile/>
   <tile/>
   <tile/>
   <tile/>
   <tile/>
   <tile gid="65"/>
   <tile gid="65"/>
   <tile gid="65"/>
   <tile gid="65"/>
   <tile gid="65"/>
   <tile gid="65"/>
   <tile gid="65"/>
   <tile gid="65"/>
   <tile gid="65"/>
   <tile gid="65"/>
   <tile gid="65"/>
   <tile gid="65"/>
   <tile/>
   <tile/>
   <tile/>
   <tile/>
   <tile/>
   <tile/>
   <tile gid="65"/>
   <tile gid="65"/>
   <tile/>
   <tile/>
   <tile/>
   <tile/>
   <tile/>
   <tile/>
   <tile/>
   <tile/>
   <tile/>
   <tile/>
   <tile/>
   <tile/>
   <tile/>
   <tile/>
   <tile/>
   <tile/>
   <tile/>
   <tile/>
   <tile/>
   <tile/>
   <tile/>
   <tile/>
   <tile/>
   <tile/>
   <tile/>
   <tile/>
   <tile/>
   <tile/>
   <tile/>
   <tile/>
   <tile/>
   <tile/>
   <tile/>
   <tile/>
   <tile/>
   <tile/>
   <tile/>
   <tile/>
   <tile/>
   <tile gid="65"/>
   <tile gid="65"/>
   <tile gid="65"/>
   <tile gid="65"/>
   <tile gid="65"/>
   <tile gid="65"/>
   <tile gid="65"/>
   <tile gid="65"/>
   <tile gid="65"/>
   <tile gid="65"/>
   <tile gid="65"/>
   <tile gid="65"/>
   <tile gid="65"/>
   <tile gid="65"/>
   <tile gid="65"/>
   <tile gid="65"/>
   <tile gid="65"/>
   <tile gid="65"/>
   <tile gid="65"/>
   <tile gid="65"/>
   <tile gid="65"/>
   <tile/>
   <tile/>
   <tile/>
   <tile/>
   <tile/>
   <tile/>
   <tile/>
   <tile/>
   <tile/>
   <tile/>
   <tile/>
   <tile/>
   <tile/>
   <tile/>
   <tile/>
   <tile/>
   <tile/>
   <tile/>
   <tile/>
   <tile/>
   <tile/>
   <tile/>
   <tile/>
   <tile/>
   <tile/>
   <tile/>
   <tile/>
   <tile/>
   <tile/>
   <tile/>
   <tile/>
   <tile gid="65"/>
   <tile gid="65"/>
   <tile/>
   <tile/>
   <tile/>
   <tile/>
   <tile/>
   <tile/>
   <tile gid="65"/>
   <tile/>
   <tile/>
   <tile/>
   <tile/>
   <tile/>
   <tile/>
   <tile/>
   <tile gid="65"/>
   <tile gid="65"/>
   <tile gid="65"/>
   <tile gid="65"/>
   <tile gid="65"/>
   <tile gid="65"/>
   <tile gid="65"/>
   <tile gid="65"/>
   <tile gid="65"/>
   <tile gid="65"/>
   <tile/>
   <tile/>
   <tile/>
   <tile/>
   <tile/>
   <tile/>
   <tile/>
   <tile/>
   <tile/>
   <tile/>
   <tile/>
   <tile/>
   <tile/>
   <tile/>
   <tile/>
   <tile/>
   <tile/>
   <tile/>
   <tile/>
   <tile/>
   <tile/>
   <tile/>
   <tile/>
   <tile/>
   <tile/>
   <tile/>
   <tile/>
   <tile/>
   <tile/>
   <tile/>
   <tile/>
   <tile/>
   <tile/>
   <tile/>
   <tile/>
   <tile/>
   <tile/>
   <tile/>
   <tile/>
   <tile/>
   <tile/>
   <tile/>
   <tile/>
   <tile/>
   <tile/>
   <tile/>
   <tile/>
   <tile/>
   <tile/>
   <tile/>
   <tile/>
   <tile/>
   <tile/>
   <tile/>
   <tile/>
   <tile/>
   <tile/>
   <tile/>
   <tile/>
   <tile/>
   <tile/>
   <tile/>
   <tile/>
   <tile/>
   <tile/>
   <tile/>
   <tile/>
   <tile/>
   <tile/>
   <tile/>
   <tile/>
   <tile/>
   <tile/>
   <tile/>
   <tile/>
   <tile/>
   <tile gid="65"/>
   <tile/>
   <tile/>
   <tile/>
   <tile/>
   <tile/>
   <tile/>
   <tile/>
   <tile/>
   <tile/>
   <tile/>
   <tile/>
   <tile/>
   <tile/>
   <tile/>
   <tile/>
   <tile/>
   <tile gid="65"/>
   <tile/>
   <tile/>
   <tile/>
   <tile/>
   <tile/>
   <tile/>
   <tile/>
   <tile/>
   <tile/>
   <tile/>
   <tile/>
   <tile/>
   <tile/>
   <tile/>
   <tile/>
   <tile gid="65"/>
   <tile/>
   <tile/>
   <tile/>
   <tile/>
   <tile/>
   <tile/>
   <tile/>
   <tile gid="65"/>
   <tile gid="65"/>
   <tile gid="65"/>
   <tile gid="65"/>
   <tile gid="65"/>
   <tile gid="65"/>
   <tile gid="65"/>
   <tile gid="65"/>
   <tile gid="65"/>
   <tile/>
   <tile/>
   <tile/>
   <tile/>
   <tile/>
   <tile/>
   <tile/>
   <tile/>
   <tile/>
   <tile/>
   <tile/>
   <tile/>
   <tile/>
   <tile/>
   <tile/>
   <tile/>
   <tile/>
   <tile/>
   <tile/>
   <tile/>
   <tile/>
   <tile/>
   <tile/>
   <tile/>
   <tile/>
   <tile/>
   <tile/>
   <tile/>
   <tile/>
   <tile/>
   <tile/>
   <tile/>
   <tile/>
   <tile/>
   <tile/>
   <tile/>
   <tile/>
   <tile/>
   <tile/>
   <tile/>
   <tile/>
   <tile/>
   <tile/>
   <tile/>
   <tile/>
   <tile/>
   <tile/>
   <tile/>
   <tile/>
   <tile/>
   <tile/>
   <tile/>
   <tile/>
   <tile/>
   <tile/>
   <tile/>
   <tile/>
   <tile/>
   <tile/>
   <tile/>
   <tile/>
   <tile/>
   <tile/>
   <tile/>
   <tile/>
   <tile/>
   <tile/>
   <tile/>
   <tile/>
   <tile/>
   <tile/>
   <tile/>
   <tile/>
   <tile/>
   <tile/>
   <tile/>
   <tile/>
   <tile/>
   <tile/>
   <tile/>
   <tile/>
   <tile/>
   <tile/>
   <tile/>
   <tile/>
   <tile/>
   <tile/>
   <tile/>
   <tile/>
   <tile/>
   <tile/>
   <tile/>
   <tile/>
   <tile/>
   <tile/>
   <tile/>
   <tile/>
   <tile/>
   <tile/>
   <tile/>
   <tile/>
   <tile/>
   <tile/>
   <tile/>
   <tile/>
   <tile/>
   <tile/>
   <tile/>
   <tile/>
   <tile/>
   <tile gid="65"/>
   <tile/>
   <tile/>
   <tile/>
   <tile/>
   <tile/>
   <tile/>
   <tile/>
   <tile gid="65"/>
   <tile gid="65"/>
   <tile gid="65"/>
   <tile gid="65"/>
   <tile gid="65"/>
   <tile gid="65"/>
   <tile gid="65"/>
   <tile/>
   <tile/>
   <tile/>
   <tile/>
   <tile/>
   <tile/>
   <tile/>
   <tile/>
   <tile/>
   <tile/>
   <tile/>
   <tile/>
   <tile/>
   <tile/>
   <tile gid="65"/>
   <tile gid="65"/>
   <tile gid="65"/>
   <tile/>
   <tile/>
   <tile/>
   <tile/>
   <tile/>
   <tile/>
   <tile/>
   <tile/>
   <tile/>
   <tile/>
   <tile/>
   <tile/>
   <tile/>
   <tile/>
   <tile/>
   <tile/>
   <tile/>
   <tile/>
   <tile/>
   <tile/>
   <tile/>
   <tile/>
   <tile/>
   <tile/>
   <tile/>
   <tile/>
   <tile/>
   <tile/>
   <tile/>
   <tile/>
   <tile/>
   <tile/>
   <tile/>
   <tile/>
   <tile/>
   <tile/>
   <tile/>
   <tile/>
   <tile/>
   <tile/>
   <tile/>
   <tile/>
   <tile/>
   <tile/>
   <tile/>
   <tile/>
   <tile/>
   <tile/>
   <tile/>
   <tile/>
   <tile/>
   <tile/>
   <tile/>
   <tile/>
   <tile/>
   <tile/>
   <tile/>
   <tile/>
   <tile/>
   <tile/>
   <tile/>
   <tile/>
   <tile/>
   <tile/>
   <tile/>
   <tile/>
   <tile/>
   <tile/>
   <tile/>
   <tile/>
   <tile/>
   <tile/>
   <tile/>
   <tile/>
   <tile/>
   <tile/>
   <tile/>
   <tile/>
   <tile/>
   <tile/>
   <tile/>
   <tile/>
   <tile/>
   <tile/>
   <tile/>
   <tile/>
   <tile/>
   <tile/>
   <tile/>
   <tile/>
   <tile/>
   <tile/>
   <tile/>
   <tile/>
   <tile/>
   <tile gid="65"/>
   <tile/>
   <tile/>
   <tile/>
   <tile/>
   <tile/>
   <tile/>
   <tile/>
   <tile gid="65"/>
   <tile gid="65"/>
   <tile gid="65"/>
   <tile gid="65"/>
   <tile gid="65"/>
   <tile gid="65"/>
   <tile/>
   <tile/>
   <tile/>
   <tile/>
   <tile/>
   <tile/>
   <tile/>
   <tile/>
   <tile/>
   <tile/>
   <tile/>
   <tile/>
   <tile/>
   <tile/>
   <tile/>
   <tile/>
   <tile/>
   <tile/>
   <tile/>
   <tile/>
   <tile/>
   <tile/>
   <tile/>
   <tile/>
   <tile/>
   <tile/>
   <tile/>
   <tile/>
   <tile/>
   <tile/>
   <tile/>
   <tile/>
   <tile/>
   <tile/>
   <tile/>
   <tile/>
   <tile/>
   <tile/>
   <tile/>
   <tile/>
   <tile/>
   <tile/>
   <tile/>
   <tile/>
   <tile/>
   <tile/>
   <tile/>
   <tile/>
   <tile/>
   <tile/>
   <tile/>
   <tile/>
   <tile/>
   <tile/>
   <tile/>
   <tile/>
   <tile/>
   <tile/>
   <tile/>
   <tile/>
   <tile/>
   <tile/>
   <tile/>
   <tile/>
   <tile/>
   <tile/>
   <tile/>
   <tile/>
   <tile/>
   <tile/>
   <tile/>
   <tile/>
   <tile/>
   <tile/>
   <tile/>
   <tile/>
   <tile/>
   <tile/>
   <tile/>
   <tile/>
   <tile/>
   <tile/>
   <tile/>
   <tile/>
   <tile/>
   <tile/>
   <tile/>
   <tile/>
   <tile/>
   <tile/>
   <tile/>
   <tile/>
   <tile/>
   <tile/>
   <tile/>
   <tile/>
   <tile/>
   <tile/>
   <tile/>
   <tile/>
   <tile/>
   <tile/>
   <tile/>
   <tile/>
   <tile/>
   <tile/>
   <tile/>
   <tile/>
   <tile/>
   <tile/>
   <tile/>
   <tile/>
   <tile/>
   <tile gid="65"/>
   <tile/>
   <tile/>
   <tile/>
   <tile gid="65"/>
   <tile gid="65"/>
   <tile gid="65"/>
   <tile gid="65"/>
   <tile gid="65"/>
   <tile gid="65"/>
   <tile gid="65"/>
   <tile gid="65"/>
   <tile gid="65"/>
   <tile/>
   <tile/>
   <tile/>
   <tile/>
   <tile/>
   <tile/>
   <tile/>
   <tile/>
   <tile/>
   <tile/>
   <tile/>
   <tile/>
   <tile/>
   <tile/>
   <tile/>
   <tile/>
   <tile/>
   <tile/>
   <tile/>
   <tile/>
   <tile/>
   <tile/>
   <tile/>
   <tile/>
   <tile/>
   <tile/>
   <tile/>
   <tile/>
   <tile/>
   <tile/>
   <tile/>
   <tile/>
   <tile/>
   <tile/>
   <tile/>
   <tile/>
   <tile/>
   <tile/>
   <tile/>
   <tile/>
   <tile/>
   <tile/>
   <tile/>
   <tile/>
   <tile/>
   <tile/>
   <tile/>
   <tile/>
   <tile/>
   <tile/>
   <tile/>
   <tile/>
   <tile/>
   <tile/>
   <tile/>
   <tile/>
   <tile/>
   <tile/>
   <tile/>
   <tile/>
   <tile/>
   <tile/>
   <tile/>
   <tile/>
   <tile/>
   <tile/>
   <tile/>
   <tile/>
   <tile/>
   <tile/>
   <tile/>
   <tile/>
   <tile/>
   <tile/>
   <tile/>
   <tile/>
   <tile/>
   <tile/>
   <tile/>
   <tile/>
   <tile/>
   <tile/>
   <tile/>
   <tile/>
   <tile/>
   <tile/>
   <tile/>
   <tile/>
   <tile/>
   <tile/>
   <tile/>
   <tile/>
   <tile/>
   <tile/>
   <tile/>
   <tile/>
   <tile/>
   <tile/>
   <tile/>
   <tile/>
   <tile/>
   <tile/>
   <tile/>
   <tile/>
   <tile/>
   <tile/>
   <tile/>
   <tile/>
   <tile/>
   <tile/>
   <tile/>
   <tile/>
   <tile/>
   <tile/>
   <tile gid="65"/>
   <tile/>
   <tile/>
   <tile/>
   <tile gid="65"/>
   <tile gid="65"/>
   <tile gid="65"/>
   <tile gid="65"/>
   <tile gid="65"/>
   <tile gid="65"/>
   <tile gid="65"/>
   <tile gid="65"/>
   <tile/>
   <tile/>
   <tile/>
   <tile/>
   <tile/>
   <tile/>
   <tile/>
   <tile/>
   <tile/>
   <tile/>
   <tile/>
   <tile/>
   <tile/>
   <tile/>
   <tile/>
   <tile/>
   <tile/>
   <tile/>
   <tile/>
   <tile/>
   <tile/>
   <tile/>
   <tile/>
   <tile/>
   <tile gid="65"/>
   <tile/>
   <tile/>
   <tile/>
   <tile/>
   <tile/>
   <tile/>
   <tile/>
   <tile/>
   <tile/>
   <tile/>
   <tile/>
   <tile/>
   <tile/>
   <tile/>
   <tile/>
   <tile/>
   <tile/>
   <tile/>
   <tile/>
   <tile/>
   <tile/>
   <tile/>
   <tile/>
   <tile/>
   <tile/>
   <tile/>
   <tile/>
   <tile/>
   <tile/>
   <tile/>
   <tile/>
   <tile/>
   <tile/>
   <tile/>
   <tile/>
   <tile/>
   <tile/>
   <tile/>
   <tile/>
   <tile/>
   <tile/>
   <tile/>
   <tile/>
   <tile/>
   <tile/>
   <tile/>
   <tile/>
   <tile/>
   <tile/>
   <tile/>
   <tile/>
   <tile/>
   <tile/>
   <tile/>
   <tile/>
   <tile/>
   <tile/>
   <tile/>
   <tile/>
   <tile/>
   <tile/>
   <tile/>
   <tile/>
   <tile/>
   <tile/>
   <tile/>
   <tile/>
   <tile/>
   <tile/>
   <tile/>
   <tile/>
   <tile/>
   <tile/>
   <tile/>
   <tile/>
   <tile/>
   <tile/>
   <tile/>
   <tile/>
   <tile/>
   <tile/>
   <tile/>
   <tile/>
   <tile/>
   <tile/>
   <tile/>
   <tile/>
   <tile gid="65"/>
   <tile/>
   <tile/>
   <tile gid="65"/>
   <tile/>
   <tile/>
   <tile/>
   <tile gid="65"/>
   <tile gid="65"/>
   <tile gid="65"/>
   <tile gid="65"/>
   <tile gid="65"/>
   <tile gid="65"/>
   <tile gid="65"/>
   <tile/>
   <tile/>
   <tile/>
   <tile/>
   <tile/>
   <tile/>
   <tile/>
   <tile/>
   <tile/>
   <tile/>
   <tile/>
   <tile/>
   <tile/>
   <tile/>
   <tile/>
   <tile/>
   <tile/>
   <tile/>
   <tile/>
   <tile/>
   <tile/>
   <tile/>
   <tile/>
   <tile/>
   <tile/>
   <tile/>
   <tile/>
   <tile/>
   <tile/>
   <tile/>
   <tile/>
   <tile/>
   <tile/>
   <tile/>
   <tile/>
   <tile/>
   <tile/>
   <tile/>
   <tile/>
   <tile/>
   <tile/>
   <tile/>
   <tile/>
   <tile/>
   <tile/>
   <tile/>
   <tile/>
   <tile/>
   <tile/>
   <tile/>
   <tile/>
   <tile/>
   <tile/>
   <tile/>
   <tile/>
   <tile/>
   <tile/>
   <tile/>
   <tile/>
   <tile/>
   <tile/>
   <tile/>
   <tile/>
   <tile/>
   <tile/>
   <tile/>
   <tile/>
   <tile/>
   <tile/>
   <tile/>
   <tile/>
   <tile/>
   <tile/>
   <tile/>
   <tile/>
   <tile/>
   <tile/>
   <tile/>
   <tile/>
   <tile/>
   <tile/>
   <tile/>
   <tile/>
   <tile/>
   <tile/>
   <tile/>
   <tile/>
   <tile/>
   <tile/>
   <tile/>
   <tile/>
   <tile/>
   <tile/>
   <tile/>
   <tile/>
   <tile/>
   <tile/>
   <tile/>
   <tile/>
   <tile/>
   <tile/>
   <tile/>
   <tile/>
   <tile/>
   <tile/>
   <tile/>
   <tile/>
   <tile/>
   <tile/>
   <tile/>
   <tile/>
   <tile/>
   <tile/>
   <tile/>
   <tile/>
   <tile/>
   <tile gid="65"/>
   <tile/>
   <tile gid="65"/>
   <tile gid="65"/>
   <tile gid="65"/>
   <tile gid="65"/>
   <tile gid="65"/>
   <tile gid="65"/>
   <tile gid="65"/>
   <tile gid="65"/>
   <tile/>
   <tile/>
   <tile/>
   <tile/>
   <tile/>
   <tile/>
   <tile/>
   <tile/>
   <tile/>
   <tile/>
   <tile/>
   <tile/>
   <tile/>
   <tile/>
   <tile/>
   <tile/>
   <tile/>
   <tile/>
   <tile/>
   <tile/>
   <tile/>
   <tile/>
   <tile/>
   <tile/>
   <tile/>
   <tile/>
   <tile/>
   <tile/>
   <tile/>
   <tile/>
   <tile/>
   <tile/>
   <tile/>
   <tile/>
   <tile/>
   <tile/>
   <tile/>
   <tile/>
   <tile/>
   <tile/>
   <tile/>
   <tile/>
   <tile/>
   <tile/>
   <tile/>
   <tile/>
   <tile/>
   <tile/>
   <tile/>
   <tile/>
   <tile/>
   <tile/>
   <tile/>
   <tile/>
   <tile/>
   <tile/>
   <tile/>
   <tile/>
   <tile/>
   <tile/>
   <tile/>
   <tile/>
   <tile/>
   <tile/>
   <tile/>
   <tile/>
   <tile/>
   <tile/>
   <tile/>
   <tile/>
   <tile/>
   <tile/>
   <tile/>
   <tile/>
   <tile/>
   <tile/>
   <tile/>
   <tile/>
   <tile/>
   <tile/>
   <tile/>
   <tile/>
   <tile/>
   <tile/>
   <tile/>
   <tile/>
   <tile/>
   <tile/>
   <tile/>
   <tile/>
   <tile/>
   <tile/>
   <tile/>
   <tile/>
   <tile/>
   <tile/>
   <tile/>
   <tile/>
   <tile/>
   <tile/>
   <tile/>
   <tile/>
   <tile/>
   <tile/>
   <tile/>
   <tile/>
   <tile/>
   <tile/>
   <tile/>
   <tile/>
   <tile/>
   <tile/>
   <tile/>
   <tile/>
   <tile/>
   <tile/>
   <tile/>
   <tile gid="65"/>
   <tile/>
   <tile gid="65"/>
   <tile gid="65"/>
   <tile gid="65"/>
   <tile gid="65"/>
   <tile gid="65"/>
   <tile gid="65"/>
   <tile gid="65"/>
   <tile/>
   <tile/>
   <tile/>
   <tile/>
   <tile/>
   <tile/>
   <tile/>
   <tile/>
   <tile/>
   <tile/>
   <tile/>
   <tile/>
   <tile/>
   <tile/>
   <tile/>
   <tile/>
   <tile/>
   <tile/>
   <tile/>
   <tile/>
   <tile/>
   <tile/>
   <tile/>
   <tile/>
   <tile/>
   <tile/>
   <tile/>
   <tile/>
   <tile/>
   <tile/>
   <tile/>
   <tile/>
   <tile/>
   <tile/>
   <tile/>
   <tile/>
   <tile/>
   <tile/>
   <tile/>
   <tile/>
   <tile/>
   <tile/>
   <tile/>
   <tile/>
   <tile/>
   <tile/>
   <tile/>
   <tile/>
   <tile/>
   <tile/>
   <tile/>
   <tile/>
   <tile/>
   <tile/>
   <tile/>
   <tile/>
   <tile/>
   <tile/>
   <tile/>
   <tile/>
   <tile/>
   <tile/>
   <tile/>
   <tile/>
   <tile/>
   <tile/>
   <tile/>
   <tile/>
   <tile/>
   <tile/>
   <tile/>
   <tile/>
   <tile/>
   <tile/>
   <tile/>
   <tile/>
   <tile/>
   <tile/>
   <tile/>
   <tile/>
   <tile/>
   <tile/>
   <tile/>
   <tile/>
   <tile/>
   <tile/>
   <tile/>
   <tile/>
   <tile/>
   <tile/>
   <tile/>
   <tile/>
   <tile/>
   <tile/>
   <tile/>
   <tile/>
   <tile/>
   <tile/>
   <tile/>
   <tile/>
   <tile/>
   <tile/>
   <tile/>
   <tile/>
   <tile/>
   <tile/>
   <tile/>
   <tile/>
   <tile/>
   <tile/>
   <tile/>
   <tile gid="65"/>
   <tile/>
   <tile/>
   <tile/>
   <tile/>
   <tile/>
   <tile/>
   <tile gid="65"/>
   <tile/>
   <tile gid="65"/>
   <tile gid="65"/>
   <tile gid="65"/>
   <tile gid="65"/>
   <tile gid="65"/>
   <tile gid="65"/>
   <tile/>
   <tile/>
   <tile/>
   <tile/>
   <tile/>
   <tile/>
   <tile/>
   <tile/>
   <tile/>
   <tile/>
   <tile/>
   <tile/>
   <tile/>
   <tile/>
   <tile/>
   <tile/>
   <tile/>
   <tile/>
   <tile/>
   <tile/>
   <tile/>
   <tile/>
   <tile/>
   <tile/>
   <tile/>
   <tile/>
   <tile/>
   <tile/>
   <tile/>
   <tile/>
   <tile/>
   <tile/>
   <tile/>
   <tile/>
   <tile/>
   <tile/>
   <tile/>
   <tile/>
   <tile/>
   <tile/>
   <tile/>
   <tile/>
   <tile/>
   <tile/>
   <tile/>
   <tile/>
   <tile/>
   <tile/>
   <tile/>
   <tile/>
   <tile/>
   <tile/>
   <tile/>
   <tile/>
   <tile/>
   <tile/>
   <tile/>
   <tile/>
   <tile/>
   <tile gid="65"/>
   <tile gid="65"/>
   <tile/>
   <tile/>
   <tile/>
   <tile/>
   <tile/>
   <tile/>
   <tile/>
   <tile gid="65"/>
   <tile gid="65"/>
   <tile gid="65"/>
   <tile gid="65"/>
   <tile gid="65"/>
   <tile gid="65"/>
   <tile gid="65"/>
   <tile gid="65"/>
   <tile gid="65"/>
   <tile gid="65"/>
   <tile gid="65"/>
   <tile gid="65"/>
   <tile gid="65"/>
   <tile/>
   <tile/>
   <tile/>
   <tile/>
   <tile/>
   <tile/>
   <tile/>
   <tile/>
   <tile gid="65"/>
   <tile gid="65"/>
   <tile/>
   <tile/>
   <tile/>
   <tile/>
   <tile/>
   <tile/>
   <tile/>
   <tile/>
   <tile/>
   <tile/>
   <tile/>
   <tile/>
   <tile/>
   <tile/>
   <tile/>
   <tile/>
   <tile/>
   <tile/>
   <tile/>
   <tile/>
   <tile/>
   <tile/>
   <tile/>
   <tile/>
   <tile/>
   <tile/>
   <tile/>
   <tile/>
   <tile gid="65"/>
   <tile/>
   <tile gid="65"/>
   <tile gid="65"/>
   <tile gid="65"/>
   <tile gid="65"/>
   <tile gid="65"/>
   <tile/>
   <tile/>
   <tile/>
   <tile/>
   <tile/>
   <tile/>
   <tile/>
   <tile/>
   <tile/>
   <tile/>
   <tile/>
   <tile/>
   <tile/>
   <tile/>
   <tile/>
   <tile/>
   <tile/>
   <tile/>
   <tile/>
   <tile/>
   <tile/>
   <tile/>
   <tile/>
   <tile/>
   <tile/>
   <tile/>
   <tile/>
   <tile/>
   <tile/>
   <tile/>
   <tile/>
   <tile/>
   <tile/>
   <tile/>
   <tile/>
   <tile/>
   <tile/>
   <tile/>
   <tile/>
   <tile/>
   <tile/>
   <tile/>
   <tile/>
   <tile/>
   <tile/>
   <tile/>
   <tile/>
   <tile/>
   <tile/>
   <tile/>
   <tile/>
   <tile/>
   <tile/>
   <tile/>
   <tile/>
   <tile/>
   <tile/>
   <tile/>
   <tile/>
   <tile/>
   <tile/>
   <tile/>
   <tile/>
   <tile/>
   <tile/>
   <tile/>
   <tile/>
   <tile/>
   <tile/>
   <tile/>
   <tile/>
   <tile/>
   <tile/>
   <tile/>
   <tile/>
   <tile/>
   <tile/>
   <tile/>
   <tile/>
   <tile/>
   <tile/>
   <tile/>
   <tile/>
   <tile/>
   <tile/>
   <tile/>
   <tile/>
   <tile/>
   <tile/>
   <tile/>
   <tile/>
   <tile/>
   <tile/>
   <tile/>
   <tile/>
   <tile/>
   <tile/>
   <tile/>
   <tile/>
   <tile/>
   <tile/>
   <tile/>
   <tile/>
   <tile/>
   <tile/>
   <tile/>
   <tile/>
   <tile/>
   <tile/>
   <tile/>
   <tile/>
   <tile/>
   <tile/>
   <tile/>
   <tile/>
   <tile/>
   <tile/>
   <tile/>
   <tile/>
   <tile/>
   <tile gid="65"/>
   <tile/>
   <tile gid="65"/>
   <tile gid="65"/>
   <tile gid="65"/>
   <tile gid="65"/>
   <tile gid="65"/>
   <tile/>
   <tile/>
   <tile/>
   <tile/>
   <tile gid="65"/>
   <tile gid="65"/>
   <tile gid="65"/>
   <tile gid="65"/>
   <tile gid="65"/>
   <tile gid="65"/>
   <tile gid="65"/>
   <tile gid="65"/>
   <tile gid="65"/>
   <tile gid="65"/>
   <tile gid="65"/>
   <tile gid="65"/>
   <tile gid="65"/>
   <tile gid="65"/>
   <tile gid="65"/>
   <tile gid="65"/>
   <tile gid="65"/>
   <tile gid="65"/>
   <tile gid="65"/>
   <tile gid="65"/>
   <tile gid="65"/>
   <tile gid="65"/>
   <tile gid="65"/>
   <tile gid="65"/>
   <tile gid="65"/>
   <tile gid="65"/>
   <tile gid="65"/>
   <tile gid="65"/>
   <tile gid="65"/>
   <tile gid="65"/>
   <tile/>
   <tile/>
   <tile/>
   <tile/>
   <tile/>
   <tile/>
   <tile/>
   <tile/>
   <tile/>
   <tile/>
   <tile/>
   <tile/>
   <tile/>
   <tile/>
   <tile/>
   <tile/>
   <tile gid="65"/>
   <tile gid="65"/>
   <tile gid="65"/>
   <tile gid="65"/>
   <tile gid="65"/>
   <tile gid="65"/>
   <tile gid="65"/>
   <tile gid="65"/>
   <tile gid="65"/>
   <tile gid="65"/>
   <tile gid="65"/>
   <tile gid="65"/>
   <tile gid="65"/>
   <tile gid="65"/>
   <tile gid="65"/>
   <tile gid="65"/>
   <tile gid="65"/>
   <tile gid="65"/>
   <tile gid="65"/>
   <tile gid="65"/>
   <tile gid="65"/>
   <tile gid="65"/>
   <tile gid="65"/>
   <tile gid="65"/>
   <tile gid="65"/>
   <tile gid="65"/>
   <tile gid="65"/>
   <tile gid="65"/>
   <tile gid="65"/>
   <tile gid="65"/>
   <tile gid="65"/>
   <tile gid="65"/>
   <tile gid="65"/>
   <tile gid="65"/>
   <tile gid="65"/>
   <tile gid="65"/>
   <tile gid="65"/>
   <tile gid="65"/>
   <tile gid="65"/>
   <tile gid="65"/>
   <tile gid="65"/>
   <tile gid="65"/>
   <tile gid="65"/>
   <tile gid="65"/>
   <tile gid="65"/>
   <tile gid="65"/>
   <tile gid="65"/>
   <tile gid="65"/>
   <tile gid="65"/>
   <tile gid="65"/>
   <tile/>
   <tile/>
   <tile/>
   <tile/>
   <tile/>
   <tile/>
   <tile/>
   <tile/>
   <tile/>
   <tile/>
   <tile/>
   <tile/>
   <tile/>
   <tile/>
   <tile/>
   <tile/>
   <tile/>
   <tile/>
   <tile/>
   <tile/>
   <tile gid="65"/>
   <tile/>
   <tile gid="65"/>
   <tile gid="65"/>
   <tile gid="65"/>
   <tile gid="65"/>
   <tile gid="65"/>
   <tile gid="65"/>
   <tile gid="65"/>
   <tile gid="65"/>
   <tile gid="65"/>
   <tile gid="65"/>
   <tile gid="65"/>
   <tile gid="65"/>
   <tile gid="65"/>
   <tile gid="65"/>
   <tile gid="65"/>
   <tile gid="65"/>
   <tile gid="65"/>
   <tile gid="65"/>
   <tile gid="65"/>
   <tile gid="65"/>
   <tile gid="65"/>
   <tile gid="65"/>
   <tile gid="65"/>
   <tile gid="65"/>
   <tile gid="65"/>
   <tile gid="65"/>
   <tile gid="65"/>
   <tile gid="65"/>
   <tile gid="65"/>
   <tile gid="65"/>
   <tile gid="65"/>
   <tile gid="65"/>
   <tile gid="65"/>
   <tile gid="65"/>
   <tile gid="65"/>
   <tile gid="65"/>
   <tile gid="65"/>
   <tile gid="65"/>
   <tile gid="65"/>
   <tile gid="65"/>
   <tile gid="65"/>
   <tile gid="65"/>
   <tile/>
   <tile/>
   <tile/>
   <tile/>
   <tile/>
   <tile/>
   <tile/>
   <tile/>
   <tile/>
   <tile/>
   <tile gid="65"/>
   <tile gid="65"/>
   <tile gid="65"/>
   <tile gid="65"/>
   <tile gid="65"/>
   <tile gid="65"/>
   <tile gid="65"/>
   <tile gid="65"/>
   <tile gid="65"/>
   <tile gid="65"/>
   <tile gid="65"/>
   <tile gid="65"/>
   <tile gid="65"/>
   <tile gid="65"/>
   <tile gid="65"/>
   <tile gid="65"/>
   <tile gid="65"/>
   <tile gid="65"/>
   <tile gid="65"/>
   <tile gid="65"/>
   <tile gid="65"/>
   <tile gid="65"/>
   <tile gid="65"/>
   <tile gid="65"/>
   <tile gid="65"/>
   <tile gid="65"/>
   <tile gid="65"/>
   <tile gid="65"/>
   <tile gid="65"/>
   <tile gid="65"/>
   <tile gid="65"/>
   <tile gid="65"/>
   <tile gid="65"/>
   <tile gid="65"/>
   <tile gid="65"/>
   <tile gid="65"/>
   <tile gid="65"/>
   <tile gid="65"/>
   <tile gid="65"/>
   <tile gid="65"/>
   <tile gid="65"/>
   <tile gid="65"/>
   <tile gid="65"/>
   <tile gid="65"/>
   <tile gid="65"/>
   <tile gid="65"/>
   <tile gid="65"/>
   <tile gid="65"/>
   <tile gid="65"/>
   <tile gid="65"/>
   <tile gid="65"/>
   <tile gid="65"/>
   <tile gid="65"/>
   <tile gid="65"/>
   <tile gid="65"/>
   <tile gid="65"/>
   <tile gid="65"/>
   <tile gid="65"/>
   <tile gid="65"/>
   <tile gid="65"/>
   <tile gid="65"/>
   <tile gid="65"/>
   <tile gid="65"/>
   <tile gid="65"/>
   <tile gid="65"/>
   <tile gid="65"/>
   <tile gid="65"/>
   <tile gid="65"/>
   <tile gid="65"/>
   <tile gid="65"/>
   <tile gid="65"/>
   <tile gid="65"/>
   <tile gid="65"/>
   <tile gid="65"/>
   <tile/>
   <tile gid="65"/>
   <tile gid="65"/>
   <tile gid="65"/>
   <tile gid="65"/>
   <tile gid="65"/>
   <tile gid="65"/>
   <tile gid="65"/>
   <tile gid="65"/>
   <tile gid="65"/>
   <tile gid="65"/>
   <tile gid="65"/>
   <tile gid="65"/>
   <tile gid="65"/>
   <tile gid="65"/>
   <tile gid="65"/>
   <tile gid="65"/>
   <tile gid="65"/>
   <tile gid="65"/>
   <tile gid="65"/>
   <tile gid="65"/>
   <tile gid="65"/>
   <tile gid="65"/>
   <tile gid="65"/>
   <tile gid="65"/>
   <tile gid="65"/>
   <tile gid="65"/>
   <tile gid="65"/>
   <tile gid="65"/>
   <tile gid="65"/>
   <tile gid="65"/>
   <tile gid="65"/>
   <tile gid="65"/>
   <tile gid="65"/>
   <tile gid="65"/>
   <tile gid="65"/>
   <tile gid="65"/>
   <tile gid="65"/>
   <tile gid="65"/>
   <tile gid="65"/>
   <tile gid="65"/>
   <tile gid="65"/>
   <tile gid="65"/>
   <tile/>
   <tile/>
   <tile/>
   <tile/>
   <tile/>
   <tile/>
   <tile/>
   <tile/>
   <tile/>
   <tile/>
   <tile gid="65"/>
   <tile gid="65"/>
   <tile gid="65"/>
   <tile gid="65"/>
   <tile gid="65"/>
   <tile gid="65"/>
   <tile gid="65"/>
   <tile gid="65"/>
   <tile gid="65"/>
   <tile gid="65"/>
   <tile gid="65"/>
   <tile gid="65"/>
   <tile gid="65"/>
   <tile gid="65"/>
   <tile gid="65"/>
   <tile gid="65"/>
   <tile gid="65"/>
   <tile gid="65"/>
   <tile gid="65"/>
   <tile gid="65"/>
   <tile gid="65"/>
   <tile gid="65"/>
   <tile gid="65"/>
   <tile gid="65"/>
   <tile gid="65"/>
   <tile gid="65"/>
   <tile gid="65"/>
   <tile gid="65"/>
   <tile gid="65"/>
   <tile gid="65"/>
   <tile gid="65"/>
   <tile gid="65"/>
   <tile gid="65"/>
   <tile gid="65"/>
   <tile gid="65"/>
   <tile gid="65"/>
   <tile gid="65"/>
   <tile gid="65"/>
   <tile gid="65"/>
   <tile gid="65"/>
   <tile gid="65"/>
   <tile gid="65"/>
   <tile gid="65"/>
   <tile gid="65"/>
   <tile gid="65"/>
   <tile gid="65"/>
   <tile gid="65"/>
   <tile gid="65"/>
   <tile gid="65"/>
   <tile gid="65"/>
   <tile gid="65"/>
   <tile gid="65"/>
   <tile gid="65"/>
   <tile gid="65"/>
   <tile gid="65"/>
   <tile gid="65"/>
   <tile gid="65"/>
   <tile gid="65"/>
   <tile gid="65"/>
   <tile gid="65"/>
   <tile gid="65"/>
   <tile gid="65"/>
   <tile gid="65"/>
   <tile gid="65"/>
   <tile gid="65"/>
   <tile gid="65"/>
   <tile gid="65"/>
   <tile gid="65"/>
   <tile gid="65"/>
   <tile gid="65"/>
   <tile gid="65"/>
   <tile gid="65"/>
   <tile gid="65"/>
   <tile gid="65"/>
  </data>
 </layer>
 <objectgroup id="13" name="Path" visible="0">
  <properties>
   <property name="Path" type="bool" value="true"/>
   <property name="Sensor" type="bool" value="true"/>
   <property name="Square" type="bool" value="true"/>
  </properties>
  <object id="565" x="5504" y="7936" width="1280" height="128">
   <properties>
    <property name="TeleportTo" type="file" value="Mountain_02.tmx"/>
   </properties>
  </object>
 </objectgroup>
 <objectgroup id="19" name="Temp" visible="0">
  <object id="406" name="Plataforma Movil" x="9968" y="5744">
   <point/>
  </object>
  <object id="407" name="Plataforma Movil" x="6944" y="5696">
   <point/>
  </object>
  <object id="441" name="Rosa" x="5936" y="2144">
   <point/>
  </object>
  <object id="442" name="Rosa" x="10392" y="7032">
   <point/>
  </object>
 </objectgroup>
 <objectgroup id="11" name="EntitiesSpawnPoints" visible="0">
  <object id="446" name="SkillPointOrb" type="SkillPointOrb" x="1031.15" y="7412.12">
   <point/>
  </object>
  <object id="562" name="Dragon" type="Dragon" x="11904" y="1872.86">
   <point/>
  </object>
  <object id="566" name="Player" type="Player" x="408" y="5944">
   <point/>
  </object>
  <object id="569" name="SkillPointOrb" type="SkillPointOrb" x="13027.3" y="3339.39">
   <point/>
  </object>
  <object id="570" name="SkillPointOrb" type="SkillPointOrb" x="12760.6" y="3324.24">
   <point/>
  </object>
  <object id="571" name="SkillPointOrb" type="SkillPointOrb" x="12763.6" y="3515.15">
   <point/>
  </object>
  <object id="572" name="SkillPointOrb" type="SkillPointOrb" x="13039.4" y="3493.94">
   <point/>
  </object>
 </objectgroup>
 <objectgroup id="15" name="PlayerSpawns" visible="0">
  <properties>
   <property name="PlayerSpawns" type="bool" value="true"/>
  </properties>
  <object id="439" name="Player" type="Player" x="5329.82" y="7362.67">
   <properties>
    <property name="FromRoom" type="file" value="Mountain_02.tmx"/>
   </properties>
   <point/>
  </object>
 </objectgroup>
</map>
