<?xml version="1.0" encoding="UTF-8"?>
<map version="1.10" tiledversion="1.10.2" orientation="orthogonal" renderorder="right-down" width="104" height="72" tilewidth="128" tileheight="128" infinite="0" nextlayerid="35" nextobjectid="1835">
 <properties>
  <property name="Ground" type="bool" value="true"/>
  <property name="Navigation" type="bool" value="true"/>
 </properties>
 <tileset firstgid="1" name="Espinas" tilewidth="128" tileheight="128" tilecount="64" columns="8">
  <image source="Forest/Archivo PSD Espinas.png" width="1024" height="1024"/>
 </tileset>
 <tileset firstgid="65" name="MapMetadata" tilewidth="128" tileheight="128" tilecount="2" columns="2">
  <image source="Pathfinding/MapMetadata.png" trans="ffffff" width="256" height="128"/>
 </tileset>
 <tileset firstgid="67" name="Atl_Montaña" tilewidth="128" tileheight="128" tilecount="64" columns="8">
  <image source="Montain/Tiles/Atl_Montaña.png" width="1024" height="1024"/>
  <wangsets>
   <wangset name="Mixes" type="mixed" tile="-1">
    <wangcolor name="MixTierra" color="#ff0000" tile="-1" probability="1"/>
    <wangcolor name="MixSuperficies" color="#00ff00" tile="-1" probability="1"/>
    <wangtile tileid="28" wangid="2,2,2,2,2,2,2,2"/>
    <wangtile tileid="30" wangid="2,2,2,2,2,2,2,2"/>
    <wangtile tileid="31" wangid="2,2,2,2,2,2,2,2"/>
    <wangtile tileid="36" wangid="1,1,1,1,1,1,1,1"/>
    <wangtile tileid="38" wangid="1,1,1,1,1,1,1,1"/>
    <wangtile tileid="39" wangid="1,1,1,1,1,1,1,1"/>
    <wangtile tileid="46" wangid="1,1,1,1,1,1,1,1"/>
    <wangtile tileid="47" wangid="1,1,1,1,1,1,1,1"/>
   </wangset>
   <wangset name="Aut" type="mixed" tile="-1">
    <wangcolor name="" color="#ff0000" tile="-1" probability="1"/>
    <wangtile tileid="27" wangid="0,0,1,1,0,0,0,0"/>
    <wangtile tileid="28" wangid="0,0,1,1,1,1,1,0"/>
    <wangtile tileid="29" wangid="0,0,0,0,0,1,1,0"/>
    <wangtile tileid="30" wangid="0,0,0,1,1,1,0,0"/>
    <wangtile tileid="31" wangid="0,0,0,1,1,1,0,0"/>
    <wangtile tileid="35" wangid="0,1,1,1,0,0,0,0"/>
    <wangtile tileid="36" wangid="1,1,1,1,1,1,1,1"/>
    <wangtile tileid="37" wangid="0,0,0,0,0,1,1,1"/>
    <wangtile tileid="38" wangid="1,1,1,1,1,1,1,1"/>
    <wangtile tileid="39" wangid="1,1,1,1,1,1,1,1"/>
    <wangtile tileid="43" wangid="0,1,0,0,0,0,0,0"/>
    <wangtile tileid="44" wangid="1,1,0,0,0,0,0,1"/>
    <wangtile tileid="45" wangid="0,0,0,0,0,0,0,1"/>
    <wangtile tileid="46" wangid="1,1,1,1,1,1,1,1"/>
    <wangtile tileid="47" wangid="1,1,1,1,1,1,1,1"/>
   </wangset>
  </wangsets>
 </tileset>
 <tileset firstgid="131" name="Atl_Cueva" tilewidth="128" tileheight="128" tilecount="64" columns="8">
  <image source="Montain/Tiles/Atl_Cueva.png" trans="ffffff" width="1024" height="1024"/>
 </tileset>
 <tileset firstgid="195" name="T_Arbustos" tilewidth="384" tileheight="307" tilecount="35" columns="7">
  <image source="Montain/Arbustos y Rocas/T_Arbustos.png" width="2688" height="1536"/>
 </tileset>
 <tileset firstgid="230" name="Sol" tilewidth="2048" tileheight="2048" tilecount="1" columns="1">
  <image source="Montain/Fondos/Sol.png" width="2048" height="2048"/>
 </tileset>
 <tileset firstgid="231" name="T_Montaña" tilewidth="4096" tileheight="3025" tilecount="1" columns="1">
  <image source="Montain/Fondos/T_Montaña.png" width="4096" height="3025"/>
 </tileset>
 <tileset firstgid="232" name="T_Montaña_2" tilewidth="4096" tileheight="3025" tilecount="1" columns="1">
  <image source="Montain/Fondos/T_Montaña_2.png" width="4096" height="3025"/>
 </tileset>
 <tileset firstgid="233" name="T_Montaña_Castillo" tilewidth="4096" tileheight="3025" tilecount="1" columns="1">
  <image source="Montain/Fondos/T_Montaña_Castillo.png" width="4096" height="3025"/>
 </tileset>
 <tileset firstgid="234" name="Atl_Montaña_Arboles" tilewidth="2304" tileheight="2304" tilecount="1" columns="1">
  <image source="Montain/Fondos/Atl_Montaña_Arboles.png" width="2304" height="2304"/>
 </tileset>
 <tileset firstgid="235" name="T_Nubes" tilewidth="1152" tileheight="384" tilecount="4" columns="1">
  <image source="Montain/Fondos/T_Nubes.png" width="1152" height="1536"/>
 </tileset>
 <tileset firstgid="239" name="Atl_Montaña_Fondo" tilewidth="2304" tileheight="2304" tilecount="1" columns="1">
  <image source="Montain/Fondos/Atl_Montaña_Fondo.png" width="2304" height="2304"/>
 </tileset>
 <tileset firstgid="240" name="T_Luz (1)" tilewidth="4096" tileheight="3025" tilecount="1" columns="1">
  <image source="Montain/luces/T_Luz (1).png" width="4096" height="3025"/>
 </tileset>
 <tileset firstgid="241" name="T_Luz_2" tilewidth="4096" tileheight="3025" tilecount="1" columns="1">
  <image source="Montain/luces/T_Luz (1).png" width="4096" height="3025"/>
 </tileset>
 <tileset firstgid="242" name="Atl_Vegetación" tilewidth="256" tileheight="256" tilecount="16" columns="4">
  <image source="../../../../../Downloads/Atl_Vegetación.png" width="1024" height="1024"/>
  <tile id="0">
   <animation>
    <frame tileid="0" duration="250"/>
    <frame tileid="1" duration="250"/>
    <frame tileid="2" duration="250"/>
    <frame tileid="3" duration="250"/>
   </animation>
  </tile>
  <tile id="4">
   <animation>
    <frame tileid="4" duration="250"/>
    <frame tileid="5" duration="250"/>
    <frame tileid="6" duration="250"/>
    <frame tileid="7" duration="250"/>
   </animation>
  </tile>
  <tile id="8">
   <animation>
    <frame tileid="8" duration="250"/>
    <frame tileid="9" duration="250"/>
    <frame tileid="11" duration="250"/>
   </animation>
  </tile>
  <tile id="12">
   <animation>
    <frame tileid="12" duration="250"/>
    <frame tileid="13" duration="250"/>
    <frame tileid="14" duration="250"/>
    <frame tileid="15" duration="250"/>
   </animation>
  </tile>
 </tileset>
 <tileset firstgid="258" name="t_filas" tilewidth="1024" tileheight="341" tilecount="3" columns="1">
  <image source="Montain/Arbustos y Rocas/t_filas.png" width="1024" height="1024"/>
 </tileset>
 <objectgroup id="23" name="Fondo_01">
  <properties>
   <property name="BG" type="bool" value="true"/>
   <property name="Draw" type="bool" value="true"/>
  </properties>
  <object id="708" gid="231" x="-641.216" y="9611.63" width="6983.96" height="5105.58"/>
  <object id="710" gid="231" x="569.032" y="1789.18" width="5959.96" height="4401.58"/>
  <object id="712" gid="231" x="1096.7" y="9970.46" width="8583.96" height="8657.58"/>
  <object id="714" gid="231" x="3874.95" y="1544" width="5959.96" height="4401.58"/>
  <object id="716" gid="231" x="6223.27" y="9984.82" width="6545.06" height="4833.7"/>
  <object id="717" gid="231" x="6622.12" y="5641.48" width="5959.96" height="4401.58"/>
  <object id="718" gid="231" x="6994.62" y="1730.25" width="5959.96" height="4401.58"/>
  <object id="721" gid="231" x="9147.17" y="5594.92" width="6694.27" height="4941.51"/>
  <object id="722" gid="231" x="10254" y="1683.69" width="5959.96" height="4401.58"/>
  <object id="724" gid="231" x="9623.89" y="9221.02" width="5959.96" height="4401.58"/>
  <object id="737" gid="1073742056" x="-1805.64" y="1882.31" width="5959.96" height="4401.58"/>
  <object id="738" gid="1073742056" x="-1805.64" y="5300.22" width="5959.96" height="4401.58"/>
  <object id="739" gid="1073742056" x="-1619.39" y="8773.51" width="5959.96" height="4401.58"/>
  <object id="741" gid="1073742056" x="662.157" y="1607.3" width="5959.96" height="4401.58"/>
  <object id="742" gid="1073742056" x="662.157" y="4913.22" width="5959.96" height="4401.58"/>
  <object id="743" gid="1073742056" x="848.406" y="8498.51" width="5959.96" height="4401.58"/>
  <object id="746" gid="1073742056" x="2009.59" y="5016.66" width="5900.21" height="4357.46"/>
  <object id="747" gid="1073742056" x="2289.97" y="8126.01" width="5900.21" height="4357.46"/>
  <object id="749" gid="1073742056" x="4526.82" y="2352.29" width="5959.96" height="4401.58"/>
  <object id="750" gid="1073742056" x="4526.82" y="5658.21" width="5959.96" height="4401.58"/>
  <object id="751" gid="1073742056" x="4713.07" y="9243.5" width="5959.96" height="4401.58"/>
  <object id="754" gid="1073742056" x="6808.37" y="5192.59" width="5959.96" height="4401.58"/>
  <object id="755" gid="1073742056" x="6573.47" y="8777.88" width="6381.11" height="4142.42"/>
  <object id="757" gid="1073742056" x="8670.86" y="2352.29" width="5959.96" height="4401.58"/>
  <object id="791" gid="231" x="-3458.6" y="8955.4" width="5959.96" height="4401.58"/>
  <object id="792" gid="231" x="-4320" y="5503.97" width="5959.96" height="4401.58"/>
  <object id="793" gid="231" x="-3877.66" y="4921.95" width="5959.96" height="4401.58"/>
  <object id="794" gid="231" x="-1083.93" y="4013.98" width="5959.96" height="4401.58"/>
  <object id="795" gid="231" x="-3528.44" y="1359.94" width="5959.96" height="4401.58"/>
  <object id="798" gid="231" x="9788.35" y="7669.12" width="5959.96" height="4401.58"/>
  <object id="799" gid="231" x="8717.42" y="4945.23" width="5959.96" height="4401.58"/>
  <object id="802" gid="231" x="5865.48" y="9508.32" width="5959.96" height="4401.58"/>
  <object id="804" gid="231" x="-688.147" y="6272.25" width="5959.96" height="4401.58"/>
  <object id="810" gid="231" x="5364.94" y="2593.84" width="5959.96" height="4401.58"/>
  <object id="811" gid="231" x="7925.86" y="3525.08" width="5959.96" height="4401.58"/>
  <object id="815" gid="231" x="2524.65" y="2361.03" width="5959.96" height="4401.58"/>
 </objectgroup>
 <objectgroup id="24" name="Fondo_02_Arbustos">
  <properties>
   <property name="BG" type="bool" value="true"/>
   <property name="Draw" type="bool" value="true"/>
  </properties>
  <object id="825" gid="224" x="6144" y="8192" width="384" height="307"/>
  <object id="826" gid="227" x="12800" y="8192" width="384" height="307"/>
  <object id="827" gid="223" x="7424" y="8192" width="384" height="307"/>
  <object id="828" gid="196" x="9409" y="7858" width="384" height="307"/>
  <object id="829" gid="196" x="8546" y="7848" width="384" height="307"/>
  <object id="830" gid="195" x="10268.6" y="7844.91" width="384" height="307"/>
  <object id="831" gid="195" x="11532.2" y="7850.97" width="384" height="307"/>
  <object id="832" gid="197" x="11332.2" y="7044.91" width="384" height="307"/>
  <object id="833" gid="197" x="9998.91" y="7050.97" width="384" height="307"/>
  <object id="834" gid="206" x="9088" y="7296" width="384" height="307"/>
  <object id="835" gid="207" x="11904" y="7296" width="384" height="307"/>
  <object id="836" gid="208" x="9600" y="8192" width="384" height="307"/>
  <object id="837" gid="201" x="1280" y="4864" width="384" height="307"/>
  <object id="838" gid="225" x="780.727" y="8160.06" width="384" height="307"/>
  <object id="839" gid="225" x="2029.21" y="7138.85" width="384" height="307"/>
  <object id="840" gid="218" x="3959.52" y="7026.73" width="384" height="307"/>
  <object id="841" gid="205" x="3072" y="7168" width="384" height="307"/>
  <object id="842" gid="205" x="6912" y="8320" width="384" height="307"/>
  <object id="849" gid="219" x="12800" y="7296" width="384" height="307"/>
  <object id="850" gid="2147483874" x="12800" y="6016" width="384" height="307"/>
  <object id="851" gid="2147483874" x="8704" y="5504" width="384" height="307"/>
  <object id="852" gid="2147483867" x="4992" y="4224" width="384" height="307"/>
  <object id="853" gid="220" x="4726" y="3996" width="384" height="307"/>
  <object id="854" gid="199" x="10240" y="4864" width="1152" height="921"/>
  <object id="855" gid="207" x="12032" y="4864" width="384" height="307"/>
  <object id="856" gid="199" x="9856" y="5760" width="384" height="307"/>
  <object id="857" gid="199" x="12288" y="6656" width="384" height="307"/>
  <object id="858" gid="227" x="10368" y="7296" width="384" height="307"/>
  <object id="860" gid="222" x="11152" y="6698" width="384" height="307"/>
  <object id="861" gid="222" x="11154" y="7350" width="384" height="307"/>
  <object id="862" gid="222" x="9606" y="6696" width="384" height="307"/>
  <object id="863" gid="222" x="8624" y="7352" width="384" height="307"/>
  <object id="864" gid="217" x="9846" y="7374" width="384" height="307"/>
  <object id="865" gid="217" x="10560" y="6722" width="384" height="307"/>
  <object id="866" gid="217" x="10472" y="5842" width="384" height="307"/>
  <object id="867" gid="221" x="11356.5" y="5781.27" width="384" height="307"/>
  <object id="868" gid="207" x="12032" y="5760" width="384" height="307"/>
  <object id="869" gid="199" x="11264" y="5760" width="384" height="307"/>
  <object id="872" gid="199" x="9984" y="1792" width="384" height="307"/>
  <object id="873" gid="222" x="10620.1" y="1817.64" width="384" height="307"/>
  <object id="874" gid="219" x="10765.6" y="1629.76" width="384" height="307"/>
  <object id="910" gid="226" x="10240" y="2688" width="384" height="307"/>
  <object id="911" gid="227" x="12032" y="3840" width="384" height="307"/>
  <object id="912" gid="228" x="12032" y="7424" width="384" height="307"/>
  <object id="913" gid="227" x="11904" y="7296" width="384" height="307"/>
  <object id="914" gid="2147483854" x="12032" y="8192" width="384" height="307"/>
  <object id="915" gid="199" x="3328" y="7040" width="384" height="307"/>
  <object id="916" gid="206" x="3968" y="4096" width="384" height="307"/>
  <object id="917" gid="217" x="3972" y="4136" width="384" height="307"/>
  <object id="918" gid="216" x="2986" y="4126" width="384" height="307"/>
  <object id="919" gid="218" x="1356" y="4198" width="384" height="307"/>
  <object id="920" gid="225" x="3328" y="4184" width="384" height="307"/>
  <object id="921" gid="227" x="4352" y="4096" width="384" height="307"/>
  <object id="922" gid="227" x="2176" y="4096" width="384" height="307"/>
  <object id="923" gid="227" x="1664" y="4096" width="384" height="307"/>
  <object id="924" gid="219" x="2816" y="2432" width="384" height="307"/>
  <object id="925" gid="226" x="3840" y="2176" width="384" height="307" rotation="180"/>
 </objectgroup>
 <objectgroup id="25" name="Fondo_04_Arbustos">
  <properties>
   <property name="BG" type="bool" value="true"/>
   <property name="Draw" type="bool" value="true"/>
  </properties>
  <object id="877" gid="224" x="11264" y="1280" width="384" height="307"/>
  <object id="878" gid="224" x="8832" y="4864" width="384" height="307"/>
  <object id="879" gid="228" x="9216" y="4864" width="384" height="307"/>
  <object id="880" gid="228" x="9472" y="5760" width="384" height="307"/>
  <object id="881" gid="208" x="10112" y="6656" width="384" height="307"/>
  <object id="882" gid="205" x="10496" y="8320" width="384" height="307"/>
  <object id="883" gid="198" x="11136" y="8320" width="384" height="307"/>
  <object id="885" gid="195" x="7424" y="7714" width="384" height="307"/>
  <object id="886" gid="196" x="6280" y="7462" width="384" height="307"/>
  <object id="887" gid="197" x="5132" y="7082" width="384" height="307"/>
  <object id="888" gid="195" x="4068" y="6558" width="384" height="307"/>
  <object id="889" gid="195" x="3064" y="6166" width="384" height="307"/>
  <object id="890" gid="198" x="2176" y="5504" width="384" height="307"/>
  <object id="891" gid="222" x="62.5455" y="8105.52" width="384" height="307"/>
  <object id="892" gid="227" x="384" y="8064" width="384" height="307"/>
  <object id="893" gid="219" x="896" y="7936" width="384" height="307"/>
  <object id="894" gid="200" x="1664" y="7040" width="384" height="307"/>
  <object id="895" gid="214" x="3584" y="7040" width="384" height="307"/>
  <object id="896" gid="227" x="3200" y="7040" width="384" height="307"/>
  <object id="897" gid="222" x="2677.7" y="7063.09" width="384" height="307"/>
  <object id="898" gid="204" x="89.8182" y="4469.15" width="384" height="307"/>
  <object id="899" gid="202" x="1024" y="4480" width="384" height="307"/>
  <object id="900" gid="202" x="2688" y="4480" width="384" height="307"/>
  <object id="901" gid="202" x="4224" y="4480" width="384" height="307"/>
  <object id="902" gid="2147483845" x="3992" y="3886" width="384" height="307"/>
  <object id="903" gid="2147483845" x="2208" y="3882" width="384" height="307"/>
  <object id="904" gid="2147483874" x="1280" y="3840" width="384" height="307"/>
  <object id="905" gid="2147483867" x="1280" y="2944" width="384" height="307"/>
  <object id="906" gid="2147483867" x="1280" y="1792" width="384" height="307"/>
  <object id="907" gid="227" x="512" y="1408" width="384" height="307"/>
  <object id="908" gid="207" x="128" y="1408" width="384" height="307"/>
  <object id="909" gid="196" x="6907.67" y="1096.33" width="384" height="307"/>
  <object id="1268" gid="198" x="8864" y="4374" width="384" height="307"/>
  <object id="1269" gid="198" x="9280" y="4386" width="384" height="307"/>
  <object id="1270" gid="198" x="9256" y="4262" width="384" height="307"/>
  <object id="1649" gid="258" x="9204" y="7431" width="1024" height="341"/>
  <object id="1650" gid="258" x="10048" y="7435" width="1024" height="341"/>
  <object id="1652" gid="258" x="11084" y="7423" width="1024" height="341"/>
  <object id="1653" gid="258" x="8836" y="7419" width="1024" height="341"/>
  <object id="1654" gid="259" x="9168" y="6827" width="1024" height="341"/>
  <object id="1655" gid="259" x="9920" y="6827" width="1024" height="341"/>
  <object id="1656" gid="259" x="10756" y="6851" width="1024" height="341"/>
  <object id="1657" gid="259" x="11340" y="6811" width="1024" height="341"/>
  <object id="1658" gid="259" x="11820" y="6795" width="1024" height="341"/>
  <object id="1660" gid="258" x="11804" y="5863" width="1024" height="341"/>
  <object id="1661" gid="258" x="10924" y="5867" width="1024" height="341"/>
  <object id="1662" gid="258" x="10184" y="5851" width="1024" height="341"/>
  <object id="1663" gid="258" x="9332" y="5847" width="1024" height="341"/>
  <object id="1664" gid="258" x="8580" y="5883" width="1024" height="341"/>
  <object id="1665" gid="258" x="8588" y="4955" width="1024" height="341"/>
  <object id="1666" gid="258" x="9288" y="4939" width="1024" height="341"/>
  <object id="1667" gid="258" x="10264" y="4967" width="1024" height="341"/>
  <object id="1668" gid="258" x="11108" y="4971" width="1024" height="341"/>
  <object id="1670" gid="260" x="11536" y="5007" width="1024" height="341"/>
  <object id="1671" gid="260" x="11712" y="3999" width="1024" height="341"/>
  <object id="1672" gid="2147483908" x="12280" y="3971" width="1024" height="341"/>
  <object id="1673" gid="2147483908" x="11728" y="2591" width="1024" height="341"/>
  <object id="1674" gid="2147483908" x="11164" y="2579" width="1024" height="341"/>
  <object id="1676" gid="2147483908" x="12256" y="1959" width="1024" height="341"/>
  <object id="1677" gid="3221225732" x="11144" y="1611" width="1024" height="341"/>
  <object id="1678" gid="3221225732" x="11424" y="1611" width="1024" height="341"/>
  <object id="1680" gid="3221225732" x="12244" y="2159" width="1024" height="341"/>
  <object id="1681" gid="3221225732" x="11752" y="4207" width="1024" height="341"/>
  <object id="1682" gid="3221225732" x="12376" y="4211" width="1024" height="341"/>
  <object id="1684" gid="1073742083" x="11528" y="5203" width="1024" height="341"/>
  <object id="1685" gid="1073742083" x="10620" y="5219" width="1024" height="341"/>
  <object id="1686" gid="1073742083" x="9732" y="5195" width="1024" height="341"/>
  <object id="1687" gid="3221225731" x="8808" y="5199" width="1024" height="341"/>
  <object id="1688" gid="3221225731" x="8664" y="6199" width="1024" height="341"/>
  <object id="1689" gid="1073742084" x="9432" y="6219" width="1024" height="341"/>
  <object id="1690" gid="1073742084" x="10348" y="6179" width="1024" height="341"/>
  <object id="1691" gid="1073742084" x="11068" y="6195" width="1024" height="341"/>
  <object id="1692" gid="1073742084" x="11764" y="6231" width="1024" height="341"/>
  <object id="1693" gid="1073742084" x="9152" y="7023" width="1024" height="341"/>
  <object id="1694" gid="1073742084" x="9856" y="7015" width="1024" height="341"/>
  <object id="1695" gid="1073742084" x="10648" y="7023" width="1024" height="341"/>
  <object id="1696" gid="1073742084" x="11440" y="7023" width="1024" height="341"/>
  <object id="1697" gid="1073742084" x="11868" y="6995" width="1024" height="341"/>
 </objectgroup>
 <objectgroup id="26" name="Fondo_03_Arboles">
  <properties>
   <property name="Draw" type="bool" value="true"/>
   <property name="Font" type="bool" value="true"/>
  </properties>
  <object id="844" gid="234" x="9088" y="8192" width="3072" height="3200"/>
  <object id="846" gid="1073742058" x="1792" y="7040" width="2304" height="2816"/>
  <object id="847" gid="2147483882" x="1920" y="4096" width="2304" height="3968"/>
  <object id="848" gid="234" x="10496" y="2432" width="2304" height="2304"/>
  <object id="1380" gid="199" x="1216" y="4122" width="384" height="307"/>
  <object id="1485" gid="250" x="768" y="5280" width="1056" height="1056"/>
  <object id="1486" gid="254" x="676" y="5696" width="340" height="340"/>
 </objectgroup>
 <objectgroup id="28" name="FONDO PROVISIONAL RAPIDO">
  <properties>
   <property name="BG" type="bool" value="true"/>
   <property name="Draw" type="bool" value="true"/>
  </properties>
  <object id="946" gid="217" x="888" y="8170" width="384" height="307"/>
  <object id="947" gid="217" x="184" y="8142" width="384" height="307"/>
  <object id="948" gid="206" x="640" y="8064" width="1208" height="965.771"/>
  <object id="950" gid="199" x="1116" y="7334" width="384" height="307"/>
  <object id="1187" gid="201" x="6300" y="7074" width="384" height="307"/>
  <object id="1282" gid="206" x="8916" y="4194" width="384" height="307"/>
  <object id="1283" gid="200" x="9172" y="4110" width="384" height="307"/>
  <object id="1382" gid="2147483874" x="1232" y="1970" width="384" height="307"/>
  <object id="1383" gid="2147483874" x="1256" y="2202" width="384" height="307"/>
  <object id="1384" gid="2147483867" x="1272" y="2466" width="384" height="307"/>
  <object id="1385" gid="2147483867" x="1244" y="2818" width="712" height="569.229"/>
  <object id="1386" gid="218" x="2192" y="1534" width="384" height="307"/>
  <object id="1387" gid="218" x="2352" y="1530" width="384" height="307"/>
  <object id="1388" gid="1073742023" x="1068" y="1018" width="1204.53" height="963"/>
  <object id="1389" gid="3221225671" x="2917.73" y="966.5" width="1204.53" height="963"/>
  <object id="1420" gid="242" x="6272" y="7040" width="256" height="256"/>
  <object id="1422" gid="242" x="7517.45" y="7273.45" width="256" height="256"/>
  <object id="1423" gid="242" x="5120" y="6656" width="256" height="256"/>
  <object id="1435" gid="218" x="5223.15" y="6726.73" width="384" height="307"/>
  <object id="1442" gid="206" x="4095.88" y="6205.52" width="384" height="307"/>
  <object id="1446" gid="218" x="4041.33" y="6190.36" width="384" height="307"/>
  <object id="1456" gid="1073742041" x="2180.73" y="5699.45" width="384" height="307"/>
  <object id="1464" gid="217" x="3104" y="5862" width="384" height="307"/>
  <object id="1508" gid="217" x="4978.67" y="3814" width="384" height="307"/>
  <object id="1528" gid="218" x="3109.33" y="1539.33" width="384" height="307"/>
  <object id="1532" gid="205" x="3016" y="3430" width="384" height="307"/>
  <object id="1607" gid="258" x="384" y="1536" width="1024" height="341"/>
  <object id="1609" gid="217" x="3161.08" y="3022" width="258.919" height="207"/>
  <object id="1623" gid="207" x="4544" y="1320.67" width="384" height="307"/>
  <object id="1624" gid="207" x="4010" y="1440" width="384" height="307"/>
  <object id="1627" gid="254" x="3220" y="2210" width="256" height="256"/>
  <object id="1628" gid="2147483902" x="2966" y="1408" width="490" height="490"/>
  <object id="1629" gid="242" x="2312" y="1474" width="256" height="256"/>
  <object id="1630" gid="242" x="3205.33" y="2976.48" width="256" height="256"/>
  <object id="1632" gid="250" x="5036" y="4140" width="300" height="300"/>
  <object id="1634" gid="250" x="9344" y="6784" width="824" height="824"/>
  <object id="1635" gid="250" x="10880" y="6784" width="824" height="824"/>
  <object id="1636" gid="250" x="11648" y="5760" width="824" height="824"/>
  <object id="1637" gid="250" x="8832" y="5760" width="824" height="824"/>
  <object id="1639" gid="242" x="10904" y="5812" width="256" height="256"/>
  <object id="1640" gid="242" x="10532" y="6724" width="256" height="256"/>
  <object id="1698" gid="1073742041" x="12284" y="6262" width="384" height="307"/>
  <object id="1699" gid="1073742041" x="11660" y="6246" width="384" height="307"/>
  <object id="1700" gid="1073742041" x="10380" y="6230" width="384" height="307"/>
  <object id="1701" gid="1073742041" x="9520" y="6222" width="384" height="307"/>
  <object id="1702" gid="1073742041" x="9000" y="6242" width="384" height="307"/>
  <object id="1703" gid="2147483865" x="9352" y="5894" width="384" height="307"/>
  <object id="1704" gid="2147483865" x="9684" y="5874" width="384" height="307"/>
  <object id="1705" gid="2147483865" x="10408" y="5870" width="384" height="307"/>
  <object id="1706" gid="2147483865" x="11508" y="5886" width="384" height="307"/>
  <object id="1707" gid="2147483865" x="12120" y="5882" width="384" height="307"/>
  <object id="1708" gid="2147483865" x="12500" y="5874" width="384" height="307"/>
  <object id="1709" gid="2147483865" x="12224" y="4958" width="384" height="307"/>
  <object id="1711" gid="2147483865" x="10980" y="4990" width="384" height="307"/>
  <object id="1712" gid="2147483865" x="9620" y="5006" width="384" height="307"/>
  <object id="1713" gid="2147483865" x="9320" y="4978" width="384" height="307"/>
  <object id="1714" gid="3221225689" x="9028" y="4422" width="384" height="307"/>
  <object id="1716" gid="1073742030" x="9548" y="5254" width="384" height="307"/>
  <object id="1717" gid="1073742031" x="10844" y="5226" width="384" height="307"/>
  <object id="1718" gid="1073742031" x="11828" y="5238" width="384" height="307"/>
  <object id="1719" gid="246" x="11796" y="5776" width="256" height="256"/>
  <object id="1720" gid="246" x="10180" y="5784" width="256" height="256"/>
  <object id="1721" gid="246" x="9216" y="5792" width="256" height="256"/>
  <object id="1722" gid="246" x="8752" y="5788" width="256" height="256"/>
  <object id="1724" gid="1073742066" x="10620" y="5176" width="256" height="256"/>
  <object id="1725" gid="1073742066" x="11384" y="5208" width="256" height="256"/>
  <object id="1728" gid="254" x="11816" y="6716" width="256" height="256"/>
  <object id="1729" gid="254" x="10536" y="5800" width="256" height="256"/>
  <object id="1730" gid="254" x="10936" y="4960" width="256" height="256"/>
  <object id="1740" gid="260" x="6068" y="8343" width="1024" height="341"/>
  <object id="1741" gid="260" x="6960" y="8343" width="1024" height="341"/>
  <object id="1742" gid="260" x="7392" y="8371" width="1024" height="341"/>
  <object id="1743" gid="260" x="8852" y="8347" width="1024" height="341"/>
  <object id="1744" gid="259" x="9608" y="8355" width="1024" height="341"/>
  <object id="1745" gid="2147483907" x="10412" y="8323" width="1024" height="341"/>
  <object id="1746" gid="2147483907" x="11240" y="8315" width="1024" height="341"/>
  <object id="1748" gid="2147483907" x="11820" y="8339" width="1024" height="341"/>
  <object id="1749" gid="2147483907" x="3092" y="7183" width="1024" height="341"/>
  <object id="1750" gid="2147483907" x="2304" y="7171" width="1024" height="341"/>
  <object id="1751" gid="2147483907" x="1760" y="7155" width="1024" height="341"/>
  <object id="1752" gid="2147483907" x="1460" y="4231" width="1024" height="341"/>
  <object id="1753" gid="2147483907" x="2112" y="4247" width="1024" height="341"/>
  <object id="1754" gid="2147483907" x="2768" y="4255" width="1024" height="341"/>
  <object id="1755" gid="2147483907" x="3552" y="4243" width="1024" height="341"/>
  <object id="1756" gid="2147483907" x="3804" y="4251" width="1024" height="341"/>
  <object id="1757" gid="3221225731" x="5056" y="331" width="1024" height="341"/>
  <object id="1758" gid="3221225731" x="5680" y="339" width="1024" height="341"/>
  <object id="1759" gid="3221225731" x="6416" y="339" width="1024" height="341"/>
  <object id="1760" gid="3221225731" x="6688" y="347" width="1024" height="341"/>
  <object id="1762" gid="3221225731" x="3240" y="331" width="1024" height="341"/>
  <object id="1763" gid="3221225731" x="3808" y="363" width="1024" height="341"/>
  <object id="1764" gid="3221225731" x="4176" y="347" width="1024" height="341"/>
  <object id="1765" gid="3221225731" x="1848" y="339" width="1024" height="341"/>
  <object id="1766" gid="3221225731" x="1296" y="323" width="1024" height="341"/>
  <object id="1795" gid="229" x="5732.24" y="1038.85" width="384" height="307"/>
  <object id="1801" gid="206" x="12252" y="2538" width="384" height="307"/>
  <object id="1802" gid="1073742048" x="12024" y="3426" width="384" height="307"/>
  <object id="1803" gid="3221225696" x="12540" y="2198" width="384" height="307"/>
  <object id="1804" gid="2147483872" x="12384" y="1846" width="384" height="307"/>
  <object id="1805" gid="1073742030" x="12056" y="4214" width="384" height="307"/>
  <object id="1806" gid="1073742024" x="12752" y="4226" width="384" height="307"/>
  <object id="1809" gid="1073742024" x="9016" y="4478" width="384" height="307"/>
  <object id="1810" gid="1073742024" x="8212" y="3586" width="384" height="307"/>
  <object id="1819" gid="1073742023" x="8864" y="6190" width="384" height="307"/>
  <object id="1820" gid="1073742023" x="9244" y="6206" width="384" height="307"/>
  <object id="1821" gid="199" x="10792" y="6794" width="384" height="307"/>
  <object id="1822" gid="199" x="10844" y="7446" width="384" height="307"/>
  <object id="1823" gid="195" x="6853.45" y="1102.48" width="384" height="307"/>
  <object id="1825" gid="207" x="6983.76" y="802.485" width="384" height="307"/>
  <object id="1831" gid="242" x="11776" y="2432" width="256" height="256"/>
  <object id="1832" gid="242" x="12288" y="1792" width="256" height="256"/>
  <object id="1833" gid="250" x="12416" y="768" width="644" height="644"/>
 </objectgroup>
 <objectgroup id="31" name="ELIMINAR RAPIDO">
  <properties>
   <property name="BG" type="bool" value="true"/>
   <property name="Draw" type="bool" value="true"/>
  </properties>
  <object id="949" gid="199" x="0" y="8136" width="904" height="722.729"/>
  <object id="957" gid="219" x="320.121" y="6026.73" width="384" height="307"/>
  <object id="958" gid="219" x="965.576" y="6063.09" width="384" height="307"/>
  <object id="959" gid="219" x="950.424" y="6281.27" width="384" height="307"/>
  <object id="960" gid="226" x="941.333" y="6469.15" width="384" height="307"/>
  <object id="961" gid="2147483874" x="68.6061" y="6450.97" width="384" height="307"/>
  <object id="962" gid="2147483874" x="71.6364" y="6266.12" width="384" height="307"/>
  <object id="963" gid="2147483874" x="95.8788" y="6090.36" width="384" height="307"/>
  <object id="964" gid="2147483874" x="86.7879" y="5875.21" width="384" height="307"/>
  <object id="965" gid="2147483874" x="68.6061" y="5741.88" width="384" height="307"/>
  <object id="966" gid="2147483874" x="89.8182" y="5493.39" width="384" height="307"/>
  <object id="984" gid="222" x="662.545" y="8108.55" width="384" height="307"/>
  <object id="985" gid="217" x="662.545" y="8123.7" width="384" height="307"/>
  <object id="1014" gid="198" x="32.2424" y="4620.67" width="1001.83" height="800.939"/>
  <object id="1167" gid="1073742041" x="10856.5" y="4844.91" width="384" height="307"/>
  <object id="1168" gid="2147483865" x="10753.5" y="4557.03" width="384" height="307"/>
  <object id="1169" gid="213" x="10783.8" y="4511.58" width="384" height="307"/>
  <object id="1170" gid="213" x="10944.4" y="4487.33" width="384" height="307"/>
  <object id="1174" gid="199" x="8212" y="5302" width="384" height="307"/>
  <object id="1175" gid="199" x="7448" y="7362" width="384" height="307"/>
  <object id="1183" gid="1073742019" x="6272" y="7040" width="384" height="307"/>
  <object id="1185" gid="1073742031" x="6264" y="7422" width="384" height="307"/>
  <object id="1284" gid="1073742026" x="8940" y="4210" width="384" height="307"/>
  <object id="1285" gid="227" x="9165.58" y="4138.85" width="384" height="307"/>
  <object id="1286" gid="227" x="9532.24" y="4893.39" width="384" height="307"/>
  <object id="1287" gid="227" x="9862.55" y="4899.45" width="384" height="307"/>
  <object id="1288" gid="222" x="9086.79" y="4917.64" width="384" height="307"/>
  <object id="1289" gid="222" x="10286.8" y="4899.45" width="384" height="307"/>
  <object id="1290" gid="214" x="10683.8" y="4893.39" width="384" height="307"/>
  <object id="1291" gid="215" x="11226.2" y="4893.39" width="384" height="307"/>
  <object id="1292" gid="215" x="11844.4" y="4890.36" width="384" height="307"/>
  <object id="1293" gid="215" x="12262.5" y="4914.61" width="384" height="307"/>
  <object id="1294" gid="215" x="12326.2" y="3896.42" width="384" height="307"/>
  <object id="1295" gid="199" x="12483.8" y="3941.88" width="384" height="307"/>
  <object id="1376" gid="199" x="2265.58" y="4129.76" width="384" height="307"/>
  <object id="1377" gid="199" x="2759.52" y="4160.06" width="384" height="307"/>
  <object id="1378" gid="199" x="3117.09" y="4108.55" width="384" height="307"/>
  <object id="1379" gid="199" x="3641.33" y="4144.91" width="384" height="307"/>
  <object id="1414" gid="1073742048" x="256" y="1280" width="1049.43" height="839"/>
  <object id="1426" gid="206" x="5120.12" y="6723.7" width="384" height="307"/>
  <object id="1443" gid="220" x="4068.61" y="6193.39" width="384" height="307"/>
  <object id="1445" gid="220" x="4156.48" y="6187.33" width="384" height="307"/>
  <object id="1460" gid="207" x="2238.3" y="5432.79" width="384" height="307"/>
  <object id="1461" gid="207" x="3016" y="5814" width="384" height="307"/>
  <object id="1489" gid="250" x="2304" y="3840" width="256" height="256"/>
  <object id="1499" gid="242" x="5080" y="3768" width="256" height="256"/>
  <object id="1506" gid="207" x="4935.27" y="3775.21" width="384" height="307"/>
  <object id="1526" gid="1073742040" x="3136" y="1778" width="384" height="307"/>
  <object id="1527" gid="206" x="3205.33" y="1462.67" width="245.333" height="196.139"/>
  <object id="1546" gid="1073742041" x="3177.7" y="3490.36" width="384" height="307"/>
  <object id="1547" gid="217" x="3186" y="3232" width="384" height="307"/>
  <object id="1548" gid="1073742047" x="3124" y="2620.04" width="304" height="243.042"/>
  <object id="1549" gid="223" x="3160" y="2234.48" width="304" height="243.042"/>
  <object id="1593" gid="199" x="1024" y="2048" width="384" height="307"/>
  <object id="1594" gid="1073742023" x="1024" y="2304" width="384" height="307"/>
  <object id="1597" gid="206" x="1024" y="2688" width="384" height="307"/>
  <object id="1598" gid="1073742030" x="1024" y="2944" width="384" height="307"/>
  <object id="1604" gid="213" x="896" y="1408" width="384" height="307"/>
  <object id="1605" gid="258" x="0" y="1536" width="1024" height="341"/>
  <object id="1611" gid="206" x="3226.67" y="2990.35" width="229.333" height="183.347"/>
  <object id="1612" gid="206" x="4115.64" y="2735.6" width="229.333" height="183.347"/>
  <object id="1613" gid="1073742030" x="4109.58" y="2447.72" width="229.333" height="183.347"/>
  <object id="1614" gid="205" x="3920.12" y="1584.3" width="384" height="307"/>
  <object id="1615" gid="205" x="4153.45" y="2447.94" width="384" height="307"/>
  <object id="1619" gid="1073742041" x="4637.91" y="1542.18" width="202.182" height="161.64"/>
  <object id="1620" gid="213" x="4492" y="1311" width="384" height="307"/>
  <object id="1644" gid="242" x="11444" y="7360" width="256" height="256"/>
  <object id="1645" gid="242" x="10484" y="7344" width="256" height="256"/>
  <object id="1646" gid="246" x="9784" y="7320" width="256" height="256"/>
  <object id="1647" gid="250" x="10484" y="8372" width="820" height="820"/>
  <object id="1648" gid="250" x="11686" y="7586" width="820" height="820"/>
  <object id="1767" gid="206" x="7384" y="8258" width="384" height="307"/>
  <object id="1768" gid="206" x="6116" y="8246" width="384" height="307"/>
  <object id="1770" gid="199" x="6636" y="8282" width="384" height="307"/>
  <object id="1771" gid="199" x="9180" y="8286" width="384" height="307"/>
  <object id="1772" gid="207" x="10292" y="8266" width="384" height="307"/>
  <object id="1773" gid="206" x="11444" y="8294" width="384" height="307"/>
  <object id="1774" gid="206" x="11408" y="6754" width="384" height="307"/>
  <object id="1775" gid="206" x="11976" y="6758" width="384" height="307"/>
  <object id="1776" gid="206" x="9432" y="6758" width="384" height="307"/>
  <object id="1777" gid="206" x="9600" y="5870" width="384" height="307"/>
  <object id="1778" gid="206" x="10556" y="4998" width="384" height="307"/>
  <object id="1779" gid="259" x="11676" y="2615" width="1024" height="341"/>
  <object id="1780" gid="207" x="11912" y="2490" width="384" height="307"/>
  <object id="1781" gid="207" x="12032" y="1862" width="384" height="307"/>
  <object id="1782" gid="207" x="12704" y="1842" width="384" height="307"/>
  <object id="1784" gid="202" x="5660" y="1398" width="384" height="307"/>
  <object id="1787" gid="200" x="5624" y="1078" width="384" height="307"/>
 </objectgroup>
 <objectgroup id="32" name="ELIMINAR">
  <properties>
   <property name="BG" type="bool" value="true"/>
   <property name="Draw" type="bool" value="true"/>
  </properties>
  <object id="987" gid="217" x="280.727" y="8123.7" width="384" height="307"/>
  <object id="989" gid="225" x="517.091" y="8193.39" width="384" height="307"/>
  <object id="990" gid="205" x="1129.21" y="7850.97" width="384" height="307"/>
  <object id="991" gid="205" x="-61.697" y="7263.09" width="384" height="307"/>
  <object id="992" gid="2147483874" x="59.5152" y="6863.09" width="384" height="307"/>
  <object id="993" gid="2147483874" x="74.6667" y="7108.55" width="384" height="307"/>
  <object id="994" gid="207" x="1147.39" y="7220.67" width="384" height="307"/>
  <object id="995" gid="207" x="538.303" y="5896.42" width="384" height="307"/>
  <object id="996" gid="207" x="1129.21" y="5878.24" width="384" height="307"/>
  <object id="997" gid="200" x="1041.33" y="5575.21" width="384" height="307"/>
  <object id="998" gid="1073742024" x="1038.3" y="5872.18" width="384" height="307"/>
  <object id="1009" gid="206" x="-110.182" y="4635.82" width="384" height="307"/>
  <object id="1010" gid="1073742030" x="-88.9697" y="4926.73" width="384" height="307"/>
  <object id="1011" gid="1073742030" x="-101.091" y="5050.97" width="384" height="307"/>
  <object id="1012" gid="1073742030" x="-16.2424" y="4469.15" width="384" height="307"/>
  <object id="1013" gid="1073742030" x="720.121" y="4432.79" width="384" height="307"/>
  <object id="1017" gid="1073742041" x="314.061" y="4420.67" width="384" height="307"/>
  <object id="1018" gid="1073742041" x="520.121" y="4426.73" width="384" height="307"/>
  <object id="1019" gid="217" x="1186.79" y="4990.36" width="384" height="307"/>
  <object id="1020" gid="2147483865" x="1526.18" y="4996.42" width="384" height="307"/>
  <object id="1022" gid="199" x="1408" y="4923.7" width="384" height="307"/>
  <object id="1023" gid="199" x="2180.73" y="7144.91" width="384" height="307"/>
  <object id="1024" gid="199" x="2892.85" y="7141.88" width="384" height="307"/>
  <object id="1172" gid="215" x="10750.4" y="4493.39" width="384" height="307"/>
  <object id="1173" gid="199" x="11608" y="4958" width="384" height="307"/>
  <object id="1217" gid="199" x="11814.1" y="3908.55" width="384" height="307"/>
  <object id="1218" gid="206" x="12829.2" y="3878.24" width="384" height="307"/>
  <object id="1219" gid="206" x="11153.5" y="2496.42" width="384" height="307"/>
  <object id="1220" gid="206" x="11408" y="2496.42" width="384" height="307"/>
  <object id="1224" gid="202" x="11905" y="2150.97" width="384" height="307"/>
  <object id="1225" gid="202" x="12159.5" y="2175.21" width="384" height="307"/>
  <object id="1226" gid="1073742041" x="12986.8" y="2157.03" width="384" height="307"/>
  <object id="1227" gid="217" x="12959.5" y="1911.58" width="384" height="307"/>
  <object id="1468" gid="218" x="2114.06" y="5578.24" width="384" height="307"/>
  <object id="1470" gid="218" x="1211.03" y="4978.24" width="384" height="307"/>
  <object id="1471" gid="218" x="1580.73" y="4984.3" width="384" height="307"/>
  <object id="1472" gid="218" x="517.091" y="5766.12" width="384" height="307"/>
  <object id="1473" gid="246" x="520.485" y="8103.76" width="256" height="256"/>
  <object id="1476" gid="246" x="1105.33" y="7315.88" width="256" height="256"/>
  <object id="1477" gid="242" x="820.485" y="8100.73" width="256" height="256"/>
  <object id="1478" gid="250" x="2232" y="5744" width="256" height="256"/>
  <object id="1479" gid="250" x="3136" y="6136" width="256" height="256"/>
  <object id="1552" gid="200" x="3138" y="2186" width="384" height="307"/>
  <object id="1553" gid="200" x="2092" y="1438" width="384" height="307"/>
  <object id="1556" gid="1073742019" x="2232.24" y="1450.97" width="384" height="307"/>
  <object id="1557" gid="204" x="2395.88" y="2860.06" width="384" height="307"/>
  <object id="1558" gid="2147483852" x="2077.7" y="2363.09" width="384" height="307"/>
  <object id="1559" gid="205" x="2380.73" y="1684.3" width="384" height="307"/>
 </objectgroup>
 <layer id="34" name="Fondoç" width="104" height="72">
  <data>
   <tile/>
   <tile/>
   <tile/>
   <tile/>
   <tile/>
   <tile/>
   <tile/>
   <tile/>
   <tile/>
   <tile/>
   <tile/>
   <tile/>
   <tile/>
   <tile/>
   <tile/>
   <tile/>
   <tile/>
   <tile/>
   <tile/>
   <tile/>
   <tile/>
   <tile/>
   <tile/>
   <tile/>
   <tile/>
   <tile/>
   <tile/>
   <tile/>
   <tile/>
   <tile/>
   <tile/>
   <tile/>
   <tile/>
   <tile/>
   <tile/>
   <tile/>
   <tile/>
   <tile/>
   <tile/>
   <tile/>
   <tile/>
   <tile/>
   <tile/>
   <tile/>
   <tile/>
   <tile/>
   <tile/>
   <tile/>
   <tile/>
   <tile/>
   <tile/>
   <tile/>
   <tile/>
   <tile/>
   <tile/>
   <tile/>
   <tile/>
   <tile/>
   <tile/>
   <tile/>
   <tile/>
   <tile/>
   <tile/>
   <tile/>
   <tile/>
   <tile/>
   <tile/>
   <tile/>
   <tile/>
   <tile/>
   <tile/>
   <tile/>
   <tile/>
   <tile/>
   <tile/>
   <tile/>
   <tile/>
   <tile/>
   <tile/>
   <tile/>
   <tile/>
   <tile/>
   <tile/>
   <tile/>
   <tile/>
   <tile/>
   <tile/>
   <tile/>
   <tile/>
   <tile/>
   <tile/>
   <tile/>
   <tile/>
   <tile/>
   <tile/>
   <tile/>
   <tile/>
   <tile/>
   <tile/>
   <tile/>
   <tile/>
   <tile/>
   <tile/>
   <tile/>
   <tile/>
   <tile/>
   <tile/>
   <tile/>
   <tile/>
   <tile/>
   <tile/>
   <tile/>
   <tile/>
   <tile/>
   <tile/>
   <tile/>
   <tile/>
   <tile/>
   <tile/>
   <tile/>
   <tile/>
   <tile/>
   <tile/>
   <tile/>
   <tile/>
   <tile/>
   <tile/>
   <tile/>
   <tile/>
   <tile/>
   <tile/>
   <tile/>
   <tile/>
   <tile/>
   <tile/>
   <tile/>
   <tile/>
   <tile/>
   <tile/>
   <tile/>
   <tile/>
   <tile/>
   <tile/>
   <tile/>
   <tile/>
   <tile/>
   <tile/>
   <tile/>
   <tile/>
   <tile/>
   <tile/>
   <tile/>
   <tile/>
   <tile/>
   <tile/>
   <tile/>
   <tile/>
   <tile/>
   <tile/>
   <tile/>
   <tile/>
   <tile/>
   <tile/>
   <tile/>
   <tile/>
   <tile/>
   <tile/>
   <tile/>
   <tile/>
   <tile/>
   <tile/>
   <tile/>
   <tile/>
   <tile/>
   <tile/>
   <tile/>
   <tile/>
   <tile gid="161"/>
   <tile gid="161"/>
   <tile gid="161"/>
   <tile gid="161"/>
   <tile gid="161"/>
   <tile gid="161"/>
   <tile gid="161"/>
   <tile gid="161"/>
   <tile gid="161"/>
   <tile gid="161"/>
   <tile gid="161"/>
   <tile gid="161"/>
   <tile gid="161"/>
   <tile gid="161"/>
   <tile gid="161"/>
   <tile gid="161"/>
   <tile gid="161"/>
   <tile gid="161"/>
   <tile gid="161"/>
   <tile gid="161"/>
   <tile gid="161"/>
   <tile gid="161"/>
   <tile gid="161"/>
   <tile/>
   <tile/>
   <tile/>
   <tile/>
   <tile/>
   <tile/>
   <tile/>
   <tile/>
   <tile/>
   <tile/>
   <tile/>
   <tile/>
   <tile/>
   <tile/>
   <tile/>
   <tile/>
   <tile/>
   <tile/>
   <tile/>
   <tile/>
   <tile/>
   <tile/>
   <tile/>
   <tile/>
   <tile/>
   <tile/>
   <tile/>
   <tile/>
   <tile/>
   <tile/>
   <tile/>
   <tile/>
   <tile/>
   <tile/>
   <tile/>
   <tile/>
   <tile/>
   <tile/>
   <tile/>
   <tile/>
   <tile/>
   <tile/>
   <tile/>
   <tile/>
   <tile/>
   <tile/>
   <tile/>
   <tile/>
   <tile/>
   <tile/>
   <tile/>
   <tile/>
   <tile/>
   <tile/>
   <tile/>
   <tile/>
   <tile/>
   <tile/>
   <tile/>
   <tile/>
   <tile/>
   <tile/>
   <tile/>
   <tile/>
   <tile/>
   <tile/>
   <tile/>
   <tile/>
   <tile/>
   <tile/>
   <tile/>
   <tile/>
   <tile/>
   <tile/>
   <tile/>
   <tile/>
   <tile/>
   <tile/>
   <tile/>
   <tile/>
   <tile gid="161"/>
   <tile gid="161"/>
   <tile gid="161"/>
   <tile gid="161"/>
   <tile gid="161"/>
   <tile gid="161"/>
   <tile gid="161"/>
   <tile gid="161"/>
   <tile gid="161"/>
   <tile gid="161"/>
   <tile gid="161"/>
   <tile gid="161"/>
   <tile gid="161"/>
   <tile gid="161"/>
   <tile gid="161"/>
   <tile gid="161"/>
   <tile gid="161"/>
   <tile gid="161"/>
   <tile gid="161"/>
   <tile gid="161"/>
   <tile gid="161"/>
   <tile gid="161"/>
   <tile gid="161"/>
   <tile gid="161"/>
   <tile/>
   <tile/>
   <tile/>
   <tile/>
   <tile/>
   <tile/>
   <tile/>
   <tile/>
   <tile/>
   <tile/>
   <tile/>
   <tile/>
   <tile/>
   <tile/>
   <tile/>
   <tile/>
   <tile/>
   <tile/>
   <tile/>
   <tile/>
   <tile/>
   <tile/>
   <tile/>
   <tile/>
   <tile/>
   <tile/>
   <tile/>
   <tile/>
   <tile/>
   <tile/>
   <tile/>
   <tile/>
   <tile/>
   <tile/>
   <tile/>
   <tile/>
   <tile/>
   <tile/>
   <tile/>
   <tile/>
   <tile/>
   <tile/>
   <tile/>
   <tile/>
   <tile/>
   <tile/>
   <tile/>
   <tile/>
   <tile/>
   <tile/>
   <tile/>
   <tile/>
   <tile/>
   <tile/>
   <tile/>
   <tile/>
   <tile/>
   <tile/>
   <tile/>
   <tile/>
   <tile/>
   <tile/>
   <tile/>
   <tile/>
   <tile/>
   <tile/>
   <tile/>
   <tile/>
   <tile/>
   <tile/>
   <tile/>
   <tile/>
   <tile/>
   <tile/>
   <tile/>
   <tile/>
   <tile/>
   <tile/>
   <tile/>
   <tile/>
   <tile/>
   <tile gid="161"/>
   <tile gid="161"/>
   <tile gid="161"/>
   <tile gid="161"/>
   <tile gid="161"/>
   <tile gid="161"/>
   <tile gid="161"/>
   <tile gid="161"/>
   <tile gid="161"/>
   <tile gid="161"/>
   <tile gid="161"/>
   <tile gid="161"/>
   <tile gid="161"/>
   <tile gid="161"/>
   <tile gid="161"/>
   <tile gid="161"/>
   <tile gid="161"/>
   <tile gid="161"/>
   <tile gid="161"/>
   <tile gid="161"/>
   <tile gid="161"/>
   <tile gid="161"/>
   <tile gid="161"/>
   <tile/>
   <tile/>
   <tile/>
   <tile/>
   <tile/>
   <tile/>
   <tile/>
   <tile/>
   <tile/>
   <tile/>
   <tile/>
   <tile/>
   <tile/>
   <tile/>
   <tile/>
   <tile/>
   <tile/>
   <tile/>
   <tile/>
   <tile/>
   <tile/>
   <tile/>
   <tile/>
   <tile/>
   <tile/>
   <tile/>
   <tile/>
   <tile/>
   <tile/>
   <tile/>
   <tile/>
   <tile/>
   <tile/>
   <tile/>
   <tile/>
   <tile/>
   <tile/>
   <tile/>
   <tile/>
   <tile/>
   <tile/>
   <tile/>
   <tile/>
   <tile/>
   <tile/>
   <tile/>
   <tile/>
   <tile/>
   <tile/>
   <tile/>
   <tile/>
   <tile/>
   <tile/>
   <tile/>
   <tile/>
   <tile/>
   <tile/>
   <tile/>
   <tile/>
   <tile/>
   <tile/>
   <tile/>
   <tile/>
   <tile/>
   <tile/>
   <tile/>
   <tile/>
   <tile/>
   <tile/>
   <tile/>
   <tile/>
   <tile/>
   <tile/>
   <tile/>
   <tile/>
   <tile/>
   <tile/>
   <tile/>
   <tile/>
   <tile/>
   <tile/>
   <tile gid="161"/>
   <tile gid="161"/>
   <tile gid="161"/>
   <tile gid="161"/>
   <tile gid="161"/>
   <tile gid="161"/>
   <tile gid="161"/>
   <tile gid="161"/>
   <tile gid="161"/>
   <tile gid="161"/>
   <tile gid="161"/>
   <tile gid="161"/>
   <tile gid="161"/>
   <tile gid="161"/>
   <tile gid="161"/>
   <tile gid="161"/>
   <tile gid="161"/>
   <tile gid="161"/>
   <tile gid="161"/>
   <tile gid="161"/>
   <tile gid="161"/>
   <tile/>
   <tile/>
   <tile/>
   <tile/>
   <tile/>
   <tile/>
   <tile/>
   <tile/>
   <tile/>
   <tile/>
   <tile/>
   <tile/>
   <tile/>
   <tile/>
   <tile/>
   <tile/>
   <tile/>
   <tile/>
   <tile/>
   <tile/>
   <tile/>
   <tile/>
   <tile/>
   <tile/>
   <tile/>
   <tile/>
   <tile/>
   <tile/>
   <tile/>
   <tile/>
   <tile/>
   <tile/>
   <tile/>
   <tile/>
   <tile/>
   <tile/>
   <tile/>
   <tile/>
   <tile/>
   <tile/>
   <tile/>
   <tile/>
   <tile/>
   <tile/>
   <tile/>
   <tile/>
   <tile/>
   <tile/>
   <tile/>
   <tile/>
   <tile/>
   <tile/>
   <tile/>
   <tile/>
   <tile/>
   <tile/>
   <tile/>
   <tile/>
   <tile/>
   <tile/>
   <tile/>
   <tile/>
   <tile/>
   <tile/>
   <tile/>
   <tile/>
   <tile/>
   <tile/>
   <tile/>
   <tile/>
   <tile/>
   <tile/>
   <tile/>
   <tile/>
   <tile/>
   <tile/>
   <tile/>
   <tile/>
   <tile/>
   <tile/>
   <tile/>
   <tile/>
   <tile/>
   <tile gid="161"/>
   <tile gid="161"/>
   <tile gid="161"/>
   <tile gid="161"/>
   <tile gid="161"/>
   <tile gid="161"/>
   <tile gid="161"/>
   <tile gid="161"/>
   <tile gid="161"/>
   <tile gid="161"/>
   <tile gid="161"/>
   <tile gid="161"/>
   <tile gid="161"/>
   <tile gid="161"/>
   <tile gid="161"/>
   <tile gid="161"/>
   <tile gid="161"/>
   <tile gid="161"/>
   <tile gid="161"/>
   <tile gid="161"/>
   <tile gid="161"/>
   <tile gid="161"/>
   <tile/>
   <tile/>
   <tile/>
   <tile/>
   <tile/>
   <tile/>
   <tile/>
   <tile/>
   <tile/>
   <tile/>
   <tile/>
   <tile/>
   <tile/>
   <tile/>
   <tile/>
   <tile/>
   <tile/>
   <tile/>
   <tile/>
   <tile/>
   <tile/>
   <tile/>
   <tile/>
   <tile/>
   <tile/>
   <tile/>
   <tile/>
   <tile/>
   <tile/>
   <tile/>
   <tile/>
   <tile/>
   <tile/>
   <tile/>
   <tile/>
   <tile/>
   <tile/>
   <tile/>
   <tile/>
   <tile/>
   <tile/>
   <tile/>
   <tile/>
   <tile/>
   <tile/>
   <tile/>
   <tile/>
   <tile/>
   <tile/>
   <tile/>
   <tile/>
   <tile/>
   <tile/>
   <tile/>
   <tile/>
   <tile/>
   <tile/>
   <tile/>
   <tile/>
   <tile/>
   <tile/>
   <tile/>
   <tile/>
   <tile/>
   <tile/>
   <tile/>
   <tile/>
   <tile/>
   <tile/>
   <tile/>
   <tile/>
   <tile/>
   <tile/>
   <tile/>
   <tile/>
   <tile/>
   <tile/>
   <tile/>
   <tile/>
   <tile/>
   <tile/>
   <tile/>
   <tile gid="161"/>
   <tile gid="161"/>
   <tile gid="161"/>
   <tile gid="161"/>
   <tile gid="161"/>
   <tile gid="161"/>
   <tile gid="161"/>
   <tile gid="161"/>
   <tile gid="161"/>
   <tile gid="161"/>
   <tile gid="161"/>
   <tile gid="161"/>
   <tile gid="161"/>
   <tile gid="161"/>
   <tile gid="161"/>
   <tile gid="161"/>
   <tile gid="161"/>
   <tile gid="161"/>
   <tile gid="161"/>
   <tile gid="161"/>
   <tile gid="161"/>
   <tile gid="161"/>
   <tile/>
   <tile/>
   <tile/>
   <tile/>
   <tile/>
   <tile/>
   <tile/>
   <tile/>
   <tile/>
   <tile/>
   <tile/>
   <tile/>
   <tile/>
   <tile/>
   <tile/>
   <tile/>
   <tile/>
   <tile/>
   <tile/>
   <tile/>
   <tile/>
   <tile/>
   <tile/>
   <tile/>
   <tile/>
   <tile/>
   <tile/>
   <tile/>
   <tile/>
   <tile/>
   <tile/>
   <tile/>
   <tile/>
   <tile/>
   <tile/>
   <tile/>
   <tile/>
   <tile/>
   <tile/>
   <tile/>
   <tile/>
   <tile/>
   <tile/>
   <tile/>
   <tile/>
   <tile/>
   <tile/>
   <tile/>
   <tile/>
   <tile/>
   <tile/>
   <tile/>
   <tile/>
   <tile/>
   <tile/>
   <tile/>
   <tile/>
   <tile/>
   <tile/>
   <tile/>
   <tile/>
   <tile/>
   <tile/>
   <tile/>
   <tile/>
   <tile/>
   <tile/>
   <tile/>
   <tile/>
   <tile/>
   <tile/>
   <tile/>
   <tile/>
   <tile/>
   <tile/>
   <tile/>
   <tile/>
   <tile/>
   <tile/>
   <tile/>
   <tile/>
   <tile/>
   <tile gid="161"/>
   <tile gid="161"/>
   <tile gid="161"/>
   <tile gid="161"/>
   <tile gid="161"/>
   <tile gid="161"/>
   <tile gid="161"/>
   <tile gid="161"/>
   <tile gid="161"/>
   <tile gid="161"/>
   <tile gid="161"/>
   <tile gid="161"/>
   <tile gid="161"/>
   <tile gid="161"/>
   <tile gid="161"/>
   <tile gid="161"/>
   <tile gid="161"/>
   <tile gid="161"/>
   <tile gid="161"/>
   <tile gid="161"/>
   <tile gid="161"/>
   <tile gid="161"/>
   <tile/>
   <tile/>
   <tile/>
   <tile/>
   <tile/>
   <tile/>
   <tile/>
   <tile/>
   <tile/>
   <tile/>
   <tile/>
   <tile/>
   <tile/>
   <tile/>
   <tile/>
   <tile/>
   <tile/>
   <tile/>
   <tile/>
   <tile/>
   <tile/>
   <tile/>
   <tile/>
   <tile/>
   <tile/>
   <tile/>
   <tile/>
   <tile/>
   <tile/>
   <tile/>
   <tile/>
   <tile/>
   <tile/>
   <tile/>
   <tile/>
   <tile/>
   <tile/>
   <tile/>
   <tile/>
   <tile/>
   <tile/>
   <tile/>
   <tile/>
   <tile/>
   <tile/>
   <tile/>
   <tile/>
   <tile/>
   <tile/>
   <tile/>
   <tile/>
   <tile/>
   <tile/>
   <tile/>
   <tile/>
   <tile/>
   <tile/>
   <tile/>
   <tile/>
   <tile/>
   <tile/>
   <tile/>
   <tile/>
   <tile/>
   <tile/>
   <tile/>
   <tile/>
   <tile/>
   <tile/>
   <tile/>
   <tile/>
   <tile/>
   <tile/>
   <tile/>
   <tile/>
   <tile/>
   <tile/>
   <tile/>
   <tile/>
   <tile/>
   <tile/>
   <tile/>
   <tile gid="161"/>
   <tile gid="161"/>
   <tile gid="161"/>
   <tile gid="161"/>
   <tile gid="161"/>
   <tile gid="161"/>
   <tile gid="161"/>
   <tile gid="161"/>
   <tile gid="161"/>
   <tile gid="161"/>
   <tile gid="161"/>
   <tile gid="161"/>
   <tile gid="161"/>
   <tile gid="161"/>
   <tile gid="161"/>
   <tile gid="161"/>
   <tile gid="161"/>
   <tile gid="161"/>
   <tile gid="161"/>
   <tile gid="161"/>
   <tile gid="161"/>
   <tile gid="161"/>
   <tile/>
   <tile/>
   <tile/>
   <tile/>
   <tile/>
   <tile/>
   <tile/>
   <tile/>
   <tile/>
   <tile/>
   <tile/>
   <tile/>
   <tile/>
   <tile/>
   <tile/>
   <tile/>
   <tile/>
   <tile/>
   <tile/>
   <tile/>
   <tile/>
   <tile/>
   <tile/>
   <tile/>
   <tile/>
   <tile/>
   <tile/>
   <tile/>
   <tile/>
   <tile/>
   <tile/>
   <tile/>
   <tile/>
   <tile/>
   <tile/>
   <tile/>
   <tile/>
   <tile/>
   <tile/>
   <tile/>
   <tile/>
   <tile/>
   <tile/>
   <tile/>
   <tile/>
   <tile/>
   <tile/>
   <tile/>
   <tile/>
   <tile/>
   <tile/>
   <tile/>
   <tile/>
   <tile/>
   <tile/>
   <tile/>
   <tile/>
   <tile/>
   <tile/>
   <tile/>
   <tile/>
   <tile/>
   <tile/>
   <tile/>
   <tile/>
   <tile/>
   <tile/>
   <tile/>
   <tile/>
   <tile/>
   <tile/>
   <tile/>
   <tile/>
   <tile/>
   <tile/>
   <tile/>
   <tile/>
   <tile/>
   <tile/>
   <tile/>
   <tile/>
   <tile/>
   <tile gid="161"/>
   <tile gid="161"/>
   <tile gid="161"/>
   <tile gid="161"/>
   <tile gid="161"/>
   <tile gid="161"/>
   <tile gid="161"/>
   <tile gid="161"/>
   <tile gid="161"/>
   <tile gid="161"/>
   <tile gid="161"/>
   <tile gid="161"/>
   <tile gid="161"/>
   <tile gid="161"/>
   <tile gid="161"/>
   <tile gid="161"/>
   <tile gid="161"/>
   <tile gid="161"/>
   <tile gid="161"/>
   <tile gid="161"/>
   <tile gid="161"/>
   <tile gid="161"/>
   <tile/>
   <tile/>
   <tile/>
   <tile/>
   <tile/>
   <tile/>
   <tile/>
   <tile/>
   <tile/>
   <tile/>
   <tile/>
   <tile/>
   <tile/>
   <tile/>
   <tile/>
   <tile/>
   <tile/>
   <tile/>
   <tile/>
   <tile/>
   <tile/>
   <tile/>
   <tile/>
   <tile/>
   <tile/>
   <tile/>
   <tile/>
   <tile/>
   <tile/>
   <tile/>
   <tile/>
   <tile/>
   <tile/>
   <tile/>
   <tile/>
   <tile/>
   <tile/>
   <tile/>
   <tile/>
   <tile/>
   <tile/>
   <tile/>
   <tile/>
   <tile/>
   <tile/>
   <tile/>
   <tile/>
   <tile/>
   <tile/>
   <tile/>
   <tile/>
   <tile/>
   <tile/>
   <tile/>
   <tile/>
   <tile/>
   <tile/>
   <tile/>
   <tile/>
   <tile/>
   <tile/>
   <tile/>
   <tile/>
   <tile/>
   <tile/>
   <tile/>
   <tile/>
   <tile/>
   <tile/>
   <tile/>
   <tile/>
   <tile/>
   <tile/>
   <tile/>
   <tile/>
   <tile/>
   <tile/>
   <tile/>
   <tile/>
   <tile/>
   <tile/>
   <tile/>
   <tile gid="161"/>
   <tile gid="161"/>
   <tile gid="161"/>
   <tile gid="161"/>
   <tile gid="161"/>
   <tile gid="161"/>
   <tile gid="161"/>
   <tile gid="161"/>
   <tile gid="161"/>
   <tile gid="161"/>
   <tile gid="161"/>
   <tile gid="161"/>
   <tile gid="161"/>
   <tile gid="161"/>
   <tile/>
   <tile/>
   <tile/>
   <tile/>
   <tile/>
   <tile/>
   <tile/>
   <tile/>
   <tile/>
   <tile/>
   <tile/>
   <tile/>
   <tile/>
   <tile/>
   <tile/>
   <tile/>
   <tile/>
   <tile/>
   <tile/>
   <tile/>
   <tile/>
   <tile/>
   <tile/>
   <tile/>
   <tile/>
   <tile/>
   <tile/>
   <tile/>
   <tile/>
   <tile/>
   <tile/>
   <tile/>
   <tile/>
   <tile/>
   <tile/>
   <tile/>
   <tile/>
   <tile/>
   <tile/>
   <tile/>
   <tile/>
   <tile/>
   <tile/>
   <tile/>
   <tile/>
   <tile/>
   <tile/>
   <tile/>
   <tile/>
   <tile/>
   <tile/>
   <tile/>
   <tile/>
   <tile/>
   <tile/>
   <tile/>
   <tile/>
   <tile/>
   <tile/>
   <tile/>
   <tile/>
   <tile/>
   <tile/>
   <tile/>
   <tile/>
   <tile/>
   <tile/>
   <tile/>
   <tile/>
   <tile/>
   <tile/>
   <tile/>
   <tile/>
   <tile/>
   <tile/>
   <tile/>
   <tile/>
   <tile/>
   <tile/>
   <tile/>
   <tile/>
   <tile/>
   <tile/>
   <tile/>
   <tile/>
   <tile/>
   <tile/>
   <tile/>
   <tile/>
   <tile/>
   <tile gid="161"/>
   <tile gid="161"/>
   <tile gid="161"/>
   <tile gid="161"/>
   <tile gid="161"/>
   <tile gid="161"/>
   <tile gid="161"/>
   <tile gid="161"/>
   <tile gid="161"/>
   <tile gid="161"/>
   <tile gid="161"/>
   <tile gid="161"/>
   <tile gid="161"/>
   <tile gid="161"/>
   <tile/>
   <tile/>
   <tile/>
   <tile/>
   <tile/>
   <tile/>
   <tile/>
   <tile/>
   <tile/>
   <tile/>
   <tile/>
   <tile/>
   <tile/>
   <tile/>
   <tile/>
   <tile/>
   <tile/>
   <tile/>
   <tile/>
   <tile/>
   <tile/>
   <tile/>
   <tile/>
   <tile/>
   <tile/>
   <tile/>
   <tile/>
   <tile/>
   <tile/>
   <tile/>
   <tile/>
   <tile/>
   <tile/>
   <tile/>
   <tile/>
   <tile/>
   <tile/>
   <tile/>
   <tile/>
   <tile/>
   <tile/>
   <tile/>
   <tile/>
   <tile/>
   <tile/>
   <tile/>
   <tile/>
   <tile/>
   <tile/>
   <tile/>
   <tile/>
   <tile/>
   <tile/>
   <tile/>
   <tile/>
   <tile/>
   <tile/>
   <tile/>
   <tile/>
   <tile/>
   <tile/>
   <tile/>
   <tile/>
   <tile/>
   <tile/>
   <tile/>
   <tile/>
   <tile/>
   <tile/>
   <tile/>
   <tile/>
   <tile/>
   <tile/>
   <tile/>
   <tile/>
   <tile/>
   <tile/>
   <tile/>
   <tile/>
   <tile/>
   <tile/>
   <tile/>
   <tile/>
   <tile/>
   <tile/>
   <tile/>
   <tile/>
   <tile/>
   <tile/>
   <tile/>
   <tile gid="161"/>
   <tile gid="161"/>
   <tile gid="161"/>
   <tile gid="161"/>
   <tile gid="161"/>
   <tile gid="161"/>
   <tile gid="161"/>
   <tile gid="161"/>
   <tile gid="161"/>
   <tile gid="161"/>
   <tile gid="161"/>
   <tile gid="161"/>
   <tile gid="161"/>
   <tile gid="161"/>
   <tile/>
   <tile/>
   <tile/>
   <tile/>
   <tile/>
   <tile/>
   <tile/>
   <tile/>
   <tile/>
   <tile/>
   <tile/>
   <tile/>
   <tile/>
   <tile/>
   <tile/>
   <tile/>
   <tile/>
   <tile/>
   <tile/>
   <tile/>
   <tile/>
   <tile/>
   <tile/>
   <tile/>
   <tile/>
   <tile/>
   <tile/>
   <tile/>
   <tile/>
   <tile/>
   <tile/>
   <tile/>
   <tile/>
   <tile/>
   <tile/>
   <tile/>
   <tile/>
   <tile/>
   <tile/>
   <tile/>
   <tile/>
   <tile/>
   <tile/>
   <tile/>
   <tile/>
   <tile/>
   <tile/>
   <tile/>
   <tile/>
   <tile/>
   <tile/>
   <tile/>
   <tile/>
   <tile/>
   <tile/>
   <tile/>
   <tile/>
   <tile/>
   <tile/>
   <tile/>
   <tile/>
   <tile/>
   <tile/>
   <tile/>
   <tile/>
   <tile/>
   <tile/>
   <tile/>
   <tile/>
   <tile/>
   <tile/>
   <tile/>
   <tile/>
   <tile/>
   <tile/>
   <tile/>
   <tile/>
   <tile/>
   <tile/>
   <tile/>
   <tile/>
   <tile/>
   <tile/>
   <tile/>
   <tile/>
   <tile/>
   <tile/>
   <tile/>
   <tile/>
   <tile/>
   <tile gid="161"/>
   <tile gid="161"/>
   <tile gid="161"/>
   <tile gid="161"/>
   <tile gid="161"/>
   <tile gid="161"/>
   <tile gid="161"/>
   <tile gid="161"/>
   <tile gid="161"/>
   <tile gid="161"/>
   <tile gid="161"/>
   <tile gid="161"/>
   <tile gid="161"/>
   <tile/>
   <tile/>
   <tile/>
   <tile/>
   <tile/>
   <tile/>
   <tile/>
   <tile/>
   <tile/>
   <tile/>
   <tile/>
   <tile/>
   <tile/>
   <tile gid="198"/>
   <tile/>
   <tile/>
   <tile/>
   <tile/>
   <tile/>
   <tile/>
   <tile/>
   <tile/>
   <tile/>
   <tile/>
   <tile/>
   <tile/>
   <tile/>
   <tile/>
   <tile/>
   <tile/>
   <tile/>
   <tile/>
   <tile/>
   <tile/>
   <tile/>
   <tile/>
   <tile/>
   <tile/>
   <tile/>
   <tile/>
   <tile/>
   <tile/>
   <tile/>
   <tile/>
   <tile/>
   <tile/>
   <tile/>
   <tile/>
   <tile/>
   <tile/>
   <tile/>
   <tile/>
   <tile/>
   <tile/>
   <tile/>
   <tile/>
   <tile/>
   <tile/>
   <tile/>
   <tile/>
   <tile/>
   <tile/>
   <tile/>
   <tile/>
   <tile/>
   <tile/>
   <tile/>
   <tile/>
   <tile/>
   <tile/>
   <tile/>
   <tile/>
   <tile/>
   <tile/>
   <tile/>
   <tile/>
   <tile/>
   <tile/>
   <tile/>
   <tile/>
   <tile/>
   <tile/>
   <tile/>
   <tile/>
   <tile/>
   <tile/>
   <tile/>
   <tile/>
   <tile/>
   <tile/>
   <tile/>
   <tile/>
   <tile/>
   <tile/>
   <tile/>
   <tile/>
   <tile/>
   <tile/>
   <tile/>
   <tile/>
   <tile/>
   <tile/>
   <tile/>
   <tile/>
   <tile/>
   <tile/>
   <tile/>
   <tile/>
   <tile/>
   <tile/>
   <tile/>
   <tile/>
   <tile/>
   <tile/>
   <tile/>
   <tile/>
   <tile/>
   <tile/>
   <tile/>
   <tile/>
   <tile/>
   <tile/>
   <tile/>
   <tile/>
   <tile/>
   <tile/>
   <tile/>
   <tile/>
   <tile/>
   <tile/>
   <tile/>
   <tile/>
   <tile/>
   <tile/>
   <tile/>
   <tile/>
   <tile/>
   <tile/>
   <tile/>
   <tile/>
   <tile/>
   <tile/>
   <tile/>
   <tile/>
   <tile/>
   <tile/>
   <tile/>
   <tile/>
   <tile/>
   <tile/>
   <tile/>
   <tile/>
   <tile/>
   <tile/>
   <tile/>
   <tile/>
   <tile/>
   <tile/>
   <tile/>
   <tile/>
   <tile/>
   <tile/>
   <tile/>
   <tile/>
   <tile/>
   <tile/>
   <tile/>
   <tile/>
   <tile/>
   <tile/>
   <tile/>
   <tile/>
   <tile/>
   <tile/>
   <tile/>
   <tile/>
   <tile/>
   <tile/>
   <tile/>
   <tile/>
   <tile/>
   <tile/>
   <tile/>
   <tile/>
   <tile/>
   <tile/>
   <tile/>
   <tile/>
   <tile/>
   <tile/>
   <tile/>
   <tile/>
   <tile/>
   <tile/>
   <tile/>
   <tile/>
   <tile/>
   <tile/>
   <tile/>
   <tile/>
   <tile/>
   <tile/>
   <tile/>
   <tile/>
   <tile/>
   <tile/>
   <tile/>
   <tile/>
   <tile/>
   <tile/>
   <tile/>
   <tile/>
   <tile/>
   <tile/>
   <tile/>
   <tile/>
   <tile/>
   <tile/>
   <tile/>
   <tile/>
   <tile/>
   <tile/>
   <tile/>
   <tile/>
   <tile/>
   <tile/>
   <tile/>
   <tile/>
   <tile/>
   <tile/>
   <tile/>
   <tile/>
   <tile/>
   <tile/>
   <tile/>
   <tile/>
   <tile/>
   <tile/>
   <tile/>
   <tile/>
   <tile/>
   <tile/>
   <tile/>
   <tile/>
   <tile/>
   <tile/>
   <tile/>
   <tile/>
   <tile/>
   <tile/>
   <tile/>
   <tile/>
   <tile/>
   <tile/>
   <tile/>
   <tile/>
   <tile/>
   <tile/>
   <tile/>
   <tile/>
   <tile/>
   <tile/>
   <tile/>
   <tile/>
   <tile/>
   <tile/>
   <tile/>
   <tile/>
   <tile/>
   <tile/>
   <tile/>
   <tile/>
   <tile/>
   <tile/>
   <tile/>
   <tile/>
   <tile/>
   <tile/>
   <tile/>
   <tile/>
   <tile/>
   <tile/>
   <tile/>
   <tile/>
   <tile/>
   <tile/>
   <tile/>
   <tile/>
   <tile/>
   <tile/>
   <tile/>
   <tile/>
   <tile/>
   <tile/>
   <tile/>
   <tile/>
   <tile/>
   <tile/>
   <tile/>
   <tile/>
   <tile/>
   <tile/>
   <tile/>
   <tile/>
   <tile/>
   <tile/>
   <tile/>
   <tile/>
   <tile/>
   <tile/>
   <tile/>
   <tile/>
   <tile/>
   <tile/>
   <tile/>
   <tile/>
   <tile/>
   <tile/>
   <tile/>
   <tile/>
   <tile/>
   <tile/>
   <tile/>
   <tile/>
   <tile/>
   <tile/>
   <tile/>
   <tile/>
   <tile/>
   <tile/>
   <tile/>
   <tile/>
   <tile/>
   <tile/>
   <tile/>
   <tile/>
   <tile/>
   <tile/>
   <tile/>
   <tile/>
   <tile/>
   <tile/>
   <tile/>
   <tile/>
   <tile/>
   <tile/>
   <tile/>
   <tile/>
   <tile/>
   <tile/>
   <tile/>
   <tile/>
   <tile/>
   <tile/>
   <tile/>
   <tile/>
   <tile/>
   <tile/>
   <tile/>
   <tile/>
   <tile/>
   <tile/>
   <tile/>
   <tile/>
   <tile/>
   <tile/>
   <tile/>
   <tile/>
   <tile/>
   <tile/>
   <tile/>
   <tile/>
   <tile/>
   <tile/>
   <tile/>
   <tile/>
   <tile/>
   <tile/>
   <tile/>
   <tile/>
   <tile/>
   <tile/>
   <tile/>
   <tile/>
   <tile/>
   <tile/>
   <tile/>
   <tile/>
   <tile/>
   <tile/>
   <tile/>
   <tile/>
   <tile/>
   <tile/>
   <tile/>
   <tile/>
   <tile/>
   <tile/>
   <tile/>
   <tile/>
   <tile/>
   <tile/>
   <tile/>
   <tile/>
   <tile/>
   <tile/>
   <tile/>
   <tile/>
   <tile/>
   <tile/>
   <tile/>
   <tile/>
   <tile/>
   <tile/>
   <tile/>
   <tile/>
   <tile/>
   <tile/>
   <tile/>
   <tile/>
   <tile/>
   <tile/>
   <tile/>
   <tile/>
   <tile/>
   <tile/>
   <tile/>
   <tile/>
   <tile/>
   <tile/>
   <tile/>
   <tile/>
   <tile/>
   <tile/>
   <tile/>
   <tile/>
   <tile/>
   <tile/>
   <tile/>
   <tile/>
   <tile/>
   <tile/>
   <tile/>
   <tile/>
   <tile/>
   <tile/>
   <tile/>
   <tile/>
   <tile/>
   <tile/>
   <tile/>
   <tile/>
   <tile/>
   <tile/>
   <tile/>
   <tile/>
   <tile/>
   <tile/>
   <tile/>
   <tile/>
   <tile/>
   <tile/>
   <tile/>
   <tile/>
   <tile/>
   <tile/>
   <tile/>
   <tile/>
   <tile/>
   <tile/>
   <tile/>
   <tile/>
   <tile/>
   <tile/>
   <tile/>
   <tile/>
   <tile/>
   <tile/>
   <tile/>
   <tile/>
   <tile/>
   <tile/>
   <tile/>
   <tile/>
   <tile/>
   <tile/>
   <tile/>
   <tile/>
   <tile/>
   <tile/>
   <tile/>
   <tile/>
   <tile/>
   <tile/>
   <tile/>
   <tile/>
   <tile/>
   <tile/>
   <tile/>
   <tile/>
   <tile/>
   <tile/>
   <tile/>
   <tile/>
   <tile/>
   <tile/>
   <tile/>
   <tile/>
   <tile/>
   <tile/>
   <tile/>
   <tile/>
   <tile/>
   <tile/>
   <tile/>
   <tile/>
   <tile/>
   <tile/>
   <tile/>
   <tile/>
   <tile/>
   <tile/>
   <tile/>
   <tile/>
   <tile/>
   <tile/>
   <tile/>
   <tile/>
   <tile/>
   <tile/>
   <tile/>
   <tile/>
   <tile/>
   <tile/>
   <tile/>
   <tile/>
   <tile/>
   <tile/>
   <tile/>
   <tile/>
   <tile/>
   <tile/>
   <tile/>
   <tile/>
   <tile/>
   <tile/>
   <tile/>
   <tile/>
   <tile/>
   <tile/>
   <tile/>
   <tile/>
   <tile/>
   <tile/>
   <tile/>
   <tile/>
   <tile/>
   <tile/>
   <tile/>
   <tile/>
   <tile/>
   <tile/>
   <tile/>
   <tile/>
   <tile/>
   <tile/>
   <tile/>
   <tile/>
   <tile/>
   <tile/>
   <tile/>
   <tile/>
   <tile/>
   <tile/>
   <tile/>
   <tile/>
   <tile/>
   <tile/>
   <tile/>
   <tile/>
   <tile/>
   <tile/>
   <tile/>
   <tile/>
   <tile/>
   <tile/>
   <tile/>
   <tile/>
   <tile/>
   <tile/>
   <tile/>
   <tile/>
   <tile/>
   <tile/>
   <tile/>
   <tile/>
   <tile/>
   <tile/>
   <tile/>
   <tile/>
   <tile/>
   <tile/>
   <tile/>
   <tile/>
   <tile/>
   <tile/>
   <tile/>
   <tile/>
   <tile/>
   <tile/>
   <tile/>
   <tile/>
   <tile/>
   <tile/>
   <tile/>
   <tile/>
   <tile/>
   <tile/>
   <tile/>
   <tile/>
   <tile/>
   <tile/>
   <tile/>
   <tile/>
   <tile/>
   <tile/>
   <tile/>
   <tile/>
   <tile/>
   <tile/>
   <tile/>
   <tile/>
   <tile/>
   <tile/>
   <tile/>
   <tile/>
   <tile/>
   <tile/>
   <tile/>
   <tile/>
   <tile/>
   <tile/>
   <tile/>
   <tile/>
   <tile/>
   <tile/>
   <tile/>
   <tile/>
   <tile/>
   <tile/>
   <tile/>
   <tile/>
   <tile/>
   <tile/>
   <tile/>
   <tile/>
   <tile/>
   <tile/>
   <tile/>
   <tile/>
   <tile/>
   <tile/>
   <tile/>
   <tile/>
   <tile/>
   <tile/>
   <tile/>
   <tile/>
   <tile/>
   <tile/>
   <tile/>
   <tile/>
   <tile/>
   <tile/>
   <tile/>
   <tile/>
   <tile/>
   <tile/>
   <tile/>
   <tile/>
   <tile/>
   <tile/>
   <tile/>
   <tile/>
   <tile/>
   <tile/>
   <tile/>
   <tile/>
   <tile/>
   <tile/>
   <tile/>
   <tile/>
   <tile/>
   <tile/>
   <tile/>
   <tile/>
   <tile/>
   <tile/>
   <tile/>
   <tile/>
   <tile/>
   <tile/>
   <tile/>
   <tile/>
   <tile/>
   <tile/>
   <tile/>
   <tile/>
   <tile/>
   <tile/>
   <tile/>
   <tile/>
   <tile/>
   <tile/>
   <tile/>
   <tile/>
   <tile/>
   <tile/>
   <tile/>
   <tile/>
   <tile/>
   <tile/>
   <tile/>
   <tile/>
   <tile/>
   <tile/>
   <tile/>
   <tile/>
   <tile/>
   <tile/>
   <tile/>
   <tile/>
   <tile/>
   <tile/>
   <tile/>
   <tile/>
   <tile/>
   <tile/>
   <tile/>
   <tile/>
   <tile/>
   <tile/>
   <tile/>
   <tile/>
   <tile/>
   <tile/>
   <tile/>
   <tile/>
   <tile/>
   <tile/>
   <tile/>
   <tile/>
   <tile/>
   <tile/>
   <tile/>
   <tile/>
   <tile/>
   <tile/>
   <tile/>
   <tile/>
   <tile/>
   <tile/>
   <tile/>
   <tile/>
   <tile/>
   <tile/>
   <tile/>
   <tile/>
   <tile/>
   <tile/>
   <tile/>
   <tile/>
   <tile/>
   <tile/>
   <tile/>
   <tile/>
   <tile/>
   <tile/>
   <tile/>
   <tile/>
   <tile/>
   <tile/>
   <tile/>
   <tile/>
   <tile/>
   <tile/>
   <tile/>
   <tile/>
   <tile/>
   <tile/>
   <tile/>
   <tile/>
   <tile/>
   <tile/>
   <tile/>
   <tile/>
   <tile/>
   <tile/>
   <tile/>
   <tile/>
   <tile/>
   <tile/>
   <tile/>
   <tile/>
   <tile/>
   <tile/>
   <tile/>
   <tile/>
   <tile/>
   <tile/>
   <tile/>
   <tile/>
   <tile/>
   <tile/>
   <tile/>
   <tile/>
   <tile/>
   <tile/>
   <tile/>
   <tile/>
   <tile/>
   <tile/>
   <tile/>
   <tile/>
   <tile/>
   <tile/>
   <tile/>
   <tile/>
   <tile/>
   <tile/>
   <tile/>
   <tile/>
   <tile/>
   <tile/>
   <tile/>
   <tile/>
   <tile/>
   <tile/>
   <tile/>
   <tile/>
   <tile/>
   <tile/>
   <tile/>
   <tile/>
   <tile/>
   <tile/>
   <tile/>
   <tile/>
   <tile/>
   <tile/>
   <tile/>
   <tile/>
   <tile/>
   <tile/>
   <tile/>
   <tile/>
   <tile/>
   <tile/>
   <tile/>
   <tile/>
   <tile/>
   <tile/>
   <tile/>
   <tile/>
   <tile/>
   <tile/>
   <tile/>
   <tile/>
   <tile/>
   <tile/>
   <tile/>
   <tile/>
   <tile/>
   <tile/>
   <tile/>
   <tile/>
   <tile/>
   <tile/>
   <tile/>
   <tile/>
   <tile/>
   <tile/>
   <tile/>
   <tile/>
   <tile/>
   <tile/>
   <tile/>
   <tile/>
   <tile/>
   <tile/>
   <tile/>
   <tile/>
   <tile/>
   <tile/>
   <tile/>
   <tile/>
   <tile/>
   <tile/>
   <tile/>
   <tile/>
   <tile/>
   <tile/>
   <tile/>
   <tile/>
   <tile/>
   <tile/>
   <tile/>
   <tile/>
   <tile/>
   <tile/>
   <tile/>
   <tile/>
   <tile/>
   <tile/>
   <tile/>
   <tile/>
   <tile/>
   <tile/>
   <tile/>
   <tile/>
   <tile/>
   <tile/>
   <tile/>
   <tile/>
   <tile/>
   <tile/>
   <tile/>
   <tile/>
   <tile/>
   <tile/>
   <tile/>
   <tile/>
   <tile/>
   <tile/>
   <tile/>
   <tile/>
   <tile/>
   <tile/>
   <tile/>
   <tile/>
   <tile/>
   <tile/>
   <tile/>
   <tile/>
   <tile/>
   <tile/>
   <tile/>
   <tile/>
   <tile/>
   <tile/>
   <tile/>
   <tile/>
   <tile/>
   <tile/>
   <tile/>
   <tile/>
   <tile/>
   <tile/>
   <tile/>
   <tile/>
   <tile/>
   <tile/>
   <tile/>
   <tile/>
   <tile/>
   <tile/>
   <tile/>
   <tile/>
   <tile/>
   <tile/>
   <tile/>
   <tile/>
   <tile/>
   <tile/>
   <tile/>
   <tile/>
   <tile/>
   <tile/>
   <tile/>
   <tile/>
   <tile/>
   <tile/>
   <tile/>
   <tile/>
   <tile/>
   <tile/>
   <tile/>
   <tile/>
   <tile/>
   <tile/>
   <tile/>
   <tile/>
   <tile/>
   <tile/>
   <tile/>
   <tile/>
   <tile/>
   <tile/>
   <tile/>
   <tile/>
   <tile/>
   <tile/>
   <tile/>
   <tile/>
   <tile/>
   <tile/>
   <tile/>
   <tile/>
   <tile/>
   <tile/>
   <tile/>
   <tile/>
   <tile/>
   <tile/>
   <tile/>
   <tile/>
   <tile/>
   <tile/>
   <tile/>
   <tile/>
   <tile/>
   <tile/>
   <tile/>
   <tile/>
   <tile/>
   <tile/>
   <tile/>
   <tile/>
   <tile/>
   <tile/>
   <tile/>
   <tile/>
   <tile/>
   <tile/>
   <tile/>
   <tile/>
   <tile/>
   <tile/>
   <tile/>
   <tile/>
   <tile/>
   <tile/>
   <tile/>
   <tile/>
   <tile/>
   <tile/>
   <tile/>
   <tile/>
   <tile/>
   <tile/>
   <tile/>
   <tile/>
   <tile/>
   <tile/>
   <tile/>
   <tile/>
   <tile/>
   <tile/>
   <tile/>
   <tile/>
   <tile/>
   <tile/>
   <tile/>
   <tile/>
   <tile/>
   <tile/>
   <tile/>
   <tile/>
   <tile/>
   <tile/>
   <tile/>
   <tile/>
   <tile/>
   <tile/>
   <tile/>
   <tile/>
   <tile/>
   <tile/>
   <tile/>
   <tile/>
   <tile/>
   <tile/>
   <tile/>
   <tile/>
   <tile/>
   <tile/>
   <tile/>
   <tile/>
   <tile/>
   <tile/>
   <tile/>
   <tile/>
   <tile/>
   <tile/>
   <tile/>
   <tile/>
   <tile/>
   <tile/>
   <tile/>
   <tile/>
   <tile/>
   <tile/>
   <tile/>
   <tile/>
   <tile/>
   <tile/>
   <tile/>
   <tile/>
   <tile/>
   <tile/>
   <tile/>
   <tile/>
   <tile/>
   <tile/>
   <tile/>
   <tile/>
   <tile/>
   <tile/>
   <tile/>
   <tile/>
   <tile/>
   <tile/>
   <tile/>
   <tile/>
   <tile/>
   <tile/>
   <tile/>
   <tile/>
   <tile/>
   <tile/>
   <tile/>
   <tile/>
   <tile/>
   <tile/>
   <tile/>
   <tile/>
   <tile/>
   <tile/>
   <tile/>
   <tile/>
   <tile/>
   <tile/>
   <tile/>
   <tile/>
   <tile/>
   <tile/>
   <tile/>
   <tile/>
   <tile/>
   <tile/>
   <tile/>
   <tile/>
   <tile/>
   <tile/>
   <tile/>
   <tile/>
   <tile/>
   <tile/>
   <tile/>
   <tile/>
   <tile/>
   <tile/>
   <tile/>
   <tile/>
   <tile/>
   <tile/>
   <tile/>
   <tile/>
   <tile/>
   <tile/>
   <tile/>
   <tile/>
   <tile/>
   <tile/>
   <tile/>
   <tile/>
   <tile/>
   <tile/>
   <tile/>
   <tile/>
   <tile/>
   <tile/>
   <tile/>
   <tile/>
   <tile/>
   <tile/>
   <tile/>
   <tile/>
   <tile/>
   <tile/>
   <tile/>
   <tile/>
   <tile/>
   <tile/>
   <tile/>
   <tile/>
   <tile/>
   <tile/>
   <tile/>
   <tile/>
   <tile/>
   <tile/>
   <tile/>
   <tile/>
   <tile/>
   <tile/>
   <tile/>
   <tile/>
   <tile/>
   <tile/>
   <tile/>
   <tile/>
   <tile/>
   <tile/>
   <tile/>
   <tile/>
   <tile/>
   <tile/>
   <tile/>
   <tile/>
   <tile/>
   <tile/>
   <tile/>
   <tile/>
   <tile/>
   <tile/>
   <tile/>
   <tile/>
   <tile/>
   <tile/>
   <tile/>
   <tile/>
   <tile/>
   <tile/>
   <tile/>
   <tile/>
   <tile/>
   <tile/>
   <tile/>
   <tile/>
   <tile/>
   <tile/>
   <tile/>
   <tile/>
   <tile/>
   <tile/>
   <tile/>
   <tile/>
   <tile/>
   <tile/>
   <tile/>
   <tile/>
   <tile/>
   <tile/>
   <tile/>
   <tile/>
   <tile/>
   <tile/>
   <tile/>
   <tile/>
   <tile/>
   <tile/>
   <tile/>
   <tile/>
   <tile/>
   <tile/>
   <tile/>
   <tile/>
   <tile/>
   <tile/>
   <tile/>
   <tile/>
   <tile/>
   <tile/>
   <tile/>
   <tile/>
   <tile/>
   <tile/>
   <tile/>
   <tile/>
   <tile/>
   <tile/>
   <tile/>
   <tile/>
   <tile/>
   <tile/>
   <tile/>
   <tile/>
   <tile/>
   <tile/>
   <tile/>
   <tile/>
   <tile/>
   <tile/>
   <tile/>
   <tile/>
   <tile/>
   <tile/>
   <tile/>
   <tile/>
   <tile/>
   <tile/>
   <tile/>
   <tile/>
   <tile/>
   <tile/>
   <tile/>
   <tile/>
   <tile/>
   <tile/>
   <tile/>
   <tile/>
   <tile/>
   <tile/>
   <tile/>
   <tile/>
   <tile/>
   <tile/>
   <tile/>
   <tile/>
   <tile/>
   <tile/>
   <tile/>
   <tile/>
   <tile/>
   <tile/>
   <tile/>
   <tile/>
   <tile/>
   <tile/>
   <tile/>
   <tile/>
   <tile/>
   <tile/>
   <tile/>
   <tile/>
   <tile/>
   <tile/>
   <tile/>
   <tile/>
   <tile/>
   <tile/>
   <tile/>
   <tile/>
   <tile/>
   <tile/>
   <tile/>
   <tile/>
   <tile/>
   <tile/>
   <tile/>
   <tile/>
   <tile/>
   <tile/>
   <tile/>
   <tile/>
   <tile/>
   <tile/>
   <tile/>
   <tile/>
   <tile/>
   <tile/>
   <tile/>
   <tile/>
   <tile/>
   <tile/>
   <tile/>
   <tile/>
   <tile/>
   <tile/>
   <tile/>
   <tile/>
   <tile/>
   <tile/>
   <tile/>
   <tile/>
   <tile/>
   <tile/>
   <tile/>
   <tile/>
   <tile/>
   <tile/>
   <tile/>
   <tile/>
   <tile/>
   <tile/>
   <tile/>
   <tile/>
   <tile/>
   <tile/>
   <tile/>
   <tile/>
   <tile/>
   <tile/>
   <tile/>
   <tile/>
   <tile/>
   <tile/>
   <tile/>
   <tile/>
   <tile/>
   <tile/>
   <tile/>
   <tile/>
   <tile/>
   <tile/>
   <tile/>
   <tile/>
   <tile/>
   <tile/>
   <tile/>
   <tile/>
   <tile/>
   <tile/>
   <tile/>
   <tile/>
   <tile/>
   <tile/>
   <tile/>
   <tile/>
   <tile/>
   <tile/>
   <tile/>
   <tile/>
   <tile/>
   <tile/>
   <tile/>
   <tile/>
   <tile/>
   <tile/>
   <tile/>
   <tile/>
   <tile/>
   <tile/>
   <tile/>
   <tile/>
   <tile/>
   <tile/>
   <tile/>
   <tile/>
   <tile/>
   <tile/>
   <tile/>
   <tile/>
   <tile/>
   <tile/>
   <tile/>
   <tile/>
   <tile/>
   <tile/>
   <tile/>
   <tile/>
   <tile/>
   <tile/>
   <tile/>
   <tile/>
   <tile/>
   <tile/>
   <tile/>
   <tile/>
   <tile/>
   <tile/>
   <tile/>
   <tile/>
   <tile/>
   <tile/>
   <tile/>
   <tile/>
   <tile/>
   <tile/>
   <tile/>
   <tile/>
   <tile/>
   <tile/>
   <tile/>
   <tile/>
   <tile/>
   <tile/>
   <tile/>
   <tile/>
   <tile/>
   <tile/>
   <tile/>
   <tile/>
   <tile/>
   <tile/>
   <tile/>
   <tile/>
   <tile/>
   <tile/>
   <tile/>
   <tile/>
   <tile/>
   <tile/>
   <tile/>
   <tile/>
   <tile/>
   <tile/>
   <tile/>
   <tile/>
   <tile/>
   <tile/>
   <tile/>
   <tile/>
   <tile/>
   <tile/>
   <tile/>
   <tile/>
   <tile/>
   <tile/>
   <tile/>
   <tile/>
   <tile/>
   <tile/>
   <tile/>
   <tile/>
   <tile/>
   <tile/>
   <tile/>
   <tile/>
   <tile/>
   <tile/>
   <tile/>
   <tile/>
   <tile/>
   <tile/>
   <tile/>
   <tile/>
   <tile/>
   <tile/>
   <tile/>
   <tile/>
   <tile/>
   <tile/>
   <tile/>
   <tile/>
   <tile/>
   <tile/>
   <tile/>
   <tile/>
   <tile/>
   <tile/>
   <tile/>
   <tile/>
   <tile/>
   <tile/>
   <tile/>
   <tile/>
   <tile/>
   <tile/>
   <tile/>
   <tile/>
   <tile/>
   <tile/>
   <tile/>
   <tile/>
   <tile/>
   <tile/>
   <tile/>
   <tile/>
   <tile/>
   <tile/>
   <tile/>
   <tile/>
   <tile/>
   <tile/>
   <tile/>
   <tile/>
   <tile/>
   <tile/>
   <tile/>
   <tile/>
   <tile/>
   <tile/>
   <tile/>
   <tile/>
   <tile/>
   <tile/>
   <tile/>
   <tile/>
   <tile/>
   <tile/>
   <tile/>
   <tile/>
   <tile/>
   <tile/>
   <tile/>
   <tile/>
   <tile/>
   <tile/>
   <tile/>
   <tile/>
   <tile/>
   <tile/>
   <tile/>
   <tile/>
   <tile/>
   <tile/>
   <tile/>
   <tile/>
   <tile/>
   <tile/>
   <tile/>
   <tile/>
   <tile/>
   <tile/>
   <tile/>
   <tile/>
   <tile/>
   <tile/>
   <tile/>
   <tile/>
   <tile/>
   <tile/>
   <tile/>
   <tile/>
   <tile/>
   <tile/>
   <tile/>
   <tile/>
   <tile/>
   <tile/>
   <tile/>
   <tile/>
   <tile/>
   <tile/>
   <tile/>
   <tile/>
   <tile/>
   <tile/>
   <tile/>
   <tile/>
   <tile/>
   <tile/>
   <tile/>
   <tile/>
   <tile/>
   <tile/>
   <tile/>
   <tile/>
   <tile/>
   <tile/>
   <tile/>
   <tile/>
   <tile/>
   <tile/>
   <tile/>
   <tile/>
   <tile/>
   <tile/>
   <tile/>
   <tile/>
   <tile/>
   <tile/>
   <tile/>
   <tile/>
   <tile/>
   <tile/>
   <tile/>
   <tile/>
   <tile/>
   <tile/>
   <tile/>
   <tile/>
   <tile/>
   <tile/>
   <tile/>
   <tile/>
   <tile/>
   <tile/>
   <tile/>
   <tile/>
   <tile/>
   <tile/>
   <tile/>
   <tile/>
   <tile/>
   <tile/>
   <tile/>
   <tile/>
   <tile/>
   <tile/>
   <tile/>
   <tile/>
   <tile/>
   <tile/>
   <tile/>
   <tile/>
   <tile/>
   <tile/>
   <tile/>
   <tile/>
   <tile/>
   <tile/>
   <tile/>
   <tile/>
   <tile/>
   <tile/>
   <tile/>
   <tile/>
   <tile/>
   <tile/>
   <tile/>
   <tile/>
   <tile/>
   <tile/>
   <tile/>
   <tile/>
   <tile/>
   <tile/>
   <tile/>
   <tile/>
   <tile/>
   <tile/>
   <tile/>
   <tile/>
   <tile/>
   <tile/>
   <tile/>
   <tile/>
   <tile/>
   <tile/>
   <tile/>
   <tile/>
   <tile/>
   <tile/>
   <tile/>
   <tile/>
   <tile/>
   <tile/>
   <tile/>
   <tile/>
   <tile/>
   <tile/>
   <tile/>
   <tile/>
   <tile/>
   <tile/>
   <tile/>
   <tile/>
   <tile/>
   <tile/>
   <tile/>
   <tile/>
   <tile/>
   <tile/>
   <tile/>
   <tile/>
   <tile/>
   <tile/>
   <tile/>
   <tile/>
   <tile/>
   <tile/>
   <tile/>
   <tile/>
   <tile/>
   <tile/>
   <tile/>
   <tile/>
   <tile/>
   <tile/>
   <tile/>
   <tile/>
   <tile/>
   <tile/>
   <tile/>
   <tile/>
   <tile/>
   <tile/>
   <tile/>
   <tile/>
   <tile/>
   <tile/>
   <tile/>
   <tile/>
   <tile/>
   <tile/>
   <tile/>
   <tile/>
   <tile/>
   <tile/>
   <tile/>
   <tile/>
   <tile/>
   <tile/>
   <tile/>
   <tile/>
   <tile/>
   <tile/>
   <tile/>
   <tile/>
   <tile/>
   <tile/>
   <tile/>
   <tile/>
   <tile/>
   <tile/>
   <tile/>
   <tile/>
   <tile/>
   <tile/>
   <tile/>
   <tile/>
   <tile/>
   <tile/>
   <tile/>
   <tile/>
   <tile/>
   <tile/>
   <tile/>
   <tile/>
   <tile/>
   <tile/>
   <tile/>
   <tile/>
   <tile/>
   <tile/>
   <tile/>
   <tile/>
   <tile/>
   <tile/>
   <tile/>
   <tile/>
   <tile/>
   <tile/>
   <tile/>
   <tile/>
   <tile/>
   <tile/>
   <tile/>
   <tile/>
   <tile/>
   <tile/>
   <tile/>
   <tile/>
   <tile/>
   <tile/>
   <tile/>
   <tile/>
   <tile/>
   <tile/>
   <tile/>
   <tile/>
   <tile/>
   <tile/>
   <tile/>
   <tile/>
   <tile/>
   <tile/>
   <tile/>
   <tile/>
   <tile/>
   <tile/>
   <tile/>
   <tile/>
   <tile/>
   <tile/>
   <tile/>
   <tile/>
   <tile/>
   <tile/>
   <tile/>
   <tile/>
   <tile/>
   <tile/>
   <tile/>
   <tile/>
   <tile/>
   <tile/>
   <tile/>
   <tile/>
   <tile/>
   <tile/>
   <tile/>
   <tile/>
   <tile/>
   <tile/>
   <tile/>
   <tile/>
   <tile/>
   <tile/>
   <tile/>
   <tile/>
   <tile/>
   <tile/>
   <tile/>
   <tile/>
   <tile/>
   <tile/>
   <tile/>
   <tile/>
   <tile/>
   <tile/>
   <tile/>
   <tile/>
   <tile/>
   <tile/>
   <tile/>
   <tile/>
   <tile/>
   <tile/>
   <tile/>
   <tile/>
   <tile/>
   <tile/>
   <tile/>
   <tile/>
   <tile/>
   <tile/>
   <tile/>
   <tile/>
   <tile/>
   <tile/>
   <tile/>
   <tile/>
   <tile/>
   <tile/>
   <tile/>
   <tile/>
   <tile/>
   <tile/>
   <tile/>
   <tile/>
   <tile/>
   <tile/>
   <tile/>
   <tile/>
   <tile/>
   <tile/>
   <tile/>
   <tile/>
   <tile/>
   <tile/>
   <tile/>
   <tile/>
   <tile/>
   <tile/>
   <tile/>
   <tile/>
   <tile/>
   <tile/>
   <tile/>
   <tile/>
   <tile/>
   <tile/>
   <tile/>
   <tile/>
   <tile/>
   <tile/>
   <tile/>
   <tile/>
   <tile/>
   <tile/>
   <tile/>
   <tile/>
   <tile/>
   <tile/>
   <tile/>
   <tile/>
   <tile/>
   <tile/>
   <tile/>
   <tile/>
   <tile/>
   <tile/>
   <tile/>
   <tile/>
   <tile/>
   <tile/>
   <tile/>
   <tile/>
   <tile/>
   <tile/>
   <tile/>
   <tile/>
   <tile/>
   <tile/>
   <tile/>
   <tile/>
   <tile/>
   <tile/>
   <tile/>
   <tile/>
   <tile/>
   <tile/>
   <tile/>
   <tile/>
   <tile/>
   <tile/>
   <tile/>
   <tile/>
   <tile/>
   <tile/>
   <tile/>
   <tile/>
   <tile/>
   <tile/>
   <tile/>
   <tile/>
   <tile/>
   <tile/>
   <tile/>
   <tile/>
   <tile/>
   <tile/>
   <tile/>
   <tile/>
   <tile/>
   <tile/>
   <tile/>
   <tile/>
   <tile/>
   <tile/>
   <tile/>
   <tile/>
   <tile/>
   <tile/>
   <tile/>
   <tile/>
   <tile/>
   <tile/>
   <tile/>
   <tile/>
   <tile/>
   <tile/>
   <tile/>
   <tile/>
   <tile/>
   <tile/>
   <tile/>
   <tile/>
   <tile/>
   <tile/>
   <tile/>
   <tile/>
   <tile/>
   <tile/>
   <tile/>
   <tile/>
   <tile/>
   <tile/>
   <tile/>
   <tile/>
   <tile/>
   <tile/>
   <tile/>
   <tile/>
   <tile/>
   <tile/>
   <tile/>
   <tile/>
   <tile/>
   <tile/>
   <tile/>
   <tile/>
   <tile/>
   <tile/>
   <tile/>
   <tile/>
   <tile/>
   <tile/>
   <tile/>
   <tile/>
   <tile/>
   <tile/>
   <tile/>
   <tile/>
   <tile/>
   <tile/>
   <tile/>
   <tile/>
   <tile/>
   <tile/>
   <tile/>
   <tile/>
   <tile/>
   <tile/>
   <tile/>
   <tile/>
   <tile/>
   <tile/>
   <tile/>
   <tile/>
   <tile/>
   <tile/>
   <tile/>
   <tile/>
   <tile/>
   <tile/>
   <tile/>
   <tile/>
   <tile/>
   <tile/>
   <tile/>
   <tile/>
   <tile/>
   <tile/>
   <tile/>
   <tile/>
   <tile/>
   <tile/>
   <tile/>
   <tile/>
   <tile/>
   <tile/>
   <tile/>
   <tile/>
   <tile/>
   <tile/>
   <tile/>
   <tile/>
   <tile/>
   <tile/>
   <tile/>
   <tile/>
   <tile/>
   <tile/>
   <tile/>
   <tile/>
   <tile/>
   <tile/>
   <tile/>
   <tile/>
   <tile/>
   <tile/>
   <tile/>
   <tile/>
   <tile/>
   <tile/>
   <tile/>
   <tile/>
   <tile/>
   <tile/>
   <tile/>
   <tile/>
   <tile/>
   <tile/>
   <tile/>
   <tile/>
   <tile/>
   <tile/>
   <tile/>
   <tile/>
   <tile/>
   <tile/>
   <tile/>
   <tile/>
   <tile/>
   <tile/>
   <tile/>
   <tile/>
   <tile/>
   <tile/>
   <tile/>
   <tile/>
   <tile/>
   <tile/>
   <tile/>
   <tile/>
   <tile/>
   <tile/>
   <tile/>
   <tile/>
   <tile/>
   <tile/>
   <tile/>
   <tile/>
   <tile/>
   <tile/>
   <tile/>
   <tile/>
   <tile/>
   <tile/>
   <tile/>
   <tile/>
   <tile/>
   <tile/>
   <tile/>
   <tile/>
   <tile/>
   <tile/>
   <tile/>
   <tile/>
   <tile/>
   <tile/>
   <tile/>
   <tile/>
   <tile/>
   <tile/>
   <tile/>
   <tile/>
   <tile/>
   <tile/>
   <tile/>
   <tile/>
   <tile/>
   <tile/>
   <tile/>
   <tile/>
   <tile/>
   <tile/>
   <tile/>
   <tile/>
   <tile/>
   <tile/>
   <tile/>
   <tile/>
   <tile/>
   <tile/>
   <tile/>
   <tile/>
   <tile/>
   <tile/>
   <tile/>
   <tile/>
   <tile/>
   <tile/>
   <tile/>
   <tile/>
   <tile/>
   <tile/>
   <tile/>
   <tile/>
   <tile/>
   <tile/>
   <tile/>
   <tile/>
   <tile/>
   <tile/>
   <tile/>
   <tile/>
   <tile/>
   <tile/>
   <tile/>
   <tile/>
   <tile/>
   <tile/>
   <tile/>
   <tile/>
   <tile/>
   <tile/>
   <tile/>
   <tile/>
   <tile/>
   <tile/>
   <tile/>
   <tile/>
   <tile/>
   <tile/>
   <tile/>
   <tile/>
   <tile/>
   <tile/>
   <tile/>
   <tile/>
   <tile/>
   <tile/>
   <tile/>
   <tile/>
   <tile/>
   <tile/>
   <tile/>
   <tile/>
   <tile/>
   <tile/>
   <tile/>
   <tile/>
   <tile/>
   <tile/>
   <tile/>
   <tile/>
   <tile/>
   <tile/>
   <tile/>
   <tile/>
   <tile/>
   <tile/>
   <tile/>
   <tile/>
   <tile/>
   <tile/>
   <tile/>
   <tile/>
   <tile/>
   <tile/>
   <tile/>
   <tile/>
   <tile/>
   <tile/>
   <tile/>
   <tile/>
   <tile/>
   <tile/>
   <tile/>
   <tile/>
   <tile/>
   <tile/>
   <tile/>
   <tile/>
   <tile/>
   <tile/>
   <tile/>
   <tile/>
   <tile/>
   <tile/>
   <tile/>
   <tile/>
   <tile/>
   <tile/>
   <tile/>
   <tile/>
   <tile/>
   <tile/>
   <tile/>
   <tile/>
   <tile/>
   <tile/>
   <tile/>
   <tile/>
   <tile/>
   <tile/>
   <tile/>
   <tile/>
   <tile/>
   <tile/>
   <tile/>
   <tile/>
   <tile/>
   <tile/>
   <tile/>
   <tile/>
   <tile/>
   <tile/>
   <tile/>
   <tile/>
   <tile/>
   <tile/>
   <tile/>
   <tile/>
   <tile/>
   <tile/>
   <tile/>
   <tile/>
   <tile/>
   <tile/>
   <tile/>
   <tile/>
   <tile/>
   <tile/>
   <tile/>
   <tile/>
   <tile/>
   <tile/>
   <tile/>
   <tile/>
   <tile/>
   <tile/>
   <tile/>
   <tile/>
   <tile/>
   <tile/>
   <tile/>
   <tile/>
   <tile/>
   <tile/>
   <tile/>
   <tile/>
   <tile/>
   <tile/>
   <tile/>
   <tile/>
   <tile/>
   <tile/>
   <tile/>
   <tile/>
   <tile/>
   <tile/>
   <tile/>
   <tile/>
   <tile/>
   <tile/>
   <tile/>
   <tile/>
   <tile/>
   <tile/>
   <tile/>
   <tile/>
   <tile/>
   <tile/>
   <tile/>
   <tile/>
   <tile/>
   <tile/>
   <tile/>
   <tile/>
   <tile/>
   <tile/>
   <tile/>
   <tile/>
   <tile/>
   <tile/>
   <tile/>
   <tile/>
   <tile/>
   <tile/>
   <tile/>
   <tile/>
   <tile/>
   <tile/>
   <tile/>
   <tile/>
   <tile/>
   <tile/>
   <tile/>
   <tile/>
   <tile/>
   <tile/>
   <tile/>
   <tile/>
   <tile/>
   <tile/>
   <tile/>
   <tile/>
   <tile/>
   <tile/>
   <tile/>
   <tile/>
   <tile/>
   <tile/>
   <tile/>
   <tile/>
   <tile/>
   <tile/>
   <tile/>
   <tile/>
   <tile/>
   <tile/>
   <tile/>
   <tile/>
   <tile/>
   <tile/>
   <tile/>
   <tile/>
   <tile/>
   <tile/>
   <tile/>
   <tile/>
   <tile/>
   <tile/>
   <tile/>
   <tile/>
   <tile/>
   <tile/>
   <tile/>
   <tile/>
   <tile/>
   <tile/>
   <tile/>
   <tile/>
   <tile/>
   <tile/>
   <tile/>
   <tile/>
   <tile/>
   <tile/>
   <tile/>
   <tile/>
   <tile/>
   <tile/>
   <tile/>
   <tile/>
   <tile/>
   <tile/>
   <tile/>
   <tile/>
   <tile/>
   <tile/>
   <tile/>
   <tile/>
   <tile/>
   <tile/>
   <tile/>
   <tile/>
   <tile/>
   <tile/>
   <tile/>
   <tile/>
   <tile/>
   <tile/>
   <tile/>
   <tile/>
   <tile/>
   <tile/>
   <tile/>
   <tile/>
   <tile/>
   <tile/>
   <tile/>
   <tile/>
   <tile/>
   <tile/>
   <tile/>
   <tile/>
   <tile/>
   <tile/>
   <tile/>
   <tile/>
   <tile/>
   <tile/>
   <tile/>
   <tile/>
   <tile/>
   <tile/>
   <tile/>
   <tile/>
   <tile/>
   <tile/>
   <tile/>
   <tile/>
   <tile/>
   <tile/>
   <tile/>
   <tile/>
   <tile/>
   <tile/>
   <tile/>
   <tile/>
   <tile/>
   <tile/>
   <tile/>
   <tile/>
   <tile/>
   <tile/>
   <tile/>
   <tile/>
   <tile/>
   <tile/>
   <tile/>
   <tile/>
   <tile/>
   <tile/>
   <tile/>
   <tile/>
   <tile/>
   <tile/>
   <tile/>
   <tile/>
   <tile/>
   <tile/>
   <tile/>
   <tile/>
   <tile/>
   <tile/>
   <tile/>
   <tile/>
   <tile/>
   <tile/>
   <tile/>
   <tile/>
   <tile/>
   <tile/>
   <tile/>
   <tile/>
   <tile/>
   <tile/>
   <tile/>
   <tile/>
   <tile/>
   <tile/>
   <tile/>
   <tile/>
   <tile/>
   <tile/>
   <tile/>
   <tile/>
   <tile/>
   <tile/>
   <tile/>
   <tile/>
   <tile/>
   <tile/>
   <tile/>
   <tile/>
   <tile/>
   <tile/>
   <tile/>
   <tile/>
   <tile/>
   <tile/>
   <tile/>
   <tile/>
   <tile/>
   <tile/>
   <tile/>
   <tile/>
   <tile/>
   <tile/>
   <tile/>
   <tile/>
   <tile/>
   <tile/>
   <tile/>
   <tile/>
   <tile/>
   <tile/>
   <tile/>
   <tile/>
   <tile/>
   <tile/>
   <tile/>
   <tile/>
   <tile/>
   <tile/>
   <tile/>
   <tile/>
   <tile/>
   <tile/>
   <tile/>
   <tile/>
   <tile/>
   <tile/>
   <tile/>
   <tile/>
   <tile/>
   <tile/>
   <tile/>
   <tile/>
   <tile/>
   <tile/>
   <tile/>
   <tile/>
   <tile/>
   <tile/>
   <tile/>
   <tile/>
   <tile/>
   <tile/>
   <tile/>
   <tile/>
   <tile/>
   <tile/>
   <tile/>
   <tile/>
   <tile/>
   <tile/>
   <tile/>
   <tile/>
   <tile/>
   <tile/>
   <tile/>
   <tile/>
   <tile/>
   <tile/>
   <tile/>
   <tile/>
   <tile/>
   <tile/>
   <tile/>
   <tile/>
   <tile/>
   <tile/>
   <tile/>
   <tile/>
   <tile/>
   <tile/>
   <tile/>
   <tile/>
   <tile/>
   <tile/>
   <tile/>
   <tile/>
   <tile/>
   <tile/>
   <tile/>
   <tile/>
   <tile/>
   <tile/>
   <tile/>
   <tile/>
   <tile/>
   <tile/>
   <tile/>
   <tile/>
   <tile/>
   <tile/>
   <tile/>
   <tile/>
   <tile/>
   <tile/>
   <tile/>
   <tile/>
   <tile/>
   <tile/>
   <tile/>
   <tile/>
   <tile/>
   <tile/>
   <tile/>
   <tile/>
   <tile/>
   <tile/>
   <tile/>
   <tile/>
   <tile/>
   <tile/>
   <tile/>
   <tile/>
   <tile/>
   <tile/>
   <tile/>
   <tile/>
   <tile/>
   <tile/>
   <tile/>
   <tile/>
   <tile/>
   <tile/>
   <tile/>
   <tile/>
   <tile/>
   <tile/>
   <tile/>
   <tile/>
   <tile/>
   <tile/>
   <tile/>
   <tile/>
   <tile/>
   <tile/>
   <tile/>
   <tile/>
   <tile/>
   <tile/>
   <tile/>
   <tile/>
   <tile/>
   <tile/>
   <tile/>
   <tile/>
   <tile/>
   <tile/>
   <tile/>
   <tile/>
   <tile/>
   <tile/>
   <tile/>
   <tile/>
   <tile/>
   <tile/>
   <tile/>
   <tile/>
   <tile/>
   <tile/>
   <tile/>
   <tile/>
   <tile/>
   <tile/>
   <tile/>
   <tile/>
   <tile/>
   <tile/>
   <tile/>
   <tile/>
   <tile/>
   <tile/>
   <tile/>
   <tile/>
   <tile/>
   <tile/>
   <tile/>
   <tile/>
   <tile/>
   <tile/>
   <tile/>
   <tile/>
   <tile/>
   <tile/>
   <tile/>
   <tile/>
   <tile/>
   <tile/>
   <tile/>
   <tile/>
   <tile/>
   <tile/>
   <tile/>
   <tile/>
   <tile/>
   <tile/>
   <tile/>
   <tile/>
   <tile/>
   <tile/>
   <tile/>
   <tile/>
   <tile/>
   <tile/>
   <tile/>
   <tile/>
   <tile/>
   <tile/>
   <tile/>
   <tile/>
   <tile/>
   <tile/>
   <tile/>
   <tile/>
   <tile/>
   <tile/>
   <tile/>
   <tile/>
   <tile/>
   <tile/>
   <tile/>
   <tile/>
   <tile/>
   <tile/>
   <tile/>
   <tile/>
   <tile/>
   <tile/>
   <tile/>
   <tile/>
   <tile/>
   <tile/>
   <tile/>
   <tile/>
   <tile/>
   <tile/>
   <tile/>
   <tile/>
   <tile/>
   <tile/>
   <tile/>
   <tile/>
   <tile/>
   <tile/>
   <tile/>
   <tile/>
   <tile/>
   <tile/>
   <tile/>
   <tile/>
   <tile/>
   <tile/>
   <tile/>
   <tile/>
   <tile/>
   <tile/>
   <tile/>
   <tile/>
   <tile/>
   <tile/>
   <tile/>
   <tile/>
   <tile/>
   <tile/>
   <tile/>
   <tile/>
   <tile/>
   <tile/>
   <tile/>
   <tile/>
   <tile/>
   <tile/>
   <tile/>
   <tile/>
   <tile/>
   <tile/>
   <tile/>
   <tile/>
   <tile/>
   <tile/>
   <tile/>
   <tile/>
   <tile/>
   <tile/>
   <tile/>
   <tile/>
   <tile/>
   <tile/>
   <tile/>
   <tile/>
   <tile/>
   <tile/>
   <tile/>
   <tile/>
   <tile/>
   <tile/>
   <tile/>
   <tile/>
   <tile/>
   <tile/>
   <tile/>
   <tile/>
   <tile/>
   <tile/>
   <tile/>
   <tile/>
   <tile/>
   <tile/>
   <tile/>
   <tile/>
   <tile/>
   <tile/>
   <tile/>
   <tile/>
   <tile/>
   <tile/>
   <tile/>
   <tile/>
   <tile/>
   <tile/>
   <tile/>
   <tile/>
   <tile/>
   <tile/>
   <tile/>
   <tile/>
   <tile/>
   <tile/>
   <tile/>
   <tile/>
   <tile/>
   <tile/>
   <tile/>
   <tile/>
   <tile/>
   <tile/>
   <tile/>
   <tile/>
   <tile/>
   <tile/>
   <tile/>
   <tile/>
   <tile/>
   <tile/>
   <tile/>
   <tile/>
   <tile/>
   <tile/>
   <tile/>
   <tile/>
   <tile/>
   <tile/>
   <tile/>
   <tile/>
   <tile/>
   <tile/>
   <tile/>
   <tile/>
   <tile/>
   <tile/>
   <tile/>
   <tile/>
   <tile/>
   <tile/>
   <tile/>
   <tile/>
   <tile/>
   <tile/>
   <tile/>
   <tile/>
   <tile/>
   <tile/>
   <tile/>
   <tile/>
   <tile/>
   <tile/>
   <tile/>
   <tile/>
   <tile/>
   <tile/>
   <tile/>
   <tile/>
   <tile/>
   <tile/>
   <tile/>
   <tile/>
   <tile/>
   <tile/>
   <tile/>
   <tile/>
   <tile/>
   <tile/>
   <tile/>
   <tile/>
   <tile/>
   <tile/>
   <tile/>
   <tile/>
   <tile/>
   <tile/>
   <tile/>
   <tile/>
   <tile/>
   <tile/>
   <tile/>
   <tile/>
   <tile/>
   <tile/>
   <tile/>
   <tile/>
   <tile/>
   <tile/>
   <tile/>
   <tile/>
   <tile/>
   <tile/>
   <tile/>
   <tile/>
   <tile/>
   <tile/>
   <tile/>
   <tile/>
   <tile/>
   <tile/>
   <tile/>
   <tile/>
   <tile/>
   <tile/>
   <tile/>
   <tile/>
   <tile/>
   <tile/>
   <tile/>
   <tile/>
   <tile/>
   <tile/>
   <tile/>
   <tile/>
   <tile/>
   <tile/>
   <tile/>
   <tile/>
   <tile/>
   <tile/>
   <tile/>
   <tile/>
   <tile/>
   <tile/>
   <tile/>
   <tile/>
   <tile/>
   <tile/>
   <tile/>
   <tile/>
   <tile/>
   <tile/>
   <tile/>
   <tile/>
   <tile/>
   <tile/>
   <tile/>
   <tile/>
   <tile/>
   <tile/>
   <tile/>
   <tile/>
   <tile/>
   <tile/>
   <tile/>
   <tile/>
   <tile/>
   <tile/>
   <tile/>
   <tile/>
   <tile/>
   <tile/>
   <tile/>
   <tile/>
   <tile/>
   <tile/>
   <tile/>
   <tile/>
   <tile/>
   <tile/>
   <tile/>
   <tile/>
   <tile/>
   <tile/>
   <tile/>
   <tile/>
   <tile/>
   <tile/>
   <tile/>
   <tile/>
   <tile/>
   <tile/>
   <tile/>
   <tile/>
   <tile/>
   <tile/>
   <tile/>
   <tile/>
   <tile/>
   <tile/>
   <tile/>
   <tile/>
   <tile/>
   <tile/>
   <tile/>
   <tile/>
   <tile/>
   <tile/>
   <tile/>
   <tile/>
   <tile/>
   <tile/>
   <tile/>
   <tile/>
   <tile/>
   <tile/>
   <tile/>
   <tile/>
   <tile/>
   <tile/>
   <tile/>
   <tile/>
   <tile/>
   <tile/>
   <tile/>
   <tile/>
   <tile/>
   <tile/>
   <tile/>
   <tile/>
   <tile/>
   <tile/>
   <tile/>
   <tile/>
   <tile/>
   <tile/>
   <tile/>
   <tile/>
   <tile/>
   <tile/>
   <tile/>
   <tile/>
   <tile/>
   <tile/>
   <tile/>
   <tile/>
   <tile/>
   <tile/>
   <tile/>
   <tile/>
   <tile/>
   <tile/>
   <tile/>
   <tile/>
   <tile/>
   <tile/>
   <tile/>
   <tile/>
   <tile/>
   <tile/>
   <tile/>
   <tile/>
   <tile/>
   <tile/>
   <tile/>
   <tile/>
   <tile/>
   <tile/>
   <tile/>
   <tile/>
   <tile/>
   <tile/>
   <tile/>
   <tile/>
   <tile/>
   <tile/>
   <tile/>
   <tile/>
   <tile/>
   <tile/>
   <tile/>
   <tile/>
   <tile/>
   <tile/>
   <tile/>
   <tile/>
   <tile/>
   <tile/>
   <tile/>
   <tile/>
   <tile/>
   <tile/>
   <tile/>
   <tile/>
   <tile/>
   <tile/>
   <tile/>
   <tile/>
   <tile/>
   <tile/>
   <tile/>
   <tile/>
   <tile/>
   <tile/>
   <tile/>
   <tile/>
   <tile/>
   <tile/>
   <tile/>
   <tile/>
   <tile/>
   <tile/>
   <tile/>
   <tile/>
   <tile/>
   <tile/>
   <tile/>
   <tile/>
   <tile/>
   <tile/>
   <tile/>
   <tile/>
   <tile/>
   <tile/>
   <tile/>
   <tile/>
   <tile/>
   <tile/>
   <tile/>
   <tile/>
   <tile/>
   <tile/>
   <tile/>
   <tile/>
   <tile/>
   <tile/>
   <tile/>
   <tile/>
   <tile/>
   <tile/>
   <tile/>
   <tile/>
   <tile/>
   <tile/>
   <tile/>
   <tile/>
   <tile/>
   <tile/>
   <tile/>
   <tile/>
   <tile/>
   <tile/>
   <tile/>
   <tile/>
   <tile/>
   <tile/>
   <tile/>
   <tile/>
   <tile/>
   <tile/>
   <tile/>
   <tile/>
   <tile/>
   <tile/>
   <tile/>
   <tile/>
   <tile/>
   <tile/>
   <tile/>
   <tile/>
   <tile/>
   <tile/>
   <tile/>
   <tile/>
   <tile/>
   <tile/>
   <tile/>
   <tile/>
   <tile/>
   <tile/>
   <tile/>
   <tile/>
   <tile/>
   <tile/>
   <tile/>
   <tile/>
   <tile/>
   <tile/>
   <tile/>
   <tile/>
   <tile/>
   <tile/>
   <tile/>
   <tile/>
   <tile/>
   <tile/>
   <tile/>
   <tile/>
   <tile/>
   <tile/>
   <tile/>
   <tile/>
   <tile/>
   <tile/>
   <tile/>
   <tile/>
   <tile/>
   <tile/>
   <tile/>
   <tile/>
   <tile/>
   <tile/>
   <tile/>
   <tile/>
   <tile/>
   <tile/>
   <tile/>
   <tile/>
   <tile/>
   <tile/>
   <tile/>
   <tile/>
   <tile/>
   <tile/>
   <tile/>
   <tile/>
   <tile/>
   <tile/>
   <tile/>
   <tile/>
   <tile/>
   <tile/>
   <tile/>
   <tile/>
   <tile/>
   <tile/>
   <tile/>
   <tile/>
   <tile/>
   <tile/>
   <tile/>
   <tile/>
   <tile/>
   <tile/>
   <tile/>
   <tile/>
   <tile/>
   <tile/>
   <tile/>
   <tile/>
   <tile/>
   <tile/>
   <tile/>
   <tile/>
   <tile/>
   <tile/>
   <tile/>
   <tile/>
   <tile/>
   <tile/>
   <tile/>
   <tile/>
   <tile/>
   <tile/>
   <tile/>
   <tile/>
   <tile/>
   <tile/>
   <tile/>
   <tile/>
   <tile/>
   <tile/>
   <tile/>
   <tile/>
   <tile/>
   <tile/>
   <tile/>
   <tile/>
   <tile/>
   <tile/>
   <tile/>
   <tile/>
   <tile/>
   <tile/>
   <tile/>
   <tile/>
   <tile/>
   <tile/>
   <tile/>
   <tile/>
   <tile/>
   <tile/>
   <tile/>
   <tile/>
   <tile/>
   <tile/>
   <tile/>
   <tile/>
   <tile/>
   <tile/>
   <tile/>
   <tile/>
   <tile/>
   <tile/>
   <tile/>
   <tile/>
   <tile/>
   <tile/>
   <tile/>
   <tile/>
   <tile/>
   <tile/>
   <tile/>
   <tile/>
   <tile/>
   <tile/>
   <tile/>
   <tile/>
   <tile/>
   <tile/>
   <tile/>
   <tile/>
   <tile/>
   <tile/>
   <tile/>
   <tile/>
   <tile/>
   <tile/>
   <tile/>
   <tile/>
   <tile/>
   <tile/>
   <tile/>
   <tile/>
   <tile/>
   <tile/>
   <tile/>
   <tile/>
   <tile/>
   <tile/>
   <tile/>
   <tile/>
   <tile/>
   <tile/>
   <tile/>
   <tile/>
   <tile/>
   <tile/>
   <tile/>
   <tile/>
   <tile/>
   <tile/>
   <tile/>
   <tile/>
   <tile/>
   <tile/>
   <tile/>
   <tile/>
   <tile/>
   <tile/>
   <tile/>
   <tile/>
   <tile/>
   <tile/>
   <tile/>
   <tile/>
   <tile/>
   <tile/>
   <tile/>
   <tile/>
   <tile/>
   <tile/>
   <tile/>
   <tile/>
   <tile/>
   <tile/>
   <tile/>
   <tile/>
   <tile/>
   <tile/>
   <tile/>
   <tile/>
   <tile/>
   <tile/>
   <tile/>
   <tile/>
   <tile/>
   <tile/>
   <tile/>
   <tile/>
   <tile/>
   <tile/>
   <tile/>
   <tile/>
   <tile/>
   <tile/>
   <tile/>
   <tile/>
   <tile/>
   <tile/>
   <tile/>
   <tile/>
   <tile/>
   <tile/>
   <tile/>
   <tile/>
   <tile/>
   <tile/>
   <tile/>
   <tile/>
   <tile/>
   <tile/>
   <tile/>
   <tile/>
   <tile/>
   <tile/>
   <tile/>
   <tile/>
   <tile/>
   <tile/>
   <tile/>
   <tile/>
   <tile/>
   <tile/>
   <tile/>
   <tile/>
   <tile/>
   <tile/>
   <tile/>
   <tile/>
   <tile/>
   <tile/>
   <tile/>
   <tile/>
   <tile/>
   <tile/>
   <tile/>
   <tile/>
   <tile/>
   <tile/>
   <tile/>
   <tile/>
   <tile/>
   <tile/>
   <tile/>
   <tile/>
   <tile/>
   <tile/>
   <tile/>
   <tile/>
   <tile/>
   <tile/>
   <tile/>
   <tile/>
   <tile/>
   <tile/>
   <tile/>
   <tile/>
   <tile/>
   <tile/>
   <tile/>
   <tile/>
   <tile/>
   <tile/>
   <tile/>
   <tile/>
   <tile/>
   <tile/>
   <tile/>
   <tile/>
   <tile/>
   <tile/>
   <tile/>
   <tile/>
   <tile/>
   <tile/>
   <tile/>
   <tile/>
   <tile/>
   <tile/>
   <tile/>
   <tile/>
   <tile/>
   <tile/>
   <tile/>
   <tile/>
   <tile/>
   <tile/>
   <tile/>
   <tile/>
   <tile/>
   <tile/>
   <tile/>
   <tile/>
   <tile/>
   <tile/>
   <tile/>
   <tile/>
   <tile/>
   <tile/>
   <tile/>
   <tile/>
   <tile/>
   <tile/>
   <tile/>
   <tile/>
   <tile/>
   <tile/>
   <tile/>
   <tile/>
   <tile/>
   <tile/>
   <tile/>
   <tile/>
   <tile/>
   <tile/>
   <tile/>
   <tile/>
   <tile/>
   <tile/>
   <tile/>
   <tile/>
   <tile/>
   <tile/>
   <tile/>
   <tile/>
   <tile/>
   <tile/>
   <tile/>
   <tile/>
   <tile/>
   <tile/>
   <tile/>
   <tile/>
   <tile/>
   <tile/>
   <tile/>
   <tile/>
   <tile/>
   <tile/>
   <tile/>
   <tile/>
   <tile/>
   <tile/>
   <tile/>
   <tile/>
   <tile/>
   <tile/>
   <tile/>
   <tile/>
   <tile/>
   <tile/>
   <tile/>
   <tile/>
   <tile/>
   <tile/>
   <tile/>
   <tile/>
   <tile/>
   <tile/>
   <tile/>
   <tile/>
   <tile/>
   <tile/>
   <tile/>
   <tile/>
   <tile/>
   <tile/>
   <tile/>
   <tile/>
   <tile/>
   <tile/>
   <tile/>
   <tile/>
   <tile/>
   <tile/>
   <tile/>
   <tile/>
   <tile/>
   <tile/>
   <tile/>
   <tile/>
   <tile/>
   <tile/>
   <tile/>
   <tile/>
   <tile/>
   <tile/>
   <tile/>
   <tile/>
   <tile/>
   <tile/>
   <tile/>
   <tile/>
   <tile/>
   <tile/>
   <tile/>
   <tile/>
   <tile/>
   <tile/>
   <tile/>
   <tile/>
   <tile/>
   <tile/>
   <tile/>
   <tile/>
   <tile/>
   <tile/>
   <tile/>
   <tile/>
   <tile/>
   <tile/>
   <tile/>
   <tile/>
   <tile/>
   <tile/>
   <tile/>
   <tile/>
   <tile/>
   <tile/>
   <tile/>
   <tile/>
   <tile/>
   <tile/>
   <tile/>
   <tile/>
   <tile/>
   <tile/>
   <tile/>
   <tile/>
   <tile/>
   <tile/>
   <tile/>
   <tile/>
   <tile/>
   <tile/>
   <tile/>
   <tile/>
   <tile/>
   <tile/>
   <tile/>
   <tile/>
   <tile/>
   <tile/>
   <tile/>
   <tile/>
   <tile/>
   <tile/>
   <tile/>
   <tile/>
   <tile/>
   <tile/>
   <tile/>
   <tile/>
   <tile/>
   <tile/>
   <tile/>
   <tile/>
   <tile/>
   <tile/>
   <tile/>
   <tile/>
   <tile/>
   <tile/>
   <tile/>
   <tile/>
   <tile/>
   <tile/>
   <tile/>
   <tile/>
   <tile/>
   <tile/>
   <tile/>
   <tile/>
   <tile/>
   <tile/>
   <tile/>
   <tile/>
   <tile/>
   <tile/>
   <tile/>
   <tile/>
   <tile/>
   <tile/>
   <tile/>
   <tile/>
   <tile/>
   <tile/>
   <tile/>
   <tile/>
   <tile/>
   <tile/>
   <tile/>
   <tile/>
   <tile/>
   <tile/>
   <tile/>
   <tile/>
   <tile/>
   <tile/>
   <tile/>
   <tile/>
   <tile/>
   <tile/>
   <tile/>
   <tile/>
   <tile/>
   <tile/>
   <tile/>
   <tile/>
   <tile/>
   <tile/>
   <tile/>
   <tile/>
   <tile/>
   <tile/>
   <tile/>
   <tile/>
   <tile/>
   <tile/>
   <tile/>
   <tile/>
   <tile/>
   <tile/>
   <tile/>
   <tile/>
   <tile/>
   <tile/>
   <tile/>
   <tile/>
   <tile/>
   <tile/>
   <tile/>
   <tile/>
   <tile/>
   <tile/>
   <tile/>
   <tile/>
   <tile/>
   <tile/>
   <tile/>
   <tile/>
   <tile/>
   <tile/>
   <tile/>
   <tile/>
   <tile/>
   <tile/>
   <tile/>
   <tile/>
   <tile/>
   <tile/>
   <tile/>
   <tile/>
   <tile/>
   <tile/>
   <tile/>
   <tile/>
   <tile/>
   <tile/>
   <tile/>
   <tile/>
   <tile/>
   <tile/>
   <tile/>
   <tile/>
   <tile/>
   <tile/>
   <tile/>
   <tile/>
   <tile/>
   <tile/>
   <tile/>
   <tile/>
   <tile/>
   <tile/>
   <tile/>
   <tile/>
   <tile/>
   <tile/>
   <tile/>
   <tile/>
   <tile/>
   <tile/>
   <tile/>
   <tile/>
   <tile/>
   <tile/>
   <tile/>
   <tile/>
   <tile/>
   <tile/>
   <tile/>
   <tile/>
   <tile/>
   <tile/>
   <tile/>
   <tile/>
   <tile/>
   <tile/>
   <tile/>
   <tile/>
   <tile/>
   <tile/>
   <tile/>
   <tile/>
   <tile/>
   <tile/>
   <tile/>
   <tile/>
   <tile/>
   <tile/>
   <tile/>
   <tile/>
   <tile/>
   <tile/>
   <tile/>
   <tile/>
   <tile/>
   <tile/>
   <tile/>
   <tile/>
   <tile/>
   <tile/>
   <tile/>
   <tile/>
   <tile/>
   <tile/>
   <tile/>
   <tile/>
   <tile/>
   <tile/>
   <tile/>
   <tile/>
   <tile/>
   <tile/>
   <tile/>
   <tile/>
   <tile/>
   <tile/>
   <tile/>
   <tile/>
   <tile/>
   <tile/>
   <tile/>
   <tile/>
   <tile/>
   <tile/>
   <tile/>
   <tile/>
   <tile/>
   <tile/>
   <tile/>
   <tile/>
   <tile/>
   <tile/>
   <tile/>
   <tile/>
   <tile/>
   <tile/>
   <tile/>
   <tile/>
   <tile/>
   <tile/>
   <tile/>
   <tile/>
   <tile/>
   <tile/>
   <tile/>
   <tile/>
   <tile/>
   <tile/>
   <tile/>
   <tile/>
   <tile/>
   <tile/>
   <tile/>
   <tile/>
   <tile/>
   <tile/>
   <tile/>
   <tile/>
   <tile/>
   <tile/>
   <tile/>
   <tile/>
   <tile/>
   <tile/>
   <tile/>
   <tile/>
   <tile/>
   <tile/>
   <tile/>
   <tile/>
   <tile/>
   <tile/>
   <tile/>
   <tile/>
   <tile/>
   <tile/>
   <tile/>
   <tile/>
   <tile/>
   <tile/>
   <tile/>
   <tile/>
   <tile/>
   <tile/>
   <tile/>
   <tile/>
   <tile/>
   <tile/>
   <tile/>
   <tile/>
   <tile/>
   <tile/>
   <tile/>
   <tile/>
   <tile/>
   <tile/>
   <tile/>
   <tile/>
   <tile/>
   <tile/>
   <tile/>
   <tile/>
   <tile/>
   <tile/>
   <tile/>
   <tile/>
   <tile/>
   <tile/>
   <tile/>
   <tile/>
   <tile/>
   <tile/>
   <tile/>
   <tile/>
   <tile/>
   <tile/>
   <tile/>
   <tile/>
   <tile/>
   <tile/>
   <tile/>
   <tile/>
   <tile/>
   <tile/>
   <tile/>
   <tile/>
   <tile/>
   <tile/>
   <tile/>
   <tile/>
   <tile/>
   <tile/>
   <tile/>
   <tile/>
   <tile/>
   <tile/>
   <tile/>
   <tile/>
   <tile/>
   <tile/>
   <tile/>
   <tile/>
   <tile/>
   <tile/>
   <tile/>
   <tile/>
   <tile/>
   <tile/>
   <tile/>
   <tile/>
   <tile/>
   <tile/>
   <tile/>
   <tile/>
   <tile/>
   <tile/>
   <tile/>
   <tile/>
   <tile/>
   <tile/>
   <tile/>
   <tile/>
   <tile/>
   <tile/>
   <tile/>
   <tile/>
   <tile/>
   <tile/>
   <tile/>
   <tile/>
   <tile/>
   <tile/>
   <tile/>
   <tile/>
   <tile/>
   <tile/>
   <tile/>
   <tile/>
   <tile/>
   <tile/>
   <tile/>
   <tile/>
   <tile/>
   <tile/>
   <tile/>
   <tile/>
   <tile/>
   <tile/>
   <tile/>
   <tile/>
   <tile/>
   <tile/>
   <tile/>
   <tile/>
   <tile/>
   <tile/>
   <tile/>
   <tile/>
   <tile/>
   <tile/>
   <tile/>
   <tile/>
   <tile/>
   <tile/>
   <tile/>
   <tile/>
   <tile/>
   <tile/>
   <tile/>
   <tile/>
   <tile/>
   <tile/>
   <tile/>
   <tile/>
   <tile/>
   <tile/>
   <tile/>
   <tile/>
   <tile/>
   <tile/>
   <tile/>
   <tile/>
   <tile/>
   <tile/>
   <tile/>
   <tile/>
   <tile/>
   <tile/>
   <tile/>
   <tile/>
   <tile/>
   <tile/>
   <tile/>
   <tile/>
   <tile/>
   <tile/>
   <tile/>
   <tile/>
   <tile/>
   <tile/>
   <tile/>
   <tile/>
   <tile/>
   <tile/>
   <tile/>
   <tile/>
   <tile/>
   <tile/>
   <tile/>
   <tile/>
   <tile/>
   <tile/>
   <tile/>
   <tile/>
   <tile/>
   <tile/>
   <tile/>
   <tile/>
   <tile/>
   <tile/>
   <tile/>
   <tile/>
   <tile/>
   <tile/>
   <tile/>
   <tile/>
   <tile/>
   <tile/>
   <tile/>
   <tile/>
   <tile/>
   <tile/>
   <tile/>
   <tile/>
   <tile/>
   <tile/>
   <tile/>
   <tile/>
   <tile/>
   <tile/>
   <tile/>
   <tile/>
   <tile/>
   <tile/>
   <tile/>
   <tile/>
   <tile/>
   <tile/>
   <tile/>
   <tile/>
   <tile/>
   <tile/>
   <tile/>
   <tile/>
   <tile/>
   <tile/>
   <tile/>
   <tile/>
   <tile/>
   <tile/>
   <tile/>
   <tile/>
   <tile/>
   <tile/>
   <tile/>
   <tile/>
   <tile/>
   <tile/>
   <tile/>
   <tile/>
   <tile/>
   <tile/>
   <tile/>
   <tile/>
   <tile/>
   <tile/>
   <tile/>
   <tile/>
   <tile/>
   <tile/>
   <tile/>
   <tile/>
   <tile/>
   <tile/>
   <tile/>
   <tile/>
   <tile/>
   <tile/>
   <tile/>
   <tile/>
   <tile/>
   <tile/>
   <tile/>
   <tile/>
   <tile/>
   <tile/>
   <tile/>
   <tile/>
   <tile/>
   <tile/>
   <tile/>
   <tile/>
   <tile/>
   <tile/>
   <tile/>
   <tile/>
   <tile/>
   <tile/>
   <tile/>
   <tile/>
   <tile/>
   <tile/>
   <tile/>
   <tile/>
   <tile/>
   <tile/>
   <tile/>
   <tile/>
   <tile/>
   <tile/>
   <tile/>
   <tile/>
   <tile/>
   <tile/>
   <tile/>
   <tile/>
   <tile/>
   <tile/>
   <tile/>
   <tile/>
   <tile/>
   <tile/>
   <tile/>
   <tile/>
   <tile/>
   <tile/>
   <tile/>
   <tile/>
   <tile/>
   <tile/>
   <tile/>
   <tile/>
   <tile/>
   <tile/>
   <tile/>
   <tile/>
   <tile/>
   <tile/>
   <tile/>
   <tile/>
   <tile/>
   <tile/>
   <tile/>
   <tile/>
   <tile/>
   <tile/>
   <tile/>
   <tile/>
   <tile/>
   <tile/>
   <tile/>
   <tile/>
   <tile/>
   <tile/>
   <tile/>
   <tile/>
   <tile/>
   <tile/>
   <tile/>
   <tile/>
   <tile/>
   <tile/>
   <tile/>
   <tile/>
   <tile/>
   <tile/>
   <tile/>
   <tile/>
   <tile/>
   <tile/>
   <tile/>
   <tile/>
   <tile/>
   <tile/>
   <tile/>
   <tile/>
   <tile/>
   <tile/>
   <tile/>
   <tile/>
   <tile/>
   <tile/>
   <tile/>
   <tile/>
   <tile/>
   <tile/>
   <tile/>
   <tile/>
   <tile/>
   <tile/>
   <tile/>
   <tile/>
   <tile/>
   <tile/>
   <tile/>
   <tile/>
   <tile/>
   <tile/>
   <tile/>
   <tile/>
   <tile/>
   <tile/>
   <tile/>
   <tile/>
   <tile/>
   <tile/>
   <tile/>
   <tile/>
   <tile/>
   <tile/>
   <tile/>
   <tile/>
   <tile/>
   <tile/>
   <tile/>
   <tile/>
   <tile/>
   <tile/>
   <tile/>
   <tile/>
   <tile/>
   <tile/>
   <tile/>
   <tile/>
   <tile/>
   <tile/>
   <tile/>
   <tile/>
   <tile/>
   <tile/>
   <tile/>
   <tile/>
   <tile/>
   <tile/>
   <tile/>
   <tile/>
   <tile/>
   <tile/>
   <tile/>
   <tile/>
   <tile/>
   <tile/>
   <tile/>
   <tile/>
   <tile/>
   <tile/>
   <tile/>
   <tile/>
   <tile/>
   <tile/>
   <tile/>
   <tile/>
   <tile/>
   <tile/>
   <tile/>
   <tile/>
   <tile/>
   <tile/>
   <tile/>
   <tile/>
   <tile/>
   <tile/>
   <tile/>
   <tile/>
   <tile/>
   <tile/>
   <tile/>
   <tile/>
   <tile/>
   <tile/>
   <tile/>
   <tile/>
   <tile/>
   <tile/>
   <tile/>
   <tile/>
   <tile/>
   <tile/>
   <tile/>
   <tile/>
   <tile/>
   <tile/>
   <tile/>
   <tile/>
   <tile/>
   <tile/>
   <tile/>
   <tile/>
   <tile/>
   <tile/>
   <tile/>
   <tile/>
   <tile/>
   <tile/>
   <tile/>
   <tile/>
   <tile/>
   <tile/>
   <tile/>
   <tile/>
   <tile/>
   <tile/>
   <tile/>
   <tile/>
   <tile/>
   <tile/>
   <tile/>
   <tile/>
   <tile/>
   <tile/>
   <tile/>
   <tile/>
   <tile/>
   <tile/>
   <tile/>
   <tile/>
   <tile/>
   <tile/>
   <tile/>
   <tile/>
   <tile/>
   <tile/>
   <tile/>
   <tile/>
   <tile/>
   <tile/>
   <tile/>
   <tile/>
   <tile/>
   <tile/>
   <tile/>
   <tile/>
   <tile/>
   <tile/>
   <tile/>
   <tile/>
   <tile/>
   <tile/>
   <tile/>
   <tile/>
   <tile/>
   <tile/>
   <tile/>
   <tile/>
   <tile/>
   <tile/>
   <tile/>
   <tile/>
   <tile/>
   <tile/>
   <tile/>
   <tile/>
   <tile/>
   <tile/>
   <tile/>
   <tile/>
   <tile/>
   <tile/>
   <tile/>
   <tile/>
   <tile/>
   <tile/>
   <tile/>
   <tile/>
   <tile/>
   <tile/>
   <tile/>
   <tile/>
   <tile/>
   <tile/>
   <tile/>
   <tile/>
   <tile/>
   <tile/>
   <tile/>
   <tile/>
   <tile/>
   <tile/>
   <tile/>
   <tile/>
   <tile/>
   <tile/>
   <tile/>
   <tile/>
   <tile/>
   <tile/>
   <tile/>
   <tile/>
   <tile/>
   <tile/>
   <tile/>
   <tile/>
   <tile/>
   <tile/>
   <tile/>
   <tile/>
   <tile/>
   <tile/>
   <tile/>
   <tile/>
   <tile/>
   <tile/>
   <tile/>
   <tile/>
   <tile/>
   <tile/>
   <tile/>
   <tile/>
   <tile/>
   <tile/>
   <tile/>
   <tile/>
   <tile/>
   <tile/>
   <tile/>
   <tile/>
   <tile/>
   <tile/>
   <tile/>
   <tile/>
   <tile/>
   <tile/>
   <tile/>
   <tile/>
   <tile/>
   <tile/>
   <tile/>
   <tile/>
   <tile/>
   <tile/>
   <tile/>
   <tile/>
   <tile/>
   <tile/>
   <tile/>
   <tile/>
   <tile/>
   <tile/>
   <tile/>
   <tile/>
   <tile/>
   <tile/>
   <tile/>
   <tile/>
   <tile/>
   <tile/>
   <tile/>
   <tile/>
   <tile/>
   <tile/>
   <tile/>
   <tile/>
   <tile/>
   <tile/>
   <tile/>
   <tile/>
   <tile/>
   <tile/>
   <tile/>
   <tile/>
   <tile/>
   <tile/>
   <tile/>
   <tile/>
   <tile/>
   <tile/>
   <tile/>
   <tile/>
   <tile/>
   <tile/>
   <tile/>
   <tile/>
   <tile/>
   <tile/>
   <tile/>
   <tile/>
   <tile/>
   <tile/>
   <tile/>
   <tile/>
   <tile/>
   <tile/>
   <tile/>
   <tile/>
   <tile/>
   <tile/>
   <tile/>
   <tile/>
   <tile/>
   <tile/>
   <tile/>
   <tile/>
   <tile/>
   <tile/>
   <tile/>
   <tile/>
   <tile/>
   <tile/>
   <tile/>
   <tile/>
   <tile/>
   <tile/>
   <tile/>
   <tile/>
   <tile/>
   <tile/>
   <tile/>
   <tile/>
   <tile/>
   <tile/>
   <tile/>
   <tile/>
   <tile/>
   <tile/>
   <tile/>
   <tile/>
   <tile/>
   <tile/>
   <tile/>
   <tile/>
   <tile/>
   <tile/>
   <tile/>
   <tile/>
   <tile/>
   <tile/>
   <tile/>
   <tile/>
   <tile/>
   <tile/>
   <tile/>
   <tile/>
   <tile/>
   <tile/>
   <tile/>
   <tile/>
   <tile/>
   <tile/>
   <tile/>
   <tile/>
   <tile/>
   <tile/>
   <tile/>
   <tile/>
   <tile/>
   <tile/>
   <tile/>
   <tile/>
   <tile/>
   <tile/>
   <tile/>
   <tile/>
   <tile/>
   <tile/>
   <tile/>
   <tile/>
   <tile/>
   <tile/>
   <tile/>
   <tile/>
   <tile/>
   <tile/>
   <tile/>
   <tile/>
   <tile/>
   <tile/>
   <tile/>
   <tile/>
   <tile/>
   <tile/>
   <tile/>
   <tile/>
   <tile/>
   <tile/>
   <tile/>
   <tile/>
   <tile/>
   <tile/>
   <tile/>
   <tile/>
   <tile/>
   <tile/>
   <tile/>
   <tile/>
   <tile/>
   <tile/>
   <tile/>
   <tile/>
   <tile/>
   <tile/>
   <tile/>
   <tile/>
   <tile/>
   <tile/>
   <tile/>
   <tile/>
   <tile/>
   <tile/>
   <tile/>
   <tile/>
   <tile/>
   <tile/>
   <tile/>
   <tile/>
   <tile/>
   <tile/>
   <tile/>
   <tile/>
   <tile/>
   <tile/>
   <tile/>
   <tile/>
   <tile/>
   <tile/>
   <tile/>
   <tile/>
   <tile/>
   <tile/>
   <tile/>
   <tile/>
   <tile/>
   <tile/>
   <tile/>
   <tile/>
   <tile/>
   <tile/>
   <tile/>
   <tile/>
   <tile/>
   <tile/>
   <tile/>
   <tile/>
   <tile/>
   <tile/>
   <tile/>
   <tile/>
   <tile/>
   <tile/>
   <tile/>
   <tile/>
   <tile/>
   <tile/>
   <tile/>
   <tile/>
   <tile/>
   <tile/>
   <tile/>
   <tile/>
   <tile/>
   <tile/>
   <tile/>
   <tile/>
   <tile/>
   <tile/>
   <tile/>
   <tile/>
   <tile/>
   <tile/>
   <tile/>
   <tile/>
   <tile/>
   <tile/>
   <tile/>
   <tile/>
   <tile/>
   <tile/>
   <tile/>
   <tile/>
   <tile/>
   <tile/>
   <tile/>
   <tile/>
   <tile/>
   <tile/>
   <tile/>
   <tile/>
   <tile/>
   <tile/>
   <tile/>
   <tile/>
   <tile/>
   <tile/>
   <tile/>
   <tile/>
   <tile/>
   <tile/>
   <tile/>
   <tile/>
   <tile/>
   <tile/>
   <tile/>
   <tile/>
   <tile/>
   <tile/>
   <tile/>
   <tile/>
   <tile/>
   <tile/>
   <tile/>
   <tile/>
   <tile/>
   <tile/>
   <tile/>
   <tile/>
   <tile/>
   <tile/>
   <tile/>
   <tile/>
   <tile/>
   <tile/>
   <tile/>
   <tile/>
   <tile/>
   <tile/>
   <tile/>
   <tile/>
   <tile/>
   <tile/>
   <tile/>
   <tile/>
   <tile/>
   <tile/>
   <tile/>
   <tile/>
   <tile/>
   <tile/>
   <tile/>
   <tile/>
   <tile/>
   <tile/>
   <tile/>
   <tile/>
   <tile/>
   <tile/>
   <tile/>
   <tile/>
   <tile/>
   <tile/>
   <tile/>
   <tile/>
   <tile/>
   <tile/>
   <tile/>
   <tile/>
   <tile/>
   <tile/>
   <tile/>
   <tile/>
   <tile/>
   <tile/>
   <tile/>
   <tile/>
   <tile/>
   <tile/>
   <tile/>
   <tile/>
   <tile/>
   <tile/>
   <tile/>
   <tile/>
   <tile/>
   <tile/>
   <tile/>
   <tile/>
   <tile/>
   <tile/>
   <tile/>
   <tile/>
   <tile/>
   <tile/>
   <tile/>
   <tile/>
   <tile/>
   <tile/>
   <tile/>
   <tile/>
   <tile/>
   <tile/>
   <tile/>
   <tile/>
   <tile/>
   <tile/>
   <tile/>
   <tile/>
   <tile/>
   <tile/>
   <tile/>
   <tile/>
   <tile/>
   <tile/>
   <tile/>
   <tile/>
   <tile/>
   <tile/>
   <tile/>
   <tile/>
   <tile/>
   <tile/>
   <tile/>
   <tile/>
   <tile/>
   <tile/>
   <tile/>
   <tile/>
   <tile/>
   <tile/>
   <tile/>
   <tile/>
   <tile/>
   <tile/>
   <tile/>
   <tile/>
   <tile/>
   <tile/>
   <tile/>
   <tile/>
   <tile/>
   <tile/>
   <tile/>
   <tile/>
   <tile/>
   <tile/>
   <tile/>
   <tile/>
   <tile/>
   <tile/>
   <tile/>
   <tile/>
   <tile/>
   <tile/>
   <tile/>
   <tile/>
   <tile/>
   <tile/>
   <tile/>
   <tile/>
   <tile/>
   <tile/>
   <tile/>
   <tile/>
   <tile/>
   <tile/>
   <tile/>
   <tile/>
   <tile/>
   <tile/>
   <tile/>
   <tile/>
   <tile/>
   <tile/>
   <tile/>
   <tile/>
   <tile/>
   <tile/>
   <tile/>
   <tile/>
   <tile/>
   <tile/>
   <tile/>
   <tile/>
   <tile/>
   <tile/>
   <tile/>
   <tile/>
   <tile/>
   <tile/>
   <tile/>
   <tile/>
   <tile/>
   <tile/>
   <tile/>
   <tile/>
   <tile/>
   <tile/>
   <tile/>
   <tile/>
   <tile/>
   <tile/>
   <tile/>
   <tile/>
   <tile/>
   <tile/>
   <tile/>
   <tile/>
   <tile/>
   <tile/>
   <tile/>
   <tile/>
   <tile/>
   <tile/>
   <tile/>
   <tile/>
   <tile/>
   <tile/>
   <tile/>
   <tile/>
   <tile/>
   <tile/>
   <tile/>
   <tile/>
   <tile/>
   <tile/>
   <tile/>
   <tile/>
   <tile/>
   <tile/>
   <tile/>
   <tile/>
   <tile/>
   <tile/>
   <tile/>
   <tile/>
   <tile/>
   <tile/>
   <tile/>
   <tile/>
   <tile/>
   <tile/>
   <tile/>
   <tile/>
   <tile/>
   <tile/>
   <tile/>
   <tile/>
   <tile/>
   <tile/>
   <tile/>
   <tile/>
   <tile/>
   <tile/>
   <tile/>
   <tile/>
   <tile/>
   <tile/>
   <tile/>
   <tile/>
   <tile/>
   <tile/>
   <tile/>
   <tile/>
   <tile/>
   <tile/>
   <tile/>
   <tile/>
   <tile/>
   <tile/>
   <tile/>
   <tile/>
   <tile/>
   <tile/>
   <tile/>
   <tile/>
   <tile/>
   <tile/>
   <tile/>
   <tile/>
   <tile/>
   <tile/>
   <tile/>
   <tile/>
   <tile/>
   <tile/>
   <tile/>
   <tile/>
   <tile/>
   <tile/>
   <tile/>
   <tile/>
   <tile/>
   <tile/>
   <tile/>
   <tile/>
   <tile/>
   <tile/>
   <tile/>
   <tile/>
   <tile/>
   <tile/>
   <tile/>
   <tile/>
   <tile/>
   <tile/>
   <tile/>
   <tile/>
   <tile/>
   <tile/>
   <tile/>
   <tile/>
   <tile/>
   <tile/>
   <tile/>
   <tile/>
   <tile/>
   <tile/>
   <tile/>
   <tile/>
   <tile/>
   <tile/>
   <tile/>
   <tile/>
   <tile/>
   <tile/>
   <tile/>
   <tile/>
   <tile/>
   <tile/>
   <tile/>
   <tile/>
   <tile/>
   <tile/>
   <tile/>
   <tile/>
   <tile/>
   <tile/>
   <tile/>
   <tile/>
   <tile/>
   <tile/>
   <tile/>
   <tile/>
   <tile/>
   <tile/>
   <tile/>
   <tile/>
   <tile/>
   <tile/>
   <tile/>
   <tile/>
   <tile/>
   <tile/>
   <tile/>
   <tile/>
   <tile/>
   <tile/>
   <tile/>
   <tile/>
   <tile/>
   <tile/>
   <tile/>
   <tile/>
   <tile/>
   <tile/>
   <tile/>
   <tile/>
   <tile/>
   <tile/>
   <tile/>
   <tile/>
   <tile/>
   <tile/>
   <tile/>
   <tile/>
   <tile/>
   <tile/>
   <tile/>
   <tile/>
   <tile/>
   <tile/>
   <tile/>
   <tile/>
   <tile/>
   <tile/>
   <tile/>
   <tile/>
   <tile/>
   <tile/>
   <tile/>
   <tile/>
   <tile/>
   <tile/>
   <tile/>
   <tile/>
   <tile/>
   <tile/>
   <tile/>
   <tile/>
   <tile/>
   <tile/>
   <tile/>
   <tile/>
   <tile/>
   <tile/>
   <tile/>
   <tile/>
   <tile/>
   <tile/>
   <tile/>
   <tile/>
   <tile/>
   <tile/>
   <tile/>
   <tile/>
   <tile/>
   <tile/>
   <tile/>
   <tile/>
   <tile/>
   <tile/>
   <tile/>
   <tile/>
   <tile/>
   <tile/>
   <tile/>
   <tile/>
   <tile/>
   <tile/>
   <tile/>
   <tile/>
   <tile/>
   <tile/>
   <tile/>
   <tile/>
   <tile/>
   <tile/>
   <tile/>
   <tile/>
   <tile/>
   <tile/>
   <tile/>
   <tile/>
   <tile/>
   <tile/>
   <tile/>
   <tile/>
   <tile/>
   <tile/>
   <tile/>
   <tile/>
   <tile/>
   <tile/>
   <tile/>
   <tile/>
   <tile/>
   <tile/>
   <tile/>
   <tile/>
   <tile/>
   <tile/>
   <tile/>
   <tile/>
   <tile/>
   <tile/>
   <tile/>
   <tile/>
   <tile/>
   <tile/>
   <tile/>
   <tile/>
   <tile/>
   <tile/>
   <tile/>
   <tile/>
   <tile/>
   <tile/>
   <tile/>
   <tile/>
   <tile/>
   <tile/>
   <tile/>
   <tile/>
   <tile/>
   <tile/>
   <tile/>
   <tile/>
   <tile/>
   <tile/>
   <tile/>
   <tile/>
   <tile/>
   <tile/>
   <tile/>
   <tile/>
   <tile/>
   <tile/>
   <tile/>
   <tile/>
   <tile/>
   <tile/>
   <tile/>
   <tile/>
   <tile/>
   <tile/>
   <tile/>
   <tile/>
   <tile/>
   <tile/>
   <tile/>
   <tile/>
   <tile/>
   <tile/>
   <tile/>
   <tile/>
   <tile/>
   <tile/>
   <tile/>
   <tile/>
   <tile/>
   <tile/>
   <tile/>
   <tile/>
   <tile/>
   <tile/>
   <tile/>
   <tile/>
   <tile/>
   <tile/>
   <tile/>
   <tile/>
   <tile/>
   <tile/>
   <tile/>
   <tile/>
   <tile/>
   <tile/>
   <tile/>
   <tile/>
   <tile/>
   <tile/>
   <tile/>
   <tile/>
   <tile/>
   <tile/>
   <tile/>
   <tile/>
   <tile/>
   <tile/>
   <tile/>
   <tile/>
   <tile/>
   <tile/>
   <tile/>
   <tile/>
   <tile/>
   <tile/>
   <tile/>
   <tile/>
   <tile/>
   <tile/>
   <tile/>
   <tile/>
   <tile/>
   <tile/>
   <tile/>
   <tile/>
   <tile/>
   <tile/>
   <tile/>
   <tile/>
   <tile/>
   <tile/>
   <tile/>
   <tile/>
   <tile/>
   <tile/>
   <tile/>
   <tile/>
   <tile/>
   <tile/>
   <tile/>
   <tile/>
   <tile/>
   <tile/>
   <tile/>
   <tile/>
   <tile/>
   <tile/>
   <tile/>
   <tile/>
   <tile/>
   <tile/>
   <tile/>
   <tile/>
   <tile/>
   <tile/>
   <tile/>
   <tile/>
   <tile/>
   <tile/>
   <tile/>
   <tile/>
   <tile/>
   <tile/>
   <tile/>
   <tile/>
   <tile/>
   <tile/>
   <tile/>
   <tile/>
   <tile/>
   <tile/>
   <tile/>
   <tile/>
   <tile/>
   <tile/>
   <tile/>
   <tile/>
   <tile/>
   <tile/>
   <tile/>
   <tile/>
   <tile/>
   <tile/>
   <tile/>
   <tile/>
   <tile/>
   <tile/>
   <tile/>
   <tile/>
   <tile/>
   <tile/>
   <tile/>
   <tile/>
   <tile/>
   <tile/>
   <tile/>
   <tile/>
   <tile/>
   <tile/>
   <tile/>
   <tile/>
   <tile/>
   <tile/>
   <tile/>
   <tile/>
   <tile/>
   <tile/>
   <tile/>
   <tile/>
   <tile/>
   <tile/>
   <tile/>
   <tile/>
   <tile/>
   <tile/>
   <tile/>
   <tile/>
   <tile/>
   <tile/>
   <tile/>
   <tile/>
   <tile/>
   <tile/>
   <tile/>
   <tile/>
   <tile/>
   <tile/>
   <tile/>
   <tile/>
   <tile/>
   <tile/>
   <tile/>
   <tile/>
   <tile/>
   <tile/>
   <tile/>
   <tile/>
   <tile/>
   <tile/>
   <tile/>
   <tile/>
   <tile/>
   <tile/>
   <tile/>
   <tile/>
   <tile/>
   <tile/>
   <tile/>
   <tile/>
   <tile/>
   <tile/>
   <tile/>
   <tile/>
   <tile/>
   <tile/>
   <tile/>
   <tile/>
   <tile/>
   <tile/>
   <tile/>
   <tile/>
   <tile/>
   <tile/>
   <tile/>
   <tile/>
   <tile/>
   <tile/>
   <tile/>
   <tile/>
   <tile/>
   <tile/>
   <tile/>
   <tile/>
   <tile/>
   <tile/>
   <tile/>
   <tile/>
   <tile/>
   <tile/>
   <tile/>
   <tile/>
   <tile/>
   <tile/>
   <tile/>
   <tile/>
   <tile/>
   <tile/>
   <tile/>
   <tile/>
   <tile/>
   <tile/>
   <tile/>
   <tile/>
   <tile/>
   <tile/>
   <tile/>
   <tile/>
   <tile/>
   <tile/>
   <tile/>
   <tile/>
   <tile/>
   <tile/>
   <tile/>
   <tile/>
   <tile/>
   <tile/>
   <tile/>
   <tile/>
   <tile/>
   <tile/>
   <tile/>
   <tile/>
   <tile/>
   <tile/>
   <tile/>
   <tile/>
   <tile/>
   <tile/>
   <tile/>
   <tile/>
   <tile/>
   <tile/>
   <tile/>
   <tile/>
   <tile/>
   <tile/>
   <tile/>
   <tile/>
   <tile/>
   <tile/>
   <tile/>
   <tile/>
   <tile/>
   <tile/>
   <tile/>
   <tile/>
   <tile/>
   <tile/>
   <tile/>
   <tile/>
   <tile/>
   <tile/>
   <tile/>
   <tile/>
   <tile/>
   <tile/>
   <tile/>
   <tile/>
   <tile/>
   <tile/>
   <tile/>
   <tile/>
   <tile/>
   <tile/>
   <tile/>
   <tile/>
   <tile/>
   <tile/>
   <tile/>
   <tile/>
   <tile/>
   <tile/>
   <tile/>
   <tile/>
   <tile/>
   <tile/>
   <tile/>
   <tile/>
   <tile/>
   <tile/>
   <tile/>
   <tile/>
   <tile/>
   <tile/>
   <tile/>
   <tile/>
   <tile/>
   <tile/>
   <tile/>
   <tile/>
   <tile/>
   <tile/>
   <tile/>
   <tile/>
   <tile/>
   <tile/>
   <tile/>
   <tile/>
   <tile/>
   <tile/>
   <tile/>
   <tile/>
   <tile/>
   <tile/>
   <tile/>
   <tile/>
   <tile/>
   <tile/>
   <tile/>
   <tile/>
   <tile/>
   <tile/>
   <tile/>
   <tile/>
   <tile/>
   <tile/>
   <tile/>
   <tile/>
   <tile/>
   <tile/>
   <tile/>
   <tile/>
   <tile/>
   <tile/>
   <tile/>
   <tile/>
   <tile/>
   <tile/>
   <tile/>
   <tile/>
   <tile/>
   <tile/>
   <tile/>
   <tile/>
   <tile/>
   <tile/>
   <tile/>
   <tile/>
   <tile/>
   <tile/>
   <tile/>
   <tile/>
   <tile/>
   <tile/>
   <tile/>
   <tile/>
   <tile/>
   <tile/>
   <tile/>
   <tile/>
   <tile/>
   <tile/>
   <tile/>
   <tile/>
   <tile/>
   <tile/>
   <tile/>
   <tile/>
   <tile/>
   <tile/>
   <tile/>
   <tile/>
   <tile/>
   <tile/>
   <tile/>
   <tile/>
   <tile/>
   <tile/>
   <tile/>
   <tile/>
   <tile/>
   <tile/>
   <tile/>
   <tile/>
   <tile/>
   <tile/>
   <tile/>
   <tile/>
   <tile/>
   <tile/>
   <tile/>
   <tile/>
   <tile/>
   <tile/>
   <tile/>
   <tile/>
   <tile/>
   <tile/>
   <tile/>
   <tile/>
   <tile/>
   <tile/>
   <tile/>
   <tile/>
   <tile/>
   <tile/>
   <tile/>
   <tile/>
   <tile/>
   <tile/>
   <tile/>
   <tile/>
   <tile/>
   <tile/>
   <tile/>
   <tile/>
   <tile/>
   <tile/>
   <tile/>
   <tile/>
   <tile/>
   <tile/>
   <tile/>
   <tile/>
   <tile/>
   <tile/>
   <tile/>
   <tile/>
   <tile/>
   <tile/>
   <tile/>
   <tile/>
   <tile/>
   <tile/>
   <tile/>
   <tile/>
   <tile/>
   <tile/>
   <tile/>
   <tile/>
   <tile/>
   <tile/>
   <tile/>
   <tile/>
   <tile/>
   <tile/>
   <tile/>
   <tile/>
   <tile/>
   <tile/>
   <tile/>
   <tile/>
   <tile/>
   <tile/>
   <tile/>
   <tile/>
   <tile/>
   <tile/>
   <tile/>
   <tile/>
   <tile/>
   <tile/>
   <tile/>
   <tile/>
   <tile/>
   <tile/>
   <tile/>
   <tile/>
   <tile/>
   <tile/>
   <tile/>
   <tile/>
   <tile/>
   <tile/>
   <tile/>
   <tile/>
   <tile/>
   <tile/>
   <tile/>
   <tile/>
   <tile/>
   <tile/>
   <tile/>
   <tile/>
   <tile/>
   <tile/>
   <tile/>
   <tile/>
   <tile/>
   <tile/>
   <tile/>
   <tile/>
   <tile/>
   <tile/>
   <tile/>
   <tile/>
   <tile/>
   <tile/>
   <tile/>
   <tile/>
   <tile/>
   <tile/>
   <tile/>
   <tile/>
   <tile/>
   <tile/>
   <tile/>
   <tile/>
   <tile/>
   <tile/>
   <tile/>
   <tile/>
   <tile/>
   <tile/>
   <tile/>
   <tile/>
   <tile/>
   <tile/>
   <tile/>
   <tile/>
   <tile/>
   <tile/>
   <tile/>
   <tile/>
   <tile/>
   <tile/>
   <tile/>
   <tile/>
   <tile/>
   <tile/>
   <tile/>
   <tile/>
   <tile/>
   <tile/>
   <tile/>
   <tile/>
   <tile/>
   <tile/>
   <tile/>
   <tile/>
   <tile/>
   <tile/>
   <tile/>
   <tile/>
   <tile/>
   <tile/>
   <tile/>
   <tile/>
   <tile/>
   <tile/>
   <tile/>
   <tile/>
   <tile/>
   <tile/>
   <tile/>
   <tile/>
   <tile/>
   <tile/>
   <tile/>
   <tile/>
   <tile/>
   <tile/>
   <tile/>
   <tile/>
   <tile/>
   <tile/>
   <tile/>
   <tile/>
   <tile/>
   <tile/>
   <tile/>
   <tile/>
   <tile/>
   <tile/>
   <tile/>
   <tile/>
   <tile/>
   <tile/>
   <tile/>
   <tile/>
   <tile/>
   <tile/>
   <tile/>
   <tile/>
   <tile/>
   <tile/>
   <tile/>
   <tile/>
   <tile/>
   <tile/>
   <tile/>
   <tile/>
   <tile/>
   <tile/>
   <tile/>
   <tile/>
   <tile/>
   <tile/>
   <tile/>
   <tile/>
   <tile/>
   <tile/>
   <tile/>
   <tile/>
   <tile/>
   <tile/>
   <tile/>
   <tile/>
   <tile/>
   <tile/>
   <tile/>
   <tile/>
   <tile/>
   <tile/>
   <tile/>
   <tile/>
   <tile/>
   <tile/>
   <tile/>
   <tile/>
   <tile/>
   <tile/>
   <tile/>
   <tile/>
   <tile/>
   <tile/>
   <tile/>
   <tile/>
   <tile/>
   <tile/>
   <tile/>
   <tile/>
   <tile/>
   <tile/>
   <tile/>
   <tile/>
   <tile/>
   <tile/>
   <tile/>
   <tile/>
   <tile/>
   <tile/>
   <tile/>
   <tile/>
   <tile/>
   <tile/>
   <tile/>
   <tile/>
   <tile/>
   <tile/>
   <tile/>
   <tile/>
   <tile/>
   <tile/>
   <tile/>
   <tile/>
   <tile/>
   <tile/>
   <tile/>
   <tile/>
   <tile/>
   <tile/>
   <tile/>
   <tile/>
   <tile/>
   <tile/>
   <tile/>
   <tile/>
   <tile/>
   <tile/>
   <tile/>
   <tile/>
   <tile/>
   <tile/>
   <tile/>
   <tile/>
   <tile/>
   <tile/>
  </data>
 </layer>
 <layer id="1" name="Map" width="104" height="72">
  <properties>
   <property name="Draw" type="bool" value="true"/>
  </properties>
  <data>
   <tile gid="149"/>
   <tile gid="149"/>
   <tile gid="157"/>
   <tile gid="149"/>
   <tile gid="149"/>
   <tile gid="149"/>
   <tile gid="149"/>
   <tile gid="149"/>
   <tile gid="2147483807"/>
   <tile gid="159"/>
   <tile gid="2684354720"/>
   <tile gid="175"/>
   <tile gid="175"/>
   <tile gid="175"/>
   <tile gid="175"/>
   <tile gid="175"/>
   <tile gid="175"/>
   <tile gid="175"/>
   <tile gid="175"/>
   <tile gid="175"/>
   <tile gid="175"/>
   <tile gid="175"/>
   <tile gid="175"/>
   <tile gid="175"/>
   <tile gid="175"/>
   <tile gid="175"/>
   <tile gid="175"/>
   <tile gid="175"/>
   <tile gid="175"/>
   <tile gid="175"/>
   <tile gid="175"/>
   <tile gid="175"/>
   <tile gid="175"/>
   <tile gid="175"/>
   <tile gid="175"/>
   <tile gid="175"/>
   <tile gid="175"/>
   <tile gid="175"/>
   <tile gid="175"/>
   <tile gid="175"/>
   <tile gid="175"/>
   <tile gid="175"/>
   <tile gid="175"/>
   <tile gid="175"/>
   <tile gid="175"/>
   <tile gid="175"/>
   <tile gid="175"/>
   <tile gid="175"/>
   <tile gid="175"/>
   <tile gid="175"/>
   <tile gid="175"/>
   <tile gid="175"/>
   <tile gid="175"/>
   <tile gid="175"/>
   <tile gid="175"/>
   <tile gid="175"/>
   <tile gid="175"/>
   <tile gid="175"/>
   <tile gid="176"/>
   <tile/>
   <tile/>
   <tile/>
   <tile/>
   <tile/>
   <tile gid="158"/>
   <tile gid="159"/>
   <tile gid="159"/>
   <tile gid="165"/>
   <tile gid="149"/>
   <tile gid="149"/>
   <tile gid="149"/>
   <tile gid="157"/>
   <tile gid="159"/>
   <tile gid="175"/>
   <tile gid="175"/>
   <tile gid="175"/>
   <tile gid="175"/>
   <tile gid="175"/>
   <tile gid="175"/>
   <tile gid="175"/>
   <tile gid="175"/>
   <tile gid="175"/>
   <tile gid="175"/>
   <tile gid="175"/>
   <tile gid="175"/>
   <tile gid="175"/>
   <tile gid="175"/>
   <tile gid="175"/>
   <tile gid="175"/>
   <tile gid="175"/>
   <tile gid="175"/>
   <tile gid="175"/>
   <tile gid="175"/>
   <tile gid="175"/>
   <tile gid="175"/>
   <tile gid="175"/>
   <tile gid="175"/>
   <tile gid="175"/>
   <tile gid="175"/>
   <tile gid="175"/>
   <tile gid="175"/>
   <tile gid="175"/>
   <tile gid="175"/>
   <tile gid="175"/>
   <tile gid="2147483807"/>
   <tile gid="149"/>
   <tile gid="2147483807"/>
   <tile gid="149"/>
   <tile gid="157"/>
   <tile gid="149"/>
   <tile gid="149"/>
   <tile gid="149"/>
   <tile gid="2147483807"/>
   <tile gid="2147483806"/>
   <tile/>
   <tile/>
   <tile/>
   <tile/>
   <tile/>
   <tile/>
   <tile/>
   <tile/>
   <tile/>
   <tile/>
   <tile/>
   <tile/>
   <tile/>
   <tile/>
   <tile/>
   <tile/>
   <tile/>
   <tile/>
   <tile/>
   <tile/>
   <tile/>
   <tile/>
   <tile/>
   <tile/>
   <tile/>
   <tile/>
   <tile/>
   <tile/>
   <tile/>
   <tile/>
   <tile/>
   <tile/>
   <tile/>
   <tile/>
   <tile/>
   <tile/>
   <tile/>
   <tile/>
   <tile/>
   <tile/>
   <tile/>
   <tile/>
   <tile/>
   <tile/>
   <tile/>
   <tile/>
   <tile/>
   <tile/>
   <tile/>
   <tile/>
   <tile/>
   <tile/>
   <tile/>
   <tile/>
   <tile gid="158"/>
   <tile gid="159"/>
   <tile gid="157"/>
   <tile gid="149"/>
   <tile gid="149"/>
   <tile gid="149"/>
   <tile gid="149"/>
   <tile gid="159"/>
   <tile gid="160"/>
   <tile/>
   <tile/>
   <tile/>
   <tile/>
   <tile/>
   <tile/>
   <tile/>
   <tile/>
   <tile/>
   <tile/>
   <tile/>
   <tile/>
   <tile/>
   <tile/>
   <tile/>
   <tile/>
   <tile/>
   <tile/>
   <tile/>
   <tile/>
   <tile/>
   <tile/>
   <tile/>
   <tile/>
   <tile/>
   <tile/>
   <tile/>
   <tile/>
   <tile/>
   <tile gid="1610612757"/>
   <tile gid="102"/>
   <tile gid="157"/>
   <tile gid="149"/>
   <tile gid="2147483807"/>
   <tile gid="149"/>
   <tile gid="2147483807"/>
   <tile gid="2147483807"/>
   <tile gid="2147483807"/>
   <tile gid="149"/>
   <tile gid="149"/>
   <tile gid="2147483806"/>
   <tile/>
   <tile/>
   <tile/>
   <tile/>
   <tile/>
   <tile/>
   <tile/>
   <tile/>
   <tile/>
   <tile/>
   <tile/>
   <tile/>
   <tile/>
   <tile/>
   <tile/>
   <tile/>
   <tile/>
   <tile/>
   <tile/>
   <tile/>
   <tile/>
   <tile/>
   <tile/>
   <tile/>
   <tile/>
   <tile/>
   <tile/>
   <tile/>
   <tile/>
   <tile/>
   <tile/>
   <tile/>
   <tile/>
   <tile/>
   <tile/>
   <tile/>
   <tile/>
   <tile/>
   <tile/>
   <tile/>
   <tile/>
   <tile/>
   <tile/>
   <tile/>
   <tile/>
   <tile/>
   <tile/>
   <tile/>
   <tile/>
   <tile/>
   <tile/>
   <tile/>
   <tile/>
   <tile/>
   <tile gid="158"/>
   <tile gid="149"/>
   <tile gid="149"/>
   <tile gid="159"/>
   <tile gid="159"/>
   <tile gid="149"/>
   <tile gid="159"/>
   <tile gid="159"/>
   <tile gid="2147483806"/>
   <tile gid="179"/>
   <tile/>
   <tile/>
   <tile/>
   <tile/>
   <tile/>
   <tile/>
   <tile/>
   <tile gid="193"/>
   <tile/>
   <tile/>
   <tile/>
   <tile/>
   <tile/>
   <tile/>
   <tile/>
   <tile/>
   <tile/>
   <tile/>
   <tile/>
   <tile/>
   <tile/>
   <tile/>
   <tile/>
   <tile/>
   <tile/>
   <tile/>
   <tile/>
   <tile/>
   <tile gid="1610612756"/>
   <tile gid="102"/>
   <tile gid="2147483815"/>
   <tile gid="2147483815"/>
   <tile gid="2147483815"/>
   <tile gid="2147483815"/>
   <tile gid="2147483815"/>
   <tile gid="2147483815"/>
   <tile gid="2147483815"/>
   <tile gid="2147483815"/>
   <tile gid="2147483815"/>
   <tile gid="2147483806"/>
   <tile/>
   <tile/>
   <tile/>
   <tile/>
   <tile/>
   <tile/>
   <tile/>
   <tile/>
   <tile/>
   <tile/>
   <tile/>
   <tile/>
   <tile/>
   <tile/>
   <tile/>
   <tile/>
   <tile/>
   <tile/>
   <tile/>
   <tile/>
   <tile/>
   <tile/>
   <tile/>
   <tile/>
   <tile/>
   <tile/>
   <tile/>
   <tile/>
   <tile/>
   <tile/>
   <tile/>
   <tile/>
   <tile/>
   <tile/>
   <tile/>
   <tile/>
   <tile/>
   <tile/>
   <tile/>
   <tile/>
   <tile/>
   <tile/>
   <tile/>
   <tile/>
   <tile/>
   <tile/>
   <tile/>
   <tile/>
   <tile/>
   <tile/>
   <tile/>
   <tile/>
   <tile/>
   <tile/>
   <tile gid="158"/>
   <tile gid="159"/>
   <tile gid="159"/>
   <tile gid="165"/>
   <tile gid="159"/>
   <tile gid="159"/>
   <tile gid="159"/>
   <tile gid="159"/>
   <tile gid="160"/>
   <tile gid="187"/>
   <tile/>
   <tile/>
   <tile/>
   <tile/>
   <tile/>
   <tile/>
   <tile/>
   <tile gid="137"/>
   <tile gid="145"/>
   <tile/>
   <tile/>
   <tile/>
   <tile/>
   <tile/>
   <tile/>
   <tile/>
   <tile/>
   <tile/>
   <tile/>
   <tile/>
   <tile/>
   <tile/>
   <tile/>
   <tile/>
   <tile/>
   <tile/>
   <tile/>
   <tile/>
   <tile gid="1610612755"/>
   <tile gid="102"/>
   <tile gid="2147483823"/>
   <tile gid="2147483823"/>
   <tile gid="2147483823"/>
   <tile gid="2147483823"/>
   <tile gid="2147483823"/>
   <tile gid="2147483823"/>
   <tile gid="2147483823"/>
   <tile gid="2147483823"/>
   <tile gid="2147483823"/>
   <tile gid="2147483822"/>
   <tile/>
   <tile/>
   <tile/>
   <tile/>
   <tile/>
   <tile/>
   <tile/>
   <tile/>
   <tile/>
   <tile/>
   <tile/>
   <tile/>
   <tile/>
   <tile/>
   <tile/>
   <tile/>
   <tile/>
   <tile/>
   <tile/>
   <tile/>
   <tile/>
   <tile/>
   <tile/>
   <tile/>
   <tile/>
   <tile/>
   <tile/>
   <tile/>
   <tile/>
   <tile/>
   <tile/>
   <tile/>
   <tile/>
   <tile/>
   <tile/>
   <tile/>
   <tile/>
   <tile/>
   <tile/>
   <tile/>
   <tile/>
   <tile/>
   <tile/>
   <tile/>
   <tile/>
   <tile/>
   <tile/>
   <tile/>
   <tile/>
   <tile/>
   <tile/>
   <tile/>
   <tile/>
   <tile/>
   <tile gid="158"/>
   <tile gid="167"/>
   <tile gid="167"/>
   <tile gid="167"/>
   <tile gid="167"/>
   <tile gid="167"/>
   <tile gid="167"/>
   <tile gid="167"/>
   <tile gid="167"/>
   <tile gid="191"/>
   <tile gid="191"/>
   <tile/>
   <tile/>
   <tile/>
   <tile/>
   <tile/>
   <tile/>
   <tile gid="145"/>
   <tile gid="2684354579"/>
   <tile/>
   <tile/>
   <tile/>
   <tile/>
   <tile/>
   <tile/>
   <tile/>
   <tile/>
   <tile/>
   <tile/>
   <tile/>
   <tile gid="150"/>
   <tile gid="151"/>
   <tile gid="152"/>
   <tile gid="2684354577"/>
   <tile/>
   <tile/>
   <tile/>
   <tile/>
   <tile/>
   <tile gid="102"/>
   <tile gid="104"/>
   <tile/>
   <tile/>
   <tile/>
   <tile/>
   <tile/>
   <tile/>
   <tile/>
   <tile/>
   <tile/>
   <tile/>
   <tile/>
   <tile/>
   <tile/>
   <tile/>
   <tile/>
   <tile/>
   <tile/>
   <tile/>
   <tile/>
   <tile/>
   <tile/>
   <tile/>
   <tile/>
   <tile/>
   <tile/>
   <tile/>
   <tile/>
   <tile/>
   <tile/>
   <tile/>
   <tile/>
   <tile/>
   <tile/>
   <tile/>
   <tile/>
   <tile/>
   <tile/>
   <tile/>
   <tile/>
   <tile/>
   <tile/>
   <tile/>
   <tile/>
   <tile/>
   <tile/>
   <tile/>
   <tile/>
   <tile/>
   <tile/>
   <tile/>
   <tile/>
   <tile/>
   <tile/>
   <tile/>
   <tile/>
   <tile/>
   <tile/>
   <tile/>
   <tile/>
   <tile/>
   <tile/>
   <tile/>
   <tile/>
   <tile gid="174"/>
   <tile gid="175"/>
   <tile gid="175"/>
   <tile gid="175"/>
   <tile gid="175"/>
   <tile gid="175"/>
   <tile gid="175"/>
   <tile gid="175"/>
   <tile gid="104"/>
   <tile gid="3221225493"/>
   <tile gid="3221225491"/>
   <tile/>
   <tile/>
   <tile gid="193"/>
   <tile/>
   <tile/>
   <tile/>
   <tile gid="145"/>
   <tile gid="2684354580"/>
   <tile/>
   <tile/>
   <tile/>
   <tile/>
   <tile/>
   <tile/>
   <tile/>
   <tile/>
   <tile/>
   <tile/>
   <tile/>
   <tile gid="1610612765"/>
   <tile gid="158"/>
   <tile gid="160"/>
   <tile gid="2684354578"/>
   <tile/>
   <tile/>
   <tile/>
   <tile/>
   <tile/>
   <tile gid="2147483752"/>
   <tile gid="104"/>
   <tile/>
   <tile/>
   <tile/>
   <tile/>
   <tile/>
   <tile/>
   <tile/>
   <tile/>
   <tile/>
   <tile/>
   <tile/>
   <tile/>
   <tile/>
   <tile/>
   <tile/>
   <tile/>
   <tile/>
   <tile/>
   <tile/>
   <tile/>
   <tile/>
   <tile/>
   <tile/>
   <tile/>
   <tile/>
   <tile/>
   <tile/>
   <tile/>
   <tile/>
   <tile/>
   <tile/>
   <tile/>
   <tile/>
   <tile/>
   <tile/>
   <tile/>
   <tile/>
   <tile/>
   <tile/>
   <tile/>
   <tile/>
   <tile/>
   <tile/>
   <tile/>
   <tile/>
   <tile/>
   <tile/>
   <tile/>
   <tile/>
   <tile/>
   <tile/>
   <tile/>
   <tile/>
   <tile gid="142"/>
   <tile gid="143"/>
   <tile gid="144"/>
   <tile/>
   <tile/>
   <tile/>
   <tile/>
   <tile/>
   <tile/>
   <tile/>
   <tile/>
   <tile/>
   <tile/>
   <tile/>
   <tile/>
   <tile/>
   <tile/>
   <tile/>
   <tile gid="100"/>
   <tile/>
   <tile/>
   <tile/>
   <tile/>
   <tile gid="137"/>
   <tile gid="2684354579"/>
   <tile/>
   <tile/>
   <tile gid="145"/>
   <tile gid="2684354581"/>
   <tile/>
   <tile/>
   <tile/>
   <tile/>
   <tile/>
   <tile/>
   <tile/>
   <tile/>
   <tile/>
   <tile/>
   <tile/>
   <tile gid="1610612764"/>
   <tile gid="158"/>
   <tile gid="160"/>
   <tile/>
   <tile/>
   <tile/>
   <tile/>
   <tile/>
   <tile/>
   <tile gid="2147483752"/>
   <tile gid="104"/>
   <tile/>
   <tile/>
   <tile/>
   <tile/>
   <tile/>
   <tile/>
   <tile/>
   <tile/>
   <tile/>
   <tile/>
   <tile/>
   <tile/>
   <tile/>
   <tile/>
   <tile/>
   <tile/>
   <tile/>
   <tile/>
   <tile/>
   <tile/>
   <tile/>
   <tile/>
   <tile/>
   <tile/>
   <tile/>
   <tile/>
   <tile/>
   <tile/>
   <tile/>
   <tile/>
   <tile/>
   <tile/>
   <tile/>
   <tile/>
   <tile/>
   <tile/>
   <tile/>
   <tile/>
   <tile/>
   <tile/>
   <tile/>
   <tile/>
   <tile/>
   <tile/>
   <tile/>
   <tile/>
   <tile/>
   <tile/>
   <tile/>
   <tile/>
   <tile/>
   <tile/>
   <tile/>
   <tile/>
   <tile/>
   <tile/>
   <tile/>
   <tile/>
   <tile/>
   <tile/>
   <tile/>
   <tile/>
   <tile/>
   <tile/>
   <tile/>
   <tile/>
   <tile/>
   <tile/>
   <tile/>
   <tile/>
   <tile/>
   <tile gid="100"/>
   <tile/>
   <tile/>
   <tile/>
   <tile/>
   <tile gid="145"/>
   <tile gid="2684354580"/>
   <tile/>
   <tile/>
   <tile/>
   <tile/>
   <tile/>
   <tile/>
   <tile/>
   <tile/>
   <tile/>
   <tile/>
   <tile/>
   <tile gid="191"/>
   <tile/>
   <tile/>
   <tile/>
   <tile gid="1610612762"/>
   <tile gid="158"/>
   <tile gid="160"/>
   <tile/>
   <tile/>
   <tile/>
   <tile/>
   <tile/>
   <tile gid="1610612754"/>
   <tile gid="2147483752"/>
   <tile gid="104"/>
   <tile/>
   <tile/>
   <tile/>
   <tile/>
   <tile/>
   <tile/>
   <tile/>
   <tile/>
   <tile/>
   <tile/>
   <tile/>
   <tile/>
   <tile/>
   <tile/>
   <tile/>
   <tile/>
   <tile/>
   <tile/>
   <tile/>
   <tile/>
   <tile/>
   <tile/>
   <tile/>
   <tile/>
   <tile/>
   <tile/>
   <tile/>
   <tile/>
   <tile/>
   <tile/>
   <tile/>
   <tile/>
   <tile/>
   <tile/>
   <tile/>
   <tile/>
   <tile/>
   <tile/>
   <tile/>
   <tile/>
   <tile/>
   <tile/>
   <tile/>
   <tile/>
   <tile gid="94"/>
   <tile gid="96"/>
   <tile/>
   <tile/>
   <tile/>
   <tile/>
   <tile/>
   <tile/>
   <tile/>
   <tile/>
   <tile/>
   <tile/>
   <tile/>
   <tile/>
   <tile/>
   <tile/>
   <tile/>
   <tile/>
   <tile/>
   <tile/>
   <tile/>
   <tile/>
   <tile/>
   <tile/>
   <tile/>
   <tile/>
   <tile/>
   <tile gid="100"/>
   <tile/>
   <tile/>
   <tile/>
   <tile/>
   <tile gid="3221225609"/>
   <tile gid="2684354581"/>
   <tile/>
   <tile/>
   <tile/>
   <tile/>
   <tile/>
   <tile/>
   <tile/>
   <tile/>
   <tile/>
   <tile/>
   <tile/>
   <tile gid="1073742017"/>
   <tile/>
   <tile/>
   <tile/>
   <tile gid="1610612761"/>
   <tile gid="158"/>
   <tile gid="160"/>
   <tile/>
   <tile/>
   <tile/>
   <tile/>
   <tile/>
   <tile gid="1610612753"/>
   <tile gid="102"/>
   <tile gid="104"/>
   <tile/>
   <tile/>
   <tile/>
   <tile/>
   <tile/>
   <tile/>
   <tile/>
   <tile/>
   <tile/>
   <tile/>
   <tile/>
   <tile/>
   <tile/>
   <tile/>
   <tile/>
   <tile/>
   <tile/>
   <tile/>
   <tile/>
   <tile/>
   <tile/>
   <tile/>
   <tile/>
   <tile/>
   <tile/>
   <tile/>
   <tile/>
   <tile/>
   <tile/>
   <tile/>
   <tile/>
   <tile/>
   <tile/>
   <tile/>
   <tile/>
   <tile/>
   <tile/>
   <tile/>
   <tile/>
   <tile/>
   <tile/>
   <tile/>
   <tile/>
   <tile/>
   <tile/>
   <tile/>
   <tile/>
   <tile/>
   <tile/>
   <tile/>
   <tile/>
   <tile/>
   <tile/>
   <tile/>
   <tile/>
   <tile/>
   <tile/>
   <tile/>
   <tile/>
   <tile/>
   <tile/>
   <tile/>
   <tile/>
   <tile/>
   <tile/>
   <tile/>
   <tile/>
   <tile/>
   <tile/>
   <tile/>
   <tile/>
   <tile gid="100"/>
   <tile/>
   <tile/>
   <tile/>
   <tile/>
   <tile/>
   <tile/>
   <tile/>
   <tile/>
   <tile/>
   <tile/>
   <tile/>
   <tile/>
   <tile/>
   <tile/>
   <tile gid="25"/>
   <tile gid="26"/>
   <tile gid="27"/>
   <tile gid="27"/>
   <tile gid="27"/>
   <tile gid="28"/>
   <tile gid="29"/>
   <tile gid="166"/>
   <tile gid="167"/>
   <tile gid="168"/>
   <tile gid="2684354577"/>
   <tile/>
   <tile/>
   <tile/>
   <tile/>
   <tile/>
   <tile gid="102"/>
   <tile gid="104"/>
   <tile/>
   <tile/>
   <tile/>
   <tile/>
   <tile/>
   <tile/>
   <tile/>
   <tile/>
   <tile/>
   <tile/>
   <tile/>
   <tile/>
   <tile/>
   <tile/>
   <tile/>
   <tile/>
   <tile/>
   <tile/>
   <tile/>
   <tile/>
   <tile/>
   <tile/>
   <tile/>
   <tile/>
   <tile/>
   <tile/>
   <tile/>
   <tile/>
   <tile/>
   <tile/>
   <tile/>
   <tile gid="19"/>
   <tile gid="21"/>
   <tile/>
   <tile/>
   <tile gid="94"/>
   <tile gid="96"/>
   <tile/>
   <tile/>
   <tile/>
   <tile/>
   <tile/>
   <tile/>
   <tile/>
   <tile/>
   <tile/>
   <tile/>
   <tile/>
   <tile/>
   <tile/>
   <tile/>
   <tile/>
   <tile/>
   <tile/>
   <tile/>
   <tile/>
   <tile/>
   <tile/>
   <tile/>
   <tile/>
   <tile/>
   <tile/>
   <tile/>
   <tile/>
   <tile/>
   <tile/>
   <tile/>
   <tile/>
   <tile/>
   <tile/>
   <tile/>
   <tile gid="100"/>
   <tile gid="2684354579"/>
   <tile/>
   <tile/>
   <tile/>
   <tile/>
   <tile/>
   <tile/>
   <tile/>
   <tile/>
   <tile/>
   <tile/>
   <tile/>
   <tile/>
   <tile gid="1610612757"/>
   <tile gid="2684354670"/>
   <tile gid="175"/>
   <tile gid="175"/>
   <tile gid="175"/>
   <tile gid="175"/>
   <tile gid="175"/>
   <tile gid="175"/>
   <tile gid="175"/>
   <tile gid="175"/>
   <tile gid="176"/>
   <tile gid="2684354578"/>
   <tile/>
   <tile/>
   <tile/>
   <tile/>
   <tile/>
   <tile gid="102"/>
   <tile gid="103"/>
   <tile gid="95"/>
   <tile gid="97"/>
   <tile gid="95"/>
   <tile gid="95"/>
   <tile gid="95"/>
   <tile gid="98"/>
   <tile gid="97"/>
   <tile gid="97"/>
   <tile gid="96"/>
   <tile gid="2684354585"/>
   <tile/>
   <tile/>
   <tile/>
   <tile/>
   <tile/>
   <tile/>
   <tile/>
   <tile gid="94"/>
   <tile gid="96"/>
   <tile/>
   <tile/>
   <tile/>
   <tile/>
   <tile/>
   <tile gid="94"/>
   <tile gid="96"/>
   <tile/>
   <tile/>
   <tile/>
   <tile/>
   <tile/>
   <tile gid="1073741934"/>
   <tile gid="1073741936"/>
   <tile/>
   <tile/>
   <tile/>
   <tile/>
   <tile/>
   <tile/>
   <tile/>
   <tile/>
   <tile/>
   <tile/>
   <tile/>
   <tile/>
   <tile/>
   <tile/>
   <tile/>
   <tile/>
   <tile/>
   <tile/>
   <tile/>
   <tile/>
   <tile/>
   <tile/>
   <tile/>
   <tile/>
   <tile/>
   <tile/>
   <tile/>
   <tile/>
   <tile/>
   <tile/>
   <tile/>
   <tile/>
   <tile/>
   <tile/>
   <tile/>
   <tile/>
   <tile/>
   <tile/>
   <tile gid="100"/>
   <tile gid="2684354580"/>
   <tile/>
   <tile/>
   <tile/>
   <tile/>
   <tile/>
   <tile/>
   <tile/>
   <tile/>
   <tile/>
   <tile gid="124"/>
   <tile/>
   <tile/>
   <tile gid="1610612756"/>
   <tile gid="100"/>
   <tile gid="2684354579"/>
   <tile/>
   <tile/>
   <tile/>
   <tile/>
   <tile/>
   <tile/>
   <tile/>
   <tile/>
   <tile/>
   <tile/>
   <tile/>
   <tile/>
   <tile/>
   <tile/>
   <tile gid="2147483752"/>
   <tile gid="103"/>
   <tile gid="114"/>
   <tile gid="114"/>
   <tile gid="113"/>
   <tile gid="106"/>
   <tile gid="114"/>
   <tile gid="106"/>
   <tile gid="114"/>
   <tile gid="103"/>
   <tile gid="104"/>
   <tile gid="2684354586"/>
   <tile/>
   <tile/>
   <tile/>
   <tile/>
   <tile/>
   <tile/>
   <tile/>
   <tile gid="2147483752"/>
   <tile gid="2147483750"/>
   <tile gid="2684354579"/>
   <tile/>
   <tile/>
   <tile/>
   <tile/>
   <tile/>
   <tile/>
   <tile/>
   <tile/>
   <tile/>
   <tile/>
   <tile/>
   <tile gid="2147483752"/>
   <tile gid="2147483750"/>
   <tile/>
   <tile/>
   <tile/>
   <tile/>
   <tile/>
   <tile/>
   <tile/>
   <tile/>
   <tile/>
   <tile/>
   <tile/>
   <tile/>
   <tile/>
   <tile/>
   <tile/>
   <tile/>
   <tile/>
   <tile/>
   <tile/>
   <tile/>
   <tile/>
   <tile/>
   <tile/>
   <tile/>
   <tile/>
   <tile/>
   <tile/>
   <tile/>
   <tile/>
   <tile/>
   <tile/>
   <tile/>
   <tile/>
   <tile/>
   <tile/>
   <tile/>
   <tile/>
   <tile/>
   <tile gid="100"/>
   <tile gid="2684354581"/>
   <tile/>
   <tile gid="140"/>
   <tile/>
   <tile/>
   <tile/>
   <tile/>
   <tile/>
   <tile/>
   <tile/>
   <tile/>
   <tile/>
   <tile/>
   <tile gid="1610612755"/>
   <tile gid="100"/>
   <tile gid="2684354580"/>
   <tile/>
   <tile/>
   <tile/>
   <tile/>
   <tile/>
   <tile/>
   <tile/>
   <tile/>
   <tile/>
   <tile/>
   <tile/>
   <tile/>
   <tile/>
   <tile gid="1610612754"/>
   <tile gid="102"/>
   <tile gid="105"/>
   <tile gid="106"/>
   <tile gid="106"/>
   <tile gid="113"/>
   <tile gid="113"/>
   <tile gid="113"/>
   <tile gid="103"/>
   <tile gid="113"/>
   <tile gid="114"/>
   <tile gid="104"/>
   <tile gid="2684354587"/>
   <tile/>
   <tile/>
   <tile/>
   <tile/>
   <tile/>
   <tile/>
   <tile/>
   <tile gid="2147483752"/>
   <tile gid="104"/>
   <tile gid="2684354580"/>
   <tile/>
   <tile/>
   <tile/>
   <tile/>
   <tile/>
   <tile/>
   <tile/>
   <tile/>
   <tile/>
   <tile/>
   <tile/>
   <tile gid="2147483752"/>
   <tile gid="104"/>
   <tile/>
   <tile/>
   <tile/>
   <tile/>
   <tile/>
   <tile/>
   <tile/>
   <tile/>
   <tile/>
   <tile/>
   <tile/>
   <tile/>
   <tile/>
   <tile/>
   <tile/>
   <tile/>
   <tile/>
   <tile/>
   <tile/>
   <tile/>
   <tile/>
   <tile/>
   <tile/>
   <tile/>
   <tile/>
   <tile/>
   <tile/>
   <tile/>
   <tile/>
   <tile/>
   <tile/>
   <tile/>
   <tile/>
   <tile/>
   <tile/>
   <tile/>
   <tile/>
   <tile/>
   <tile gid="102"/>
   <tile gid="3221225582"/>
   <tile gid="25"/>
   <tile gid="26"/>
   <tile gid="27"/>
   <tile gid="27"/>
   <tile gid="27"/>
   <tile gid="27"/>
   <tile gid="27"/>
   <tile gid="27"/>
   <tile gid="27"/>
   <tile gid="27"/>
   <tile gid="28"/>
   <tile gid="29"/>
   <tile gid="94"/>
   <tile gid="104"/>
   <tile gid="2684354581"/>
   <tile/>
   <tile/>
   <tile/>
   <tile/>
   <tile/>
   <tile/>
   <tile/>
   <tile/>
   <tile/>
   <tile/>
   <tile/>
   <tile/>
   <tile/>
   <tile gid="1610612753"/>
   <tile gid="102"/>
   <tile gid="103"/>
   <tile gid="105"/>
   <tile gid="103"/>
   <tile gid="105"/>
   <tile gid="114"/>
   <tile gid="106"/>
   <tile gid="103"/>
   <tile gid="114"/>
   <tile gid="113"/>
   <tile gid="104"/>
   <tile gid="2684354587"/>
   <tile/>
   <tile/>
   <tile/>
   <tile/>
   <tile/>
   <tile/>
   <tile/>
   <tile gid="2147483752"/>
   <tile gid="2147483750"/>
   <tile gid="2684354580"/>
   <tile/>
   <tile/>
   <tile/>
   <tile/>
   <tile/>
   <tile/>
   <tile/>
   <tile/>
   <tile/>
   <tile/>
   <tile/>
   <tile gid="102"/>
   <tile gid="2147483750"/>
   <tile/>
   <tile/>
   <tile/>
   <tile/>
   <tile/>
   <tile/>
   <tile/>
   <tile/>
   <tile/>
   <tile/>
   <tile/>
   <tile/>
   <tile/>
   <tile/>
   <tile/>
   <tile/>
   <tile/>
   <tile/>
   <tile/>
   <tile/>
   <tile/>
   <tile/>
   <tile/>
   <tile/>
   <tile/>
   <tile/>
   <tile/>
   <tile/>
   <tile/>
   <tile/>
   <tile/>
   <tile/>
   <tile/>
   <tile/>
   <tile/>
   <tile/>
   <tile/>
   <tile/>
   <tile gid="110"/>
   <tile gid="111"/>
   <tile gid="2684354660"/>
   <tile gid="2684354660"/>
   <tile gid="2684354660"/>
   <tile gid="2684354660"/>
   <tile gid="2684354660"/>
   <tile gid="2684354660"/>
   <tile gid="2684354660"/>
   <tile gid="2684354660"/>
   <tile gid="2684354660"/>
   <tile gid="3221225583"/>
   <tile gid="3221225583"/>
   <tile gid="3221225583"/>
   <tile gid="103"/>
   <tile gid="104"/>
   <tile/>
   <tile/>
   <tile/>
   <tile/>
   <tile/>
   <tile/>
   <tile gid="94"/>
   <tile gid="95"/>
   <tile gid="97"/>
   <tile gid="95"/>
   <tile gid="98"/>
   <tile gid="95"/>
   <tile gid="98"/>
   <tile gid="97"/>
   <tile gid="97"/>
   <tile gid="103"/>
   <tile gid="105"/>
   <tile gid="106"/>
   <tile gid="113"/>
   <tile gid="114"/>
   <tile gid="113"/>
   <tile gid="106"/>
   <tile gid="103"/>
   <tile gid="105"/>
   <tile gid="106"/>
   <tile gid="104"/>
   <tile gid="2684354587"/>
   <tile/>
   <tile/>
   <tile/>
   <tile/>
   <tile/>
   <tile/>
   <tile/>
   <tile gid="2147483752"/>
   <tile gid="104"/>
   <tile gid="2684354581"/>
   <tile/>
   <tile/>
   <tile/>
   <tile/>
   <tile/>
   <tile/>
   <tile/>
   <tile/>
   <tile/>
   <tile/>
   <tile gid="1610612757"/>
   <tile gid="102"/>
   <tile gid="104"/>
   <tile/>
   <tile/>
   <tile/>
   <tile/>
   <tile/>
   <tile/>
   <tile/>
   <tile/>
   <tile/>
   <tile/>
   <tile/>
   <tile/>
   <tile/>
   <tile/>
   <tile/>
   <tile/>
   <tile/>
   <tile/>
   <tile/>
   <tile/>
   <tile/>
   <tile/>
   <tile/>
   <tile/>
   <tile/>
   <tile/>
   <tile/>
   <tile/>
   <tile/>
   <tile/>
   <tile/>
   <tile/>
   <tile/>
   <tile/>
   <tile/>
   <tile/>
   <tile/>
   <tile/>
   <tile/>
   <tile/>
   <tile/>
   <tile/>
   <tile/>
   <tile/>
   <tile/>
   <tile/>
   <tile/>
   <tile/>
   <tile/>
   <tile gid="102"/>
   <tile gid="105"/>
   <tile gid="103"/>
   <tile gid="106"/>
   <tile gid="104"/>
   <tile/>
   <tile/>
   <tile/>
   <tile/>
   <tile/>
   <tile/>
   <tile/>
   <tile/>
   <tile/>
   <tile/>
   <tile/>
   <tile/>
   <tile/>
   <tile/>
   <tile/>
   <tile gid="102"/>
   <tile gid="106"/>
   <tile gid="105"/>
   <tile gid="103"/>
   <tile gid="105"/>
   <tile gid="114"/>
   <tile gid="106"/>
   <tile gid="103"/>
   <tile gid="114"/>
   <tile gid="114"/>
   <tile gid="104"/>
   <tile gid="2684354587"/>
   <tile/>
   <tile/>
   <tile/>
   <tile/>
   <tile/>
   <tile/>
   <tile/>
   <tile gid="102"/>
   <tile gid="2147483750"/>
   <tile/>
   <tile/>
   <tile/>
   <tile/>
   <tile/>
   <tile/>
   <tile/>
   <tile/>
   <tile/>
   <tile/>
   <tile/>
   <tile gid="1610612756"/>
   <tile gid="2147483752"/>
   <tile gid="2147483750"/>
   <tile/>
   <tile/>
   <tile/>
   <tile/>
   <tile/>
   <tile/>
   <tile/>
   <tile/>
   <tile/>
   <tile/>
   <tile/>
   <tile/>
   <tile/>
   <tile/>
   <tile/>
   <tile/>
   <tile/>
   <tile/>
   <tile/>
   <tile/>
   <tile/>
   <tile/>
   <tile/>
   <tile/>
   <tile/>
   <tile/>
   <tile/>
   <tile/>
   <tile/>
   <tile/>
   <tile/>
   <tile/>
   <tile/>
   <tile/>
   <tile/>
   <tile/>
   <tile/>
   <tile/>
   <tile/>
   <tile/>
   <tile/>
   <tile/>
   <tile/>
   <tile/>
   <tile/>
   <tile/>
   <tile/>
   <tile/>
   <tile/>
   <tile gid="102"/>
   <tile gid="114"/>
   <tile gid="105"/>
   <tile gid="106"/>
   <tile gid="104"/>
   <tile/>
   <tile/>
   <tile/>
   <tile/>
   <tile/>
   <tile/>
   <tile/>
   <tile/>
   <tile/>
   <tile/>
   <tile/>
   <tile/>
   <tile/>
   <tile/>
   <tile/>
   <tile gid="2147483752"/>
   <tile gid="114"/>
   <tile gid="114"/>
   <tile gid="103"/>
   <tile gid="103"/>
   <tile gid="105"/>
   <tile gid="114"/>
   <tile gid="103"/>
   <tile gid="103"/>
   <tile gid="113"/>
   <tile gid="104"/>
   <tile gid="2684354587"/>
   <tile/>
   <tile/>
   <tile/>
   <tile/>
   <tile/>
   <tile/>
   <tile/>
   <tile gid="102"/>
   <tile gid="104"/>
   <tile/>
   <tile/>
   <tile/>
   <tile/>
   <tile/>
   <tile gid="94"/>
   <tile gid="96"/>
   <tile/>
   <tile/>
   <tile/>
   <tile/>
   <tile gid="1610612755"/>
   <tile gid="110"/>
   <tile gid="112"/>
   <tile/>
   <tile/>
   <tile/>
   <tile/>
   <tile/>
   <tile/>
   <tile/>
   <tile/>
   <tile/>
   <tile/>
   <tile/>
   <tile/>
   <tile/>
   <tile/>
   <tile/>
   <tile/>
   <tile/>
   <tile/>
   <tile/>
   <tile/>
   <tile/>
   <tile/>
   <tile/>
   <tile/>
   <tile/>
   <tile/>
   <tile/>
   <tile/>
   <tile/>
   <tile/>
   <tile/>
   <tile/>
   <tile/>
   <tile/>
   <tile/>
   <tile/>
   <tile/>
   <tile/>
   <tile/>
   <tile/>
   <tile/>
   <tile/>
   <tile/>
   <tile/>
   <tile/>
   <tile/>
   <tile/>
   <tile/>
   <tile/>
   <tile gid="102"/>
   <tile gid="105"/>
   <tile gid="106"/>
   <tile gid="114"/>
   <tile gid="104"/>
   <tile/>
   <tile/>
   <tile/>
   <tile/>
   <tile/>
   <tile/>
   <tile/>
   <tile/>
   <tile/>
   <tile/>
   <tile/>
   <tile/>
   <tile/>
   <tile/>
   <tile/>
   <tile gid="102"/>
   <tile gid="103"/>
   <tile gid="106"/>
   <tile gid="103"/>
   <tile gid="106"/>
   <tile gid="114"/>
   <tile gid="103"/>
   <tile gid="103"/>
   <tile gid="106"/>
   <tile gid="106"/>
   <tile gid="104"/>
   <tile gid="2684354587"/>
   <tile/>
   <tile/>
   <tile/>
   <tile/>
   <tile/>
   <tile/>
   <tile/>
   <tile gid="2147483752"/>
   <tile gid="2147483750"/>
   <tile/>
   <tile/>
   <tile/>
   <tile/>
   <tile/>
   <tile gid="110"/>
   <tile gid="112"/>
   <tile/>
   <tile/>
   <tile/>
   <tile/>
   <tile/>
   <tile/>
   <tile/>
   <tile/>
   <tile/>
   <tile/>
   <tile/>
   <tile/>
   <tile/>
   <tile/>
   <tile/>
   <tile/>
   <tile/>
   <tile/>
   <tile/>
   <tile/>
   <tile/>
   <tile/>
   <tile/>
   <tile/>
   <tile/>
   <tile/>
   <tile/>
   <tile/>
   <tile/>
   <tile/>
   <tile/>
   <tile/>
   <tile/>
   <tile/>
   <tile/>
   <tile/>
   <tile/>
   <tile/>
   <tile/>
   <tile/>
   <tile/>
   <tile/>
   <tile/>
   <tile/>
   <tile/>
   <tile/>
   <tile/>
   <tile/>
   <tile/>
   <tile/>
   <tile/>
   <tile/>
   <tile/>
   <tile/>
   <tile/>
   <tile/>
   <tile gid="102"/>
   <tile gid="103"/>
   <tile gid="113"/>
   <tile gid="105"/>
   <tile gid="104"/>
   <tile/>
   <tile/>
   <tile/>
   <tile/>
   <tile/>
   <tile/>
   <tile/>
   <tile/>
   <tile/>
   <tile/>
   <tile/>
   <tile/>
   <tile/>
   <tile/>
   <tile/>
   <tile gid="102"/>
   <tile gid="113"/>
   <tile gid="114"/>
   <tile gid="103"/>
   <tile gid="114"/>
   <tile gid="113"/>
   <tile gid="103"/>
   <tile gid="113"/>
   <tile gid="114"/>
   <tile gid="106"/>
   <tile gid="104"/>
   <tile gid="2684354587"/>
   <tile/>
   <tile/>
   <tile/>
   <tile/>
   <tile/>
   <tile/>
   <tile/>
   <tile gid="102"/>
   <tile gid="2147483750"/>
   <tile/>
   <tile/>
   <tile/>
   <tile/>
   <tile/>
   <tile/>
   <tile/>
   <tile/>
   <tile/>
   <tile/>
   <tile/>
   <tile/>
   <tile/>
   <tile/>
   <tile/>
   <tile/>
   <tile/>
   <tile/>
   <tile/>
   <tile/>
   <tile/>
   <tile/>
   <tile/>
   <tile/>
   <tile/>
   <tile/>
   <tile/>
   <tile/>
   <tile/>
   <tile/>
   <tile/>
   <tile/>
   <tile/>
   <tile/>
   <tile/>
   <tile/>
   <tile/>
   <tile/>
   <tile/>
   <tile/>
   <tile/>
   <tile/>
   <tile/>
   <tile/>
   <tile/>
   <tile/>
   <tile/>
   <tile/>
   <tile/>
   <tile/>
   <tile/>
   <tile/>
   <tile/>
   <tile/>
   <tile/>
   <tile/>
   <tile/>
   <tile/>
   <tile/>
   <tile/>
   <tile/>
   <tile/>
   <tile/>
   <tile gid="102"/>
   <tile gid="106"/>
   <tile gid="103"/>
   <tile gid="103"/>
   <tile gid="103"/>
   <tile gid="95"/>
   <tile gid="95"/>
   <tile gid="97"/>
   <tile gid="95"/>
   <tile gid="95"/>
   <tile gid="97"/>
   <tile gid="97"/>
   <tile gid="98"/>
   <tile gid="97"/>
   <tile gid="97"/>
   <tile gid="96"/>
   <tile/>
   <tile/>
   <tile/>
   <tile/>
   <tile gid="102"/>
   <tile gid="103"/>
   <tile gid="105"/>
   <tile gid="103"/>
   <tile gid="103"/>
   <tile gid="106"/>
   <tile gid="106"/>
   <tile gid="103"/>
   <tile gid="114"/>
   <tile gid="105"/>
   <tile gid="104"/>
   <tile gid="2684354587"/>
   <tile/>
   <tile/>
   <tile/>
   <tile/>
   <tile/>
   <tile/>
   <tile/>
   <tile gid="102"/>
   <tile gid="104"/>
   <tile/>
   <tile/>
   <tile/>
   <tile/>
   <tile/>
   <tile/>
   <tile/>
   <tile/>
   <tile/>
   <tile/>
   <tile/>
   <tile/>
   <tile/>
   <tile/>
   <tile/>
   <tile/>
   <tile/>
   <tile/>
   <tile/>
   <tile/>
   <tile/>
   <tile/>
   <tile/>
   <tile/>
   <tile/>
   <tile/>
   <tile/>
   <tile/>
   <tile/>
   <tile/>
   <tile/>
   <tile/>
   <tile/>
   <tile/>
   <tile/>
   <tile/>
   <tile/>
   <tile/>
   <tile/>
   <tile/>
   <tile/>
   <tile/>
   <tile/>
   <tile/>
   <tile/>
   <tile/>
   <tile/>
   <tile/>
   <tile/>
   <tile/>
   <tile/>
   <tile/>
   <tile/>
   <tile/>
   <tile/>
   <tile/>
   <tile/>
   <tile/>
   <tile/>
   <tile/>
   <tile/>
   <tile/>
   <tile/>
   <tile gid="110"/>
   <tile gid="111"/>
   <tile gid="111"/>
   <tile gid="111"/>
   <tile gid="111"/>
   <tile gid="111"/>
   <tile gid="111"/>
   <tile gid="111"/>
   <tile gid="111"/>
   <tile gid="103"/>
   <tile gid="103"/>
   <tile gid="106"/>
   <tile gid="106"/>
   <tile gid="103"/>
   <tile gid="113"/>
   <tile gid="2147483750"/>
   <tile/>
   <tile/>
   <tile/>
   <tile/>
   <tile gid="102"/>
   <tile gid="103"/>
   <tile gid="113"/>
   <tile gid="105"/>
   <tile gid="103"/>
   <tile gid="106"/>
   <tile gid="103"/>
   <tile gid="113"/>
   <tile gid="105"/>
   <tile gid="114"/>
   <tile gid="104"/>
   <tile gid="2684354587"/>
   <tile/>
   <tile/>
   <tile/>
   <tile/>
   <tile/>
   <tile/>
   <tile/>
   <tile gid="2147483752"/>
   <tile gid="2147483750"/>
   <tile/>
   <tile/>
   <tile/>
   <tile/>
   <tile/>
   <tile/>
   <tile/>
   <tile/>
   <tile/>
   <tile/>
   <tile/>
   <tile/>
   <tile gid="94"/>
   <tile gid="96"/>
   <tile/>
   <tile/>
   <tile/>
   <tile/>
   <tile/>
   <tile/>
   <tile/>
   <tile/>
   <tile/>
   <tile/>
   <tile/>
   <tile/>
   <tile/>
   <tile/>
   <tile/>
   <tile/>
   <tile/>
   <tile/>
   <tile/>
   <tile/>
   <tile/>
   <tile/>
   <tile/>
   <tile/>
   <tile/>
   <tile/>
   <tile/>
   <tile/>
   <tile/>
   <tile/>
   <tile/>
   <tile/>
   <tile/>
   <tile/>
   <tile/>
   <tile/>
   <tile/>
   <tile/>
   <tile/>
   <tile/>
   <tile/>
   <tile/>
   <tile/>
   <tile/>
   <tile/>
   <tile/>
   <tile/>
   <tile/>
   <tile/>
   <tile/>
   <tile/>
   <tile/>
   <tile/>
   <tile/>
   <tile/>
   <tile/>
   <tile/>
   <tile/>
   <tile gid="102"/>
   <tile gid="105"/>
   <tile gid="113"/>
   <tile gid="114"/>
   <tile gid="113"/>
   <tile gid="113"/>
   <tile gid="104"/>
   <tile/>
   <tile/>
   <tile/>
   <tile/>
   <tile gid="102"/>
   <tile gid="106"/>
   <tile gid="113"/>
   <tile gid="113"/>
   <tile gid="114"/>
   <tile gid="114"/>
   <tile gid="103"/>
   <tile gid="114"/>
   <tile gid="106"/>
   <tile gid="103"/>
   <tile gid="104"/>
   <tile gid="2684354587"/>
   <tile/>
   <tile/>
   <tile/>
   <tile/>
   <tile/>
   <tile/>
   <tile/>
   <tile gid="2147483752"/>
   <tile gid="2147483750"/>
   <tile gid="2684354579"/>
   <tile/>
   <tile/>
   <tile/>
   <tile/>
   <tile/>
   <tile/>
   <tile/>
   <tile/>
   <tile/>
   <tile/>
   <tile gid="1610612757"/>
   <tile gid="2147483752"/>
   <tile gid="2147483750"/>
   <tile/>
   <tile/>
   <tile/>
   <tile/>
   <tile/>
   <tile/>
   <tile/>
   <tile/>
   <tile/>
   <tile/>
   <tile/>
   <tile/>
   <tile/>
   <tile/>
   <tile/>
   <tile/>
   <tile/>
   <tile/>
   <tile/>
   <tile/>
   <tile/>
   <tile/>
   <tile/>
   <tile/>
   <tile/>
   <tile/>
   <tile/>
   <tile/>
   <tile/>
   <tile/>
   <tile/>
   <tile/>
   <tile/>
   <tile/>
   <tile/>
   <tile/>
   <tile/>
   <tile/>
   <tile/>
   <tile/>
   <tile/>
   <tile/>
   <tile/>
   <tile/>
   <tile/>
   <tile/>
   <tile/>
   <tile/>
   <tile/>
   <tile/>
   <tile/>
   <tile/>
   <tile/>
   <tile/>
   <tile/>
   <tile/>
   <tile/>
   <tile/>
   <tile gid="102"/>
   <tile gid="106"/>
   <tile gid="105"/>
   <tile gid="113"/>
   <tile gid="105"/>
   <tile gid="103"/>
   <tile gid="2147483750"/>
   <tile/>
   <tile/>
   <tile/>
   <tile/>
   <tile gid="102"/>
   <tile gid="103"/>
   <tile gid="103"/>
   <tile gid="103"/>
   <tile gid="105"/>
   <tile gid="103"/>
   <tile gid="103"/>
   <tile gid="103"/>
   <tile gid="105"/>
   <tile gid="113"/>
   <tile gid="104"/>
   <tile gid="2684354587"/>
   <tile/>
   <tile/>
   <tile/>
   <tile/>
   <tile/>
   <tile/>
   <tile/>
   <tile gid="2147483752"/>
   <tile gid="104"/>
   <tile gid="2684354580"/>
   <tile/>
   <tile/>
   <tile/>
   <tile/>
   <tile gid="94"/>
   <tile gid="96"/>
   <tile/>
   <tile/>
   <tile/>
   <tile/>
   <tile gid="1610612756"/>
   <tile gid="2147483752"/>
   <tile gid="104"/>
   <tile/>
   <tile/>
   <tile/>
   <tile/>
   <tile/>
   <tile/>
   <tile/>
   <tile/>
   <tile/>
   <tile/>
   <tile/>
   <tile/>
   <tile/>
   <tile/>
   <tile/>
   <tile/>
   <tile/>
   <tile/>
   <tile/>
   <tile/>
   <tile/>
   <tile/>
   <tile/>
   <tile/>
   <tile/>
   <tile/>
   <tile/>
   <tile/>
   <tile/>
   <tile/>
   <tile/>
   <tile/>
   <tile/>
   <tile/>
   <tile/>
   <tile/>
   <tile/>
   <tile/>
   <tile/>
   <tile/>
   <tile/>
   <tile/>
   <tile/>
   <tile/>
   <tile/>
   <tile/>
   <tile/>
   <tile/>
   <tile/>
   <tile/>
   <tile/>
   <tile/>
   <tile/>
   <tile/>
   <tile/>
   <tile/>
   <tile/>
   <tile/>
   <tile gid="102"/>
   <tile gid="114"/>
   <tile gid="103"/>
   <tile gid="113"/>
   <tile gid="106"/>
   <tile gid="105"/>
   <tile gid="104"/>
   <tile/>
   <tile/>
   <tile/>
   <tile/>
   <tile gid="102"/>
   <tile gid="106"/>
   <tile gid="113"/>
   <tile gid="113"/>
   <tile gid="105"/>
   <tile gid="106"/>
   <tile gid="103"/>
   <tile gid="105"/>
   <tile gid="105"/>
   <tile gid="106"/>
   <tile gid="104"/>
   <tile gid="2684354587"/>
   <tile/>
   <tile/>
   <tile/>
   <tile/>
   <tile/>
   <tile/>
   <tile/>
   <tile gid="102"/>
   <tile gid="2147483750"/>
   <tile gid="2684354581"/>
   <tile/>
   <tile/>
   <tile/>
   <tile/>
   <tile gid="102"/>
   <tile gid="104"/>
   <tile/>
   <tile/>
   <tile/>
   <tile/>
   <tile gid="1610612755"/>
   <tile gid="102"/>
   <tile gid="2147483750"/>
   <tile/>
   <tile/>
   <tile/>
   <tile/>
   <tile/>
   <tile/>
   <tile/>
   <tile/>
   <tile/>
   <tile/>
   <tile/>
   <tile/>
   <tile/>
   <tile/>
   <tile/>
   <tile/>
   <tile/>
   <tile/>
   <tile/>
   <tile/>
   <tile/>
   <tile/>
   <tile/>
   <tile/>
   <tile/>
   <tile/>
   <tile/>
   <tile/>
   <tile/>
   <tile/>
   <tile/>
   <tile/>
   <tile/>
   <tile/>
   <tile/>
   <tile/>
   <tile/>
   <tile/>
   <tile/>
   <tile/>
   <tile/>
   <tile/>
   <tile/>
   <tile/>
   <tile/>
   <tile/>
   <tile/>
   <tile/>
   <tile/>
   <tile/>
   <tile/>
   <tile/>
   <tile/>
   <tile/>
   <tile/>
   <tile/>
   <tile/>
   <tile/>
   <tile gid="110"/>
   <tile gid="111"/>
   <tile gid="111"/>
   <tile gid="111"/>
   <tile gid="111"/>
   <tile gid="111"/>
   <tile gid="112"/>
   <tile/>
   <tile/>
   <tile/>
   <tile/>
   <tile gid="2147483752"/>
   <tile gid="105"/>
   <tile gid="105"/>
   <tile gid="113"/>
   <tile gid="106"/>
   <tile gid="113"/>
   <tile gid="114"/>
   <tile gid="105"/>
   <tile gid="103"/>
   <tile gid="105"/>
   <tile gid="104"/>
   <tile gid="2684354587"/>
   <tile/>
   <tile/>
   <tile/>
   <tile/>
   <tile/>
   <tile/>
   <tile/>
   <tile gid="102"/>
   <tile gid="104"/>
   <tile gid="2684354579"/>
   <tile/>
   <tile/>
   <tile/>
   <tile/>
   <tile gid="110"/>
   <tile gid="112"/>
   <tile/>
   <tile/>
   <tile/>
   <tile/>
   <tile gid="1610612757"/>
   <tile gid="102"/>
   <tile gid="104"/>
   <tile/>
   <tile/>
   <tile/>
   <tile/>
   <tile/>
   <tile/>
   <tile/>
   <tile/>
   <tile/>
   <tile/>
   <tile/>
   <tile/>
   <tile/>
   <tile/>
   <tile/>
   <tile/>
   <tile/>
   <tile/>
   <tile/>
   <tile/>
   <tile/>
   <tile/>
   <tile/>
   <tile/>
   <tile/>
   <tile/>
   <tile/>
   <tile/>
   <tile/>
   <tile/>
   <tile/>
   <tile gid="94"/>
   <tile gid="95"/>
   <tile gid="96"/>
   <tile/>
   <tile/>
   <tile/>
   <tile/>
   <tile/>
   <tile/>
   <tile/>
   <tile/>
   <tile/>
   <tile/>
   <tile/>
   <tile/>
   <tile/>
   <tile/>
   <tile/>
   <tile/>
   <tile/>
   <tile/>
   <tile/>
   <tile/>
   <tile/>
   <tile/>
   <tile/>
   <tile/>
   <tile/>
   <tile/>
   <tile/>
   <tile/>
   <tile/>
   <tile/>
   <tile/>
   <tile/>
   <tile/>
   <tile/>
   <tile/>
   <tile gid="102"/>
   <tile gid="103"/>
   <tile gid="114"/>
   <tile gid="114"/>
   <tile gid="106"/>
   <tile gid="106"/>
   <tile gid="105"/>
   <tile gid="105"/>
   <tile gid="106"/>
   <tile gid="114"/>
   <tile gid="104"/>
   <tile gid="2684354587"/>
   <tile/>
   <tile/>
   <tile/>
   <tile/>
   <tile/>
   <tile/>
   <tile/>
   <tile gid="2147483752"/>
   <tile gid="2147483750"/>
   <tile gid="2684354580"/>
   <tile/>
   <tile/>
   <tile/>
   <tile/>
   <tile/>
   <tile/>
   <tile/>
   <tile/>
   <tile/>
   <tile/>
   <tile gid="1610612756"/>
   <tile gid="2147483752"/>
   <tile gid="2147483750"/>
   <tile/>
   <tile/>
   <tile/>
   <tile/>
   <tile/>
   <tile/>
   <tile/>
   <tile/>
   <tile/>
   <tile/>
   <tile/>
   <tile/>
   <tile/>
   <tile/>
   <tile/>
   <tile/>
   <tile/>
   <tile/>
   <tile/>
   <tile/>
   <tile/>
   <tile/>
   <tile/>
   <tile/>
   <tile/>
   <tile/>
   <tile/>
   <tile/>
   <tile/>
   <tile/>
   <tile/>
   <tile/>
   <tile gid="102"/>
   <tile gid="104"/>
   <tile/>
   <tile/>
   <tile/>
   <tile/>
   <tile/>
   <tile/>
   <tile/>
   <tile/>
   <tile/>
   <tile/>
   <tile/>
   <tile/>
   <tile/>
   <tile/>
   <tile/>
   <tile/>
   <tile/>
   <tile/>
   <tile/>
   <tile/>
   <tile/>
   <tile/>
   <tile/>
   <tile/>
   <tile/>
   <tile/>
   <tile/>
   <tile/>
   <tile/>
   <tile/>
   <tile/>
   <tile/>
   <tile/>
   <tile/>
   <tile/>
   <tile gid="102"/>
   <tile gid="105"/>
   <tile gid="106"/>
   <tile gid="105"/>
   <tile gid="103"/>
   <tile gid="113"/>
   <tile gid="114"/>
   <tile gid="113"/>
   <tile gid="114"/>
   <tile gid="114"/>
   <tile gid="104"/>
   <tile gid="2684354587"/>
   <tile/>
   <tile/>
   <tile/>
   <tile/>
   <tile/>
   <tile/>
   <tile/>
   <tile gid="110"/>
   <tile gid="112"/>
   <tile gid="2684354581"/>
   <tile/>
   <tile/>
   <tile/>
   <tile/>
   <tile/>
   <tile/>
   <tile/>
   <tile/>
   <tile/>
   <tile/>
   <tile gid="1610612755"/>
   <tile gid="110"/>
   <tile gid="112"/>
   <tile/>
   <tile/>
   <tile/>
   <tile/>
   <tile/>
   <tile/>
   <tile/>
   <tile/>
   <tile/>
   <tile/>
   <tile/>
   <tile/>
   <tile/>
   <tile/>
   <tile/>
   <tile/>
   <tile/>
   <tile/>
   <tile/>
   <tile/>
   <tile/>
   <tile/>
   <tile/>
   <tile/>
   <tile/>
   <tile/>
   <tile/>
   <tile/>
   <tile/>
   <tile/>
   <tile/>
   <tile/>
   <tile gid="102"/>
   <tile gid="2147483750"/>
   <tile/>
   <tile/>
   <tile/>
   <tile/>
   <tile/>
   <tile/>
   <tile/>
   <tile/>
   <tile/>
   <tile/>
   <tile/>
   <tile/>
   <tile/>
   <tile/>
   <tile/>
   <tile/>
   <tile/>
   <tile/>
   <tile/>
   <tile/>
   <tile/>
   <tile/>
   <tile/>
   <tile/>
   <tile/>
   <tile/>
   <tile/>
   <tile/>
   <tile/>
   <tile/>
   <tile/>
   <tile/>
   <tile/>
   <tile/>
   <tile/>
   <tile gid="102"/>
   <tile gid="106"/>
   <tile gid="103"/>
   <tile gid="105"/>
   <tile gid="106"/>
   <tile gid="114"/>
   <tile gid="105"/>
   <tile gid="103"/>
   <tile gid="106"/>
   <tile gid="106"/>
   <tile gid="104"/>
   <tile gid="2684354587"/>
   <tile/>
   <tile/>
   <tile/>
   <tile/>
   <tile/>
   <tile/>
   <tile/>
   <tile/>
   <tile/>
   <tile/>
   <tile/>
   <tile/>
   <tile/>
   <tile/>
   <tile/>
   <tile/>
   <tile/>
   <tile/>
   <tile/>
   <tile/>
   <tile/>
   <tile/>
   <tile/>
   <tile/>
   <tile/>
   <tile/>
   <tile/>
   <tile/>
   <tile/>
   <tile/>
   <tile/>
   <tile/>
   <tile/>
   <tile/>
   <tile/>
   <tile/>
   <tile/>
   <tile/>
   <tile/>
   <tile/>
   <tile/>
   <tile/>
   <tile/>
   <tile/>
   <tile/>
   <tile/>
   <tile/>
   <tile/>
   <tile/>
   <tile/>
   <tile/>
   <tile/>
   <tile/>
   <tile/>
   <tile/>
   <tile gid="102"/>
   <tile gid="104"/>
   <tile/>
   <tile/>
   <tile/>
   <tile/>
   <tile/>
   <tile/>
   <tile/>
   <tile/>
   <tile/>
   <tile/>
   <tile/>
   <tile/>
   <tile/>
   <tile/>
   <tile/>
   <tile/>
   <tile/>
   <tile/>
   <tile/>
   <tile/>
   <tile/>
   <tile/>
   <tile/>
   <tile/>
   <tile/>
   <tile/>
   <tile/>
   <tile/>
   <tile/>
   <tile/>
   <tile/>
   <tile/>
   <tile/>
   <tile/>
   <tile/>
   <tile gid="102"/>
   <tile gid="103"/>
   <tile gid="105"/>
   <tile gid="106"/>
   <tile gid="106"/>
   <tile gid="106"/>
   <tile gid="114"/>
   <tile gid="114"/>
   <tile gid="113"/>
   <tile gid="103"/>
   <tile gid="104"/>
   <tile gid="2684354588"/>
   <tile/>
   <tile/>
   <tile/>
   <tile/>
   <tile/>
   <tile/>
   <tile/>
   <tile/>
   <tile/>
   <tile/>
   <tile/>
   <tile/>
   <tile/>
   <tile/>
   <tile/>
   <tile/>
   <tile/>
   <tile/>
   <tile/>
   <tile/>
   <tile/>
   <tile/>
   <tile/>
   <tile/>
   <tile/>
   <tile/>
   <tile/>
   <tile/>
   <tile gid="94"/>
   <tile gid="95"/>
   <tile gid="96"/>
   <tile/>
   <tile/>
   <tile/>
   <tile/>
   <tile/>
   <tile/>
   <tile/>
   <tile/>
   <tile/>
   <tile/>
   <tile/>
   <tile/>
   <tile/>
   <tile/>
   <tile/>
   <tile/>
   <tile/>
   <tile/>
   <tile/>
   <tile/>
   <tile/>
   <tile/>
   <tile/>
   <tile/>
   <tile gid="2147483752"/>
   <tile gid="104"/>
   <tile/>
   <tile/>
   <tile/>
   <tile/>
   <tile/>
   <tile/>
   <tile/>
   <tile/>
   <tile/>
   <tile/>
   <tile/>
   <tile/>
   <tile/>
   <tile/>
   <tile/>
   <tile/>
   <tile/>
   <tile/>
   <tile/>
   <tile/>
   <tile/>
   <tile/>
   <tile/>
   <tile/>
   <tile/>
   <tile/>
   <tile/>
   <tile/>
   <tile/>
   <tile/>
   <tile/>
   <tile/>
   <tile/>
   <tile/>
   <tile/>
   <tile gid="102"/>
   <tile gid="103"/>
   <tile gid="105"/>
   <tile gid="103"/>
   <tile gid="106"/>
   <tile gid="106"/>
   <tile gid="103"/>
   <tile gid="105"/>
   <tile gid="114"/>
   <tile gid="103"/>
   <tile gid="104"/>
   <tile gid="2684354589"/>
   <tile/>
   <tile/>
   <tile/>
   <tile/>
   <tile/>
   <tile/>
   <tile/>
   <tile/>
   <tile/>
   <tile/>
   <tile/>
   <tile/>
   <tile/>
   <tile/>
   <tile/>
   <tile/>
   <tile/>
   <tile/>
   <tile/>
   <tile/>
   <tile/>
   <tile/>
   <tile/>
   <tile/>
   <tile/>
   <tile/>
   <tile/>
   <tile/>
   <tile/>
   <tile/>
   <tile/>
   <tile/>
   <tile/>
   <tile/>
   <tile/>
   <tile/>
   <tile/>
   <tile/>
   <tile/>
   <tile/>
   <tile/>
   <tile/>
   <tile/>
   <tile/>
   <tile/>
   <tile/>
   <tile/>
   <tile/>
   <tile/>
   <tile/>
   <tile/>
   <tile/>
   <tile/>
   <tile/>
   <tile/>
   <tile gid="102"/>
   <tile gid="104"/>
   <tile/>
   <tile/>
   <tile/>
   <tile/>
   <tile/>
   <tile/>
   <tile/>
   <tile/>
   <tile/>
   <tile/>
   <tile/>
   <tile/>
   <tile/>
   <tile/>
   <tile/>
   <tile/>
   <tile/>
   <tile/>
   <tile/>
   <tile/>
   <tile/>
   <tile/>
   <tile/>
   <tile/>
   <tile gid="94"/>
   <tile gid="95"/>
   <tile gid="98"/>
   <tile gid="98"/>
   <tile gid="95"/>
   <tile gid="95"/>
   <tile gid="97"/>
   <tile gid="98"/>
   <tile gid="97"/>
   <tile gid="97"/>
   <tile gid="98"/>
   <tile gid="103"/>
   <tile gid="114"/>
   <tile gid="113"/>
   <tile gid="113"/>
   <tile gid="103"/>
   <tile gid="113"/>
   <tile gid="105"/>
   <tile gid="105"/>
   <tile gid="106"/>
   <tile gid="103"/>
   <tile gid="103"/>
   <tile gid="96"/>
   <tile gid="25"/>
   <tile gid="26"/>
   <tile gid="27"/>
   <tile gid="27"/>
   <tile gid="27"/>
   <tile gid="27"/>
   <tile gid="27"/>
   <tile gid="27"/>
   <tile gid="27"/>
   <tile gid="27"/>
   <tile gid="27"/>
   <tile gid="27"/>
   <tile gid="27"/>
   <tile gid="27"/>
   <tile gid="27"/>
   <tile gid="27"/>
   <tile gid="27"/>
   <tile gid="27"/>
   <tile gid="27"/>
   <tile gid="27"/>
   <tile gid="27"/>
   <tile gid="27"/>
   <tile gid="27"/>
   <tile gid="27"/>
   <tile gid="27"/>
   <tile gid="28"/>
   <tile gid="29"/>
   <tile gid="92"/>
   <tile/>
   <tile/>
   <tile/>
   <tile/>
   <tile/>
   <tile/>
   <tile/>
   <tile/>
   <tile/>
   <tile/>
   <tile/>
   <tile/>
   <tile/>
   <tile/>
   <tile/>
   <tile/>
   <tile/>
   <tile/>
   <tile/>
   <tile/>
   <tile/>
   <tile/>
   <tile/>
   <tile/>
   <tile/>
   <tile/>
   <tile/>
   <tile gid="2147483752"/>
   <tile gid="104"/>
   <tile/>
   <tile/>
   <tile/>
   <tile/>
   <tile/>
   <tile/>
   <tile/>
   <tile/>
   <tile/>
   <tile/>
   <tile/>
   <tile/>
   <tile/>
   <tile/>
   <tile/>
   <tile/>
   <tile/>
   <tile/>
   <tile/>
   <tile/>
   <tile/>
   <tile/>
   <tile/>
   <tile/>
   <tile/>
   <tile/>
   <tile/>
   <tile/>
   <tile/>
   <tile/>
   <tile/>
   <tile/>
   <tile/>
   <tile/>
   <tile/>
   <tile gid="102"/>
   <tile gid="114"/>
   <tile gid="111"/>
   <tile gid="111"/>
   <tile gid="111"/>
   <tile gid="111"/>
   <tile gid="111"/>
   <tile gid="111"/>
   <tile gid="111"/>
   <tile gid="111"/>
   <tile gid="111"/>
   <tile gid="111"/>
   <tile gid="2684354660"/>
   <tile gid="2684354660"/>
   <tile gid="2684354660"/>
   <tile gid="2684354660"/>
   <tile gid="2684354660"/>
   <tile gid="2684354660"/>
   <tile gid="2684354660"/>
   <tile gid="2684354660"/>
   <tile gid="2684354660"/>
   <tile gid="2684354660"/>
   <tile gid="2684354660"/>
   <tile gid="2684354660"/>
   <tile gid="2684354660"/>
   <tile gid="2684354660"/>
   <tile gid="2684354660"/>
   <tile gid="2684354660"/>
   <tile gid="2684354660"/>
   <tile gid="2684354660"/>
   <tile gid="2684354660"/>
   <tile gid="2684354660"/>
   <tile gid="2684354660"/>
   <tile gid="2684354660"/>
   <tile gid="2684354660"/>
   <tile gid="2684354660"/>
   <tile gid="2684354660"/>
   <tile gid="2684354660"/>
   <tile gid="2684354660"/>
   <tile gid="112"/>
   <tile/>
   <tile/>
   <tile/>
   <tile/>
   <tile/>
   <tile/>
   <tile/>
   <tile/>
   <tile/>
   <tile/>
   <tile/>
   <tile/>
   <tile/>
   <tile/>
   <tile/>
   <tile/>
   <tile/>
   <tile/>
   <tile/>
   <tile/>
   <tile/>
   <tile/>
   <tile/>
   <tile/>
   <tile/>
   <tile/>
   <tile/>
   <tile gid="2147483752"/>
   <tile gid="2147483750"/>
   <tile/>
   <tile/>
   <tile gid="94"/>
   <tile gid="97"/>
   <tile gid="98"/>
   <tile gid="96"/>
   <tile/>
   <tile/>
   <tile/>
   <tile/>
   <tile/>
   <tile/>
   <tile/>
   <tile/>
   <tile/>
   <tile/>
   <tile/>
   <tile/>
   <tile/>
   <tile/>
   <tile/>
   <tile/>
   <tile/>
   <tile/>
   <tile/>
   <tile/>
   <tile/>
   <tile/>
   <tile/>
   <tile/>
   <tile/>
   <tile/>
   <tile/>
   <tile/>
   <tile/>
   <tile gid="2147483752"/>
   <tile gid="104"/>
   <tile/>
   <tile/>
   <tile/>
   <tile/>
   <tile/>
   <tile/>
   <tile/>
   <tile/>
   <tile/>
   <tile/>
   <tile/>
   <tile/>
   <tile/>
   <tile/>
   <tile/>
   <tile/>
   <tile/>
   <tile/>
   <tile/>
   <tile/>
   <tile/>
   <tile/>
   <tile/>
   <tile/>
   <tile/>
   <tile/>
   <tile/>
   <tile/>
   <tile/>
   <tile/>
   <tile/>
   <tile/>
   <tile/>
   <tile/>
   <tile/>
   <tile/>
   <tile/>
   <tile/>
   <tile/>
   <tile/>
   <tile/>
   <tile/>
   <tile/>
   <tile/>
   <tile/>
   <tile/>
   <tile/>
   <tile/>
   <tile/>
   <tile/>
   <tile/>
   <tile/>
   <tile/>
   <tile/>
   <tile/>
   <tile/>
   <tile/>
   <tile/>
   <tile/>
   <tile/>
   <tile/>
   <tile/>
   <tile/>
   <tile/>
   <tile/>
   <tile gid="102"/>
   <tile gid="104"/>
   <tile/>
   <tile/>
   <tile/>
   <tile/>
   <tile/>
   <tile/>
   <tile/>
   <tile/>
   <tile/>
   <tile/>
   <tile/>
   <tile/>
   <tile/>
   <tile/>
   <tile/>
   <tile/>
   <tile/>
   <tile/>
   <tile/>
   <tile/>
   <tile/>
   <tile/>
   <tile/>
   <tile/>
   <tile/>
   <tile/>
   <tile/>
   <tile/>
   <tile/>
   <tile/>
   <tile/>
   <tile/>
   <tile/>
   <tile/>
   <tile/>
   <tile gid="102"/>
   <tile gid="104"/>
   <tile/>
   <tile/>
   <tile/>
   <tile/>
   <tile/>
   <tile/>
   <tile/>
   <tile/>
   <tile/>
   <tile/>
   <tile/>
   <tile/>
   <tile/>
   <tile/>
   <tile/>
   <tile/>
   <tile/>
   <tile/>
   <tile/>
   <tile/>
   <tile/>
   <tile/>
   <tile/>
   <tile/>
   <tile/>
   <tile/>
   <tile/>
   <tile/>
   <tile/>
   <tile/>
   <tile/>
   <tile/>
   <tile/>
   <tile/>
   <tile/>
   <tile/>
   <tile/>
   <tile/>
   <tile/>
   <tile/>
   <tile/>
   <tile/>
   <tile/>
   <tile/>
   <tile/>
   <tile/>
   <tile/>
   <tile/>
   <tile/>
   <tile/>
   <tile/>
   <tile/>
   <tile/>
   <tile/>
   <tile/>
   <tile/>
   <tile/>
   <tile/>
   <tile/>
   <tile/>
   <tile/>
   <tile/>
   <tile/>
   <tile/>
   <tile/>
   <tile gid="102"/>
   <tile gid="104"/>
   <tile/>
   <tile/>
   <tile/>
   <tile/>
   <tile/>
   <tile/>
   <tile/>
   <tile/>
   <tile/>
   <tile/>
   <tile/>
   <tile/>
   <tile/>
   <tile/>
   <tile/>
   <tile/>
   <tile/>
   <tile/>
   <tile/>
   <tile/>
   <tile/>
   <tile/>
   <tile/>
   <tile/>
   <tile/>
   <tile/>
   <tile/>
   <tile/>
   <tile/>
   <tile/>
   <tile/>
   <tile/>
   <tile/>
   <tile/>
   <tile/>
   <tile gid="102"/>
   <tile gid="104"/>
   <tile gid="2684354579"/>
   <tile/>
   <tile/>
   <tile/>
   <tile/>
   <tile/>
   <tile/>
   <tile/>
   <tile/>
   <tile/>
   <tile/>
   <tile/>
   <tile/>
   <tile/>
   <tile/>
   <tile/>
   <tile/>
   <tile/>
   <tile/>
   <tile/>
   <tile/>
   <tile/>
   <tile/>
   <tile/>
   <tile/>
   <tile/>
   <tile/>
   <tile/>
   <tile/>
   <tile/>
   <tile/>
   <tile/>
   <tile/>
   <tile/>
   <tile/>
   <tile/>
   <tile/>
   <tile/>
   <tile/>
   <tile/>
   <tile/>
   <tile/>
   <tile/>
   <tile/>
   <tile/>
   <tile/>
   <tile/>
   <tile/>
   <tile/>
   <tile/>
   <tile/>
   <tile/>
   <tile/>
   <tile/>
   <tile/>
   <tile/>
   <tile/>
   <tile/>
   <tile/>
   <tile/>
   <tile/>
   <tile/>
   <tile/>
   <tile/>
   <tile/>
   <tile gid="102"/>
   <tile gid="104"/>
   <tile/>
   <tile/>
   <tile/>
   <tile/>
   <tile/>
   <tile/>
   <tile/>
   <tile/>
   <tile/>
   <tile/>
   <tile/>
   <tile/>
   <tile/>
   <tile/>
   <tile/>
   <tile/>
   <tile gid="94"/>
   <tile gid="97"/>
   <tile gid="98"/>
   <tile gid="96"/>
   <tile/>
   <tile/>
   <tile/>
   <tile/>
   <tile/>
   <tile/>
   <tile/>
   <tile/>
   <tile/>
   <tile/>
   <tile/>
   <tile/>
   <tile/>
   <tile/>
   <tile/>
   <tile gid="102"/>
   <tile gid="104"/>
   <tile gid="2684354580"/>
   <tile/>
   <tile/>
   <tile/>
   <tile/>
   <tile/>
   <tile/>
   <tile/>
   <tile/>
   <tile/>
   <tile/>
   <tile/>
   <tile/>
   <tile/>
   <tile/>
   <tile/>
   <tile/>
   <tile/>
   <tile/>
   <tile/>
   <tile/>
   <tile/>
   <tile/>
   <tile/>
   <tile/>
   <tile/>
   <tile/>
   <tile/>
   <tile/>
   <tile/>
   <tile/>
   <tile/>
   <tile/>
   <tile/>
   <tile/>
   <tile/>
   <tile/>
   <tile/>
   <tile/>
   <tile/>
   <tile/>
   <tile/>
   <tile/>
   <tile/>
   <tile/>
   <tile/>
   <tile/>
   <tile/>
   <tile/>
   <tile/>
   <tile/>
   <tile/>
   <tile/>
   <tile/>
   <tile/>
   <tile/>
   <tile/>
   <tile/>
   <tile/>
   <tile/>
   <tile/>
   <tile/>
   <tile/>
   <tile/>
   <tile/>
   <tile gid="102"/>
   <tile gid="2147483750"/>
   <tile/>
   <tile/>
   <tile/>
   <tile/>
   <tile/>
   <tile/>
   <tile/>
   <tile/>
   <tile/>
   <tile/>
   <tile/>
   <tile/>
   <tile/>
   <tile/>
   <tile/>
   <tile/>
   <tile/>
   <tile/>
   <tile/>
   <tile/>
   <tile/>
   <tile/>
   <tile/>
   <tile/>
   <tile/>
   <tile/>
   <tile/>
   <tile/>
   <tile/>
   <tile/>
   <tile/>
   <tile/>
   <tile/>
   <tile/>
   <tile/>
   <tile gid="102"/>
   <tile gid="104"/>
   <tile gid="2684354581"/>
   <tile/>
   <tile/>
   <tile/>
   <tile/>
   <tile/>
   <tile/>
   <tile/>
   <tile/>
   <tile/>
   <tile/>
   <tile/>
   <tile/>
   <tile/>
   <tile/>
   <tile/>
   <tile/>
   <tile/>
   <tile/>
   <tile/>
   <tile/>
   <tile/>
   <tile/>
   <tile/>
   <tile/>
   <tile/>
   <tile/>
   <tile/>
   <tile/>
   <tile/>
   <tile/>
   <tile/>
   <tile/>
   <tile/>
   <tile/>
   <tile/>
   <tile/>
   <tile/>
   <tile/>
   <tile/>
   <tile/>
   <tile/>
   <tile/>
   <tile/>
   <tile/>
   <tile/>
   <tile/>
   <tile/>
   <tile/>
   <tile/>
   <tile/>
   <tile/>
   <tile/>
   <tile/>
   <tile/>
   <tile/>
   <tile/>
   <tile/>
   <tile/>
   <tile/>
   <tile/>
   <tile/>
   <tile/>
   <tile/>
   <tile/>
   <tile gid="2147483752"/>
   <tile gid="104"/>
   <tile gid="25"/>
   <tile gid="26"/>
   <tile gid="27"/>
   <tile gid="27"/>
   <tile gid="27"/>
   <tile gid="27"/>
   <tile gid="27"/>
   <tile gid="27"/>
   <tile gid="27"/>
   <tile gid="27"/>
   <tile gid="28"/>
   <tile gid="29"/>
   <tile gid="92"/>
   <tile/>
   <tile/>
   <tile/>
   <tile/>
   <tile/>
   <tile/>
   <tile/>
   <tile/>
   <tile/>
   <tile/>
   <tile/>
   <tile/>
   <tile/>
   <tile/>
   <tile/>
   <tile/>
   <tile/>
   <tile/>
   <tile/>
   <tile/>
   <tile/>
   <tile/>
   <tile gid="102"/>
   <tile gid="104"/>
   <tile/>
   <tile/>
   <tile/>
   <tile/>
   <tile/>
   <tile/>
   <tile/>
   <tile/>
   <tile/>
   <tile gid="94"/>
   <tile gid="95"/>
   <tile gid="97"/>
   <tile gid="96"/>
   <tile/>
   <tile/>
   <tile/>
   <tile/>
   <tile/>
   <tile/>
   <tile/>
   <tile/>
   <tile/>
   <tile/>
   <tile/>
   <tile/>
   <tile/>
   <tile/>
   <tile/>
   <tile/>
   <tile/>
   <tile/>
   <tile/>
   <tile/>
   <tile/>
   <tile/>
   <tile/>
   <tile/>
   <tile/>
   <tile/>
   <tile/>
   <tile/>
   <tile/>
   <tile/>
   <tile/>
   <tile/>
   <tile/>
   <tile/>
   <tile/>
   <tile/>
   <tile/>
   <tile/>
   <tile/>
   <tile/>
   <tile/>
   <tile/>
   <tile/>
   <tile/>
   <tile/>
   <tile/>
   <tile/>
   <tile/>
   <tile/>
   <tile/>
   <tile/>
   <tile/>
   <tile gid="102"/>
   <tile gid="106"/>
   <tile gid="2684354660"/>
   <tile gid="2684354660"/>
   <tile gid="2684354660"/>
   <tile gid="2684354660"/>
   <tile gid="2684354660"/>
   <tile gid="2684354660"/>
   <tile gid="2684354660"/>
   <tile gid="2684354660"/>
   <tile gid="2684354660"/>
   <tile gid="2684354660"/>
   <tile gid="2684354660"/>
   <tile gid="2684354660"/>
   <tile gid="111"/>
   <tile gid="98"/>
   <tile gid="95"/>
   <tile gid="97"/>
   <tile gid="95"/>
   <tile gid="97"/>
   <tile gid="97"/>
   <tile gid="95"/>
   <tile gid="98"/>
   <tile gid="98"/>
   <tile gid="95"/>
   <tile gid="95"/>
   <tile gid="97"/>
   <tile gid="95"/>
   <tile gid="95"/>
   <tile gid="95"/>
   <tile gid="97"/>
   <tile gid="98"/>
   <tile gid="96"/>
   <tile/>
   <tile/>
   <tile/>
   <tile/>
   <tile gid="102"/>
   <tile gid="104"/>
   <tile/>
   <tile/>
   <tile/>
   <tile/>
   <tile/>
   <tile/>
   <tile/>
   <tile/>
   <tile gid="1610612757"/>
   <tile gid="102"/>
   <tile gid="113"/>
   <tile gid="114"/>
   <tile gid="104"/>
   <tile/>
   <tile/>
   <tile/>
   <tile/>
   <tile/>
   <tile/>
   <tile/>
   <tile/>
   <tile/>
   <tile/>
   <tile/>
   <tile/>
   <tile/>
   <tile/>
   <tile/>
   <tile/>
   <tile/>
   <tile/>
   <tile/>
   <tile/>
   <tile/>
   <tile/>
   <tile/>
   <tile/>
   <tile/>
   <tile/>
   <tile/>
   <tile/>
   <tile/>
   <tile/>
   <tile/>
   <tile/>
   <tile/>
   <tile/>
   <tile/>
   <tile/>
   <tile/>
   <tile/>
   <tile/>
   <tile/>
   <tile/>
   <tile/>
   <tile/>
   <tile/>
   <tile/>
   <tile/>
   <tile/>
   <tile/>
   <tile/>
   <tile/>
   <tile/>
   <tile/>
   <tile gid="102"/>
   <tile gid="2147483750"/>
   <tile/>
   <tile/>
   <tile/>
   <tile/>
   <tile/>
   <tile/>
   <tile/>
   <tile/>
   <tile/>
   <tile/>
   <tile/>
   <tile/>
   <tile/>
   <tile/>
   <tile/>
   <tile/>
   <tile/>
   <tile/>
   <tile/>
   <tile/>
   <tile/>
   <tile/>
   <tile/>
   <tile/>
   <tile/>
   <tile/>
   <tile/>
   <tile/>
   <tile/>
   <tile/>
   <tile/>
   <tile/>
   <tile/>
   <tile/>
   <tile/>
   <tile gid="2147483752"/>
   <tile gid="104"/>
   <tile/>
   <tile/>
   <tile/>
   <tile/>
   <tile/>
   <tile/>
   <tile/>
   <tile/>
   <tile gid="1610612756"/>
   <tile gid="102"/>
   <tile gid="105"/>
   <tile gid="105"/>
   <tile gid="104"/>
   <tile/>
   <tile/>
   <tile/>
   <tile/>
   <tile/>
   <tile/>
   <tile/>
   <tile/>
   <tile/>
   <tile/>
   <tile/>
   <tile/>
   <tile/>
   <tile/>
   <tile/>
   <tile/>
   <tile/>
   <tile/>
   <tile/>
   <tile/>
   <tile/>
   <tile/>
   <tile/>
   <tile/>
   <tile/>
   <tile/>
   <tile/>
   <tile/>
   <tile/>
   <tile/>
   <tile/>
   <tile/>
   <tile/>
   <tile/>
   <tile/>
   <tile/>
   <tile/>
   <tile/>
   <tile/>
   <tile/>
   <tile/>
   <tile/>
   <tile/>
   <tile/>
   <tile/>
   <tile/>
   <tile/>
   <tile/>
   <tile/>
   <tile/>
   <tile/>
   <tile/>
   <tile gid="102"/>
   <tile gid="2147483750"/>
   <tile/>
   <tile/>
   <tile/>
   <tile/>
   <tile/>
   <tile/>
   <tile/>
   <tile/>
   <tile/>
   <tile/>
   <tile/>
   <tile/>
   <tile/>
   <tile/>
   <tile/>
   <tile/>
   <tile/>
   <tile/>
   <tile/>
   <tile/>
   <tile/>
   <tile/>
   <tile/>
   <tile/>
   <tile/>
   <tile/>
   <tile/>
   <tile/>
   <tile/>
   <tile/>
   <tile/>
   <tile/>
   <tile/>
   <tile/>
   <tile/>
   <tile gid="102"/>
   <tile gid="104"/>
   <tile gid="2684354579"/>
   <tile/>
   <tile/>
   <tile/>
   <tile/>
   <tile/>
   <tile/>
   <tile/>
   <tile gid="1610612755"/>
   <tile gid="102"/>
   <tile gid="113"/>
   <tile gid="103"/>
   <tile gid="104"/>
   <tile/>
   <tile/>
   <tile/>
   <tile/>
   <tile/>
   <tile/>
   <tile/>
   <tile/>
   <tile/>
   <tile/>
   <tile/>
   <tile/>
   <tile/>
   <tile/>
   <tile/>
   <tile/>
   <tile/>
   <tile/>
   <tile/>
   <tile/>
   <tile/>
   <tile/>
   <tile/>
   <tile/>
   <tile/>
   <tile/>
   <tile/>
   <tile/>
   <tile/>
   <tile/>
   <tile/>
   <tile/>
   <tile/>
   <tile/>
   <tile/>
   <tile/>
   <tile/>
   <tile/>
   <tile/>
   <tile/>
   <tile/>
   <tile/>
   <tile/>
   <tile/>
   <tile/>
   <tile/>
   <tile/>
   <tile/>
   <tile/>
   <tile gid="94"/>
   <tile gid="95"/>
   <tile gid="97"/>
   <tile gid="106"/>
   <tile gid="104"/>
   <tile/>
   <tile/>
   <tile/>
   <tile/>
   <tile/>
   <tile/>
   <tile/>
   <tile/>
   <tile/>
   <tile/>
   <tile/>
   <tile/>
   <tile/>
   <tile/>
   <tile/>
   <tile/>
   <tile/>
   <tile/>
   <tile/>
   <tile/>
   <tile/>
   <tile/>
   <tile/>
   <tile/>
   <tile/>
   <tile/>
   <tile/>
   <tile/>
   <tile/>
   <tile/>
   <tile/>
   <tile/>
   <tile/>
   <tile/>
   <tile/>
   <tile gid="102"/>
   <tile gid="104"/>
   <tile gid="2684354580"/>
   <tile/>
   <tile/>
   <tile/>
   <tile/>
   <tile/>
   <tile/>
   <tile/>
   <tile gid="1610612757"/>
   <tile gid="102"/>
   <tile gid="113"/>
   <tile gid="106"/>
   <tile gid="104"/>
   <tile/>
   <tile/>
   <tile/>
   <tile gid="94"/>
   <tile gid="95"/>
   <tile gid="96"/>
   <tile/>
   <tile/>
   <tile/>
   <tile/>
   <tile/>
   <tile/>
   <tile/>
   <tile/>
   <tile/>
   <tile/>
   <tile/>
   <tile/>
   <tile/>
   <tile/>
   <tile/>
   <tile/>
   <tile/>
   <tile/>
   <tile/>
   <tile/>
   <tile/>
   <tile/>
   <tile/>
   <tile/>
   <tile/>
   <tile/>
   <tile/>
   <tile/>
   <tile/>
   <tile/>
   <tile/>
   <tile/>
   <tile/>
   <tile/>
   <tile/>
   <tile/>
   <tile/>
   <tile/>
   <tile/>
   <tile/>
   <tile/>
   <tile/>
   <tile/>
   <tile/>
   <tile/>
   <tile/>
   <tile gid="102"/>
   <tile gid="2147483750"/>
   <tile/>
   <tile/>
   <tile/>
   <tile/>
   <tile/>
   <tile/>
   <tile/>
   <tile/>
   <tile/>
   <tile/>
   <tile/>
   <tile/>
   <tile/>
   <tile/>
   <tile/>
   <tile/>
   <tile/>
   <tile/>
   <tile/>
   <tile/>
   <tile/>
   <tile/>
   <tile/>
   <tile/>
   <tile/>
   <tile/>
   <tile/>
   <tile/>
   <tile/>
   <tile/>
   <tile/>
   <tile/>
   <tile/>
   <tile/>
   <tile/>
   <tile gid="102"/>
   <tile gid="104"/>
   <tile gid="2684354581"/>
   <tile/>
   <tile/>
   <tile/>
   <tile/>
   <tile/>
   <tile/>
   <tile/>
   <tile gid="1610612756"/>
   <tile gid="102"/>
   <tile gid="114"/>
   <tile gid="105"/>
   <tile gid="104"/>
   <tile/>
   <tile/>
   <tile/>
   <tile/>
   <tile/>
   <tile/>
   <tile/>
   <tile/>
   <tile/>
   <tile/>
   <tile/>
   <tile/>
   <tile/>
   <tile/>
   <tile/>
   <tile/>
   <tile/>
   <tile/>
   <tile/>
   <tile/>
   <tile/>
   <tile/>
   <tile/>
   <tile/>
   <tile/>
   <tile/>
   <tile/>
   <tile/>
   <tile/>
   <tile/>
   <tile/>
   <tile/>
   <tile/>
   <tile/>
   <tile/>
   <tile/>
   <tile/>
   <tile/>
   <tile/>
   <tile/>
   <tile/>
   <tile/>
   <tile/>
   <tile/>
   <tile/>
   <tile/>
   <tile/>
   <tile/>
   <tile/>
   <tile/>
   <tile/>
   <tile/>
   <tile gid="102"/>
   <tile gid="104"/>
   <tile/>
   <tile/>
   <tile/>
   <tile/>
   <tile/>
   <tile/>
   <tile/>
   <tile/>
   <tile/>
   <tile/>
   <tile/>
   <tile/>
   <tile/>
   <tile/>
   <tile/>
   <tile/>
   <tile/>
   <tile/>
   <tile/>
   <tile/>
   <tile/>
   <tile/>
   <tile/>
   <tile/>
   <tile/>
   <tile/>
   <tile/>
   <tile/>
   <tile/>
   <tile/>
   <tile/>
   <tile/>
   <tile/>
   <tile/>
   <tile/>
   <tile gid="2147483752"/>
   <tile gid="104"/>
   <tile gid="2684354579"/>
   <tile/>
   <tile/>
   <tile/>
   <tile gid="92"/>
   <tile/>
   <tile/>
   <tile/>
   <tile gid="1610612755"/>
   <tile gid="102"/>
   <tile gid="103"/>
   <tile gid="106"/>
   <tile gid="104"/>
   <tile/>
   <tile/>
   <tile/>
   <tile/>
   <tile/>
   <tile/>
   <tile/>
   <tile/>
   <tile/>
   <tile/>
   <tile/>
   <tile/>
   <tile/>
   <tile/>
   <tile/>
   <tile/>
   <tile/>
   <tile/>
   <tile/>
   <tile/>
   <tile/>
   <tile/>
   <tile/>
   <tile/>
   <tile/>
   <tile/>
   <tile/>
   <tile/>
   <tile/>
   <tile/>
   <tile/>
   <tile/>
   <tile/>
   <tile/>
   <tile/>
   <tile/>
   <tile/>
   <tile/>
   <tile/>
   <tile/>
   <tile/>
   <tile/>
   <tile/>
   <tile/>
   <tile/>
   <tile/>
   <tile/>
   <tile/>
   <tile/>
   <tile/>
   <tile/>
   <tile/>
   <tile gid="102"/>
   <tile gid="2147483750"/>
   <tile/>
   <tile/>
   <tile/>
   <tile/>
   <tile/>
   <tile/>
   <tile/>
   <tile/>
   <tile/>
   <tile/>
   <tile/>
   <tile/>
   <tile/>
   <tile/>
   <tile/>
   <tile/>
   <tile/>
   <tile/>
   <tile/>
   <tile/>
   <tile/>
   <tile/>
   <tile/>
   <tile/>
   <tile/>
   <tile/>
   <tile/>
   <tile/>
   <tile/>
   <tile/>
   <tile/>
   <tile/>
   <tile/>
   <tile/>
   <tile/>
   <tile gid="2147483752"/>
   <tile gid="104"/>
   <tile gid="2684354580"/>
   <tile/>
   <tile/>
   <tile/>
   <tile gid="100"/>
   <tile/>
   <tile/>
   <tile/>
   <tile/>
   <tile gid="102"/>
   <tile gid="103"/>
   <tile gid="105"/>
   <tile gid="104"/>
   <tile/>
   <tile/>
   <tile/>
   <tile/>
   <tile/>
   <tile/>
   <tile/>
   <tile/>
   <tile/>
   <tile/>
   <tile gid="94"/>
   <tile gid="95"/>
   <tile gid="96"/>
   <tile/>
   <tile/>
   <tile/>
   <tile/>
   <tile/>
   <tile/>
   <tile/>
   <tile/>
   <tile/>
   <tile/>
   <tile/>
   <tile/>
   <tile/>
   <tile/>
   <tile/>
   <tile/>
   <tile/>
   <tile/>
   <tile/>
   <tile/>
   <tile/>
   <tile/>
   <tile/>
   <tile/>
   <tile/>
   <tile/>
   <tile/>
   <tile/>
   <tile/>
   <tile/>
   <tile/>
   <tile/>
   <tile/>
   <tile/>
   <tile/>
   <tile/>
   <tile/>
   <tile/>
   <tile/>
   <tile gid="2147483752"/>
   <tile gid="114"/>
   <tile gid="97"/>
   <tile gid="97"/>
   <tile gid="98"/>
   <tile gid="98"/>
   <tile gid="95"/>
   <tile gid="97"/>
   <tile gid="98"/>
   <tile gid="97"/>
   <tile gid="98"/>
   <tile gid="97"/>
   <tile gid="95"/>
   <tile gid="97"/>
   <tile gid="98"/>
   <tile gid="97"/>
   <tile gid="95"/>
   <tile gid="95"/>
   <tile gid="98"/>
   <tile gid="97"/>
   <tile gid="98"/>
   <tile gid="95"/>
   <tile gid="97"/>
   <tile gid="97"/>
   <tile gid="95"/>
   <tile gid="95"/>
   <tile gid="95"/>
   <tile gid="98"/>
   <tile gid="98"/>
   <tile gid="97"/>
   <tile gid="97"/>
   <tile gid="95"/>
   <tile gid="95"/>
   <tile gid="96"/>
   <tile/>
   <tile/>
   <tile/>
   <tile gid="2147483752"/>
   <tile gid="104"/>
   <tile gid="2684354581"/>
   <tile/>
   <tile/>
   <tile/>
   <tile gid="100"/>
   <tile/>
   <tile/>
   <tile/>
   <tile/>
   <tile gid="102"/>
   <tile gid="105"/>
   <tile gid="114"/>
   <tile gid="104"/>
   <tile/>
   <tile/>
   <tile/>
   <tile/>
   <tile/>
   <tile/>
   <tile/>
   <tile/>
   <tile/>
   <tile/>
   <tile/>
   <tile/>
   <tile/>
   <tile/>
   <tile/>
   <tile/>
   <tile/>
   <tile/>
   <tile/>
   <tile/>
   <tile/>
   <tile/>
   <tile/>
   <tile/>
   <tile/>
   <tile/>
   <tile/>
   <tile/>
   <tile/>
   <tile/>
   <tile/>
   <tile/>
   <tile/>
   <tile/>
   <tile/>
   <tile/>
   <tile/>
   <tile/>
   <tile/>
   <tile/>
   <tile/>
   <tile/>
   <tile/>
   <tile/>
   <tile/>
   <tile/>
   <tile/>
   <tile/>
   <tile/>
   <tile/>
   <tile/>
   <tile/>
   <tile gid="102"/>
   <tile gid="113"/>
   <tile gid="111"/>
   <tile gid="111"/>
   <tile gid="111"/>
   <tile gid="111"/>
   <tile gid="111"/>
   <tile gid="111"/>
   <tile gid="111"/>
   <tile gid="111"/>
   <tile gid="111"/>
   <tile gid="111"/>
   <tile gid="111"/>
   <tile gid="111"/>
   <tile gid="111"/>
   <tile gid="111"/>
   <tile gid="111"/>
   <tile gid="111"/>
   <tile gid="111"/>
   <tile gid="111"/>
   <tile gid="111"/>
   <tile gid="111"/>
   <tile gid="111"/>
   <tile gid="111"/>
   <tile gid="111"/>
   <tile gid="111"/>
   <tile gid="111"/>
   <tile gid="111"/>
   <tile gid="111"/>
   <tile gid="111"/>
   <tile gid="111"/>
   <tile gid="111"/>
   <tile gid="111"/>
   <tile gid="112"/>
   <tile/>
   <tile/>
   <tile/>
   <tile gid="2147483752"/>
   <tile gid="104"/>
   <tile gid="2684354579"/>
   <tile/>
   <tile/>
   <tile/>
   <tile gid="108"/>
   <tile/>
   <tile/>
   <tile/>
   <tile/>
   <tile gid="102"/>
   <tile gid="105"/>
   <tile gid="105"/>
   <tile gid="104"/>
   <tile/>
   <tile/>
   <tile/>
   <tile/>
   <tile/>
   <tile/>
   <tile/>
   <tile/>
   <tile/>
   <tile/>
   <tile/>
   <tile/>
   <tile/>
   <tile/>
   <tile/>
   <tile/>
   <tile/>
   <tile/>
   <tile/>
   <tile/>
   <tile/>
   <tile/>
   <tile/>
   <tile/>
   <tile/>
   <tile/>
   <tile/>
   <tile/>
   <tile/>
   <tile/>
   <tile/>
   <tile/>
   <tile/>
   <tile/>
   <tile/>
   <tile/>
   <tile/>
   <tile/>
   <tile/>
   <tile/>
   <tile/>
   <tile/>
   <tile/>
   <tile/>
   <tile/>
   <tile/>
   <tile/>
   <tile/>
   <tile/>
   <tile/>
   <tile/>
   <tile/>
   <tile gid="2147483752"/>
   <tile gid="2147483750"/>
   <tile/>
   <tile/>
   <tile/>
   <tile/>
   <tile/>
   <tile/>
   <tile/>
   <tile/>
   <tile/>
   <tile/>
   <tile/>
   <tile/>
   <tile/>
   <tile/>
   <tile/>
   <tile/>
   <tile/>
   <tile/>
   <tile/>
   <tile/>
   <tile/>
   <tile/>
   <tile/>
   <tile/>
   <tile/>
   <tile/>
   <tile/>
   <tile/>
   <tile/>
   <tile/>
   <tile/>
   <tile/>
   <tile/>
   <tile/>
   <tile/>
   <tile gid="2147483752"/>
   <tile gid="104"/>
   <tile gid="2684354580"/>
   <tile/>
   <tile/>
   <tile/>
   <tile/>
   <tile/>
   <tile/>
   <tile/>
   <tile/>
   <tile gid="102"/>
   <tile gid="106"/>
   <tile gid="106"/>
   <tile gid="104"/>
   <tile/>
   <tile/>
   <tile/>
   <tile/>
   <tile/>
   <tile/>
   <tile/>
   <tile/>
   <tile/>
   <tile/>
   <tile/>
   <tile/>
   <tile/>
   <tile/>
   <tile/>
   <tile/>
   <tile/>
   <tile/>
   <tile gid="94"/>
   <tile gid="95"/>
   <tile gid="96"/>
   <tile/>
   <tile/>
   <tile/>
   <tile/>
   <tile/>
   <tile/>
   <tile/>
   <tile/>
   <tile/>
   <tile/>
   <tile/>
   <tile/>
   <tile/>
   <tile/>
   <tile/>
   <tile/>
   <tile/>
   <tile/>
   <tile/>
   <tile/>
   <tile/>
   <tile/>
   <tile/>
   <tile/>
   <tile/>
   <tile/>
   <tile/>
   <tile/>
   <tile/>
   <tile/>
   <tile/>
   <tile gid="102"/>
   <tile gid="104"/>
   <tile/>
   <tile/>
   <tile/>
   <tile/>
   <tile/>
   <tile/>
   <tile/>
   <tile/>
   <tile/>
   <tile/>
   <tile/>
   <tile/>
   <tile/>
   <tile/>
   <tile/>
   <tile/>
   <tile/>
   <tile/>
   <tile/>
   <tile/>
   <tile/>
   <tile/>
   <tile/>
   <tile/>
   <tile/>
   <tile/>
   <tile/>
   <tile/>
   <tile/>
   <tile/>
   <tile/>
   <tile/>
   <tile/>
   <tile/>
   <tile/>
   <tile gid="2147483752"/>
   <tile gid="104"/>
   <tile gid="2684354581"/>
   <tile/>
   <tile/>
   <tile/>
   <tile/>
   <tile/>
   <tile/>
   <tile/>
   <tile/>
   <tile gid="102"/>
   <tile gid="114"/>
   <tile gid="105"/>
   <tile gid="104"/>
   <tile/>
   <tile/>
   <tile/>
   <tile/>
   <tile/>
   <tile/>
   <tile/>
   <tile/>
   <tile/>
   <tile/>
   <tile/>
   <tile/>
   <tile/>
   <tile/>
   <tile/>
   <tile/>
   <tile/>
   <tile/>
   <tile/>
   <tile/>
   <tile/>
   <tile/>
   <tile/>
   <tile/>
   <tile/>
   <tile/>
   <tile/>
   <tile/>
   <tile/>
   <tile/>
   <tile/>
   <tile/>
   <tile/>
   <tile/>
   <tile/>
   <tile/>
   <tile/>
   <tile/>
   <tile/>
   <tile/>
   <tile/>
   <tile/>
   <tile/>
   <tile/>
   <tile/>
   <tile/>
   <tile/>
   <tile/>
   <tile/>
   <tile/>
   <tile/>
   <tile/>
   <tile gid="102"/>
   <tile gid="104"/>
   <tile/>
   <tile/>
   <tile/>
   <tile/>
   <tile/>
   <tile/>
   <tile/>
   <tile/>
   <tile/>
   <tile/>
   <tile/>
   <tile/>
   <tile/>
   <tile/>
   <tile/>
   <tile/>
   <tile/>
   <tile/>
   <tile/>
   <tile/>
   <tile/>
   <tile/>
   <tile/>
   <tile/>
   <tile/>
   <tile/>
   <tile/>
   <tile/>
   <tile/>
   <tile/>
   <tile/>
   <tile/>
   <tile/>
   <tile/>
   <tile/>
   <tile gid="2147483752"/>
   <tile gid="104"/>
   <tile/>
   <tile/>
   <tile/>
   <tile/>
   <tile/>
   <tile/>
   <tile/>
   <tile/>
   <tile gid="1610612757"/>
   <tile gid="102"/>
   <tile gid="113"/>
   <tile gid="113"/>
   <tile gid="104"/>
   <tile/>
   <tile/>
   <tile/>
   <tile/>
   <tile/>
   <tile/>
   <tile/>
   <tile/>
   <tile/>
   <tile/>
   <tile/>
   <tile/>
   <tile/>
   <tile/>
   <tile/>
   <tile/>
   <tile/>
   <tile/>
   <tile/>
   <tile/>
   <tile/>
   <tile/>
   <tile/>
   <tile/>
   <tile/>
   <tile/>
   <tile/>
   <tile/>
   <tile/>
   <tile/>
   <tile/>
   <tile/>
   <tile/>
   <tile/>
   <tile/>
   <tile/>
   <tile/>
   <tile/>
   <tile/>
   <tile/>
   <tile/>
   <tile/>
   <tile/>
   <tile/>
   <tile/>
   <tile/>
   <tile/>
   <tile/>
   <tile/>
   <tile/>
   <tile/>
   <tile/>
   <tile gid="102"/>
   <tile gid="104"/>
   <tile/>
   <tile/>
   <tile/>
   <tile/>
   <tile/>
   <tile/>
   <tile/>
   <tile/>
   <tile/>
   <tile/>
   <tile/>
   <tile/>
   <tile/>
   <tile/>
   <tile/>
   <tile/>
   <tile/>
   <tile/>
   <tile/>
   <tile/>
   <tile/>
   <tile/>
   <tile/>
   <tile/>
   <tile/>
   <tile/>
   <tile/>
   <tile/>
   <tile/>
   <tile/>
   <tile/>
   <tile/>
   <tile/>
   <tile/>
   <tile/>
   <tile gid="102"/>
   <tile gid="104"/>
   <tile/>
   <tile/>
   <tile/>
   <tile/>
   <tile/>
   <tile/>
   <tile/>
   <tile/>
   <tile gid="1610612756"/>
   <tile gid="102"/>
   <tile gid="113"/>
   <tile gid="114"/>
   <tile gid="104"/>
   <tile/>
   <tile/>
   <tile/>
   <tile/>
   <tile/>
   <tile/>
   <tile/>
   <tile/>
   <tile/>
   <tile/>
   <tile/>
   <tile/>
   <tile/>
   <tile/>
   <tile/>
   <tile/>
   <tile/>
   <tile/>
   <tile/>
   <tile/>
   <tile/>
   <tile/>
   <tile/>
   <tile/>
   <tile/>
   <tile/>
   <tile/>
   <tile/>
   <tile/>
   <tile/>
   <tile/>
   <tile/>
   <tile/>
   <tile/>
   <tile/>
   <tile/>
   <tile/>
   <tile/>
   <tile/>
   <tile/>
   <tile/>
   <tile/>
   <tile/>
   <tile/>
   <tile/>
   <tile/>
   <tile/>
   <tile/>
   <tile/>
   <tile/>
   <tile/>
   <tile/>
   <tile gid="2147483752"/>
   <tile gid="2147483750"/>
   <tile/>
   <tile/>
   <tile/>
   <tile/>
   <tile/>
   <tile/>
   <tile/>
   <tile/>
   <tile/>
   <tile/>
   <tile/>
   <tile/>
   <tile/>
   <tile/>
   <tile/>
   <tile/>
   <tile/>
   <tile/>
   <tile/>
   <tile/>
   <tile/>
   <tile/>
   <tile/>
   <tile/>
   <tile/>
   <tile/>
   <tile/>
   <tile/>
   <tile/>
   <tile/>
   <tile/>
   <tile/>
   <tile/>
   <tile/>
   <tile/>
   <tile gid="102"/>
   <tile gid="104"/>
   <tile/>
   <tile/>
   <tile/>
   <tile/>
   <tile/>
   <tile/>
   <tile/>
   <tile/>
   <tile gid="1610612755"/>
   <tile gid="102"/>
   <tile gid="114"/>
   <tile gid="113"/>
   <tile gid="104"/>
   <tile/>
   <tile/>
   <tile/>
   <tile/>
   <tile/>
   <tile/>
   <tile/>
   <tile/>
   <tile/>
   <tile/>
   <tile/>
   <tile/>
   <tile/>
   <tile/>
   <tile/>
   <tile/>
   <tile/>
   <tile/>
   <tile/>
   <tile/>
   <tile/>
   <tile/>
   <tile/>
   <tile/>
   <tile/>
   <tile/>
   <tile gid="94"/>
   <tile gid="95"/>
   <tile gid="96"/>
   <tile/>
   <tile/>
   <tile/>
   <tile/>
   <tile/>
   <tile/>
   <tile/>
   <tile/>
   <tile/>
   <tile/>
   <tile/>
   <tile/>
   <tile/>
   <tile/>
   <tile/>
   <tile/>
   <tile/>
   <tile/>
   <tile/>
   <tile/>
   <tile/>
   <tile/>
   <tile/>
   <tile gid="102"/>
   <tile gid="2147483750"/>
   <tile/>
   <tile/>
   <tile/>
   <tile/>
   <tile gid="94"/>
   <tile gid="97"/>
   <tile gid="97"/>
   <tile gid="98"/>
   <tile gid="97"/>
   <tile gid="97"/>
   <tile gid="98"/>
   <tile gid="97"/>
   <tile gid="98"/>
   <tile gid="98"/>
   <tile gid="98"/>
   <tile gid="97"/>
   <tile gid="95"/>
   <tile gid="98"/>
   <tile gid="95"/>
   <tile gid="97"/>
   <tile gid="97"/>
   <tile gid="95"/>
   <tile gid="95"/>
   <tile gid="97"/>
   <tile gid="95"/>
   <tile gid="98"/>
   <tile gid="95"/>
   <tile gid="95"/>
   <tile gid="97"/>
   <tile gid="95"/>
   <tile gid="95"/>
   <tile gid="96"/>
   <tile/>
   <tile/>
   <tile/>
   <tile gid="102"/>
   <tile gid="104"/>
   <tile/>
   <tile/>
   <tile/>
   <tile/>
   <tile/>
   <tile/>
   <tile/>
   <tile/>
   <tile/>
   <tile gid="102"/>
   <tile gid="113"/>
   <tile gid="114"/>
   <tile gid="104"/>
   <tile/>
   <tile/>
   <tile/>
   <tile/>
   <tile/>
   <tile/>
   <tile/>
   <tile/>
   <tile/>
   <tile/>
   <tile/>
   <tile/>
   <tile/>
   <tile/>
   <tile/>
   <tile/>
   <tile/>
   <tile/>
   <tile/>
   <tile/>
   <tile/>
   <tile/>
   <tile/>
   <tile/>
   <tile/>
   <tile/>
   <tile/>
   <tile/>
   <tile/>
   <tile/>
   <tile/>
   <tile/>
   <tile/>
   <tile/>
   <tile/>
   <tile/>
   <tile/>
   <tile/>
   <tile/>
   <tile/>
   <tile/>
   <tile/>
   <tile/>
   <tile/>
   <tile/>
   <tile/>
   <tile/>
   <tile/>
   <tile/>
   <tile/>
   <tile/>
   <tile/>
   <tile gid="102"/>
   <tile gid="104"/>
   <tile/>
   <tile/>
   <tile/>
   <tile/>
   <tile/>
   <tile/>
   <tile/>
   <tile/>
   <tile/>
   <tile/>
   <tile/>
   <tile/>
   <tile/>
   <tile/>
   <tile/>
   <tile/>
   <tile/>
   <tile/>
   <tile/>
   <tile/>
   <tile/>
   <tile/>
   <tile/>
   <tile/>
   <tile/>
   <tile/>
   <tile/>
   <tile/>
   <tile/>
   <tile/>
   <tile/>
   <tile/>
   <tile/>
   <tile/>
   <tile/>
   <tile gid="2147483752"/>
   <tile gid="104"/>
   <tile/>
   <tile/>
   <tile/>
   <tile/>
   <tile/>
   <tile/>
   <tile/>
   <tile/>
   <tile/>
   <tile gid="102"/>
   <tile gid="113"/>
   <tile gid="113"/>
   <tile gid="104"/>
   <tile gid="25"/>
   <tile gid="26"/>
   <tile gid="27"/>
   <tile gid="27"/>
   <tile gid="27"/>
   <tile gid="27"/>
   <tile gid="27"/>
   <tile gid="27"/>
   <tile gid="27"/>
   <tile gid="27"/>
   <tile gid="27"/>
   <tile gid="27"/>
   <tile gid="27"/>
   <tile gid="27"/>
   <tile gid="27"/>
   <tile gid="27"/>
   <tile gid="28"/>
   <tile gid="29"/>
   <tile gid="92"/>
   <tile/>
   <tile/>
   <tile/>
   <tile/>
   <tile/>
   <tile/>
   <tile/>
   <tile/>
   <tile/>
   <tile/>
   <tile/>
   <tile/>
   <tile/>
   <tile/>
   <tile/>
   <tile/>
   <tile/>
   <tile/>
   <tile/>
   <tile/>
   <tile/>
   <tile/>
   <tile/>
   <tile/>
   <tile/>
   <tile/>
   <tile/>
   <tile/>
   <tile/>
   <tile/>
   <tile/>
   <tile/>
   <tile/>
   <tile gid="102"/>
   <tile gid="2147483750"/>
   <tile/>
   <tile/>
   <tile/>
   <tile/>
   <tile/>
   <tile/>
   <tile/>
   <tile/>
   <tile/>
   <tile/>
   <tile/>
   <tile/>
   <tile/>
   <tile/>
   <tile/>
   <tile/>
   <tile/>
   <tile/>
   <tile/>
   <tile/>
   <tile/>
   <tile/>
   <tile/>
   <tile/>
   <tile/>
   <tile/>
   <tile/>
   <tile/>
   <tile/>
   <tile/>
   <tile/>
   <tile/>
   <tile/>
   <tile/>
   <tile/>
   <tile gid="102"/>
   <tile gid="104"/>
   <tile/>
   <tile/>
   <tile/>
   <tile/>
   <tile/>
   <tile/>
   <tile/>
   <tile/>
   <tile/>
   <tile gid="102"/>
   <tile gid="105"/>
   <tile gid="103"/>
   <tile gid="103"/>
   <tile gid="3221225583"/>
   <tile gid="3221225583"/>
   <tile gid="3221225583"/>
   <tile gid="3221225583"/>
   <tile gid="3221225583"/>
   <tile gid="3221225583"/>
   <tile gid="3221225583"/>
   <tile gid="3221225583"/>
   <tile gid="3221225583"/>
   <tile gid="3221225583"/>
   <tile gid="3221225583"/>
   <tile gid="3221225583"/>
   <tile gid="3221225583"/>
   <tile gid="3221225583"/>
   <tile gid="3221225583"/>
   <tile gid="3221225583"/>
   <tile gid="3221225583"/>
   <tile gid="3221225583"/>
   <tile gid="2147483750"/>
   <tile/>
   <tile/>
   <tile/>
   <tile/>
   <tile/>
   <tile/>
   <tile/>
   <tile/>
   <tile/>
   <tile/>
   <tile/>
   <tile/>
   <tile/>
   <tile/>
   <tile/>
   <tile/>
   <tile gid="94"/>
   <tile gid="95"/>
   <tile gid="96"/>
   <tile/>
   <tile/>
   <tile/>
   <tile/>
   <tile/>
   <tile/>
   <tile/>
   <tile/>
   <tile/>
   <tile/>
   <tile/>
   <tile/>
   <tile/>
   <tile/>
   <tile gid="2147483752"/>
   <tile gid="2147483750"/>
   <tile/>
   <tile/>
   <tile/>
   <tile/>
   <tile/>
   <tile/>
   <tile/>
   <tile/>
   <tile/>
   <tile/>
   <tile/>
   <tile/>
   <tile/>
   <tile/>
   <tile/>
   <tile/>
   <tile/>
   <tile/>
   <tile/>
   <tile/>
   <tile/>
   <tile/>
   <tile/>
   <tile/>
   <tile/>
   <tile/>
   <tile/>
   <tile/>
   <tile/>
   <tile/>
   <tile/>
   <tile/>
   <tile/>
   <tile/>
   <tile/>
   <tile gid="102"/>
   <tile gid="104"/>
   <tile/>
   <tile/>
   <tile/>
   <tile/>
   <tile/>
   <tile/>
   <tile/>
   <tile/>
   <tile/>
   <tile gid="102"/>
   <tile gid="114"/>
   <tile gid="114"/>
   <tile gid="113"/>
   <tile gid="103"/>
   <tile gid="105"/>
   <tile gid="103"/>
   <tile gid="103"/>
   <tile gid="103"/>
   <tile gid="105"/>
   <tile gid="106"/>
   <tile gid="106"/>
   <tile gid="106"/>
   <tile gid="114"/>
   <tile gid="113"/>
   <tile gid="106"/>
   <tile gid="103"/>
   <tile gid="105"/>
   <tile gid="105"/>
   <tile gid="105"/>
   <tile gid="113"/>
   <tile gid="103"/>
   <tile gid="104"/>
   <tile/>
   <tile/>
   <tile/>
   <tile/>
   <tile/>
   <tile/>
   <tile/>
   <tile/>
   <tile/>
   <tile/>
   <tile/>
   <tile/>
   <tile/>
   <tile/>
   <tile/>
   <tile/>
   <tile/>
   <tile/>
   <tile/>
   <tile/>
   <tile/>
   <tile/>
   <tile/>
   <tile/>
   <tile/>
   <tile/>
   <tile/>
   <tile/>
   <tile/>
   <tile/>
   <tile/>
   <tile/>
   <tile/>
   <tile gid="102"/>
   <tile gid="104"/>
   <tile/>
   <tile/>
   <tile/>
   <tile/>
   <tile/>
   <tile/>
   <tile/>
   <tile/>
   <tile/>
   <tile/>
   <tile/>
   <tile/>
   <tile/>
   <tile/>
   <tile/>
   <tile/>
   <tile/>
   <tile/>
   <tile/>
   <tile/>
   <tile/>
   <tile/>
   <tile/>
   <tile/>
   <tile/>
   <tile/>
   <tile/>
   <tile/>
   <tile/>
   <tile/>
   <tile/>
   <tile/>
   <tile/>
   <tile/>
   <tile/>
   <tile gid="102"/>
   <tile gid="104"/>
   <tile gid="2684354579"/>
   <tile/>
   <tile/>
   <tile/>
   <tile/>
   <tile/>
   <tile/>
   <tile gid="115"/>
   <tile gid="116"/>
   <tile gid="103"/>
   <tile gid="106"/>
   <tile gid="103"/>
   <tile gid="105"/>
   <tile gid="106"/>
   <tile gid="105"/>
   <tile gid="103"/>
   <tile gid="103"/>
   <tile gid="113"/>
   <tile gid="103"/>
   <tile gid="106"/>
   <tile gid="114"/>
   <tile gid="106"/>
   <tile gid="103"/>
   <tile gid="103"/>
   <tile gid="103"/>
   <tile gid="105"/>
   <tile gid="103"/>
   <tile gid="103"/>
   <tile gid="114"/>
   <tile gid="114"/>
   <tile gid="103"/>
   <tile gid="104"/>
   <tile/>
   <tile/>
   <tile/>
   <tile/>
   <tile/>
   <tile/>
   <tile/>
   <tile/>
   <tile/>
   <tile/>
   <tile/>
   <tile/>
   <tile/>
   <tile/>
   <tile/>
   <tile/>
   <tile/>
   <tile/>
   <tile/>
   <tile/>
   <tile/>
   <tile/>
   <tile/>
   <tile/>
   <tile/>
   <tile gid="94"/>
   <tile gid="95"/>
   <tile gid="96"/>
   <tile/>
   <tile/>
   <tile/>
   <tile/>
   <tile/>
   <tile gid="102"/>
   <tile gid="106"/>
   <tile gid="95"/>
   <tile gid="98"/>
   <tile gid="98"/>
   <tile gid="97"/>
   <tile gid="95"/>
   <tile gid="97"/>
   <tile gid="97"/>
   <tile gid="98"/>
   <tile gid="98"/>
   <tile gid="95"/>
   <tile gid="98"/>
   <tile gid="98"/>
   <tile gid="95"/>
   <tile gid="98"/>
   <tile gid="98"/>
   <tile gid="97"/>
   <tile gid="97"/>
   <tile gid="97"/>
   <tile gid="95"/>
   <tile gid="95"/>
   <tile gid="95"/>
   <tile gid="97"/>
   <tile gid="95"/>
   <tile gid="95"/>
   <tile gid="98"/>
   <tile gid="97"/>
   <tile gid="95"/>
   <tile gid="96"/>
   <tile/>
   <tile/>
   <tile/>
   <tile/>
   <tile/>
   <tile/>
   <tile/>
   <tile gid="102"/>
   <tile gid="104"/>
   <tile gid="2684354580"/>
   <tile/>
   <tile/>
   <tile/>
   <tile/>
   <tile/>
   <tile/>
   <tile/>
   <tile/>
   <tile gid="102"/>
   <tile gid="113"/>
   <tile gid="114"/>
   <tile gid="103"/>
   <tile gid="113"/>
   <tile gid="103"/>
   <tile gid="103"/>
   <tile gid="103"/>
   <tile gid="113"/>
   <tile gid="114"/>
   <tile gid="103"/>
   <tile gid="103"/>
   <tile gid="103"/>
   <tile gid="106"/>
   <tile gid="106"/>
   <tile gid="114"/>
   <tile gid="105"/>
   <tile gid="106"/>
   <tile gid="105"/>
   <tile gid="106"/>
   <tile gid="103"/>
   <tile gid="114"/>
   <tile gid="104"/>
   <tile/>
   <tile/>
   <tile/>
   <tile/>
   <tile/>
   <tile/>
   <tile/>
   <tile/>
   <tile/>
   <tile/>
   <tile/>
   <tile/>
   <tile/>
   <tile/>
   <tile/>
   <tile/>
   <tile/>
   <tile/>
   <tile/>
   <tile/>
   <tile/>
   <tile/>
   <tile/>
   <tile/>
   <tile/>
   <tile/>
   <tile/>
   <tile/>
   <tile/>
   <tile/>
   <tile/>
   <tile/>
   <tile/>
   <tile gid="110"/>
   <tile gid="111"/>
   <tile gid="111"/>
   <tile gid="111"/>
   <tile gid="111"/>
   <tile gid="111"/>
   <tile gid="111"/>
   <tile gid="111"/>
   <tile gid="111"/>
   <tile gid="111"/>
   <tile gid="111"/>
   <tile gid="111"/>
   <tile gid="111"/>
   <tile gid="111"/>
   <tile gid="111"/>
   <tile gid="111"/>
   <tile gid="111"/>
   <tile gid="111"/>
   <tile gid="111"/>
   <tile gid="111"/>
   <tile gid="111"/>
   <tile gid="111"/>
   <tile gid="111"/>
   <tile gid="111"/>
   <tile gid="111"/>
   <tile gid="111"/>
   <tile gid="111"/>
   <tile gid="111"/>
   <tile gid="111"/>
   <tile gid="111"/>
   <tile gid="1610612844"/>
   <tile/>
   <tile/>
   <tile/>
   <tile/>
   <tile/>
   <tile/>
   <tile gid="102"/>
   <tile gid="104"/>
   <tile gid="2684354581"/>
   <tile/>
   <tile/>
   <tile/>
   <tile/>
   <tile/>
   <tile/>
   <tile/>
   <tile/>
   <tile gid="102"/>
   <tile gid="114"/>
   <tile gid="106"/>
   <tile gid="113"/>
   <tile gid="105"/>
   <tile gid="114"/>
   <tile gid="114"/>
   <tile gid="103"/>
   <tile gid="103"/>
   <tile gid="114"/>
   <tile gid="114"/>
   <tile gid="103"/>
   <tile gid="105"/>
   <tile gid="106"/>
   <tile gid="105"/>
   <tile gid="105"/>
   <tile gid="106"/>
   <tile gid="103"/>
   <tile gid="103"/>
   <tile gid="113"/>
   <tile gid="113"/>
   <tile gid="106"/>
   <tile gid="2147483750"/>
   <tile/>
   <tile/>
   <tile/>
   <tile/>
   <tile/>
   <tile/>
   <tile/>
   <tile/>
   <tile/>
   <tile/>
   <tile/>
   <tile/>
   <tile/>
   <tile/>
   <tile/>
   <tile/>
   <tile/>
   <tile/>
   <tile/>
   <tile/>
   <tile/>
   <tile/>
   <tile/>
   <tile/>
   <tile/>
   <tile/>
   <tile/>
   <tile/>
   <tile/>
   <tile/>
   <tile/>
   <tile/>
   <tile/>
   <tile/>
   <tile/>
   <tile/>
   <tile/>
   <tile/>
   <tile/>
   <tile/>
   <tile/>
   <tile/>
   <tile/>
   <tile/>
   <tile/>
   <tile/>
   <tile/>
   <tile/>
   <tile/>
   <tile/>
   <tile/>
   <tile/>
   <tile/>
   <tile/>
   <tile/>
   <tile/>
   <tile/>
   <tile/>
   <tile/>
   <tile/>
   <tile/>
   <tile/>
   <tile/>
   <tile/>
   <tile/>
   <tile/>
   <tile/>
   <tile/>
   <tile/>
   <tile/>
   <tile gid="102"/>
   <tile gid="104"/>
   <tile/>
   <tile/>
   <tile/>
   <tile/>
   <tile/>
   <tile/>
   <tile/>
   <tile/>
   <tile/>
   <tile gid="102"/>
   <tile gid="103"/>
   <tile gid="105"/>
   <tile gid="114"/>
   <tile gid="106"/>
   <tile gid="106"/>
   <tile gid="113"/>
   <tile gid="103"/>
   <tile gid="114"/>
   <tile gid="106"/>
   <tile gid="106"/>
   <tile gid="103"/>
   <tile gid="114"/>
   <tile gid="106"/>
   <tile gid="103"/>
   <tile gid="103"/>
   <tile gid="103"/>
   <tile gid="113"/>
   <tile gid="103"/>
   <tile gid="105"/>
   <tile gid="106"/>
   <tile gid="114"/>
   <tile gid="104"/>
   <tile/>
   <tile/>
   <tile/>
   <tile/>
   <tile/>
   <tile/>
   <tile/>
   <tile/>
   <tile/>
   <tile/>
   <tile/>
   <tile/>
   <tile/>
   <tile/>
   <tile/>
   <tile/>
   <tile/>
   <tile/>
   <tile/>
   <tile/>
   <tile/>
   <tile/>
   <tile/>
   <tile/>
   <tile/>
   <tile/>
   <tile/>
   <tile/>
   <tile/>
   <tile/>
   <tile/>
   <tile/>
   <tile/>
   <tile/>
   <tile/>
   <tile/>
   <tile/>
   <tile/>
   <tile/>
   <tile/>
   <tile/>
   <tile/>
   <tile/>
   <tile/>
   <tile/>
   <tile/>
   <tile/>
   <tile/>
   <tile/>
   <tile/>
   <tile/>
   <tile/>
   <tile/>
   <tile/>
   <tile/>
   <tile/>
   <tile/>
   <tile/>
   <tile/>
   <tile/>
   <tile/>
   <tile/>
   <tile/>
   <tile/>
   <tile/>
   <tile/>
   <tile/>
   <tile/>
   <tile/>
   <tile/>
   <tile gid="102"/>
   <tile gid="104"/>
   <tile/>
   <tile/>
   <tile/>
   <tile/>
   <tile/>
   <tile/>
   <tile/>
   <tile/>
   <tile/>
   <tile gid="102"/>
   <tile gid="113"/>
   <tile gid="106"/>
   <tile gid="106"/>
   <tile gid="103"/>
   <tile gid="105"/>
   <tile gid="114"/>
   <tile gid="105"/>
   <tile gid="103"/>
   <tile gid="103"/>
   <tile gid="105"/>
   <tile gid="103"/>
   <tile gid="113"/>
   <tile gid="113"/>
   <tile gid="114"/>
   <tile gid="114"/>
   <tile gid="103"/>
   <tile gid="114"/>
   <tile gid="105"/>
   <tile gid="113"/>
   <tile gid="103"/>
   <tile gid="106"/>
   <tile gid="2147483750"/>
   <tile/>
   <tile/>
   <tile/>
   <tile/>
   <tile/>
   <tile/>
   <tile/>
   <tile/>
   <tile/>
   <tile/>
   <tile/>
   <tile/>
   <tile/>
   <tile/>
   <tile/>
   <tile/>
   <tile/>
   <tile/>
   <tile/>
   <tile/>
   <tile/>
   <tile/>
   <tile/>
   <tile/>
   <tile/>
   <tile/>
   <tile/>
   <tile/>
   <tile/>
   <tile/>
   <tile/>
   <tile/>
   <tile/>
   <tile/>
   <tile/>
   <tile/>
   <tile/>
   <tile/>
   <tile/>
   <tile/>
   <tile/>
   <tile/>
   <tile/>
   <tile/>
   <tile/>
   <tile/>
   <tile/>
   <tile/>
   <tile/>
   <tile/>
   <tile/>
   <tile/>
   <tile/>
   <tile/>
   <tile/>
   <tile/>
   <tile/>
   <tile/>
   <tile/>
   <tile/>
   <tile/>
   <tile/>
   <tile/>
   <tile/>
   <tile/>
   <tile/>
   <tile/>
   <tile/>
   <tile/>
   <tile/>
   <tile gid="2147483752"/>
   <tile gid="104"/>
   <tile/>
   <tile/>
   <tile/>
   <tile/>
   <tile/>
   <tile/>
   <tile/>
   <tile/>
   <tile/>
   <tile gid="102"/>
   <tile gid="103"/>
   <tile gid="113"/>
   <tile gid="105"/>
   <tile gid="103"/>
   <tile gid="106"/>
   <tile gid="114"/>
   <tile gid="103"/>
   <tile gid="105"/>
   <tile gid="114"/>
   <tile gid="113"/>
   <tile gid="105"/>
   <tile gid="103"/>
   <tile gid="105"/>
   <tile gid="106"/>
   <tile gid="105"/>
   <tile gid="105"/>
   <tile gid="113"/>
   <tile gid="106"/>
   <tile gid="114"/>
   <tile gid="113"/>
   <tile gid="103"/>
   <tile gid="104"/>
   <tile/>
   <tile/>
   <tile/>
   <tile/>
   <tile/>
   <tile/>
   <tile/>
   <tile/>
   <tile/>
   <tile/>
   <tile/>
   <tile/>
   <tile/>
   <tile/>
   <tile/>
   <tile/>
   <tile/>
   <tile/>
   <tile/>
   <tile/>
   <tile/>
   <tile/>
   <tile/>
   <tile/>
   <tile/>
   <tile/>
   <tile/>
   <tile/>
   <tile/>
   <tile/>
   <tile/>
   <tile/>
   <tile/>
   <tile/>
   <tile/>
   <tile/>
   <tile/>
   <tile/>
   <tile/>
   <tile/>
   <tile/>
   <tile/>
   <tile/>
   <tile/>
   <tile/>
   <tile/>
   <tile/>
   <tile/>
   <tile/>
   <tile/>
   <tile/>
   <tile/>
   <tile/>
   <tile/>
   <tile/>
   <tile/>
   <tile/>
   <tile/>
   <tile/>
   <tile/>
   <tile/>
   <tile/>
   <tile/>
   <tile/>
   <tile/>
   <tile/>
   <tile/>
   <tile/>
   <tile/>
   <tile/>
   <tile gid="102"/>
   <tile gid="105"/>
   <tile gid="97"/>
   <tile gid="97"/>
   <tile gid="97"/>
   <tile gid="98"/>
   <tile gid="97"/>
   <tile gid="98"/>
   <tile gid="95"/>
   <tile gid="95"/>
   <tile gid="95"/>
   <tile gid="106"/>
   <tile gid="106"/>
   <tile gid="103"/>
   <tile gid="106"/>
   <tile gid="113"/>
   <tile gid="114"/>
   <tile gid="113"/>
   <tile gid="106"/>
   <tile gid="106"/>
   <tile gid="106"/>
   <tile gid="103"/>
   <tile gid="103"/>
   <tile gid="103"/>
   <tile gid="106"/>
   <tile gid="105"/>
   <tile gid="114"/>
   <tile gid="105"/>
   <tile gid="114"/>
   <tile gid="113"/>
   <tile gid="113"/>
   <tile gid="114"/>
   <tile gid="114"/>
   <tile gid="104"/>
   <tile/>
   <tile/>
   <tile/>
   <tile/>
   <tile/>
   <tile/>
   <tile/>
   <tile/>
   <tile/>
   <tile/>
   <tile/>
   <tile/>
   <tile/>
   <tile/>
   <tile gid="92"/>
   <tile/>
   <tile/>
   <tile/>
   <tile/>
   <tile/>
   <tile/>
   <tile/>
   <tile/>
   <tile/>
   <tile/>
   <tile/>
   <tile/>
   <tile/>
   <tile/>
   <tile/>
   <tile/>
   <tile gid="92"/>
   <tile/>
   <tile/>
   <tile/>
   <tile/>
   <tile gid="92"/>
   <tile/>
   <tile/>
   <tile/>
   <tile/>
   <tile/>
   <tile/>
   <tile/>
   <tile/>
   <tile/>
   <tile/>
   <tile/>
   <tile/>
   <tile/>
   <tile/>
   <tile/>
   <tile/>
   <tile/>
   <tile/>
   <tile/>
   <tile/>
   <tile/>
   <tile/>
   <tile/>
   <tile/>
   <tile/>
   <tile/>
   <tile/>
   <tile/>
   <tile/>
   <tile gid="92"/>
   <tile gid="19"/>
   <tile gid="20"/>
   <tile gid="21"/>
   <tile gid="102"/>
   <tile gid="106"/>
   <tile gid="105"/>
   <tile gid="113"/>
   <tile gid="105"/>
   <tile gid="105"/>
   <tile gid="114"/>
   <tile gid="103"/>
   <tile gid="106"/>
   <tile gid="105"/>
   <tile gid="114"/>
   <tile gid="114"/>
   <tile gid="113"/>
   <tile gid="103"/>
   <tile gid="105"/>
   <tile gid="103"/>
   <tile gid="114"/>
   <tile gid="105"/>
   <tile gid="105"/>
   <tile gid="103"/>
   <tile gid="103"/>
   <tile gid="113"/>
   <tile gid="114"/>
   <tile gid="105"/>
   <tile gid="105"/>
   <tile gid="113"/>
   <tile gid="103"/>
   <tile gid="103"/>
   <tile gid="103"/>
   <tile gid="106"/>
   <tile gid="106"/>
   <tile gid="105"/>
   <tile gid="106"/>
   <tile gid="104"/>
   <tile/>
   <tile/>
   <tile/>
   <tile/>
   <tile/>
   <tile/>
   <tile/>
   <tile/>
   <tile/>
   <tile/>
   <tile/>
   <tile/>
   <tile/>
   <tile/>
   <tile gid="102"/>
   <tile gid="95"/>
   <tile gid="95"/>
   <tile gid="98"/>
   <tile gid="98"/>
   <tile gid="98"/>
   <tile gid="95"/>
   <tile gid="95"/>
   <tile gid="97"/>
   <tile gid="98"/>
   <tile gid="97"/>
   <tile gid="98"/>
   <tile gid="95"/>
   <tile gid="95"/>
   <tile gid="95"/>
   <tile gid="97"/>
   <tile gid="97"/>
   <tile gid="104"/>
   <tile gid="19"/>
   <tile gid="20"/>
   <tile gid="20"/>
   <tile gid="21"/>
   <tile gid="102"/>
   <tile gid="98"/>
   <tile gid="95"/>
   <tile gid="97"/>
   <tile gid="97"/>
   <tile gid="98"/>
   <tile gid="95"/>
   <tile gid="95"/>
   <tile gid="95"/>
   <tile gid="97"/>
   <tile gid="97"/>
   <tile gid="98"/>
   <tile gid="95"/>
   <tile gid="98"/>
   <tile gid="95"/>
   <tile gid="98"/>
   <tile gid="95"/>
   <tile gid="95"/>
   <tile gid="97"/>
   <tile gid="98"/>
   <tile gid="97"/>
   <tile gid="97"/>
   <tile gid="95"/>
   <tile gid="98"/>
   <tile gid="95"/>
   <tile gid="95"/>
   <tile gid="98"/>
   <tile gid="97"/>
   <tile gid="98"/>
   <tile gid="98"/>
   <tile gid="103"/>
   <tile gid="3221225583"/>
   <tile gid="3221225583"/>
   <tile gid="3221225583"/>
   <tile gid="103"/>
   <tile gid="103"/>
   <tile gid="105"/>
   <tile gid="103"/>
   <tile gid="114"/>
   <tile gid="114"/>
   <tile gid="103"/>
   <tile gid="105"/>
   <tile gid="114"/>
   <tile gid="105"/>
   <tile gid="105"/>
   <tile gid="106"/>
   <tile gid="106"/>
   <tile gid="113"/>
   <tile gid="113"/>
   <tile gid="106"/>
   <tile gid="106"/>
   <tile gid="103"/>
   <tile gid="106"/>
   <tile gid="103"/>
   <tile gid="105"/>
   <tile gid="103"/>
   <tile gid="103"/>
   <tile gid="103"/>
   <tile gid="103"/>
   <tile gid="106"/>
   <tile gid="103"/>
   <tile gid="114"/>
   <tile gid="106"/>
   <tile gid="105"/>
   <tile gid="114"/>
   <tile gid="106"/>
   <tile gid="103"/>
   <tile gid="2147483750"/>
   <tile/>
   <tile/>
   <tile/>
   <tile/>
   <tile/>
   <tile/>
   <tile/>
   <tile/>
   <tile/>
   <tile/>
   <tile/>
   <tile/>
   <tile/>
   <tile/>
   <tile gid="2147483752"/>
   <tile gid="106"/>
   <tile gid="113"/>
   <tile gid="106"/>
   <tile gid="105"/>
   <tile gid="103"/>
   <tile gid="106"/>
   <tile gid="103"/>
   <tile gid="113"/>
   <tile gid="114"/>
   <tile gid="113"/>
   <tile gid="113"/>
   <tile gid="103"/>
   <tile gid="113"/>
   <tile gid="103"/>
   <tile gid="106"/>
   <tile gid="114"/>
   <tile gid="103"/>
   <tile gid="3221225583"/>
   <tile gid="3221225583"/>
   <tile gid="3221225583"/>
   <tile gid="3221225583"/>
   <tile gid="103"/>
   <tile gid="103"/>
   <tile gid="103"/>
   <tile gid="114"/>
   <tile gid="103"/>
   <tile gid="114"/>
   <tile gid="113"/>
   <tile gid="106"/>
   <tile gid="106"/>
   <tile gid="114"/>
   <tile gid="113"/>
   <tile gid="106"/>
   <tile gid="106"/>
   <tile gid="113"/>
   <tile gid="113"/>
   <tile gid="113"/>
   <tile gid="103"/>
   <tile gid="106"/>
   <tile gid="113"/>
   <tile gid="103"/>
   <tile gid="105"/>
   <tile gid="106"/>
   <tile gid="105"/>
   <tile gid="114"/>
   <tile gid="103"/>
   <tile gid="113"/>
   <tile gid="105"/>
   <tile gid="113"/>
   <tile gid="105"/>
   <tile gid="103"/>
   <tile gid="113"/>
   <tile gid="103"/>
   <tile gid="113"/>
   <tile gid="106"/>
   <tile gid="114"/>
   <tile gid="113"/>
   <tile gid="113"/>
   <tile gid="103"/>
   <tile gid="114"/>
   <tile gid="106"/>
   <tile gid="103"/>
   <tile gid="106"/>
   <tile gid="113"/>
   <tile gid="103"/>
   <tile gid="103"/>
   <tile gid="113"/>
   <tile gid="113"/>
   <tile gid="103"/>
   <tile gid="103"/>
   <tile gid="113"/>
   <tile gid="106"/>
   <tile gid="103"/>
   <tile gid="113"/>
   <tile gid="105"/>
   <tile gid="105"/>
   <tile gid="114"/>
   <tile gid="106"/>
   <tile gid="106"/>
   <tile gid="113"/>
   <tile gid="103"/>
   <tile gid="103"/>
   <tile gid="103"/>
   <tile gid="105"/>
   <tile gid="113"/>
   <tile gid="106"/>
   <tile gid="103"/>
   <tile gid="105"/>
   <tile gid="104"/>
   <tile/>
   <tile/>
   <tile/>
   <tile/>
   <tile/>
   <tile/>
   <tile/>
   <tile/>
   <tile/>
   <tile/>
   <tile/>
   <tile/>
   <tile/>
   <tile/>
   <tile gid="102"/>
   <tile gid="106"/>
   <tile gid="114"/>
   <tile gid="114"/>
   <tile gid="103"/>
   <tile gid="113"/>
   <tile gid="103"/>
   <tile gid="106"/>
   <tile gid="114"/>
   <tile gid="114"/>
   <tile gid="103"/>
   <tile gid="106"/>
   <tile gid="103"/>
   <tile gid="106"/>
   <tile gid="114"/>
   <tile gid="103"/>
   <tile gid="114"/>
   <tile gid="105"/>
   <tile gid="114"/>
   <tile gid="105"/>
   <tile gid="114"/>
   <tile gid="106"/>
   <tile gid="105"/>
   <tile gid="106"/>
   <tile gid="105"/>
   <tile gid="113"/>
   <tile gid="106"/>
   <tile gid="106"/>
   <tile gid="114"/>
   <tile gid="106"/>
   <tile gid="113"/>
   <tile gid="106"/>
   <tile gid="114"/>
   <tile gid="103"/>
   <tile gid="113"/>
   <tile gid="114"/>
   <tile gid="105"/>
   <tile gid="113"/>
   <tile gid="114"/>
   <tile gid="103"/>
   <tile gid="113"/>
   <tile gid="103"/>
   <tile gid="105"/>
   <tile gid="106"/>
   <tile gid="103"/>
   <tile gid="113"/>
   <tile gid="114"/>
   <tile gid="113"/>
   <tile gid="106"/>
   <tile gid="105"/>
   <tile gid="103"/>
   <tile gid="103"/>
   <tile gid="105"/>
   <tile gid="113"/>
   <tile gid="114"/>
   <tile gid="103"/>
   <tile gid="113"/>
   <tile gid="103"/>
   <tile gid="114"/>
   <tile gid="106"/>
   <tile gid="114"/>
   <tile gid="114"/>
   <tile gid="114"/>
   <tile gid="114"/>
   <tile gid="103"/>
   <tile gid="113"/>
   <tile gid="103"/>
   <tile gid="103"/>
   <tile gid="114"/>
   <tile gid="103"/>
   <tile gid="103"/>
   <tile gid="113"/>
   <tile gid="105"/>
   <tile gid="106"/>
   <tile gid="106"/>
   <tile gid="106"/>
   <tile gid="106"/>
   <tile gid="106"/>
   <tile gid="106"/>
   <tile gid="106"/>
   <tile gid="106"/>
   <tile gid="113"/>
   <tile gid="114"/>
   <tile gid="114"/>
   <tile gid="114"/>
   <tile gid="105"/>
   <tile gid="105"/>
   <tile gid="113"/>
   <tile gid="103"/>
   <tile gid="104"/>
   <tile/>
   <tile/>
   <tile/>
   <tile/>
   <tile/>
   <tile/>
   <tile/>
   <tile/>
   <tile/>
   <tile/>
   <tile/>
   <tile/>
   <tile/>
   <tile/>
   <tile gid="2147483752"/>
   <tile gid="103"/>
   <tile gid="114"/>
   <tile gid="103"/>
   <tile gid="105"/>
   <tile gid="106"/>
   <tile gid="114"/>
   <tile gid="105"/>
   <tile gid="114"/>
   <tile gid="105"/>
   <tile gid="105"/>
   <tile gid="106"/>
   <tile gid="113"/>
   <tile gid="103"/>
   <tile gid="103"/>
   <tile gid="106"/>
   <tile gid="105"/>
   <tile gid="106"/>
   <tile gid="105"/>
   <tile gid="106"/>
   <tile gid="105"/>
   <tile gid="103"/>
   <tile gid="103"/>
   <tile gid="114"/>
   <tile gid="103"/>
   <tile gid="113"/>
   <tile gid="113"/>
   <tile gid="103"/>
   <tile gid="105"/>
   <tile gid="105"/>
   <tile gid="106"/>
   <tile gid="106"/>
   <tile gid="105"/>
   <tile gid="106"/>
   <tile gid="103"/>
   <tile gid="105"/>
   <tile gid="106"/>
   <tile gid="106"/>
   <tile gid="105"/>
   <tile gid="113"/>
   <tile gid="114"/>
   <tile gid="105"/>
   <tile gid="103"/>
   <tile gid="105"/>
   <tile gid="103"/>
   <tile gid="105"/>
   <tile gid="114"/>
   <tile gid="113"/>
   <tile gid="106"/>
   <tile gid="114"/>
   <tile gid="114"/>
   <tile gid="106"/>
   <tile gid="113"/>
   <tile gid="103"/>
   <tile gid="114"/>
   <tile gid="103"/>
   <tile gid="105"/>
   <tile gid="106"/>
   <tile gid="114"/>
   <tile gid="106"/>
   <tile gid="105"/>
   <tile gid="103"/>
   <tile gid="105"/>
   <tile gid="114"/>
   <tile gid="106"/>
   <tile gid="103"/>
   <tile gid="113"/>
   <tile gid="114"/>
   <tile gid="105"/>
   <tile gid="106"/>
   <tile gid="113"/>
   <tile gid="103"/>
   <tile gid="103"/>
   <tile gid="106"/>
   <tile gid="113"/>
   <tile gid="114"/>
   <tile gid="105"/>
   <tile gid="106"/>
   <tile gid="105"/>
   <tile gid="105"/>
   <tile gid="113"/>
   <tile gid="103"/>
   <tile gid="105"/>
   <tile gid="105"/>
   <tile gid="103"/>
   <tile gid="105"/>
   <tile gid="103"/>
   <tile gid="103"/>
   <tile gid="103"/>
   <tile gid="104"/>
   <tile/>
   <tile/>
   <tile/>
   <tile/>
   <tile/>
   <tile/>
   <tile/>
   <tile/>
   <tile/>
   <tile/>
   <tile/>
   <tile/>
   <tile/>
   <tile/>
   <tile gid="102"/>
   <tile gid="114"/>
   <tile gid="113"/>
   <tile gid="113"/>
   <tile gid="106"/>
   <tile gid="103"/>
   <tile gid="113"/>
   <tile gid="103"/>
   <tile gid="113"/>
   <tile gid="113"/>
   <tile gid="113"/>
   <tile gid="114"/>
   <tile gid="114"/>
   <tile gid="103"/>
   <tile gid="106"/>
   <tile gid="105"/>
   <tile gid="114"/>
   <tile gid="105"/>
   <tile gid="114"/>
   <tile gid="105"/>
   <tile gid="113"/>
   <tile gid="106"/>
   <tile gid="106"/>
   <tile gid="105"/>
   <tile gid="105"/>
   <tile gid="103"/>
   <tile gid="103"/>
   <tile gid="113"/>
   <tile gid="114"/>
   <tile gid="105"/>
   <tile gid="103"/>
   <tile gid="103"/>
   <tile gid="113"/>
   <tile gid="106"/>
   <tile gid="106"/>
   <tile gid="106"/>
   <tile gid="106"/>
   <tile gid="105"/>
   <tile gid="114"/>
   <tile gid="105"/>
   <tile gid="105"/>
   <tile gid="113"/>
   <tile gid="106"/>
   <tile gid="103"/>
   <tile gid="113"/>
   <tile gid="105"/>
   <tile gid="105"/>
   <tile gid="114"/>
   <tile gid="103"/>
   <tile gid="103"/>
   <tile gid="105"/>
   <tile gid="113"/>
   <tile gid="103"/>
   <tile gid="105"/>
   <tile gid="113"/>
   <tile gid="103"/>
   <tile gid="103"/>
   <tile gid="105"/>
   <tile gid="114"/>
   <tile gid="106"/>
   <tile gid="103"/>
   <tile gid="113"/>
   <tile gid="113"/>
   <tile gid="103"/>
   <tile gid="114"/>
   <tile gid="113"/>
   <tile gid="105"/>
   <tile gid="113"/>
   <tile gid="113"/>
   <tile gid="106"/>
   <tile gid="103"/>
   <tile gid="106"/>
   <tile gid="103"/>
   <tile gid="105"/>
   <tile gid="114"/>
   <tile gid="106"/>
   <tile gid="105"/>
   <tile gid="103"/>
   <tile gid="106"/>
   <tile gid="114"/>
   <tile gid="114"/>
   <tile gid="114"/>
   <tile gid="106"/>
   <tile gid="105"/>
   <tile gid="103"/>
   <tile gid="103"/>
   <tile gid="103"/>
   <tile gid="103"/>
   <tile gid="103"/>
   <tile gid="2147483750"/>
   <tile/>
   <tile/>
   <tile/>
   <tile/>
   <tile/>
   <tile/>
   <tile/>
   <tile/>
   <tile/>
   <tile/>
   <tile/>
   <tile/>
   <tile/>
   <tile/>
   <tile gid="2147483752"/>
   <tile gid="103"/>
   <tile gid="106"/>
   <tile gid="114"/>
   <tile gid="113"/>
   <tile gid="105"/>
   <tile gid="105"/>
   <tile gid="105"/>
   <tile gid="114"/>
   <tile gid="103"/>
   <tile gid="113"/>
   <tile gid="114"/>
   <tile gid="105"/>
   <tile gid="105"/>
   <tile gid="105"/>
   <tile gid="103"/>
   <tile gid="106"/>
   <tile gid="103"/>
   <tile gid="114"/>
   <tile gid="114"/>
   <tile gid="114"/>
   <tile gid="114"/>
   <tile gid="103"/>
   <tile gid="105"/>
   <tile gid="114"/>
   <tile gid="113"/>
   <tile gid="105"/>
   <tile gid="114"/>
   <tile gid="103"/>
   <tile gid="106"/>
   <tile gid="114"/>
   <tile gid="105"/>
   <tile gid="114"/>
   <tile gid="114"/>
   <tile gid="103"/>
   <tile gid="114"/>
   <tile gid="103"/>
   <tile gid="105"/>
   <tile gid="105"/>
   <tile gid="113"/>
   <tile gid="114"/>
   <tile gid="106"/>
   <tile gid="105"/>
   <tile gid="105"/>
   <tile gid="103"/>
   <tile gid="106"/>
   <tile gid="105"/>
   <tile gid="114"/>
   <tile gid="106"/>
   <tile gid="114"/>
   <tile gid="114"/>
   <tile gid="114"/>
   <tile gid="105"/>
   <tile gid="105"/>
   <tile gid="114"/>
   <tile gid="114"/>
   <tile gid="113"/>
   <tile gid="114"/>
   <tile gid="114"/>
   <tile gid="113"/>
   <tile gid="106"/>
   <tile gid="105"/>
   <tile gid="103"/>
   <tile gid="106"/>
   <tile gid="103"/>
   <tile gid="105"/>
   <tile gid="113"/>
   <tile gid="114"/>
   <tile gid="103"/>
   <tile gid="114"/>
   <tile gid="105"/>
   <tile gid="114"/>
   <tile gid="105"/>
   <tile gid="105"/>
   <tile gid="106"/>
   <tile gid="114"/>
   <tile gid="105"/>
   <tile gid="105"/>
   <tile gid="103"/>
   <tile gid="103"/>
   <tile gid="106"/>
   <tile gid="105"/>
   <tile gid="113"/>
   <tile gid="105"/>
   <tile gid="106"/>
   <tile gid="103"/>
   <tile gid="103"/>
   <tile gid="103"/>
   <tile gid="114"/>
   <tile gid="2147483750"/>
   <tile/>
   <tile/>
   <tile/>
   <tile/>
   <tile/>
   <tile/>
   <tile/>
   <tile/>
   <tile/>
   <tile/>
   <tile/>
   <tile/>
   <tile/>
   <tile/>
   <tile gid="102"/>
   <tile gid="105"/>
   <tile gid="105"/>
   <tile gid="105"/>
   <tile gid="106"/>
   <tile gid="106"/>
   <tile gid="114"/>
   <tile gid="114"/>
   <tile gid="106"/>
   <tile gid="103"/>
   <tile gid="105"/>
   <tile gid="103"/>
   <tile gid="105"/>
   <tile gid="113"/>
   <tile gid="103"/>
   <tile gid="106"/>
   <tile gid="103"/>
   <tile gid="114"/>
   <tile gid="113"/>
   <tile gid="106"/>
   <tile gid="114"/>
   <tile gid="114"/>
   <tile gid="103"/>
   <tile gid="105"/>
   <tile gid="103"/>
   <tile gid="113"/>
   <tile gid="106"/>
   <tile gid="105"/>
   <tile gid="113"/>
   <tile gid="106"/>
   <tile gid="114"/>
   <tile gid="114"/>
   <tile gid="105"/>
   <tile gid="106"/>
   <tile gid="106"/>
   <tile gid="113"/>
   <tile gid="114"/>
   <tile gid="113"/>
   <tile gid="113"/>
   <tile gid="103"/>
   <tile gid="113"/>
   <tile gid="114"/>
   <tile gid="106"/>
   <tile gid="114"/>
   <tile gid="113"/>
   <tile gid="105"/>
   <tile gid="114"/>
   <tile gid="105"/>
   <tile gid="106"/>
   <tile gid="114"/>
   <tile gid="114"/>
   <tile gid="113"/>
   <tile gid="114"/>
   <tile gid="103"/>
   <tile gid="114"/>
   <tile gid="105"/>
   <tile gid="103"/>
   <tile gid="113"/>
   <tile gid="114"/>
   <tile gid="113"/>
   <tile gid="105"/>
   <tile gid="113"/>
   <tile gid="103"/>
   <tile gid="113"/>
   <tile gid="106"/>
   <tile gid="113"/>
   <tile gid="103"/>
   <tile gid="103"/>
   <tile gid="114"/>
   <tile gid="105"/>
   <tile gid="103"/>
   <tile gid="103"/>
   <tile gid="113"/>
   <tile gid="103"/>
   <tile gid="113"/>
   <tile gid="105"/>
   <tile gid="113"/>
   <tile gid="103"/>
   <tile gid="113"/>
   <tile gid="114"/>
   <tile gid="106"/>
   <tile gid="106"/>
   <tile gid="103"/>
   <tile gid="114"/>
   <tile gid="106"/>
   <tile gid="103"/>
   <tile gid="103"/>
   <tile gid="105"/>
   <tile gid="105"/>
   <tile gid="113"/>
   <tile gid="98"/>
   <tile gid="97"/>
   <tile gid="96"/>
   <tile/>
   <tile/>
   <tile/>
   <tile/>
   <tile/>
   <tile/>
   <tile/>
   <tile/>
   <tile gid="94"/>
   <tile gid="95"/>
   <tile gid="95"/>
   <tile gid="103"/>
   <tile gid="105"/>
   <tile gid="113"/>
   <tile gid="103"/>
   <tile gid="106"/>
   <tile gid="105"/>
   <tile gid="113"/>
   <tile gid="105"/>
   <tile gid="106"/>
   <tile gid="103"/>
   <tile gid="106"/>
   <tile gid="105"/>
   <tile gid="114"/>
   <tile gid="103"/>
   <tile gid="105"/>
   <tile gid="114"/>
   <tile gid="114"/>
   <tile gid="103"/>
   <tile gid="105"/>
   <tile gid="105"/>
   <tile gid="103"/>
   <tile gid="105"/>
   <tile gid="106"/>
   <tile gid="113"/>
   <tile gid="114"/>
   <tile gid="113"/>
   <tile gid="114"/>
   <tile gid="113"/>
   <tile gid="103"/>
   <tile gid="103"/>
   <tile gid="105"/>
   <tile gid="106"/>
   <tile gid="106"/>
   <tile gid="103"/>
   <tile gid="105"/>
   <tile gid="113"/>
   <tile gid="105"/>
   <tile gid="114"/>
   <tile gid="106"/>
   <tile gid="114"/>
   <tile gid="114"/>
   <tile gid="105"/>
   <tile gid="103"/>
   <tile gid="114"/>
   <tile gid="113"/>
   <tile gid="105"/>
   <tile gid="103"/>
   <tile gid="114"/>
   <tile gid="103"/>
   <tile gid="105"/>
   <tile gid="103"/>
   <tile gid="103"/>
   <tile gid="103"/>
   <tile gid="103"/>
   <tile gid="103"/>
   <tile gid="103"/>
   <tile gid="103"/>
  </data>
 </layer>
 <objectgroup id="29" name="FONDO PROVISIONAL RAPIDO">
  <properties>
   <property name="BG" type="bool" value="true"/>
   <property name="Draw" type="bool" value="true"/>
   <property name="Front" type="bool" value="true"/>
  </properties>
  <object id="951" gid="198" x="476" y="6254" width="384" height="307"/>
  <object id="952" gid="205" x="564" y="6138" width="384" height="307"/>
  <object id="953" gid="205" x="460" y="5798" width="384" height="307"/>
  <object id="954" gid="205" x="532" y="5822" width="384" height="307"/>
  <object id="955" gid="205" x="560" y="5850" width="384" height="307"/>
  <object id="968" gid="205" x="-79.8788" y="6563.09" width="384" height="307"/>
  <object id="969" gid="205" x="-76.8485" y="6505.52" width="384" height="307"/>
  <object id="970" gid="205" x="-79.8788" y="5390.36" width="384" height="307"/>
  <object id="971" gid="205" x="-79.8788" y="5432.79" width="384" height="307"/>
  <object id="972" gid="205" x="1104.97" y="6526.73" width="384" height="307"/>
  <object id="973" gid="205" x="1104.97" y="6584.3" width="384" height="307"/>
  <object id="974" gid="205" x="1123.15" y="6926.73" width="384" height="307"/>
  <object id="975" gid="205" x="1114.06" y="6966.12" width="384" height="307"/>
  <object id="976" gid="205" x="1083.76" y="7590.36" width="384" height="307"/>
  <object id="977" gid="205" x="877.697" y="7560.06" width="384" height="307"/>
  <object id="978" gid="205" x="977.697" y="7566.12" width="384" height="307"/>
  <object id="979" gid="205" x="1062.55" y="7569.15" width="384" height="307"/>
  <object id="980" gid="198" x="913.912" y="8350.3" width="751.664" height="600.939"/>
  <object id="981" gid="2147483846" x="-254.62" y="8372.26" width="751.664" height="600.939"/>
  <object id="1000" gid="199" x="-140.485" y="5693.39" width="384" height="307"/>
  <object id="1001" gid="1073742023" x="-140.485" y="5966.12" width="384" height="307"/>
  <object id="1002" gid="198" x="-82.9091" y="5681.27" width="384" height="307"/>
  <object id="1003" gid="198" x="-82.9091" y="6020.67" width="384" height="307"/>
  <object id="1047" gid="198" x="8536" y="7454" width="384" height="307"/>
  <object id="1048" gid="198" x="8520" y="6122" width="384" height="307"/>
  <object id="1049" gid="198" x="8620" y="6134" width="384" height="307"/>
  <object id="1050" gid="198" x="8588" y="6030" width="384" height="307"/>
  <object id="1051" gid="198" x="8552" y="5954" width="384" height="307"/>
  <object id="1052" gid="198" x="8440" y="5922" width="384" height="307"/>
  <object id="1053" gid="198" x="8364" y="5862" width="384" height="307"/>
  <object id="1054" gid="198" x="8320" y="5810" width="384" height="307"/>
  <object id="1055" gid="198" x="8360" y="5662" width="384" height="307"/>
  <object id="1057" gid="198" x="8484" y="5502" width="384" height="307"/>
  <object id="1058" gid="198" x="8348" y="5622" width="384" height="307"/>
  <object id="1059" gid="198" x="8280" y="5702" width="384" height="307"/>
  <object id="1060" gid="198" x="8480" y="5514" width="384" height="307"/>
  <object id="1061" gid="198" x="8524" y="5346" width="384" height="307"/>
  <object id="1062" gid="198" x="8432" y="5274" width="384" height="307"/>
  <object id="1063" gid="198" x="8368" y="5186" width="384" height="307"/>
  <object id="1064" gid="198" x="8328" y="5066" width="384" height="307"/>
  <object id="1065" gid="198" x="8300" y="4934" width="384" height="307"/>
  <object id="1066" gid="198" x="8360" y="4822" width="384" height="307"/>
  <object id="1067" gid="198" x="8524" y="4670" width="384" height="307"/>
  <object id="1068" gid="198" x="8512" y="4470" width="384" height="307"/>
  <object id="1069" gid="198" x="8452" y="4658" width="384" height="307"/>
  <object id="1070" gid="198" x="8496" y="4514" width="384" height="307"/>
  <object id="1071" gid="198" x="8504" y="4406" width="384" height="307"/>
  <object id="1072" gid="198" x="8420" y="4690" width="384" height="307"/>
  <object id="1073" gid="198" x="8464" y="4506" width="384" height="307"/>
  <object id="1074" gid="198" x="8396" y="4306" width="384" height="307"/>
  <object id="1075" gid="198" x="8312" y="4198" width="384" height="307"/>
  <object id="1076" gid="198" x="8288" y="4098" width="384" height="307"/>
  <object id="1077" gid="198" x="8312" y="3822" width="384" height="307"/>
  <object id="1078" gid="198" x="8280" y="3946" width="384" height="307"/>
  <object id="1079" gid="198" x="8464" y="3730" width="384" height="307"/>
  <object id="1080" gid="198" x="8508" y="3638" width="384" height="307"/>
  <object id="1081" gid="198" x="8528" y="3534" width="384" height="307"/>
  <object id="1082" gid="198" x="8496" y="3418" width="384" height="307"/>
  <object id="1083" gid="198" x="8488" y="3390" width="384" height="307"/>
  <object id="1084" gid="198" x="8468" y="6218" width="384" height="307"/>
  <object id="1085" gid="198" x="8392" y="6294" width="384" height="307"/>
  <object id="1086" gid="198" x="8352" y="6370" width="384" height="307"/>
  <object id="1087" gid="198" x="8288" y="6526" width="384" height="307"/>
  <object id="1088" gid="198" x="8288" y="6626" width="384" height="307"/>
  <object id="1089" gid="198" x="8272" y="6498" width="384" height="307"/>
  <object id="1090" gid="198" x="8312" y="6746" width="384" height="307"/>
  <object id="1091" gid="198" x="8432" y="6842" width="384" height="307"/>
  <object id="1092" gid="198" x="8500" y="6906" width="384" height="307"/>
  <object id="1093" gid="198" x="8500" y="7038" width="384" height="307"/>
  <object id="1094" gid="198" x="8404" y="7174" width="384" height="307"/>
  <object id="1095" gid="198" x="8276" y="7270" width="384" height="307"/>
  <object id="1096" gid="198" x="8452" y="7106" width="384" height="307"/>
  <object id="1097" gid="198" x="8272" y="7410" width="384" height="307"/>
  <object id="1098" gid="198" x="8492" y="7506" width="384" height="307"/>
  <object id="1099" gid="198" x="8676" y="7610" width="384" height="307"/>
  <object id="1100" gid="198" x="8808" y="7710" width="384" height="307"/>
  <object id="1101" gid="198" x="8928" y="7706" width="384" height="307"/>
  <object id="1102" gid="198" x="9244" y="7542" width="384" height="307"/>
  <object id="1103" gid="198" x="9124" y="7626" width="384" height="307"/>
  <object id="1104" gid="198" x="9060" y="7678" width="384" height="307"/>
  <object id="1105" gid="198" x="9784" y="7694" width="384" height="307"/>
  <object id="1106" gid="198" x="9924" y="7610" width="384" height="307"/>
  <object id="1107" gid="198" x="9988" y="7574" width="384" height="307"/>
  <object id="1108" gid="198" x="10128" y="7522" width="384" height="307"/>
  <object id="1109" gid="198" x="10144" y="7514" width="384" height="307"/>
  <object id="1110" gid="198" x="10688" y="7734" width="384" height="307"/>
  <object id="1111" gid="198" x="10840" y="7662" width="384" height="307"/>
  <object id="1112" gid="198" x="10968" y="7598" width="384" height="307"/>
  <object id="1113" gid="198" x="11088" y="7534" width="384" height="307"/>
  <object id="1114" gid="198" x="11152" y="7510" width="384" height="307"/>
  <object id="1115" gid="198" x="11616" y="7698" width="384" height="307"/>
  <object id="1116" gid="198" x="11768" y="7602" width="384" height="307"/>
  <object id="1117" gid="198" x="11876" y="7550" width="384" height="307"/>
  <object id="1118" gid="198" x="11936" y="7506" width="384" height="307"/>
  <object id="1119" gid="198" x="12212" y="7634" width="384" height="307"/>
  <object id="1120" gid="198" x="12564" y="6838" width="384" height="307"/>
  <object id="1121" gid="198" x="12460" y="6942" width="384" height="307"/>
  <object id="1123" gid="198" x="10512" y="6934" width="384" height="307"/>
  <object id="1124" gid="198" x="10340" y="6854" width="384" height="307"/>
  <object id="1125" gid="198" x="10676" y="6870" width="384" height="307"/>
  <object id="1126" gid="198" x="10900" y="6930" width="384" height="307"/>
  <object id="1127" gid="198" x="9120" y="6842" width="384" height="307"/>
  <object id="1128" gid="198" x="9316" y="6902" width="384" height="307"/>
  <object id="1129" gid="198" x="9532" y="6942" width="384" height="307"/>
  <object id="1130" gid="198" x="9696" y="6946" width="384" height="307"/>
  <object id="1131" gid="198" x="9848" y="6874" width="384" height="307"/>
  <object id="1132" gid="198" x="9772" y="6142" width="384" height="307"/>
  <object id="1133" gid="198" x="9984" y="6042" width="384" height="307"/>
  <object id="1134" gid="198" x="10124" y="5994" width="384" height="307"/>
  <object id="1135" gid="198" x="10312" y="6006" width="384" height="307"/>
  <object id="1136" gid="198" x="10440" y="6102" width="384" height="307"/>
  <object id="1137" gid="198" x="10520" y="6142" width="384" height="307"/>
  <object id="1138" gid="198" x="12540" y="6130" width="384" height="307"/>
  <object id="1139" gid="198" x="12368" y="6034" width="384" height="307"/>
  <object id="1140" gid="198" x="12228" y="5990" width="384" height="307"/>
  <object id="1141" gid="198" x="12080" y="6006" width="384" height="307"/>
  <object id="1142" gid="198" x="11948" y="6122" width="384" height="307"/>
  <object id="1143" gid="198" x="11884" y="6162" width="384" height="307"/>
  <object id="1145" gid="198" x="11168" y="5966" width="384" height="307"/>
  <object id="1146" gid="198" x="11028" y="6026" width="384" height="307"/>
  <object id="1147" gid="198" x="10944" y="6098" width="384" height="307"/>
  <object id="1148" gid="198" x="10824" y="6130" width="384" height="307"/>
  <object id="1149" gid="198" x="10648" y="6142" width="384" height="307"/>
  <object id="1150" gid="198" x="9004" y="5986" width="384" height="307"/>
  <object id="1151" gid="198" x="8752" y="6074" width="384" height="307"/>
  <object id="1152" gid="198" x="8696" y="6102" width="384" height="307"/>
  <object id="1153" gid="198" x="8816" y="6026" width="384" height="307"/>
  <object id="1154" gid="198" x="8744" y="5114" width="384" height="307"/>
  <object id="1155" gid="198" x="9016" y="5074" width="384" height="307"/>
  <object id="1156" gid="198" x="8872" y="5090" width="384" height="307"/>
  <object id="1157" gid="198" x="10056" y="5026" width="384" height="307"/>
  <object id="1158" gid="198" x="10192" y="5034" width="384" height="307"/>
  <object id="1159" gid="198" x="10120" y="5082" width="384" height="307"/>
  <object id="1160" gid="198" x="12464" y="5042" width="384" height="307"/>
  <object id="1161" gid="198" x="12456" y="5130" width="384" height="307"/>
  <object id="1162" gid="198" x="10048" y="5146" width="384" height="307"/>
  <object id="1163" gid="198" x="10184" y="5138" width="384" height="307"/>
  <object id="1164" gid="198" x="10656" y="4762" width="384" height="307"/>
  <object id="1165" gid="198" x="11056" y="4762" width="384" height="307"/>
  <object id="1427" gid="205" x="4944.36" y="6923.7" width="384" height="307"/>
  <object id="1428" gid="205" x="5314.06" y="6929.76" width="384" height="307"/>
  <object id="1429" gid="205" x="5308" y="6857.03" width="384" height="307"/>
  <object id="1430" gid="205" x="5256.48" y="6926.73" width="384" height="307"/>
  <object id="1438" gid="205" x="4286.79" y="6372.18" width="384" height="307"/>
  <object id="1439" gid="205" x="4247.39" y="6414.61" width="384" height="307"/>
  <object id="1440" gid="205" x="3923.15" y="6390.36" width="384" height="307"/>
  <object id="1448" gid="205" x="2889.82" y="5975.21" width="384" height="307"/>
  <object id="1449" gid="205" x="2926.18" y="6035.82" width="384" height="307"/>
  <object id="1450" gid="205" x="3256.48" y="5975.21" width="384" height="307"/>
  <object id="1451" gid="205" x="3232.24" y="6023.7" width="384" height="307"/>
  <object id="1452" gid="205" x="2368.61" y="5569.15" width="384" height="307"/>
  <object id="1453" gid="205" x="2350.42" y="5629.76" width="384" height="307"/>
  <object id="1454" gid="205" x="2004.97" y="5632.79" width="384" height="307"/>
  <object id="1481" gid="250" x="2204" y="5104" width="904" height="904"/>
  <object id="1482" gid="250" x="3564" y="5100" width="904" height="904"/>
  <object id="1509" gid="205" x="4824" y="3928" width="384" height="307"/>
  <object id="1510" gid="205" x="4836" y="3974" width="384" height="307"/>
  <object id="1511" gid="205" x="5184" y="3936" width="384" height="307"/>
  <object id="1512" gid="205" x="5164" y="3980" width="384" height="307"/>
  <object id="1513" gid="205" x="4160" y="3716" width="384" height="307"/>
  <object id="1514" gid="205" x="4128" y="3686" width="384" height="307"/>
  <object id="1515" gid="205" x="3920.12" y="2872.18" width="384" height="307"/>
  <object id="1516" gid="205" x="3944.36" y="2847.94" width="384" height="307"/>
  <object id="1517" gid="205" x="3932.24" y="2426.73" width="384" height="307"/>
  <object id="1518" gid="205" x="3944.36" y="2441.88" width="384" height="307"/>
  <object id="1519" gid="205" x="4144.36" y="1566.12" width="384" height="307"/>
  <object id="1520" gid="205" x="4177.7" y="1590.36" width="384" height="307"/>
  <object id="1521" gid="205" x="3259.52" y="1663.09" width="384" height="307"/>
  <object id="1522" gid="205" x="3011.03" y="1650.97" width="384" height="307"/>
  <object id="1523" gid="205" x="3044.36" y="1678.24" width="384" height="307"/>
  <object id="1789" gid="198" x="5756" y="1322" width="384" height="307"/>
  <object id="1790" gid="198" x="5616" y="1310" width="384" height="307"/>
  <object id="1812" gid="198" x="8236" y="3494" width="384" height="307"/>
  <object id="1814" gid="198" x="8224" y="5506" width="384" height="307"/>
  <object id="1816" gid="205" x="7884" y="5458" width="384" height="307"/>
  <object id="1817" gid="205" x="7932" y="5498" width="384" height="307"/>
 </objectgroup>
 <objectgroup id="30" name="ELIMINAR">
  <properties>
   <property name="BG" type="bool" value="true"/>
   <property name="Draw" type="bool" value="true"/>
   <property name="Front" type="bool" value="true"/>
  </properties>
  <object id="1006" gid="198" x="-79.8788" y="5038.85" width="384" height="307"/>
  <object id="1007" gid="198" x="-82.9091" y="4638.85" width="384" height="307"/>
  <object id="1178" gid="198" x="7272" y="7554" width="384" height="307"/>
  <object id="1179" gid="198" x="7624" y="7578" width="384" height="307"/>
  <object id="1180" gid="198" x="6436" y="7302" width="384" height="307"/>
  <object id="1181" gid="2147483846" x="6092" y="7350" width="384" height="307"/>
  <object id="1273" gid="198" x="9272" y="4342" width="384" height="307"/>
  <object id="1277" gid="198" x="8848" y="4374" width="384" height="307"/>
  <object id="1296" gid="205" x="12232.2" y="3993.39" width="384" height="307"/>
  <object id="1297" gid="205" x="12341.3" y="4035.82" width="384" height="307"/>
  <object id="1298" gid="205" x="12414.1" y="4072.18" width="384" height="307"/>
  <object id="1299" gid="205" x="12247.4" y="4005.52" width="384" height="307"/>
  <object id="1302" gid="205" x="12114.1" y="4072.18" width="384" height="307"/>
  <object id="1303" gid="205" x="12201.9" y="4044.91" width="384" height="307"/>
  <object id="1304" gid="205" x="11588" y="3206" width="384" height="307"/>
  <object id="1305" gid="205" x="11576" y="3302" width="384" height="307"/>
  <object id="1306" gid="205" x="11624" y="3350" width="384" height="307"/>
  <object id="1307" gid="205" x="11680" y="3354" width="384" height="307"/>
  <object id="1308" gid="205" x="10952" y="1806" width="384" height="307"/>
  <object id="1309" gid="205" x="10856" y="1870" width="384" height="307"/>
  <object id="1310" gid="205" x="10852" y="1934" width="384" height="307"/>
  <object id="1311" gid="205" x="10928" y="1882" width="384" height="307"/>
  <object id="1312" gid="205" x="10924" y="1970" width="384" height="307"/>
  <object id="1313" gid="205" x="11040" y="2014" width="384" height="307"/>
  <object id="1314" gid="205" x="11056" y="1978" width="384" height="307"/>
  <object id="1315" gid="205" x="11036" y="1874" width="384" height="307"/>
  <object id="1316" gid="205" x="11008" y="1830" width="384" height="307"/>
  <object id="1317" gid="205" x="11012" y="1934" width="384" height="307"/>
  <object id="1318" gid="205" x="11004" y="1962" width="384" height="307"/>
  <object id="1319" gid="205" x="11040" y="2534" width="384" height="307"/>
  <object id="1320" gid="205" x="11088" y="2558" width="384" height="307"/>
  <object id="1321" gid="205" x="11080" y="2614" width="384" height="307"/>
  <object id="1322" gid="205" x="11096" y="2614" width="384" height="307"/>
  <object id="1323" gid="205" x="11128" y="2574" width="384" height="307"/>
  <object id="1324" gid="205" x="11088" y="1530" width="384" height="307"/>
  <object id="1325" gid="205" x="12124" y="1550" width="384" height="307"/>
  <object id="1327" gid="205" x="9696" y="1278" width="384" height="307"/>
  <object id="1328" gid="205" x="10296" y="1022" width="384" height="307"/>
  <object id="1329" gid="198" x="1152" y="5218" width="384" height="307"/>
  <object id="1330" gid="198" x="1176" y="5282" width="384" height="307"/>
  <object id="1331" gid="198" x="1280" y="5314" width="384" height="307"/>
  <object id="1332" gid="198" x="1400" y="5378" width="384" height="307"/>
  <object id="1333" gid="198" x="1480" y="5442" width="384" height="307"/>
  <object id="1334" gid="198" x="1544" y="5546" width="384" height="307"/>
  <object id="1335" gid="198" x="1576" y="5642" width="384" height="307"/>
  <object id="1336" gid="198" x="1504" y="5770" width="384" height="307"/>
  <object id="1337" gid="198" x="1400" y="5898" width="384" height="307"/>
  <object id="1338" gid="198" x="1216" y="5994" width="384" height="307"/>
  <object id="1339" gid="198" x="1208" y="6010" width="384" height="307"/>
  <object id="1340" gid="198" x="1448" y="5826" width="384" height="307"/>
  <object id="1341" gid="198" x="1528" y="5690" width="384" height="307"/>
  <object id="1342" gid="198" x="1144" y="6474" width="384" height="307"/>
  <object id="1343" gid="198" x="1344" y="6594" width="384" height="307"/>
  <object id="1344" gid="198" x="1456" y="6674" width="384" height="307"/>
  <object id="1345" gid="198" x="1552" y="6746" width="384" height="307"/>
  <object id="1346" gid="198" x="1320" y="6530" width="384" height="307"/>
  <object id="1347" gid="198" x="1160" y="6506" width="384" height="307"/>
  <object id="1348" gid="198" x="1464" y="6674" width="384" height="307"/>
  <object id="1349" gid="198" x="1568" y="6842" width="384" height="307"/>
  <object id="1350" gid="198" x="1416" y="7090" width="384" height="307"/>
  <object id="1351" gid="198" x="1328" y="7218" width="384" height="307"/>
  <object id="1352" gid="198" x="1232" y="7346" width="384" height="307"/>
  <object id="1353" gid="198" x="1144" y="7482" width="384" height="307"/>
  <object id="1354" gid="198" x="1560" y="6866" width="384" height="307"/>
  <object id="1355" gid="198" x="1520" y="6938" width="384" height="307"/>
  <object id="1356" gid="198" x="1480" y="6986" width="384" height="307"/>
  <object id="1357" gid="198" x="1432" y="7058" width="384" height="307"/>
  <object id="1358" gid="198" x="1168" y="7586" width="384" height="307"/>
  <object id="1362" gid="198" x="520" y="4346" width="384" height="307"/>
  <object id="1363" gid="198" x="1280" y="4338" width="384" height="307"/>
  <object id="1364" gid="198" x="1760" y="4298" width="384" height="307"/>
  <object id="1365" gid="198" x="2296" y="4386" width="384" height="307"/>
  <object id="1366" gid="198" x="3304" y="4354" width="384" height="307"/>
  <object id="1367" gid="198" x="3360" y="4234" width="384" height="307"/>
  <object id="1368" gid="198" x="3832" y="4274" width="384" height="307"/>
  <object id="1369" gid="198" x="3992" y="4330" width="384" height="307"/>
  <object id="1370" gid="198" x="4104" y="4338" width="384" height="307"/>
  <object id="1371" gid="198" x="4680" y="4186" width="384" height="307"/>
  <object id="1372" gid="198" x="4744" y="4330" width="384" height="307"/>
  <object id="1373" gid="198" x="4800" y="4210" width="384" height="307"/>
  <object id="1493" gid="250" x="1792" y="1196" width="1068" height="1068"/>
  <object id="1494" gid="250" x="3968" y="1152" width="1068" height="1068"/>
  <object id="1534" gid="205" x="2996" y="3426" width="384" height="307"/>
  <object id="1535" gid="205" x="3040" y="3458" width="384" height="307"/>
  <object id="1536" gid="205" x="3072" y="3386" width="384" height="307"/>
  <object id="1537" gid="205" x="3216" y="3366" width="384" height="307"/>
  <object id="1538" gid="205" x="3168" y="3354" width="384" height="307"/>
  <object id="1539" gid="205" x="3256" y="2358" width="384" height="307"/>
  <object id="1560" gid="205" x="2362.55" y="1693.39" width="384" height="307"/>
  <object id="1561" gid="205" x="2395.88" y="2184.3" width="384" height="307"/>
  <object id="1562" gid="205" x="2135.27" y="2232.79" width="384" height="307"/>
  <object id="1563" gid="205" x="2165.58" y="2290.36" width="384" height="307"/>
  <object id="1564" gid="205" x="2283.76" y="2393.39" width="384" height="307"/>
  <object id="1565" gid="205" x="2292.85" y="2405.52" width="384" height="307"/>
  <object id="1566" gid="205" x="2189.82" y="2302.48" width="384" height="307"/>
  <object id="1567" gid="205" x="2238.3" y="2360.06" width="384" height="307"/>
  <object id="1568" gid="205" x="2277.7" y="2399.45" width="384" height="307"/>
  <object id="1569" gid="205" x="2329.21" y="2450.97" width="384" height="307"/>
  <object id="1570" gid="205" x="2359.52" y="2490.36" width="384" height="307"/>
  <object id="1571" gid="205" x="2147.39" y="3078.24" width="384" height="307"/>
  <object id="1572" gid="205" x="2171.64" y="3150.97" width="384" height="307"/>
  <object id="1573" gid="205" x="2198.91" y="3184.3" width="384" height="307"/>
  <object id="1574" gid="205" x="2223.15" y="3217.64" width="384" height="307"/>
  <object id="1575" gid="205" x="2280.73" y="3278.24" width="384" height="307"/>
  <object id="1576" gid="205" x="2332.24" y="3335.82" width="384" height="307"/>
  <object id="1577" gid="205" x="2377.7" y="3384.3" width="384" height="307"/>
  <object id="1578" gid="205" x="2301.94" y="1723.7" width="384" height="307"/>
  <object id="1579" gid="205" x="2250.42" y="1760.06" width="384" height="307"/>
  <object id="1580" gid="205" x="2204.97" y="1802.48" width="384" height="307"/>
  <object id="1581" gid="205" x="2162.55" y="1829.76" width="384" height="307"/>
  <object id="1582" gid="205" x="2153.45" y="1854" width="384" height="307"/>
  <object id="1583" gid="205" x="2362.55" y="2963.09" width="384" height="307"/>
  <object id="1584" gid="205" x="2359.52" y="3729.76" width="384" height="307"/>
  <object id="1589" gid="205" x="3026.18" y="2563.09" width="384" height="307"/>
  <object id="1590" gid="205" x="1096" y="1614" width="384" height="307"/>
  <object id="1591" gid="205" x="1088" y="4022" width="384" height="307"/>
  <object id="1616" gid="205" x="4438.3" y="1547.94" width="384" height="307"/>
  <object id="1617" gid="205" x="4668.61" y="1547.94" width="384" height="307"/>
 </objectgroup>
 <objectgroup id="27" name="Fondo_05">
  <properties>
   <property name="Draw" type="bool" value="true"/>
   <property name="Front" type="bool" value="true"/>
  </properties>
  <object id="816" gid="241" x="5632" y="1593" width="4096" height="3025"/>
  <object id="817" gid="241" x="6656" y="1625" width="4096" height="3025"/>
  <object id="820" gid="241" x="7648" y="1593" width="4096" height="3025"/>
  <object id="821" gid="241" x="5984" y="1593" width="4096" height="3025"/>
  <object id="822" gid="241" x="5056" y="1497" width="4096" height="3025"/>
  <object id="1496" gid="250" x="5888" y="1152" width="1068" height="1068"/>
 </objectgroup>
 <objectgroup color="#000000" id="20" name="Map" visible="0">
  <properties>
   <property name="Map" type="bool" value="true"/>
   <property name="Square" type="bool" value="true"/>
  </properties>
  <object id="192" x="1792" y="7040" width="2432" height="2176"/>
  <object id="448" x="1280" y="4864" width="512" height="4352"/>
  <object id="449" x="0" y="8064" width="1280" height="1152"/>
  <object id="450" x="6016" y="8192" width="2304" height="1024"/>
  <object id="451" x="8832" y="8192" width="4480" height="1024"/>
  <object id="452" x="13184" y="0" width="128" height="8192"/>
  <object id="453" x="0" y="0" width="128" height="8064"/>
  <object id="454" x="128" y="1408" width="1152" height="2816"/>
  <object id="455" x="128" y="0" width="1152" height="640"/>
  <object id="456" x="8192" y="-128" width="1152" height="896"/>
  <object id="457" x="8320" y="8320" width="512" height="896"/>
  <object id="458" x="9344" y="0" width="3840" height="128"/>
  <object id="459" x="1280" y="-128" width="6272" height="256"/>
  <object id="460" x="2304" y="1408" width="256" height="2176"/>
  <object id="461" x="4096" y="1408" width="256" height="896"/>
  <object id="462" x="4096" y="2688" width="256" height="896"/>
  <object id="463" x="1280" y="4096" width="3712" height="128"/>
  <object id="464" x="10624" y="1920" width="640" height="768"/>
  <object id="465" x="11776" y="2432" width="896" height="768"/>
  <object id="466" x="8448" y="3200" width="256" height="4352"/>
  <object id="467" x="8704" y="7296" width="3584" height="256"/>
  <object id="468" x="9216" y="6656" width="3584" height="128"/>
  <object id="469" x="8704" y="5760" width="4096" height="256"/>
  <object id="470" x="8704" y="4864" width="3968" height="128"/>
  <object id="471" x="11264" y="2432" width="512" height="256"/>
  <object id="472" x="11776" y="3840" width="1408" height="128"/>
  <object id="473" x="10752" y="4480" width="512" height="128"/>
  <object id="474" x="8960" y="4096" width="512" height="128"/>
  <object id="475" x="10240" y="4736" width="128" height="128"/>
  <object id="476" x="12032" y="1792" width="1152" height="128"/>
  <object id="477" x="9216" y="1792" width="2048" height="128"/>
  <object id="478" x="9216" y="768" width="128" height="1024"/>
  <object id="479" x="9344" y="512" width="256" height="128"/>
  <object id="480" x="9856" y="768" width="128" height="384"/>
  <object id="481" x="10368" y="384" width="256" height="128"/>
  <object id="482" x="11008" y="1664" width="256" height="128"/>
  <object id="483" x="11136" y="1280" width="1280" height="128"/>
  <object id="484" x="12032" y="1152" width="384" height="128"/>
  <object id="485" x="12032" y="512" width="384" height="128"/>
  <object id="486" x="12160" y="640" width="256" height="512"/>
  <object id="487" x="10368" y="512" width="128" height="384"/>
  <object id="488" x="11136" y="1408" width="128" height="256"/>
  <object id="489" x="10624" y="1408" width="128" height="128"/>
  <object id="490" x="9600" y="1536" width="128" height="128"/>
  <object id="491" x="9344" y="1664" width="128" height="128"/>
  <object id="492" x="11520" y="896" width="128" height="128"/>
  <object id="493" x="12672" y="8064" width="128" height="128"/>
  <object id="494" x="8832" y="8064" width="128" height="128"/>
  <object id="495" x="8192" y="8064" width="128" height="128"/>
  <object id="496" x="6016" y="8064" width="128" height="128"/>
  <object id="497" x="4096" y="6912" width="128" height="128"/>
  <object id="498" x="1024" y="7296" width="256" height="128"/>
  <object id="499" x="640" y="5632" width="128" height="512"/>
  <object id="500" x="4864" y="3968" width="128" height="128"/>
  <object id="501" x="5632" y="9088" width="384" height="512"/>
  <object id="502" x="4224" y="9088" width="384" height="512"/>
  <object id="503" x="7424" y="7296" width="384" height="128"/>
  <object id="504" x="6272" y="7040" width="384" height="128"/>
  <object id="505" x="5120" y="6656" width="384" height="128"/>
  <object id="506" x="4096" y="6144" width="384" height="128"/>
  <object id="507" x="3072" y="5760" width="384" height="128"/>
  <object id="508" x="2176" y="5376" width="384" height="128"/>
  <object id="509" x="8064" y="5248" width="384" height="128"/>
  <object id="510" x="4992" y="3712" width="384" height="128"/>
  <object id="511" x="6912" y="768" width="384" height="128"/>
  <object id="512" x="5760" y="1024" width="256" height="128"/>
  <object id="513" x="4608" y="1280" width="256" height="128"/>
  <object id="514" x="3200" y="1408" width="256" height="128"/>
  <object id="515" x="3200" y="2176" width="256" height="256"/>
  <object id="516" x="3200" y="2944" width="256" height="384"/>
  <object id="517" x="12288" y="7424" width="128" height="128"/>
  <object id="518" x="8320" y="3200" width="128" height="128"/>
  <object id="524" x="1280" y="3968" width="128" height="128"/>
 </objectgroup>
 <objectgroup id="33" name="ELIMINAR">
  <properties>
   <property name="BG" type="bool" value="true"/>
   <property name="Draw" type="bool" value="true"/>
   <property name="Front" type="bool" value="true"/>
  </properties>
  <object id="1026" gid="231" x="976" y="9721" width="4096" height="3025"/>
  <object id="1027" gid="231" x="-232" y="9905" width="4096" height="3025"/>
  <object id="1028" gid="2147483879" x="-2144" y="10017" width="4096" height="3025"/>
  <object id="1030" gid="2147483879" x="984" y="9553" width="4096" height="3025"/>
  <object id="1031" gid="2147483879" x="4984" y="10809" width="4096" height="3025"/>
  <object id="1033" gid="232" x="5808" y="10881" width="4096" height="3025"/>
  <object id="1035" gid="232" x="11768" y="9489" width="4096" height="3025"/>
  <object id="1040" gid="231" x="7272" y="10809" width="4096" height="3025"/>
  <object id="1041" gid="2147483879" x="9472" y="10801" width="4096" height="3025"/>
  <object id="1043" gid="2147483879" x="10816" y="10889" width="4096" height="3025"/>
  <object id="1044" gid="2147483879" x="-2544" y="4121" width="4096" height="3025"/>
  <object id="1046" gid="231" x="-2320" y="4009" width="4096" height="3025"/>
  <object id="1201" gid="198" x="10444" y="2058" width="384" height="307"/>
  <object id="1202" gid="198" x="10396" y="2750" width="384" height="307"/>
  <object id="1203" gid="198" x="10452" y="2818" width="384" height="307"/>
  <object id="1204" gid="198" x="10536" y="2834" width="384" height="307"/>
  <object id="1205" gid="198" x="11540" y="2822" width="384" height="307"/>
  <object id="1206" gid="198" x="11644" y="2810" width="384" height="307"/>
  <object id="1207" gid="198" x="11612" y="2886" width="384" height="307"/>
  <object id="1208" gid="198" x="12476" y="3294" width="384" height="307"/>
  <object id="1209" gid="198" x="12404" y="3362" width="384" height="307"/>
  <object id="1210" gid="198" x="12452" y="3366" width="384" height="307"/>
  <object id="1211" gid="198" x="12992" y="3970" width="384" height="307"/>
  <object id="1212" gid="198" x="12992" y="4110" width="384" height="307"/>
  <object id="1213" gid="198" x="11572" y="4126" width="384" height="307"/>
  <object id="1214" gid="198" x="11624" y="4018" width="384" height="307"/>
  <object id="1215" gid="198" x="11684" y="4110" width="384" height="307"/>
  <object id="1229" gid="198" x="13077.7" y="2620.67" width="384" height="307"/>
  <object id="1230" gid="198" x="13080.7" y="2741.88" width="384" height="307"/>
  <object id="1231" gid="198" x="13123.2" y="2796.42" width="384" height="307"/>
  <object id="1234" gid="198" x="12959.5" y="2093.39" width="384" height="307"/>
  <object id="1235" gid="198" x="13011" y="2147.94" width="384" height="307"/>
  <object id="1236" gid="198" x="13008" y="2005.52" width="384" height="307"/>
  <object id="1237" gid="198" x="13053.5" y="1926.73" width="384" height="307"/>
  <object id="1238" gid="198" x="13117.1" y="3429.76" width="384" height="307"/>
  <object id="1239" gid="198" x="13035.3" y="3514.61" width="384" height="307"/>
  <object id="1240" gid="198" x="13062.5" y="4738.85" width="384" height="307"/>
  <object id="1246" gid="198" x="13035.3" y="4735.82" width="384" height="307"/>
  <object id="1247" gid="198" x="13032.2" y="4832.79" width="384" height="307"/>
  <object id="1248" gid="198" x="13005" y="4905.52" width="384" height="307"/>
  <object id="1253" gid="198" x="13023.2" y="5929.76" width="384" height="307"/>
  <object id="1254" gid="198" x="13056.5" y="5975.21" width="384" height="307"/>
  <object id="1255" gid="198" x="13089.8" y="6029.76" width="384" height="307"/>
  <object id="1256" gid="198" x="13000" y="6822" width="384" height="307"/>
  <object id="1257" gid="198" x="13072" y="6730" width="384" height="307"/>
  <object id="1258" gid="198" x="13128" y="6694" width="384" height="307"/>
  <object id="1259" gid="198" x="13028" y="7678" width="384" height="307"/>
  <object id="1260" gid="198" x="13088" y="7786" width="384" height="307"/>
  <object id="1261" gid="198" x="13096" y="7806" width="384" height="307"/>
  <object id="1262" gid="198" x="13032" y="1006" width="384" height="307"/>
  <object id="1263" gid="198" x="13072" y="1118" width="384" height="307"/>
  <object id="1264" gid="198" x="13100" y="1206" width="384" height="307"/>
  <object id="1265" gid="198" x="12920" y="266" width="384" height="307"/>
  <object id="1266" gid="198" x="12984" y="338" width="384" height="307"/>
  <object id="1392" gid="206" x="8174.43" y="426.5" width="1068.87" height="854.541"/>
  <object id="1393" gid="1073742030" x="8184.7" y="1270.96" width="1068.87" height="854.541"/>
  <object id="1394" gid="198" x="8048" y="822" width="384" height="307"/>
  <object id="1395" gid="198" x="8140" y="906" width="384" height="307"/>
  <object id="1396" gid="198" x="8196" y="930" width="384" height="307"/>
  <object id="1397" gid="198" x="9044" y="922" width="384" height="307"/>
  <object id="1398" gid="198" x="9156" y="826" width="384" height="307"/>
  <object id="1399" gid="198" x="9192" y="810" width="384" height="307"/>
  <object id="1400" gid="198" x="9332" y="774" width="384" height="307"/>
  <object id="1401" gid="198" x="8024" y="214" width="384" height="307"/>
  <object id="1403" gid="198" x="7308" y="282" width="384" height="307"/>
  <object id="1404" gid="198" x="7420" y="166" width="384" height="307"/>
  <object id="1405" gid="198" x="7364" y="206" width="384" height="307"/>
  <object id="1406" gid="198" x="6212" y="266" width="384" height="307"/>
  <object id="1407" gid="198" x="6008" y="142" width="384" height="307"/>
  <object id="1408" gid="198" x="6056" y="186" width="384" height="307"/>
  <object id="1410" gid="1073742048" x="4440" y="754" width="1049.43" height="839"/>
  <object id="1411" gid="1073742048" x="6235.28" y="756.5" width="1049.43" height="839"/>
  <object id="1412" gid="1073742048" x="2307.28" y="796.5" width="1049.43" height="839"/>
 </objectgroup>
 <objectgroup color="#aa0000" id="21" name="Spikes" visible="0">
  <properties>
   <property name="Danger" type="bool" value="true"/>
   <property name="Square" type="bool" value="true"/>
  </properties>
  <object id="411" x="1792" y="6972" width="2304" height="68"/>
  <object id="520" x="8320" y="8246" width="512" height="68"/>
  <object id="521" x="12805.3" y="8121.33" width="370.667" height="53.3333"/>
  <object id="522" x="8722.67" y="4785.33" width="1509.33" height="53.3333"/>
  <object id="523" x="1404.97" y="4024.85" width="3456" height="53.3333"/>
  <object id="525" x="9474.67" y="1718.67" width="1529.33" height="46.6667"/>
  <object id="527" x="11169.3" y="1206.67" width="855.33" height="46.6667"/>
  <object id="528" x="9351.34" y="666" width="231.997" height="46.6667"/>
  <object id="529" x="10522.7" y="523.333" width="39.997" height="361.333"/>
  <object id="530" x="12088" y="656.667" width="39.997" height="485.333"/>
  <object id="531" x="10016" y="782" width="39.997" height="361.333"/>
  <object id="532" x="9384" y="1292.67" width="39.997" height="361.333"/>
  <object id="533" x="11050.7" y="1298" width="39.997" height="361.333"/>
  <object id="534" x="11298.7" y="1411.33" width="39.997" height="361.333"/>
  <object id="535" x="13109.3" y="145.333" width="39.997" height="361.333"/>
  <object id="536" x="12449" y="583.333" width="39.997" height="110.333"/>
  <object id="537" x="13108" y="967.833" width="39.997" height="110.333"/>
  <object id="538" x="12450" y="1224.83" width="39.997" height="110.333"/>
  <object id="539" x="13111" y="1606.83" width="39.997" height="110.333"/>
  <object id="540" x="167.002" y="7314.83" width="39.997" height="343.333"/>
  <object id="541" x="1200.5" y="6439.67" width="39.997" height="316.333"/>
  <object id="542" x="156.002" y="5264.83" width="39.997" height="1110.33"/>
  <object id="543" x="1204" y="5004.83" width="39.997" height="740.333"/>
  <object id="544" x="164.002" y="4492.83" width="39.997" height="350.333"/>
  <object id="545" x="1310.3" y="1490.29" width="39.997" height="2395.18"/>
  <object id="546" x="4022.43" y="1938.77" width="39.997" height="340.636"/>
  <object id="547" x="4025.46" y="2853.92" width="39.997" height="707.303"/>
  <object id="548" x="2586.06" y="2852.41" width="39.997" height="707.303"/>
  <object id="549" x="2589.09" y="1570.59" width="39.997" height="431.545"/>
  <object id="550" x="4114.15" y="1332.71" width="223.997" height="40.5757"/>
 </objectgroup>
 <layer id="10" name="GroundNavLayer" width="104" height="72" visible="0">
  <properties>
   <property name="Ground" type="bool" value="true"/>
   <property name="Navigation" type="bool" value="true"/>
  </properties>
  <data>
   <tile gid="65"/>
   <tile gid="65"/>
   <tile gid="65"/>
   <tile gid="65"/>
   <tile gid="65"/>
   <tile gid="65"/>
   <tile gid="65"/>
   <tile gid="65"/>
   <tile gid="65"/>
   <tile gid="65"/>
   <tile gid="65"/>
   <tile gid="65"/>
   <tile gid="65"/>
   <tile gid="65"/>
   <tile gid="65"/>
   <tile gid="65"/>
   <tile gid="65"/>
   <tile gid="65"/>
   <tile gid="65"/>
   <tile gid="65"/>
   <tile gid="65"/>
   <tile gid="65"/>
   <tile gid="65"/>
   <tile gid="65"/>
   <tile gid="65"/>
   <tile gid="65"/>
   <tile gid="65"/>
   <tile gid="65"/>
   <tile gid="65"/>
   <tile gid="65"/>
   <tile gid="65"/>
   <tile gid="65"/>
   <tile gid="65"/>
   <tile gid="65"/>
   <tile gid="65"/>
   <tile gid="65"/>
   <tile gid="65"/>
   <tile gid="65"/>
   <tile gid="65"/>
   <tile gid="65"/>
   <tile gid="65"/>
   <tile gid="65"/>
   <tile gid="65"/>
   <tile gid="65"/>
   <tile gid="65"/>
   <tile gid="65"/>
   <tile gid="65"/>
   <tile gid="65"/>
   <tile gid="65"/>
   <tile gid="65"/>
   <tile gid="65"/>
   <tile gid="65"/>
   <tile gid="65"/>
   <tile gid="65"/>
   <tile gid="65"/>
   <tile gid="65"/>
   <tile gid="65"/>
   <tile gid="65"/>
   <tile gid="65"/>
   <tile/>
   <tile/>
   <tile/>
   <tile/>
   <tile/>
   <tile gid="65"/>
   <tile gid="65"/>
   <tile gid="65"/>
   <tile gid="65"/>
   <tile gid="65"/>
   <tile gid="65"/>
   <tile gid="65"/>
   <tile gid="65"/>
   <tile gid="65"/>
   <tile gid="65"/>
   <tile gid="65"/>
   <tile gid="65"/>
   <tile gid="65"/>
   <tile gid="65"/>
   <tile gid="65"/>
   <tile gid="65"/>
   <tile gid="65"/>
   <tile gid="65"/>
   <tile gid="65"/>
   <tile gid="65"/>
   <tile gid="65"/>
   <tile gid="65"/>
   <tile gid="65"/>
   <tile gid="65"/>
   <tile gid="65"/>
   <tile gid="65"/>
   <tile gid="65"/>
   <tile gid="65"/>
   <tile gid="65"/>
   <tile gid="65"/>
   <tile gid="65"/>
   <tile gid="65"/>
   <tile gid="65"/>
   <tile gid="65"/>
   <tile gid="65"/>
   <tile gid="65"/>
   <tile gid="65"/>
   <tile gid="65"/>
   <tile gid="65"/>
   <tile gid="65"/>
   <tile gid="65"/>
   <tile gid="65"/>
   <tile gid="65"/>
   <tile gid="65"/>
   <tile gid="65"/>
   <tile gid="65"/>
   <tile gid="65"/>
   <tile gid="65"/>
   <tile gid="65"/>
   <tile gid="65"/>
   <tile/>
   <tile/>
   <tile/>
   <tile/>
   <tile/>
   <tile/>
   <tile/>
   <tile/>
   <tile/>
   <tile/>
   <tile/>
   <tile/>
   <tile/>
   <tile/>
   <tile/>
   <tile/>
   <tile/>
   <tile/>
   <tile/>
   <tile/>
   <tile/>
   <tile/>
   <tile/>
   <tile/>
   <tile/>
   <tile/>
   <tile/>
   <tile/>
   <tile/>
   <tile/>
   <tile/>
   <tile/>
   <tile/>
   <tile/>
   <tile/>
   <tile/>
   <tile/>
   <tile/>
   <tile/>
   <tile/>
   <tile/>
   <tile/>
   <tile/>
   <tile/>
   <tile/>
   <tile/>
   <tile/>
   <tile/>
   <tile/>
   <tile/>
   <tile/>
   <tile/>
   <tile/>
   <tile/>
   <tile gid="65"/>
   <tile gid="65"/>
   <tile gid="65"/>
   <tile gid="65"/>
   <tile gid="65"/>
   <tile gid="65"/>
   <tile gid="65"/>
   <tile gid="65"/>
   <tile gid="65"/>
   <tile/>
   <tile/>
   <tile/>
   <tile/>
   <tile/>
   <tile/>
   <tile/>
   <tile/>
   <tile/>
   <tile/>
   <tile/>
   <tile/>
   <tile/>
   <tile/>
   <tile/>
   <tile/>
   <tile/>
   <tile/>
   <tile/>
   <tile/>
   <tile/>
   <tile/>
   <tile/>
   <tile/>
   <tile/>
   <tile/>
   <tile/>
   <tile/>
   <tile/>
   <tile gid="65"/>
   <tile gid="65"/>
   <tile gid="65"/>
   <tile gid="65"/>
   <tile gid="65"/>
   <tile gid="65"/>
   <tile gid="65"/>
   <tile gid="65"/>
   <tile gid="65"/>
   <tile gid="65"/>
   <tile gid="65"/>
   <tile gid="65"/>
   <tile/>
   <tile/>
   <tile/>
   <tile/>
   <tile/>
   <tile/>
   <tile/>
   <tile/>
   <tile/>
   <tile/>
   <tile/>
   <tile/>
   <tile/>
   <tile/>
   <tile/>
   <tile/>
   <tile/>
   <tile/>
   <tile/>
   <tile/>
   <tile/>
   <tile/>
   <tile/>
   <tile/>
   <tile/>
   <tile/>
   <tile/>
   <tile/>
   <tile/>
   <tile/>
   <tile/>
   <tile/>
   <tile/>
   <tile/>
   <tile/>
   <tile/>
   <tile/>
   <tile/>
   <tile/>
   <tile/>
   <tile/>
   <tile/>
   <tile/>
   <tile/>
   <tile/>
   <tile/>
   <tile/>
   <tile/>
   <tile/>
   <tile/>
   <tile/>
   <tile/>
   <tile/>
   <tile/>
   <tile gid="65"/>
   <tile gid="65"/>
   <tile gid="65"/>
   <tile gid="65"/>
   <tile gid="65"/>
   <tile gid="65"/>
   <tile gid="65"/>
   <tile gid="65"/>
   <tile gid="65"/>
   <tile/>
   <tile/>
   <tile/>
   <tile/>
   <tile/>
   <tile/>
   <tile/>
   <tile/>
   <tile/>
   <tile/>
   <tile/>
   <tile/>
   <tile/>
   <tile/>
   <tile/>
   <tile/>
   <tile/>
   <tile/>
   <tile/>
   <tile/>
   <tile/>
   <tile/>
   <tile/>
   <tile/>
   <tile/>
   <tile/>
   <tile/>
   <tile/>
   <tile/>
   <tile gid="65"/>
   <tile gid="65"/>
   <tile gid="65"/>
   <tile gid="65"/>
   <tile gid="65"/>
   <tile gid="65"/>
   <tile gid="65"/>
   <tile gid="65"/>
   <tile gid="65"/>
   <tile gid="65"/>
   <tile gid="65"/>
   <tile gid="65"/>
   <tile/>
   <tile/>
   <tile/>
   <tile/>
   <tile/>
   <tile/>
   <tile/>
   <tile/>
   <tile/>
   <tile/>
   <tile/>
   <tile/>
   <tile/>
   <tile/>
   <tile/>
   <tile/>
   <tile/>
   <tile/>
   <tile/>
   <tile/>
   <tile/>
   <tile/>
   <tile/>
   <tile/>
   <tile/>
   <tile/>
   <tile/>
   <tile/>
   <tile/>
   <tile/>
   <tile/>
   <tile/>
   <tile/>
   <tile/>
   <tile/>
   <tile/>
   <tile/>
   <tile/>
   <tile/>
   <tile/>
   <tile/>
   <tile/>
   <tile/>
   <tile/>
   <tile/>
   <tile/>
   <tile/>
   <tile/>
   <tile/>
   <tile/>
   <tile/>
   <tile/>
   <tile/>
   <tile/>
   <tile gid="65"/>
   <tile gid="65"/>
   <tile gid="65"/>
   <tile gid="65"/>
   <tile gid="65"/>
   <tile gid="65"/>
   <tile gid="65"/>
   <tile gid="65"/>
   <tile gid="65"/>
   <tile/>
   <tile/>
   <tile/>
   <tile/>
   <tile/>
   <tile/>
   <tile/>
   <tile/>
   <tile gid="65"/>
   <tile gid="65"/>
   <tile/>
   <tile/>
   <tile/>
   <tile/>
   <tile/>
   <tile/>
   <tile/>
   <tile/>
   <tile/>
   <tile/>
   <tile/>
   <tile/>
   <tile/>
   <tile/>
   <tile/>
   <tile/>
   <tile/>
   <tile/>
   <tile/>
   <tile gid="65"/>
   <tile gid="65"/>
   <tile gid="65"/>
   <tile gid="65"/>
   <tile gid="65"/>
   <tile gid="65"/>
   <tile gid="65"/>
   <tile gid="65"/>
   <tile gid="65"/>
   <tile gid="65"/>
   <tile gid="65"/>
   <tile gid="65"/>
   <tile/>
   <tile/>
   <tile/>
   <tile/>
   <tile/>
   <tile/>
   <tile/>
   <tile/>
   <tile/>
   <tile/>
   <tile/>
   <tile/>
   <tile/>
   <tile/>
   <tile/>
   <tile/>
   <tile/>
   <tile/>
   <tile/>
   <tile/>
   <tile/>
   <tile/>
   <tile/>
   <tile/>
   <tile/>
   <tile/>
   <tile/>
   <tile/>
   <tile/>
   <tile/>
   <tile/>
   <tile/>
   <tile/>
   <tile/>
   <tile/>
   <tile/>
   <tile/>
   <tile/>
   <tile/>
   <tile/>
   <tile/>
   <tile/>
   <tile/>
   <tile/>
   <tile/>
   <tile/>
   <tile/>
   <tile/>
   <tile/>
   <tile/>
   <tile/>
   <tile/>
   <tile/>
   <tile/>
   <tile gid="65"/>
   <tile gid="65"/>
   <tile gid="65"/>
   <tile gid="65"/>
   <tile gid="65"/>
   <tile gid="65"/>
   <tile gid="65"/>
   <tile gid="65"/>
   <tile gid="65"/>
   <tile gid="65"/>
   <tile gid="65"/>
   <tile/>
   <tile/>
   <tile/>
   <tile/>
   <tile/>
   <tile/>
   <tile gid="65"/>
   <tile gid="65"/>
   <tile/>
   <tile/>
   <tile/>
   <tile/>
   <tile/>
   <tile/>
   <tile/>
   <tile/>
   <tile/>
   <tile/>
   <tile/>
   <tile gid="65"/>
   <tile gid="65"/>
   <tile gid="65"/>
   <tile gid="65"/>
   <tile/>
   <tile/>
   <tile/>
   <tile/>
   <tile/>
   <tile gid="65"/>
   <tile gid="65"/>
   <tile/>
   <tile/>
   <tile/>
   <tile/>
   <tile/>
   <tile/>
   <tile/>
   <tile/>
   <tile/>
   <tile/>
   <tile/>
   <tile/>
   <tile/>
   <tile/>
   <tile/>
   <tile/>
   <tile/>
   <tile/>
   <tile/>
   <tile/>
   <tile/>
   <tile/>
   <tile/>
   <tile/>
   <tile/>
   <tile/>
   <tile/>
   <tile/>
   <tile/>
   <tile/>
   <tile/>
   <tile/>
   <tile/>
   <tile/>
   <tile/>
   <tile/>
   <tile/>
   <tile/>
   <tile/>
   <tile/>
   <tile/>
   <tile/>
   <tile/>
   <tile/>
   <tile/>
   <tile/>
   <tile/>
   <tile/>
   <tile/>
   <tile/>
   <tile/>
   <tile/>
   <tile/>
   <tile/>
   <tile/>
   <tile/>
   <tile/>
   <tile/>
   <tile/>
   <tile/>
   <tile/>
   <tile/>
   <tile/>
   <tile gid="65"/>
   <tile gid="65"/>
   <tile gid="65"/>
   <tile gid="65"/>
   <tile gid="65"/>
   <tile gid="65"/>
   <tile gid="65"/>
   <tile gid="65"/>
   <tile gid="65"/>
   <tile gid="65"/>
   <tile gid="65"/>
   <tile/>
   <tile/>
   <tile/>
   <tile/>
   <tile/>
   <tile/>
   <tile gid="65"/>
   <tile gid="65"/>
   <tile/>
   <tile/>
   <tile/>
   <tile/>
   <tile/>
   <tile/>
   <tile/>
   <tile/>
   <tile/>
   <tile/>
   <tile/>
   <tile gid="65"/>
   <tile gid="65"/>
   <tile gid="65"/>
   <tile gid="65"/>
   <tile/>
   <tile/>
   <tile/>
   <tile/>
   <tile/>
   <tile gid="65"/>
   <tile gid="65"/>
   <tile/>
   <tile/>
   <tile/>
   <tile/>
   <tile/>
   <tile/>
   <tile/>
   <tile/>
   <tile/>
   <tile/>
   <tile/>
   <tile/>
   <tile/>
   <tile/>
   <tile/>
   <tile/>
   <tile/>
   <tile/>
   <tile/>
   <tile/>
   <tile/>
   <tile/>
   <tile/>
   <tile/>
   <tile/>
   <tile/>
   <tile/>
   <tile/>
   <tile/>
   <tile/>
   <tile/>
   <tile/>
   <tile/>
   <tile/>
   <tile/>
   <tile/>
   <tile/>
   <tile/>
   <tile/>
   <tile/>
   <tile/>
   <tile/>
   <tile/>
   <tile/>
   <tile/>
   <tile/>
   <tile/>
   <tile/>
   <tile/>
   <tile/>
   <tile/>
   <tile/>
   <tile/>
   <tile gid="65"/>
   <tile gid="65"/>
   <tile gid="65"/>
   <tile/>
   <tile/>
   <tile/>
   <tile/>
   <tile/>
   <tile/>
   <tile/>
   <tile/>
   <tile/>
   <tile/>
   <tile/>
   <tile/>
   <tile/>
   <tile/>
   <tile/>
   <tile gid="65"/>
   <tile/>
   <tile/>
   <tile/>
   <tile/>
   <tile gid="65"/>
   <tile gid="65"/>
   <tile/>
   <tile/>
   <tile gid="65"/>
   <tile gid="65"/>
   <tile/>
   <tile/>
   <tile/>
   <tile/>
   <tile/>
   <tile/>
   <tile/>
   <tile/>
   <tile/>
   <tile/>
   <tile/>
   <tile gid="65"/>
   <tile gid="65"/>
   <tile gid="65"/>
   <tile/>
   <tile/>
   <tile/>
   <tile/>
   <tile/>
   <tile/>
   <tile gid="65"/>
   <tile gid="65"/>
   <tile/>
   <tile/>
   <tile/>
   <tile/>
   <tile/>
   <tile/>
   <tile/>
   <tile/>
   <tile/>
   <tile/>
   <tile/>
   <tile/>
   <tile/>
   <tile/>
   <tile/>
   <tile/>
   <tile/>
   <tile/>
   <tile/>
   <tile/>
   <tile/>
   <tile/>
   <tile/>
   <tile/>
   <tile/>
   <tile/>
   <tile/>
   <tile/>
   <tile/>
   <tile/>
   <tile/>
   <tile/>
   <tile/>
   <tile/>
   <tile/>
   <tile/>
   <tile/>
   <tile/>
   <tile/>
   <tile/>
   <tile/>
   <tile/>
   <tile/>
   <tile/>
   <tile/>
   <tile/>
   <tile/>
   <tile/>
   <tile/>
   <tile/>
   <tile/>
   <tile/>
   <tile/>
   <tile/>
   <tile/>
   <tile/>
   <tile/>
   <tile/>
   <tile/>
   <tile/>
   <tile/>
   <tile/>
   <tile/>
   <tile/>
   <tile/>
   <tile/>
   <tile/>
   <tile/>
   <tile/>
   <tile/>
   <tile/>
   <tile gid="65"/>
   <tile/>
   <tile/>
   <tile/>
   <tile/>
   <tile gid="65"/>
   <tile gid="65"/>
   <tile/>
   <tile/>
   <tile/>
   <tile/>
   <tile/>
   <tile/>
   <tile/>
   <tile/>
   <tile/>
   <tile/>
   <tile/>
   <tile gid="65"/>
   <tile/>
   <tile/>
   <tile/>
   <tile gid="65"/>
   <tile gid="65"/>
   <tile gid="65"/>
   <tile/>
   <tile/>
   <tile/>
   <tile/>
   <tile/>
   <tile gid="65"/>
   <tile gid="65"/>
   <tile gid="65"/>
   <tile/>
   <tile/>
   <tile/>
   <tile/>
   <tile/>
   <tile/>
   <tile/>
   <tile/>
   <tile/>
   <tile/>
   <tile/>
   <tile/>
   <tile/>
   <tile/>
   <tile/>
   <tile/>
   <tile/>
   <tile/>
   <tile/>
   <tile/>
   <tile/>
   <tile/>
   <tile/>
   <tile/>
   <tile/>
   <tile/>
   <tile/>
   <tile/>
   <tile/>
   <tile/>
   <tile/>
   <tile/>
   <tile/>
   <tile/>
   <tile/>
   <tile/>
   <tile/>
   <tile/>
   <tile/>
   <tile/>
   <tile/>
   <tile/>
   <tile/>
   <tile/>
   <tile gid="65"/>
   <tile gid="65"/>
   <tile/>
   <tile/>
   <tile/>
   <tile/>
   <tile/>
   <tile/>
   <tile/>
   <tile/>
   <tile/>
   <tile/>
   <tile/>
   <tile/>
   <tile/>
   <tile/>
   <tile/>
   <tile/>
   <tile/>
   <tile/>
   <tile/>
   <tile/>
   <tile/>
   <tile/>
   <tile/>
   <tile/>
   <tile/>
   <tile gid="65"/>
   <tile/>
   <tile/>
   <tile/>
   <tile/>
   <tile gid="65"/>
   <tile gid="65"/>
   <tile/>
   <tile/>
   <tile/>
   <tile/>
   <tile/>
   <tile/>
   <tile/>
   <tile/>
   <tile/>
   <tile/>
   <tile/>
   <tile/>
   <tile/>
   <tile/>
   <tile/>
   <tile gid="65"/>
   <tile gid="65"/>
   <tile gid="65"/>
   <tile/>
   <tile/>
   <tile/>
   <tile/>
   <tile/>
   <tile gid="65"/>
   <tile gid="65"/>
   <tile gid="65"/>
   <tile/>
   <tile/>
   <tile/>
   <tile/>
   <tile/>
   <tile/>
   <tile/>
   <tile/>
   <tile/>
   <tile/>
   <tile/>
   <tile/>
   <tile/>
   <tile/>
   <tile/>
   <tile/>
   <tile/>
   <tile/>
   <tile/>
   <tile/>
   <tile/>
   <tile/>
   <tile/>
   <tile/>
   <tile/>
   <tile/>
   <tile/>
   <tile/>
   <tile/>
   <tile/>
   <tile/>
   <tile/>
   <tile/>
   <tile/>
   <tile/>
   <tile/>
   <tile/>
   <tile/>
   <tile/>
   <tile/>
   <tile/>
   <tile/>
   <tile/>
   <tile/>
   <tile/>
   <tile/>
   <tile/>
   <tile/>
   <tile/>
   <tile/>
   <tile/>
   <tile/>
   <tile/>
   <tile/>
   <tile/>
   <tile/>
   <tile/>
   <tile/>
   <tile/>
   <tile/>
   <tile/>
   <tile/>
   <tile/>
   <tile/>
   <tile/>
   <tile/>
   <tile/>
   <tile/>
   <tile/>
   <tile/>
   <tile/>
   <tile gid="65"/>
   <tile/>
   <tile/>
   <tile/>
   <tile/>
   <tile/>
   <tile/>
   <tile/>
   <tile/>
   <tile/>
   <tile/>
   <tile/>
   <tile/>
   <tile/>
   <tile/>
   <tile gid="65"/>
   <tile gid="65"/>
   <tile gid="65"/>
   <tile gid="65"/>
   <tile gid="65"/>
   <tile gid="65"/>
   <tile gid="65"/>
   <tile gid="65"/>
   <tile gid="65"/>
   <tile gid="65"/>
   <tile gid="65"/>
   <tile/>
   <tile/>
   <tile/>
   <tile/>
   <tile/>
   <tile gid="65"/>
   <tile gid="65"/>
   <tile/>
   <tile/>
   <tile/>
   <tile/>
   <tile/>
   <tile/>
   <tile/>
   <tile/>
   <tile/>
   <tile/>
   <tile/>
   <tile/>
   <tile/>
   <tile/>
   <tile/>
   <tile/>
   <tile/>
   <tile/>
   <tile/>
   <tile/>
   <tile/>
   <tile/>
   <tile/>
   <tile/>
   <tile/>
   <tile/>
   <tile/>
   <tile/>
   <tile/>
   <tile/>
   <tile/>
   <tile gid="65"/>
   <tile gid="65"/>
   <tile/>
   <tile/>
   <tile gid="65"/>
   <tile gid="65"/>
   <tile/>
   <tile/>
   <tile/>
   <tile/>
   <tile/>
   <tile/>
   <tile/>
   <tile/>
   <tile/>
   <tile/>
   <tile/>
   <tile/>
   <tile/>
   <tile/>
   <tile/>
   <tile/>
   <tile/>
   <tile/>
   <tile/>
   <tile/>
   <tile/>
   <tile/>
   <tile/>
   <tile/>
   <tile/>
   <tile/>
   <tile/>
   <tile/>
   <tile/>
   <tile/>
   <tile/>
   <tile/>
   <tile/>
   <tile/>
   <tile gid="65"/>
   <tile gid="65"/>
   <tile/>
   <tile/>
   <tile/>
   <tile/>
   <tile/>
   <tile/>
   <tile/>
   <tile/>
   <tile/>
   <tile/>
   <tile/>
   <tile/>
   <tile gid="65"/>
   <tile gid="65"/>
   <tile gid="65"/>
   <tile gid="65"/>
   <tile gid="65"/>
   <tile gid="65"/>
   <tile gid="65"/>
   <tile gid="65"/>
   <tile gid="65"/>
   <tile gid="65"/>
   <tile gid="65"/>
   <tile gid="65"/>
   <tile/>
   <tile/>
   <tile/>
   <tile/>
   <tile/>
   <tile gid="65"/>
   <tile gid="65"/>
   <tile gid="65"/>
   <tile gid="65"/>
   <tile gid="65"/>
   <tile gid="65"/>
   <tile gid="65"/>
   <tile gid="65"/>
   <tile gid="65"/>
   <tile gid="65"/>
   <tile gid="65"/>
   <tile gid="65"/>
   <tile/>
   <tile/>
   <tile/>
   <tile/>
   <tile/>
   <tile/>
   <tile/>
   <tile gid="65"/>
   <tile gid="65"/>
   <tile/>
   <tile/>
   <tile/>
   <tile/>
   <tile/>
   <tile gid="65"/>
   <tile gid="65"/>
   <tile/>
   <tile/>
   <tile/>
   <tile/>
   <tile/>
   <tile gid="65"/>
   <tile gid="65"/>
   <tile/>
   <tile/>
   <tile/>
   <tile/>
   <tile/>
   <tile/>
   <tile/>
   <tile/>
   <tile/>
   <tile/>
   <tile/>
   <tile/>
   <tile/>
   <tile/>
   <tile/>
   <tile/>
   <tile/>
   <tile/>
   <tile/>
   <tile/>
   <tile/>
   <tile/>
   <tile/>
   <tile/>
   <tile/>
   <tile/>
   <tile/>
   <tile/>
   <tile/>
   <tile/>
   <tile/>
   <tile/>
   <tile/>
   <tile/>
   <tile/>
   <tile/>
   <tile/>
   <tile/>
   <tile gid="65"/>
   <tile gid="65"/>
   <tile/>
   <tile/>
   <tile/>
   <tile/>
   <tile/>
   <tile/>
   <tile/>
   <tile/>
   <tile/>
   <tile gid="65"/>
   <tile/>
   <tile/>
   <tile gid="65"/>
   <tile gid="65"/>
   <tile gid="65"/>
   <tile/>
   <tile/>
   <tile/>
   <tile/>
   <tile/>
   <tile/>
   <tile/>
   <tile/>
   <tile/>
   <tile/>
   <tile/>
   <tile/>
   <tile/>
   <tile/>
   <tile gid="65"/>
   <tile gid="65"/>
   <tile gid="65"/>
   <tile gid="65"/>
   <tile gid="65"/>
   <tile gid="65"/>
   <tile gid="65"/>
   <tile gid="65"/>
   <tile gid="65"/>
   <tile gid="65"/>
   <tile gid="65"/>
   <tile gid="65"/>
   <tile/>
   <tile/>
   <tile/>
   <tile/>
   <tile/>
   <tile/>
   <tile/>
   <tile gid="65"/>
   <tile gid="65"/>
   <tile gid="65"/>
   <tile/>
   <tile/>
   <tile/>
   <tile/>
   <tile/>
   <tile/>
   <tile/>
   <tile/>
   <tile/>
   <tile/>
   <tile/>
   <tile gid="65"/>
   <tile gid="65"/>
   <tile/>
   <tile/>
   <tile/>
   <tile/>
   <tile/>
   <tile/>
   <tile/>
   <tile/>
   <tile/>
   <tile/>
   <tile/>
   <tile/>
   <tile/>
   <tile/>
   <tile/>
   <tile/>
   <tile/>
   <tile/>
   <tile/>
   <tile/>
   <tile/>
   <tile/>
   <tile/>
   <tile/>
   <tile/>
   <tile/>
   <tile/>
   <tile/>
   <tile/>
   <tile/>
   <tile/>
   <tile/>
   <tile/>
   <tile/>
   <tile/>
   <tile/>
   <tile/>
   <tile/>
   <tile gid="65"/>
   <tile gid="65"/>
   <tile/>
   <tile gid="65"/>
   <tile/>
   <tile/>
   <tile/>
   <tile/>
   <tile/>
   <tile/>
   <tile/>
   <tile/>
   <tile/>
   <tile/>
   <tile gid="65"/>
   <tile gid="65"/>
   <tile gid="65"/>
   <tile/>
   <tile/>
   <tile/>
   <tile/>
   <tile/>
   <tile/>
   <tile/>
   <tile/>
   <tile/>
   <tile/>
   <tile/>
   <tile/>
   <tile/>
   <tile gid="65"/>
   <tile gid="65"/>
   <tile gid="65"/>
   <tile gid="65"/>
   <tile gid="65"/>
   <tile gid="65"/>
   <tile gid="65"/>
   <tile gid="65"/>
   <tile gid="65"/>
   <tile gid="65"/>
   <tile gid="65"/>
   <tile gid="65"/>
   <tile gid="65"/>
   <tile/>
   <tile/>
   <tile/>
   <tile/>
   <tile/>
   <tile/>
   <tile/>
   <tile gid="65"/>
   <tile gid="65"/>
   <tile gid="65"/>
   <tile/>
   <tile/>
   <tile/>
   <tile/>
   <tile/>
   <tile/>
   <tile/>
   <tile/>
   <tile/>
   <tile/>
   <tile/>
   <tile gid="65"/>
   <tile gid="65"/>
   <tile/>
   <tile/>
   <tile/>
   <tile/>
   <tile/>
   <tile/>
   <tile/>
   <tile/>
   <tile/>
   <tile/>
   <tile/>
   <tile/>
   <tile/>
   <tile/>
   <tile/>
   <tile/>
   <tile/>
   <tile/>
   <tile/>
   <tile/>
   <tile/>
   <tile/>
   <tile/>
   <tile/>
   <tile/>
   <tile/>
   <tile/>
   <tile/>
   <tile/>
   <tile/>
   <tile/>
   <tile/>
   <tile/>
   <tile/>
   <tile/>
   <tile/>
   <tile/>
   <tile/>
   <tile gid="65"/>
   <tile gid="65"/>
   <tile gid="65"/>
   <tile gid="65"/>
   <tile gid="65"/>
   <tile gid="65"/>
   <tile gid="65"/>
   <tile gid="65"/>
   <tile gid="65"/>
   <tile gid="65"/>
   <tile gid="65"/>
   <tile gid="65"/>
   <tile gid="65"/>
   <tile gid="65"/>
   <tile gid="65"/>
   <tile gid="65"/>
   <tile gid="65"/>
   <tile/>
   <tile/>
   <tile/>
   <tile/>
   <tile/>
   <tile/>
   <tile/>
   <tile/>
   <tile/>
   <tile/>
   <tile/>
   <tile/>
   <tile/>
   <tile gid="65"/>
   <tile gid="65"/>
   <tile gid="65"/>
   <tile gid="65"/>
   <tile gid="65"/>
   <tile gid="65"/>
   <tile gid="65"/>
   <tile gid="65"/>
   <tile gid="65"/>
   <tile gid="65"/>
   <tile gid="65"/>
   <tile gid="65"/>
   <tile gid="65"/>
   <tile/>
   <tile/>
   <tile/>
   <tile/>
   <tile/>
   <tile/>
   <tile/>
   <tile gid="65"/>
   <tile gid="65"/>
   <tile gid="65"/>
   <tile/>
   <tile/>
   <tile/>
   <tile/>
   <tile/>
   <tile/>
   <tile/>
   <tile/>
   <tile/>
   <tile/>
   <tile/>
   <tile gid="65"/>
   <tile gid="65"/>
   <tile/>
   <tile/>
   <tile/>
   <tile/>
   <tile/>
   <tile/>
   <tile/>
   <tile/>
   <tile/>
   <tile/>
   <tile/>
   <tile/>
   <tile/>
   <tile/>
   <tile/>
   <tile/>
   <tile/>
   <tile/>
   <tile/>
   <tile/>
   <tile/>
   <tile/>
   <tile/>
   <tile/>
   <tile/>
   <tile/>
   <tile/>
   <tile/>
   <tile/>
   <tile/>
   <tile/>
   <tile/>
   <tile/>
   <tile/>
   <tile/>
   <tile/>
   <tile/>
   <tile/>
   <tile gid="65"/>
   <tile gid="65"/>
   <tile gid="65"/>
   <tile gid="65"/>
   <tile gid="65"/>
   <tile gid="65"/>
   <tile gid="65"/>
   <tile gid="65"/>
   <tile gid="65"/>
   <tile gid="65"/>
   <tile gid="65"/>
   <tile gid="65"/>
   <tile gid="65"/>
   <tile gid="65"/>
   <tile gid="65"/>
   <tile gid="65"/>
   <tile/>
   <tile/>
   <tile/>
   <tile/>
   <tile/>
   <tile/>
   <tile gid="65"/>
   <tile gid="65"/>
   <tile gid="65"/>
   <tile gid="65"/>
   <tile gid="65"/>
   <tile gid="65"/>
   <tile gid="65"/>
   <tile gid="65"/>
   <tile gid="65"/>
   <tile gid="65"/>
   <tile gid="65"/>
   <tile gid="65"/>
   <tile gid="65"/>
   <tile gid="65"/>
   <tile gid="65"/>
   <tile gid="65"/>
   <tile gid="65"/>
   <tile gid="65"/>
   <tile gid="65"/>
   <tile gid="65"/>
   <tile gid="65"/>
   <tile/>
   <tile/>
   <tile/>
   <tile/>
   <tile/>
   <tile/>
   <tile/>
   <tile gid="65"/>
   <tile gid="65"/>
   <tile gid="65"/>
   <tile/>
   <tile/>
   <tile/>
   <tile/>
   <tile/>
   <tile/>
   <tile/>
   <tile/>
   <tile/>
   <tile/>
   <tile gid="65"/>
   <tile gid="65"/>
   <tile gid="65"/>
   <tile/>
   <tile/>
   <tile/>
   <tile/>
   <tile/>
   <tile/>
   <tile/>
   <tile/>
   <tile/>
   <tile/>
   <tile/>
   <tile/>
   <tile/>
   <tile/>
   <tile/>
   <tile/>
   <tile/>
   <tile/>
   <tile/>
   <tile/>
   <tile/>
   <tile/>
   <tile/>
   <tile/>
   <tile/>
   <tile/>
   <tile/>
   <tile/>
   <tile/>
   <tile/>
   <tile/>
   <tile/>
   <tile/>
   <tile/>
   <tile/>
   <tile/>
   <tile/>
   <tile/>
   <tile/>
   <tile/>
   <tile/>
   <tile/>
   <tile/>
   <tile/>
   <tile/>
   <tile/>
   <tile/>
   <tile/>
   <tile/>
   <tile gid="65"/>
   <tile gid="65"/>
   <tile gid="65"/>
   <tile gid="65"/>
   <tile gid="65"/>
   <tile/>
   <tile/>
   <tile/>
   <tile/>
   <tile/>
   <tile/>
   <tile/>
   <tile/>
   <tile/>
   <tile/>
   <tile/>
   <tile/>
   <tile/>
   <tile/>
   <tile/>
   <tile gid="65"/>
   <tile gid="65"/>
   <tile gid="65"/>
   <tile gid="65"/>
   <tile gid="65"/>
   <tile gid="65"/>
   <tile gid="65"/>
   <tile gid="65"/>
   <tile gid="65"/>
   <tile gid="65"/>
   <tile gid="65"/>
   <tile gid="65"/>
   <tile/>
   <tile/>
   <tile/>
   <tile/>
   <tile/>
   <tile/>
   <tile/>
   <tile gid="65"/>
   <tile gid="65"/>
   <tile/>
   <tile/>
   <tile/>
   <tile/>
   <tile/>
   <tile/>
   <tile/>
   <tile/>
   <tile/>
   <tile/>
   <tile/>
   <tile gid="65"/>
   <tile gid="65"/>
   <tile gid="65"/>
   <tile/>
   <tile/>
   <tile/>
   <tile/>
   <tile/>
   <tile/>
   <tile/>
   <tile/>
   <tile/>
   <tile/>
   <tile/>
   <tile/>
   <tile/>
   <tile/>
   <tile/>
   <tile/>
   <tile/>
   <tile/>
   <tile/>
   <tile/>
   <tile/>
   <tile/>
   <tile/>
   <tile/>
   <tile/>
   <tile/>
   <tile/>
   <tile/>
   <tile/>
   <tile/>
   <tile/>
   <tile/>
   <tile/>
   <tile/>
   <tile/>
   <tile/>
   <tile/>
   <tile/>
   <tile/>
   <tile/>
   <tile/>
   <tile/>
   <tile/>
   <tile/>
   <tile/>
   <tile/>
   <tile/>
   <tile/>
   <tile/>
   <tile gid="65"/>
   <tile gid="65"/>
   <tile gid="65"/>
   <tile gid="65"/>
   <tile gid="65"/>
   <tile/>
   <tile/>
   <tile/>
   <tile/>
   <tile/>
   <tile/>
   <tile/>
   <tile/>
   <tile/>
   <tile/>
   <tile/>
   <tile/>
   <tile/>
   <tile/>
   <tile/>
   <tile gid="65"/>
   <tile gid="65"/>
   <tile gid="65"/>
   <tile gid="65"/>
   <tile gid="65"/>
   <tile gid="65"/>
   <tile gid="65"/>
   <tile gid="65"/>
   <tile gid="65"/>
   <tile gid="65"/>
   <tile gid="65"/>
   <tile gid="65"/>
   <tile/>
   <tile/>
   <tile/>
   <tile/>
   <tile/>
   <tile/>
   <tile/>
   <tile gid="65"/>
   <tile gid="65"/>
   <tile/>
   <tile/>
   <tile/>
   <tile/>
   <tile/>
   <tile gid="65"/>
   <tile gid="65"/>
   <tile/>
   <tile/>
   <tile/>
   <tile/>
   <tile gid="65"/>
   <tile gid="65"/>
   <tile gid="65"/>
   <tile/>
   <tile/>
   <tile/>
   <tile/>
   <tile/>
   <tile/>
   <tile/>
   <tile/>
   <tile/>
   <tile/>
   <tile/>
   <tile/>
   <tile/>
   <tile/>
   <tile/>
   <tile/>
   <tile/>
   <tile/>
   <tile/>
   <tile/>
   <tile/>
   <tile/>
   <tile/>
   <tile/>
   <tile/>
   <tile/>
   <tile/>
   <tile/>
   <tile/>
   <tile/>
   <tile/>
   <tile/>
   <tile/>
   <tile/>
   <tile/>
   <tile/>
   <tile/>
   <tile/>
   <tile/>
   <tile/>
   <tile/>
   <tile/>
   <tile/>
   <tile/>
   <tile/>
   <tile/>
   <tile/>
   <tile/>
   <tile/>
   <tile gid="65"/>
   <tile gid="65"/>
   <tile gid="65"/>
   <tile gid="65"/>
   <tile gid="65"/>
   <tile/>
   <tile/>
   <tile/>
   <tile/>
   <tile/>
   <tile/>
   <tile/>
   <tile/>
   <tile/>
   <tile/>
   <tile/>
   <tile/>
   <tile/>
   <tile/>
   <tile/>
   <tile gid="65"/>
   <tile gid="65"/>
   <tile gid="65"/>
   <tile gid="65"/>
   <tile gid="65"/>
   <tile gid="65"/>
   <tile gid="65"/>
   <tile gid="65"/>
   <tile gid="65"/>
   <tile gid="65"/>
   <tile gid="65"/>
   <tile gid="65"/>
   <tile/>
   <tile/>
   <tile/>
   <tile/>
   <tile/>
   <tile/>
   <tile/>
   <tile gid="65"/>
   <tile gid="65"/>
   <tile/>
   <tile/>
   <tile/>
   <tile/>
   <tile/>
   <tile gid="65"/>
   <tile gid="65"/>
   <tile/>
   <tile/>
   <tile/>
   <tile/>
   <tile/>
   <tile/>
   <tile/>
   <tile/>
   <tile/>
   <tile/>
   <tile/>
   <tile/>
   <tile/>
   <tile/>
   <tile/>
   <tile/>
   <tile/>
   <tile/>
   <tile/>
   <tile/>
   <tile/>
   <tile/>
   <tile/>
   <tile/>
   <tile/>
   <tile/>
   <tile/>
   <tile/>
   <tile/>
   <tile/>
   <tile/>
   <tile/>
   <tile/>
   <tile/>
   <tile/>
   <tile/>
   <tile/>
   <tile/>
   <tile/>
   <tile/>
   <tile/>
   <tile/>
   <tile/>
   <tile/>
   <tile/>
   <tile/>
   <tile/>
   <tile/>
   <tile/>
   <tile/>
   <tile/>
   <tile/>
   <tile/>
   <tile/>
   <tile/>
   <tile/>
   <tile gid="65"/>
   <tile gid="65"/>
   <tile gid="65"/>
   <tile gid="65"/>
   <tile gid="65"/>
   <tile/>
   <tile/>
   <tile/>
   <tile/>
   <tile/>
   <tile/>
   <tile/>
   <tile/>
   <tile/>
   <tile/>
   <tile/>
   <tile/>
   <tile/>
   <tile/>
   <tile/>
   <tile gid="65"/>
   <tile gid="65"/>
   <tile gid="65"/>
   <tile gid="65"/>
   <tile gid="65"/>
   <tile gid="65"/>
   <tile gid="65"/>
   <tile gid="65"/>
   <tile gid="65"/>
   <tile gid="65"/>
   <tile gid="65"/>
   <tile gid="65"/>
   <tile/>
   <tile/>
   <tile/>
   <tile/>
   <tile/>
   <tile/>
   <tile/>
   <tile gid="65"/>
   <tile gid="65"/>
   <tile/>
   <tile/>
   <tile/>
   <tile/>
   <tile/>
   <tile/>
   <tile/>
   <tile/>
   <tile/>
   <tile/>
   <tile/>
   <tile/>
   <tile/>
   <tile/>
   <tile/>
   <tile/>
   <tile/>
   <tile/>
   <tile/>
   <tile/>
   <tile/>
   <tile/>
   <tile/>
   <tile/>
   <tile/>
   <tile/>
   <tile/>
   <tile/>
   <tile/>
   <tile/>
   <tile/>
   <tile/>
   <tile/>
   <tile/>
   <tile/>
   <tile/>
   <tile/>
   <tile/>
   <tile/>
   <tile/>
   <tile/>
   <tile/>
   <tile/>
   <tile/>
   <tile/>
   <tile/>
   <tile/>
   <tile/>
   <tile/>
   <tile/>
   <tile/>
   <tile/>
   <tile/>
   <tile/>
   <tile/>
   <tile/>
   <tile/>
   <tile/>
   <tile/>
   <tile/>
   <tile/>
   <tile/>
   <tile/>
   <tile gid="65"/>
   <tile gid="65"/>
   <tile gid="65"/>
   <tile gid="65"/>
   <tile gid="65"/>
   <tile gid="65"/>
   <tile gid="65"/>
   <tile gid="65"/>
   <tile gid="65"/>
   <tile gid="65"/>
   <tile gid="65"/>
   <tile gid="65"/>
   <tile gid="65"/>
   <tile gid="65"/>
   <tile gid="65"/>
   <tile gid="65"/>
   <tile/>
   <tile/>
   <tile/>
   <tile/>
   <tile gid="65"/>
   <tile gid="65"/>
   <tile gid="65"/>
   <tile gid="65"/>
   <tile gid="65"/>
   <tile gid="65"/>
   <tile gid="65"/>
   <tile gid="65"/>
   <tile gid="65"/>
   <tile gid="65"/>
   <tile gid="65"/>
   <tile gid="65"/>
   <tile/>
   <tile/>
   <tile/>
   <tile/>
   <tile/>
   <tile/>
   <tile/>
   <tile gid="65"/>
   <tile gid="65"/>
   <tile/>
   <tile/>
   <tile/>
   <tile/>
   <tile/>
   <tile/>
   <tile/>
   <tile/>
   <tile/>
   <tile/>
   <tile/>
   <tile/>
   <tile/>
   <tile/>
   <tile/>
   <tile/>
   <tile/>
   <tile/>
   <tile/>
   <tile/>
   <tile/>
   <tile/>
   <tile/>
   <tile/>
   <tile/>
   <tile/>
   <tile/>
   <tile/>
   <tile/>
   <tile/>
   <tile/>
   <tile/>
   <tile/>
   <tile/>
   <tile/>
   <tile/>
   <tile/>
   <tile/>
   <tile/>
   <tile/>
   <tile/>
   <tile/>
   <tile/>
   <tile/>
   <tile/>
   <tile/>
   <tile/>
   <tile/>
   <tile/>
   <tile/>
   <tile/>
   <tile/>
   <tile/>
   <tile/>
   <tile/>
   <tile/>
   <tile/>
   <tile/>
   <tile/>
   <tile/>
   <tile/>
   <tile/>
   <tile/>
   <tile gid="65"/>
   <tile gid="65"/>
   <tile gid="65"/>
   <tile gid="65"/>
   <tile gid="65"/>
   <tile gid="65"/>
   <tile gid="65"/>
   <tile gid="65"/>
   <tile gid="65"/>
   <tile gid="65"/>
   <tile gid="65"/>
   <tile gid="65"/>
   <tile gid="65"/>
   <tile gid="65"/>
   <tile gid="65"/>
   <tile gid="65"/>
   <tile/>
   <tile/>
   <tile/>
   <tile/>
   <tile gid="65"/>
   <tile gid="65"/>
   <tile gid="65"/>
   <tile gid="65"/>
   <tile gid="65"/>
   <tile gid="65"/>
   <tile gid="65"/>
   <tile gid="65"/>
   <tile gid="65"/>
   <tile gid="65"/>
   <tile gid="65"/>
   <tile gid="65"/>
   <tile/>
   <tile/>
   <tile/>
   <tile/>
   <tile/>
   <tile/>
   <tile/>
   <tile gid="65"/>
   <tile gid="65"/>
   <tile/>
   <tile/>
   <tile/>
   <tile/>
   <tile/>
   <tile/>
   <tile/>
   <tile/>
   <tile/>
   <tile/>
   <tile/>
   <tile/>
   <tile gid="65"/>
   <tile gid="65"/>
   <tile/>
   <tile/>
   <tile/>
   <tile/>
   <tile/>
   <tile/>
   <tile/>
   <tile/>
   <tile/>
   <tile/>
   <tile/>
   <tile/>
   <tile/>
   <tile/>
   <tile/>
   <tile/>
   <tile/>
   <tile/>
   <tile/>
   <tile/>
   <tile/>
   <tile/>
   <tile/>
   <tile/>
   <tile/>
   <tile/>
   <tile/>
   <tile/>
   <tile/>
   <tile/>
   <tile/>
   <tile/>
   <tile/>
   <tile/>
   <tile/>
   <tile/>
   <tile/>
   <tile/>
   <tile/>
   <tile/>
   <tile/>
   <tile/>
   <tile/>
   <tile/>
   <tile/>
   <tile/>
   <tile/>
   <tile/>
   <tile/>
   <tile/>
   <tile/>
   <tile/>
   <tile/>
   <tile/>
   <tile/>
   <tile/>
   <tile/>
   <tile/>
   <tile gid="65"/>
   <tile gid="65"/>
   <tile gid="65"/>
   <tile gid="65"/>
   <tile gid="65"/>
   <tile gid="65"/>
   <tile gid="65"/>
   <tile/>
   <tile/>
   <tile/>
   <tile/>
   <tile gid="65"/>
   <tile gid="65"/>
   <tile gid="65"/>
   <tile gid="65"/>
   <tile gid="65"/>
   <tile gid="65"/>
   <tile gid="65"/>
   <tile gid="65"/>
   <tile gid="65"/>
   <tile gid="65"/>
   <tile gid="65"/>
   <tile gid="65"/>
   <tile/>
   <tile/>
   <tile/>
   <tile/>
   <tile/>
   <tile/>
   <tile/>
   <tile gid="65"/>
   <tile gid="65"/>
   <tile gid="65"/>
   <tile/>
   <tile/>
   <tile/>
   <tile/>
   <tile/>
   <tile/>
   <tile/>
   <tile/>
   <tile/>
   <tile/>
   <tile gid="65"/>
   <tile gid="65"/>
   <tile gid="65"/>
   <tile/>
   <tile/>
   <tile/>
   <tile/>
   <tile/>
   <tile/>
   <tile/>
   <tile/>
   <tile/>
   <tile/>
   <tile/>
   <tile/>
   <tile/>
   <tile/>
   <tile/>
   <tile/>
   <tile/>
   <tile/>
   <tile/>
   <tile/>
   <tile/>
   <tile/>
   <tile/>
   <tile/>
   <tile/>
   <tile/>
   <tile/>
   <tile/>
   <tile/>
   <tile/>
   <tile/>
   <tile/>
   <tile/>
   <tile/>
   <tile/>
   <tile/>
   <tile/>
   <tile/>
   <tile/>
   <tile/>
   <tile/>
   <tile/>
   <tile/>
   <tile/>
   <tile/>
   <tile/>
   <tile/>
   <tile/>
   <tile/>
   <tile/>
   <tile/>
   <tile/>
   <tile/>
   <tile/>
   <tile/>
   <tile/>
   <tile/>
   <tile/>
   <tile gid="65"/>
   <tile gid="65"/>
   <tile gid="65"/>
   <tile gid="65"/>
   <tile gid="65"/>
   <tile gid="65"/>
   <tile gid="65"/>
   <tile/>
   <tile/>
   <tile/>
   <tile/>
   <tile gid="65"/>
   <tile gid="65"/>
   <tile gid="65"/>
   <tile gid="65"/>
   <tile gid="65"/>
   <tile gid="65"/>
   <tile gid="65"/>
   <tile gid="65"/>
   <tile gid="65"/>
   <tile gid="65"/>
   <tile gid="65"/>
   <tile gid="65"/>
   <tile/>
   <tile/>
   <tile/>
   <tile/>
   <tile/>
   <tile/>
   <tile/>
   <tile gid="65"/>
   <tile gid="65"/>
   <tile gid="65"/>
   <tile/>
   <tile/>
   <tile/>
   <tile/>
   <tile gid="65"/>
   <tile gid="65"/>
   <tile/>
   <tile/>
   <tile/>
   <tile/>
   <tile gid="65"/>
   <tile gid="65"/>
   <tile gid="65"/>
   <tile/>
   <tile/>
   <tile/>
   <tile/>
   <tile/>
   <tile/>
   <tile/>
   <tile/>
   <tile/>
   <tile/>
   <tile/>
   <tile/>
   <tile/>
   <tile/>
   <tile/>
   <tile/>
   <tile/>
   <tile/>
   <tile/>
   <tile/>
   <tile/>
   <tile/>
   <tile/>
   <tile/>
   <tile/>
   <tile/>
   <tile/>
   <tile/>
   <tile/>
   <tile/>
   <tile/>
   <tile/>
   <tile/>
   <tile/>
   <tile/>
   <tile/>
   <tile/>
   <tile/>
   <tile/>
   <tile/>
   <tile/>
   <tile/>
   <tile/>
   <tile/>
   <tile/>
   <tile/>
   <tile/>
   <tile/>
   <tile/>
   <tile/>
   <tile/>
   <tile/>
   <tile/>
   <tile/>
   <tile/>
   <tile/>
   <tile/>
   <tile/>
   <tile gid="65"/>
   <tile gid="65"/>
   <tile gid="65"/>
   <tile gid="65"/>
   <tile gid="65"/>
   <tile gid="65"/>
   <tile gid="65"/>
   <tile/>
   <tile/>
   <tile/>
   <tile/>
   <tile gid="65"/>
   <tile gid="65"/>
   <tile gid="65"/>
   <tile gid="65"/>
   <tile gid="65"/>
   <tile gid="65"/>
   <tile gid="65"/>
   <tile gid="65"/>
   <tile gid="65"/>
   <tile gid="65"/>
   <tile gid="65"/>
   <tile gid="65"/>
   <tile/>
   <tile/>
   <tile/>
   <tile/>
   <tile/>
   <tile/>
   <tile/>
   <tile gid="65"/>
   <tile gid="65"/>
   <tile gid="65"/>
   <tile/>
   <tile/>
   <tile/>
   <tile/>
   <tile gid="65"/>
   <tile gid="65"/>
   <tile/>
   <tile/>
   <tile/>
   <tile/>
   <tile gid="65"/>
   <tile gid="65"/>
   <tile gid="65"/>
   <tile/>
   <tile/>
   <tile/>
   <tile/>
   <tile/>
   <tile/>
   <tile/>
   <tile/>
   <tile/>
   <tile/>
   <tile/>
   <tile/>
   <tile/>
   <tile/>
   <tile/>
   <tile/>
   <tile/>
   <tile/>
   <tile/>
   <tile/>
   <tile/>
   <tile/>
   <tile/>
   <tile/>
   <tile/>
   <tile/>
   <tile/>
   <tile/>
   <tile/>
   <tile/>
   <tile/>
   <tile/>
   <tile/>
   <tile/>
   <tile/>
   <tile/>
   <tile/>
   <tile/>
   <tile/>
   <tile/>
   <tile/>
   <tile/>
   <tile/>
   <tile/>
   <tile/>
   <tile/>
   <tile/>
   <tile/>
   <tile/>
   <tile/>
   <tile/>
   <tile/>
   <tile/>
   <tile/>
   <tile/>
   <tile/>
   <tile/>
   <tile/>
   <tile gid="65"/>
   <tile gid="65"/>
   <tile gid="65"/>
   <tile gid="65"/>
   <tile gid="65"/>
   <tile gid="65"/>
   <tile gid="65"/>
   <tile/>
   <tile/>
   <tile/>
   <tile/>
   <tile gid="65"/>
   <tile gid="65"/>
   <tile gid="65"/>
   <tile gid="65"/>
   <tile gid="65"/>
   <tile gid="65"/>
   <tile gid="65"/>
   <tile gid="65"/>
   <tile gid="65"/>
   <tile gid="65"/>
   <tile gid="65"/>
   <tile gid="65"/>
   <tile/>
   <tile/>
   <tile/>
   <tile/>
   <tile/>
   <tile/>
   <tile/>
   <tile gid="65"/>
   <tile gid="65"/>
   <tile gid="65"/>
   <tile/>
   <tile/>
   <tile/>
   <tile/>
   <tile gid="65"/>
   <tile gid="65"/>
   <tile/>
   <tile/>
   <tile/>
   <tile/>
   <tile gid="65"/>
   <tile gid="65"/>
   <tile gid="65"/>
   <tile/>
   <tile/>
   <tile/>
   <tile/>
   <tile/>
   <tile/>
   <tile/>
   <tile/>
   <tile/>
   <tile/>
   <tile/>
   <tile/>
   <tile/>
   <tile/>
   <tile/>
   <tile/>
   <tile/>
   <tile/>
   <tile/>
   <tile/>
   <tile/>
   <tile/>
   <tile/>
   <tile/>
   <tile/>
   <tile/>
   <tile/>
   <tile/>
   <tile/>
   <tile/>
   <tile/>
   <tile gid="65"/>
   <tile gid="65"/>
   <tile gid="65"/>
   <tile/>
   <tile/>
   <tile/>
   <tile/>
   <tile/>
   <tile/>
   <tile/>
   <tile/>
   <tile/>
   <tile/>
   <tile/>
   <tile/>
   <tile/>
   <tile/>
   <tile/>
   <tile/>
   <tile/>
   <tile/>
   <tile/>
   <tile/>
   <tile/>
   <tile/>
   <tile/>
   <tile/>
   <tile/>
   <tile/>
   <tile/>
   <tile/>
   <tile/>
   <tile/>
   <tile/>
   <tile/>
   <tile/>
   <tile/>
   <tile/>
   <tile gid="65"/>
   <tile gid="65"/>
   <tile gid="65"/>
   <tile gid="65"/>
   <tile gid="65"/>
   <tile gid="65"/>
   <tile gid="65"/>
   <tile gid="65"/>
   <tile gid="65"/>
   <tile gid="65"/>
   <tile gid="65"/>
   <tile gid="65"/>
   <tile/>
   <tile/>
   <tile/>
   <tile/>
   <tile/>
   <tile/>
   <tile/>
   <tile gid="65"/>
   <tile gid="65"/>
   <tile gid="65"/>
   <tile/>
   <tile/>
   <tile/>
   <tile/>
   <tile/>
   <tile/>
   <tile/>
   <tile/>
   <tile/>
   <tile/>
   <tile gid="65"/>
   <tile gid="65"/>
   <tile gid="65"/>
   <tile/>
   <tile/>
   <tile/>
   <tile/>
   <tile/>
   <tile/>
   <tile/>
   <tile/>
   <tile/>
   <tile/>
   <tile/>
   <tile/>
   <tile/>
   <tile/>
   <tile/>
   <tile/>
   <tile/>
   <tile/>
   <tile/>
   <tile/>
   <tile/>
   <tile/>
   <tile/>
   <tile/>
   <tile/>
   <tile/>
   <tile/>
   <tile/>
   <tile/>
   <tile/>
   <tile/>
   <tile/>
   <tile gid="65"/>
   <tile gid="65"/>
   <tile/>
   <tile/>
   <tile/>
   <tile/>
   <tile/>
   <tile/>
   <tile/>
   <tile/>
   <tile/>
   <tile/>
   <tile/>
   <tile/>
   <tile/>
   <tile/>
   <tile/>
   <tile/>
   <tile/>
   <tile/>
   <tile/>
   <tile/>
   <tile/>
   <tile/>
   <tile/>
   <tile/>
   <tile/>
   <tile/>
   <tile/>
   <tile/>
   <tile/>
   <tile/>
   <tile/>
   <tile/>
   <tile/>
   <tile/>
   <tile/>
   <tile gid="65"/>
   <tile gid="65"/>
   <tile gid="65"/>
   <tile gid="65"/>
   <tile gid="65"/>
   <tile gid="65"/>
   <tile gid="65"/>
   <tile gid="65"/>
   <tile gid="65"/>
   <tile gid="65"/>
   <tile gid="65"/>
   <tile gid="65"/>
   <tile/>
   <tile/>
   <tile/>
   <tile/>
   <tile/>
   <tile/>
   <tile/>
   <tile gid="65"/>
   <tile gid="65"/>
   <tile gid="65"/>
   <tile/>
   <tile/>
   <tile/>
   <tile/>
   <tile/>
   <tile/>
   <tile/>
   <tile/>
   <tile/>
   <tile/>
   <tile gid="65"/>
   <tile gid="65"/>
   <tile gid="65"/>
   <tile/>
   <tile/>
   <tile/>
   <tile/>
   <tile/>
   <tile/>
   <tile/>
   <tile/>
   <tile/>
   <tile/>
   <tile/>
   <tile/>
   <tile/>
   <tile/>
   <tile/>
   <tile/>
   <tile/>
   <tile/>
   <tile/>
   <tile/>
   <tile/>
   <tile/>
   <tile/>
   <tile/>
   <tile/>
   <tile/>
   <tile/>
   <tile/>
   <tile/>
   <tile/>
   <tile/>
   <tile/>
   <tile gid="65"/>
   <tile gid="65"/>
   <tile/>
   <tile/>
   <tile/>
   <tile/>
   <tile/>
   <tile/>
   <tile/>
   <tile/>
   <tile/>
   <tile/>
   <tile/>
   <tile/>
   <tile/>
   <tile/>
   <tile/>
   <tile/>
   <tile/>
   <tile/>
   <tile/>
   <tile/>
   <tile/>
   <tile/>
   <tile/>
   <tile/>
   <tile/>
   <tile/>
   <tile/>
   <tile/>
   <tile/>
   <tile/>
   <tile/>
   <tile/>
   <tile/>
   <tile/>
   <tile/>
   <tile gid="65"/>
   <tile gid="65"/>
   <tile gid="65"/>
   <tile gid="65"/>
   <tile gid="65"/>
   <tile gid="65"/>
   <tile gid="65"/>
   <tile gid="65"/>
   <tile gid="65"/>
   <tile gid="65"/>
   <tile gid="65"/>
   <tile gid="65"/>
   <tile/>
   <tile/>
   <tile/>
   <tile/>
   <tile/>
   <tile/>
   <tile/>
   <tile/>
   <tile/>
   <tile/>
   <tile/>
   <tile/>
   <tile/>
   <tile/>
   <tile/>
   <tile/>
   <tile/>
   <tile/>
   <tile/>
   <tile/>
   <tile/>
   <tile/>
   <tile/>
   <tile/>
   <tile/>
   <tile/>
   <tile/>
   <tile/>
   <tile/>
   <tile/>
   <tile/>
   <tile/>
   <tile/>
   <tile/>
   <tile/>
   <tile/>
   <tile/>
   <tile/>
   <tile/>
   <tile/>
   <tile/>
   <tile/>
   <tile/>
   <tile/>
   <tile/>
   <tile/>
   <tile/>
   <tile/>
   <tile/>
   <tile/>
   <tile/>
   <tile/>
   <tile/>
   <tile/>
   <tile/>
   <tile gid="65"/>
   <tile gid="65"/>
   <tile/>
   <tile/>
   <tile/>
   <tile/>
   <tile/>
   <tile/>
   <tile/>
   <tile/>
   <tile/>
   <tile/>
   <tile/>
   <tile/>
   <tile/>
   <tile/>
   <tile/>
   <tile/>
   <tile/>
   <tile/>
   <tile/>
   <tile/>
   <tile/>
   <tile/>
   <tile/>
   <tile/>
   <tile/>
   <tile/>
   <tile/>
   <tile/>
   <tile/>
   <tile/>
   <tile/>
   <tile/>
   <tile/>
   <tile/>
   <tile/>
   <tile gid="65"/>
   <tile gid="65"/>
   <tile gid="65"/>
   <tile gid="65"/>
   <tile gid="65"/>
   <tile gid="65"/>
   <tile gid="65"/>
   <tile gid="65"/>
   <tile gid="65"/>
   <tile gid="65"/>
   <tile gid="65"/>
   <tile gid="65"/>
   <tile/>
   <tile/>
   <tile/>
   <tile/>
   <tile/>
   <tile/>
   <tile/>
   <tile/>
   <tile/>
   <tile/>
   <tile/>
   <tile/>
   <tile/>
   <tile/>
   <tile/>
   <tile/>
   <tile/>
   <tile/>
   <tile/>
   <tile/>
   <tile/>
   <tile/>
   <tile/>
   <tile/>
   <tile/>
   <tile/>
   <tile/>
   <tile/>
   <tile gid="65"/>
   <tile gid="65"/>
   <tile gid="65"/>
   <tile/>
   <tile/>
   <tile/>
   <tile/>
   <tile/>
   <tile/>
   <tile/>
   <tile/>
   <tile/>
   <tile/>
   <tile/>
   <tile/>
   <tile/>
   <tile/>
   <tile/>
   <tile/>
   <tile/>
   <tile/>
   <tile/>
   <tile/>
   <tile/>
   <tile/>
   <tile/>
   <tile/>
   <tile gid="65"/>
   <tile gid="65"/>
   <tile/>
   <tile/>
   <tile/>
   <tile/>
   <tile/>
   <tile/>
   <tile/>
   <tile/>
   <tile/>
   <tile/>
   <tile/>
   <tile/>
   <tile/>
   <tile/>
   <tile/>
   <tile/>
   <tile/>
   <tile/>
   <tile/>
   <tile/>
   <tile/>
   <tile/>
   <tile/>
   <tile/>
   <tile/>
   <tile/>
   <tile/>
   <tile/>
   <tile/>
   <tile/>
   <tile/>
   <tile/>
   <tile/>
   <tile/>
   <tile/>
   <tile gid="65"/>
   <tile gid="65"/>
   <tile gid="65"/>
   <tile gid="65"/>
   <tile gid="65"/>
   <tile gid="65"/>
   <tile gid="65"/>
   <tile gid="65"/>
   <tile gid="65"/>
   <tile gid="65"/>
   <tile gid="65"/>
   <tile gid="65"/>
   <tile/>
   <tile/>
   <tile/>
   <tile/>
   <tile/>
   <tile/>
   <tile/>
   <tile/>
   <tile/>
   <tile/>
   <tile/>
   <tile/>
   <tile/>
   <tile/>
   <tile/>
   <tile/>
   <tile/>
   <tile/>
   <tile/>
   <tile/>
   <tile/>
   <tile/>
   <tile/>
   <tile/>
   <tile/>
   <tile/>
   <tile/>
   <tile/>
   <tile/>
   <tile/>
   <tile/>
   <tile/>
   <tile/>
   <tile/>
   <tile/>
   <tile/>
   <tile/>
   <tile/>
   <tile/>
   <tile/>
   <tile/>
   <tile/>
   <tile/>
   <tile/>
   <tile/>
   <tile/>
   <tile/>
   <tile/>
   <tile/>
   <tile/>
   <tile/>
   <tile/>
   <tile/>
   <tile/>
   <tile/>
   <tile gid="65"/>
   <tile gid="65"/>
   <tile/>
   <tile/>
   <tile/>
   <tile/>
   <tile/>
   <tile/>
   <tile/>
   <tile/>
   <tile/>
   <tile/>
   <tile/>
   <tile/>
   <tile/>
   <tile/>
   <tile/>
   <tile/>
   <tile/>
   <tile/>
   <tile/>
   <tile/>
   <tile/>
   <tile/>
   <tile/>
   <tile/>
   <tile gid="65"/>
   <tile gid="65"/>
   <tile gid="65"/>
   <tile gid="65"/>
   <tile gid="65"/>
   <tile gid="65"/>
   <tile gid="65"/>
   <tile gid="65"/>
   <tile gid="65"/>
   <tile gid="65"/>
   <tile gid="65"/>
   <tile gid="65"/>
   <tile gid="65"/>
   <tile gid="65"/>
   <tile gid="65"/>
   <tile gid="65"/>
   <tile gid="65"/>
   <tile gid="65"/>
   <tile gid="65"/>
   <tile gid="65"/>
   <tile gid="65"/>
   <tile gid="65"/>
   <tile gid="65"/>
   <tile gid="65"/>
   <tile gid="65"/>
   <tile gid="65"/>
   <tile gid="65"/>
   <tile gid="65"/>
   <tile gid="65"/>
   <tile gid="65"/>
   <tile gid="65"/>
   <tile gid="65"/>
   <tile gid="65"/>
   <tile gid="65"/>
   <tile gid="65"/>
   <tile gid="65"/>
   <tile gid="65"/>
   <tile gid="65"/>
   <tile gid="65"/>
   <tile gid="65"/>
   <tile gid="65"/>
   <tile gid="65"/>
   <tile gid="65"/>
   <tile gid="65"/>
   <tile gid="65"/>
   <tile gid="65"/>
   <tile gid="65"/>
   <tile gid="65"/>
   <tile gid="65"/>
   <tile gid="65"/>
   <tile gid="65"/>
   <tile/>
   <tile/>
   <tile/>
   <tile/>
   <tile/>
   <tile/>
   <tile/>
   <tile/>
   <tile/>
   <tile/>
   <tile/>
   <tile/>
   <tile/>
   <tile/>
   <tile/>
   <tile/>
   <tile/>
   <tile/>
   <tile/>
   <tile/>
   <tile/>
   <tile/>
   <tile/>
   <tile/>
   <tile/>
   <tile/>
   <tile/>
   <tile gid="65"/>
   <tile gid="65"/>
   <tile/>
   <tile/>
   <tile/>
   <tile/>
   <tile/>
   <tile/>
   <tile/>
   <tile/>
   <tile/>
   <tile/>
   <tile/>
   <tile/>
   <tile/>
   <tile/>
   <tile/>
   <tile/>
   <tile/>
   <tile/>
   <tile/>
   <tile/>
   <tile/>
   <tile/>
   <tile/>
   <tile/>
   <tile/>
   <tile/>
   <tile/>
   <tile/>
   <tile/>
   <tile/>
   <tile/>
   <tile/>
   <tile/>
   <tile/>
   <tile/>
   <tile gid="65"/>
   <tile gid="65"/>
   <tile gid="65"/>
   <tile gid="65"/>
   <tile gid="65"/>
   <tile gid="65"/>
   <tile gid="65"/>
   <tile gid="65"/>
   <tile gid="65"/>
   <tile gid="65"/>
   <tile gid="65"/>
   <tile gid="65"/>
   <tile gid="65"/>
   <tile gid="65"/>
   <tile gid="65"/>
   <tile gid="65"/>
   <tile gid="65"/>
   <tile gid="65"/>
   <tile gid="65"/>
   <tile gid="65"/>
   <tile gid="65"/>
   <tile gid="65"/>
   <tile gid="65"/>
   <tile gid="65"/>
   <tile gid="65"/>
   <tile gid="65"/>
   <tile gid="65"/>
   <tile gid="65"/>
   <tile gid="65"/>
   <tile gid="65"/>
   <tile gid="65"/>
   <tile gid="65"/>
   <tile gid="65"/>
   <tile gid="65"/>
   <tile gid="65"/>
   <tile gid="65"/>
   <tile gid="65"/>
   <tile gid="65"/>
   <tile gid="65"/>
   <tile gid="65"/>
   <tile/>
   <tile/>
   <tile/>
   <tile/>
   <tile/>
   <tile/>
   <tile/>
   <tile/>
   <tile/>
   <tile/>
   <tile/>
   <tile/>
   <tile/>
   <tile/>
   <tile/>
   <tile/>
   <tile/>
   <tile/>
   <tile/>
   <tile/>
   <tile/>
   <tile/>
   <tile/>
   <tile/>
   <tile/>
   <tile/>
   <tile/>
   <tile gid="65"/>
   <tile gid="65"/>
   <tile/>
   <tile/>
   <tile gid="65"/>
   <tile gid="65"/>
   <tile gid="65"/>
   <tile gid="65"/>
   <tile/>
   <tile/>
   <tile/>
   <tile/>
   <tile/>
   <tile/>
   <tile/>
   <tile/>
   <tile/>
   <tile/>
   <tile/>
   <tile/>
   <tile/>
   <tile/>
   <tile/>
   <tile/>
   <tile/>
   <tile/>
   <tile/>
   <tile/>
   <tile/>
   <tile/>
   <tile/>
   <tile/>
   <tile/>
   <tile/>
   <tile/>
   <tile/>
   <tile/>
   <tile gid="65"/>
   <tile gid="65"/>
   <tile/>
   <tile/>
   <tile/>
   <tile/>
   <tile/>
   <tile/>
   <tile/>
   <tile/>
   <tile/>
   <tile/>
   <tile/>
   <tile/>
   <tile/>
   <tile/>
   <tile/>
   <tile/>
   <tile/>
   <tile/>
   <tile/>
   <tile/>
   <tile/>
   <tile/>
   <tile/>
   <tile/>
   <tile/>
   <tile/>
   <tile/>
   <tile/>
   <tile/>
   <tile/>
   <tile/>
   <tile/>
   <tile/>
   <tile/>
   <tile/>
   <tile/>
   <tile/>
   <tile/>
   <tile/>
   <tile/>
   <tile/>
   <tile/>
   <tile/>
   <tile/>
   <tile/>
   <tile/>
   <tile/>
   <tile/>
   <tile/>
   <tile/>
   <tile/>
   <tile/>
   <tile/>
   <tile/>
   <tile/>
   <tile/>
   <tile/>
   <tile/>
   <tile/>
   <tile/>
   <tile/>
   <tile/>
   <tile/>
   <tile/>
   <tile/>
   <tile gid="65"/>
   <tile gid="65"/>
   <tile/>
   <tile/>
   <tile/>
   <tile/>
   <tile/>
   <tile/>
   <tile/>
   <tile/>
   <tile/>
   <tile/>
   <tile/>
   <tile/>
   <tile/>
   <tile/>
   <tile/>
   <tile/>
   <tile/>
   <tile/>
   <tile/>
   <tile/>
   <tile/>
   <tile/>
   <tile/>
   <tile/>
   <tile/>
   <tile/>
   <tile/>
   <tile/>
   <tile/>
   <tile/>
   <tile/>
   <tile/>
   <tile/>
   <tile/>
   <tile/>
   <tile gid="65"/>
   <tile gid="65"/>
   <tile/>
   <tile/>
   <tile/>
   <tile/>
   <tile/>
   <tile/>
   <tile/>
   <tile/>
   <tile/>
   <tile/>
   <tile/>
   <tile/>
   <tile/>
   <tile/>
   <tile/>
   <tile/>
   <tile/>
   <tile/>
   <tile/>
   <tile/>
   <tile/>
   <tile/>
   <tile/>
   <tile/>
   <tile/>
   <tile/>
   <tile/>
   <tile/>
   <tile/>
   <tile/>
   <tile/>
   <tile/>
   <tile/>
   <tile/>
   <tile/>
   <tile/>
   <tile/>
   <tile/>
   <tile/>
   <tile/>
   <tile/>
   <tile/>
   <tile/>
   <tile/>
   <tile/>
   <tile/>
   <tile/>
   <tile/>
   <tile/>
   <tile/>
   <tile/>
   <tile/>
   <tile/>
   <tile/>
   <tile/>
   <tile/>
   <tile/>
   <tile/>
   <tile/>
   <tile/>
   <tile/>
   <tile/>
   <tile/>
   <tile/>
   <tile/>
   <tile gid="65"/>
   <tile gid="65"/>
   <tile/>
   <tile/>
   <tile/>
   <tile/>
   <tile/>
   <tile/>
   <tile/>
   <tile/>
   <tile/>
   <tile/>
   <tile/>
   <tile/>
   <tile/>
   <tile/>
   <tile/>
   <tile/>
   <tile/>
   <tile/>
   <tile/>
   <tile/>
   <tile/>
   <tile/>
   <tile/>
   <tile/>
   <tile/>
   <tile/>
   <tile/>
   <tile/>
   <tile/>
   <tile/>
   <tile/>
   <tile/>
   <tile/>
   <tile/>
   <tile/>
   <tile gid="65"/>
   <tile gid="65"/>
   <tile gid="65"/>
   <tile/>
   <tile/>
   <tile/>
   <tile/>
   <tile/>
   <tile/>
   <tile/>
   <tile/>
   <tile/>
   <tile/>
   <tile/>
   <tile/>
   <tile/>
   <tile/>
   <tile/>
   <tile/>
   <tile/>
   <tile/>
   <tile/>
   <tile/>
   <tile/>
   <tile/>
   <tile/>
   <tile/>
   <tile/>
   <tile/>
   <tile/>
   <tile/>
   <tile/>
   <tile/>
   <tile/>
   <tile/>
   <tile/>
   <tile/>
   <tile/>
   <tile/>
   <tile/>
   <tile/>
   <tile/>
   <tile/>
   <tile/>
   <tile/>
   <tile/>
   <tile/>
   <tile/>
   <tile/>
   <tile/>
   <tile/>
   <tile/>
   <tile/>
   <tile/>
   <tile/>
   <tile/>
   <tile/>
   <tile/>
   <tile/>
   <tile/>
   <tile/>
   <tile/>
   <tile/>
   <tile/>
   <tile/>
   <tile/>
   <tile/>
   <tile gid="65"/>
   <tile gid="65"/>
   <tile/>
   <tile/>
   <tile/>
   <tile/>
   <tile/>
   <tile/>
   <tile/>
   <tile/>
   <tile/>
   <tile/>
   <tile/>
   <tile/>
   <tile/>
   <tile/>
   <tile/>
   <tile/>
   <tile gid="65"/>
   <tile gid="65"/>
   <tile gid="65"/>
   <tile gid="65"/>
   <tile/>
   <tile/>
   <tile/>
   <tile/>
   <tile/>
   <tile/>
   <tile/>
   <tile/>
   <tile/>
   <tile/>
   <tile/>
   <tile/>
   <tile/>
   <tile/>
   <tile/>
   <tile gid="65"/>
   <tile gid="65"/>
   <tile gid="65"/>
   <tile/>
   <tile/>
   <tile/>
   <tile/>
   <tile/>
   <tile/>
   <tile/>
   <tile/>
   <tile/>
   <tile/>
   <tile/>
   <tile/>
   <tile/>
   <tile/>
   <tile/>
   <tile/>
   <tile/>
   <tile/>
   <tile/>
   <tile/>
   <tile/>
   <tile/>
   <tile/>
   <tile/>
   <tile/>
   <tile/>
   <tile/>
   <tile/>
   <tile/>
   <tile/>
   <tile/>
   <tile/>
   <tile/>
   <tile/>
   <tile/>
   <tile/>
   <tile/>
   <tile/>
   <tile/>
   <tile/>
   <tile/>
   <tile/>
   <tile/>
   <tile/>
   <tile/>
   <tile/>
   <tile/>
   <tile/>
   <tile/>
   <tile/>
   <tile/>
   <tile/>
   <tile/>
   <tile/>
   <tile/>
   <tile/>
   <tile/>
   <tile/>
   <tile/>
   <tile/>
   <tile/>
   <tile/>
   <tile/>
   <tile/>
   <tile gid="65"/>
   <tile gid="65"/>
   <tile/>
   <tile/>
   <tile/>
   <tile/>
   <tile/>
   <tile/>
   <tile/>
   <tile/>
   <tile/>
   <tile/>
   <tile/>
   <tile/>
   <tile/>
   <tile/>
   <tile/>
   <tile/>
   <tile/>
   <tile/>
   <tile/>
   <tile/>
   <tile/>
   <tile/>
   <tile/>
   <tile/>
   <tile/>
   <tile/>
   <tile/>
   <tile/>
   <tile/>
   <tile/>
   <tile/>
   <tile/>
   <tile/>
   <tile/>
   <tile/>
   <tile gid="65"/>
   <tile gid="65"/>
   <tile gid="65"/>
   <tile/>
   <tile/>
   <tile/>
   <tile/>
   <tile/>
   <tile/>
   <tile/>
   <tile/>
   <tile/>
   <tile/>
   <tile/>
   <tile/>
   <tile/>
   <tile/>
   <tile/>
   <tile/>
   <tile/>
   <tile/>
   <tile/>
   <tile/>
   <tile/>
   <tile/>
   <tile/>
   <tile/>
   <tile/>
   <tile/>
   <tile/>
   <tile/>
   <tile/>
   <tile/>
   <tile/>
   <tile/>
   <tile/>
   <tile/>
   <tile/>
   <tile/>
   <tile/>
   <tile/>
   <tile/>
   <tile/>
   <tile/>
   <tile/>
   <tile/>
   <tile/>
   <tile/>
   <tile/>
   <tile/>
   <tile/>
   <tile/>
   <tile/>
   <tile/>
   <tile/>
   <tile/>
   <tile/>
   <tile/>
   <tile/>
   <tile/>
   <tile/>
   <tile/>
   <tile/>
   <tile/>
   <tile/>
   <tile/>
   <tile/>
   <tile gid="65"/>
   <tile gid="65"/>
   <tile gid="65"/>
   <tile gid="65"/>
   <tile gid="65"/>
   <tile gid="65"/>
   <tile gid="65"/>
   <tile gid="65"/>
   <tile gid="65"/>
   <tile gid="65"/>
   <tile gid="65"/>
   <tile gid="65"/>
   <tile gid="65"/>
   <tile gid="65"/>
   <tile gid="65"/>
   <tile/>
   <tile/>
   <tile/>
   <tile/>
   <tile/>
   <tile/>
   <tile/>
   <tile/>
   <tile/>
   <tile/>
   <tile/>
   <tile/>
   <tile/>
   <tile/>
   <tile/>
   <tile/>
   <tile/>
   <tile/>
   <tile/>
   <tile/>
   <tile/>
   <tile/>
   <tile gid="65"/>
   <tile gid="65"/>
   <tile/>
   <tile/>
   <tile/>
   <tile/>
   <tile/>
   <tile/>
   <tile/>
   <tile/>
   <tile/>
   <tile gid="65"/>
   <tile gid="65"/>
   <tile gid="65"/>
   <tile gid="65"/>
   <tile/>
   <tile/>
   <tile/>
   <tile/>
   <tile/>
   <tile/>
   <tile/>
   <tile/>
   <tile/>
   <tile/>
   <tile/>
   <tile/>
   <tile/>
   <tile/>
   <tile/>
   <tile/>
   <tile/>
   <tile/>
   <tile/>
   <tile/>
   <tile/>
   <tile/>
   <tile/>
   <tile/>
   <tile/>
   <tile/>
   <tile/>
   <tile/>
   <tile/>
   <tile/>
   <tile/>
   <tile/>
   <tile/>
   <tile/>
   <tile/>
   <tile/>
   <tile/>
   <tile/>
   <tile/>
   <tile/>
   <tile/>
   <tile/>
   <tile/>
   <tile/>
   <tile/>
   <tile/>
   <tile/>
   <tile/>
   <tile/>
   <tile/>
   <tile/>
   <tile/>
   <tile gid="65"/>
   <tile gid="65"/>
   <tile gid="65"/>
   <tile gid="65"/>
   <tile gid="65"/>
   <tile gid="65"/>
   <tile gid="65"/>
   <tile gid="65"/>
   <tile gid="65"/>
   <tile gid="65"/>
   <tile gid="65"/>
   <tile gid="65"/>
   <tile gid="65"/>
   <tile gid="65"/>
   <tile gid="65"/>
   <tile gid="65"/>
   <tile gid="65"/>
   <tile gid="65"/>
   <tile gid="65"/>
   <tile gid="65"/>
   <tile gid="65"/>
   <tile gid="65"/>
   <tile gid="65"/>
   <tile gid="65"/>
   <tile gid="65"/>
   <tile gid="65"/>
   <tile gid="65"/>
   <tile gid="65"/>
   <tile gid="65"/>
   <tile gid="65"/>
   <tile gid="65"/>
   <tile gid="65"/>
   <tile gid="65"/>
   <tile/>
   <tile/>
   <tile/>
   <tile/>
   <tile gid="65"/>
   <tile gid="65"/>
   <tile/>
   <tile/>
   <tile/>
   <tile/>
   <tile/>
   <tile/>
   <tile/>
   <tile/>
   <tile gid="65"/>
   <tile gid="65"/>
   <tile gid="65"/>
   <tile gid="65"/>
   <tile gid="65"/>
   <tile/>
   <tile/>
   <tile/>
   <tile/>
   <tile/>
   <tile/>
   <tile/>
   <tile/>
   <tile/>
   <tile/>
   <tile/>
   <tile/>
   <tile/>
   <tile/>
   <tile/>
   <tile/>
   <tile/>
   <tile/>
   <tile/>
   <tile/>
   <tile/>
   <tile/>
   <tile/>
   <tile/>
   <tile/>
   <tile/>
   <tile/>
   <tile/>
   <tile/>
   <tile/>
   <tile/>
   <tile/>
   <tile/>
   <tile/>
   <tile/>
   <tile/>
   <tile/>
   <tile/>
   <tile/>
   <tile/>
   <tile/>
   <tile/>
   <tile/>
   <tile/>
   <tile/>
   <tile/>
   <tile/>
   <tile/>
   <tile/>
   <tile/>
   <tile/>
   <tile/>
   <tile gid="65"/>
   <tile gid="65"/>
   <tile/>
   <tile/>
   <tile/>
   <tile/>
   <tile/>
   <tile/>
   <tile/>
   <tile/>
   <tile/>
   <tile/>
   <tile/>
   <tile/>
   <tile/>
   <tile/>
   <tile/>
   <tile/>
   <tile/>
   <tile/>
   <tile/>
   <tile/>
   <tile/>
   <tile/>
   <tile/>
   <tile/>
   <tile/>
   <tile/>
   <tile/>
   <tile/>
   <tile/>
   <tile/>
   <tile/>
   <tile/>
   <tile/>
   <tile/>
   <tile/>
   <tile gid="65"/>
   <tile gid="65"/>
   <tile/>
   <tile/>
   <tile/>
   <tile/>
   <tile/>
   <tile/>
   <tile/>
   <tile/>
   <tile gid="65"/>
   <tile gid="65"/>
   <tile gid="65"/>
   <tile gid="65"/>
   <tile gid="65"/>
   <tile/>
   <tile/>
   <tile/>
   <tile/>
   <tile/>
   <tile/>
   <tile/>
   <tile/>
   <tile/>
   <tile/>
   <tile/>
   <tile/>
   <tile/>
   <tile/>
   <tile/>
   <tile/>
   <tile/>
   <tile/>
   <tile/>
   <tile/>
   <tile/>
   <tile/>
   <tile/>
   <tile/>
   <tile/>
   <tile/>
   <tile/>
   <tile/>
   <tile/>
   <tile/>
   <tile/>
   <tile/>
   <tile/>
   <tile/>
   <tile/>
   <tile/>
   <tile/>
   <tile/>
   <tile/>
   <tile/>
   <tile/>
   <tile/>
   <tile/>
   <tile/>
   <tile/>
   <tile/>
   <tile/>
   <tile/>
   <tile/>
   <tile/>
   <tile/>
   <tile/>
   <tile gid="65"/>
   <tile gid="65"/>
   <tile/>
   <tile/>
   <tile/>
   <tile/>
   <tile/>
   <tile/>
   <tile/>
   <tile/>
   <tile/>
   <tile/>
   <tile/>
   <tile/>
   <tile/>
   <tile/>
   <tile/>
   <tile/>
   <tile/>
   <tile/>
   <tile/>
   <tile/>
   <tile/>
   <tile/>
   <tile/>
   <tile/>
   <tile/>
   <tile/>
   <tile/>
   <tile/>
   <tile/>
   <tile/>
   <tile/>
   <tile/>
   <tile/>
   <tile/>
   <tile/>
   <tile gid="65"/>
   <tile gid="65"/>
   <tile gid="65"/>
   <tile/>
   <tile/>
   <tile/>
   <tile/>
   <tile/>
   <tile/>
   <tile/>
   <tile gid="65"/>
   <tile gid="65"/>
   <tile gid="65"/>
   <tile gid="65"/>
   <tile gid="65"/>
   <tile/>
   <tile/>
   <tile/>
   <tile/>
   <tile/>
   <tile/>
   <tile/>
   <tile/>
   <tile/>
   <tile/>
   <tile/>
   <tile/>
   <tile/>
   <tile/>
   <tile/>
   <tile/>
   <tile/>
   <tile/>
   <tile/>
   <tile/>
   <tile/>
   <tile/>
   <tile/>
   <tile/>
   <tile/>
   <tile/>
   <tile/>
   <tile/>
   <tile/>
   <tile/>
   <tile/>
   <tile/>
   <tile/>
   <tile/>
   <tile/>
   <tile/>
   <tile/>
   <tile/>
   <tile/>
   <tile/>
   <tile/>
   <tile/>
   <tile/>
   <tile/>
   <tile/>
   <tile/>
   <tile/>
   <tile/>
   <tile/>
   <tile gid="65"/>
   <tile gid="65"/>
   <tile gid="65"/>
   <tile gid="65"/>
   <tile gid="65"/>
   <tile/>
   <tile/>
   <tile/>
   <tile/>
   <tile/>
   <tile/>
   <tile/>
   <tile/>
   <tile/>
   <tile/>
   <tile/>
   <tile/>
   <tile/>
   <tile/>
   <tile/>
   <tile/>
   <tile/>
   <tile/>
   <tile/>
   <tile/>
   <tile/>
   <tile/>
   <tile/>
   <tile/>
   <tile/>
   <tile/>
   <tile/>
   <tile/>
   <tile/>
   <tile/>
   <tile/>
   <tile/>
   <tile/>
   <tile/>
   <tile/>
   <tile gid="65"/>
   <tile gid="65"/>
   <tile gid="65"/>
   <tile/>
   <tile/>
   <tile/>
   <tile/>
   <tile/>
   <tile/>
   <tile/>
   <tile gid="65"/>
   <tile gid="65"/>
   <tile gid="65"/>
   <tile gid="65"/>
   <tile gid="65"/>
   <tile/>
   <tile/>
   <tile/>
   <tile gid="65"/>
   <tile gid="65"/>
   <tile gid="65"/>
   <tile/>
   <tile/>
   <tile/>
   <tile/>
   <tile/>
   <tile/>
   <tile/>
   <tile/>
   <tile/>
   <tile/>
   <tile/>
   <tile/>
   <tile/>
   <tile/>
   <tile/>
   <tile/>
   <tile/>
   <tile/>
   <tile/>
   <tile/>
   <tile/>
   <tile/>
   <tile/>
   <tile/>
   <tile/>
   <tile/>
   <tile/>
   <tile/>
   <tile/>
   <tile/>
   <tile/>
   <tile/>
   <tile/>
   <tile/>
   <tile/>
   <tile/>
   <tile/>
   <tile/>
   <tile/>
   <tile/>
   <tile/>
   <tile/>
   <tile/>
   <tile/>
   <tile/>
   <tile/>
   <tile gid="65"/>
   <tile gid="65"/>
   <tile/>
   <tile/>
   <tile/>
   <tile/>
   <tile/>
   <tile/>
   <tile/>
   <tile/>
   <tile/>
   <tile/>
   <tile/>
   <tile/>
   <tile/>
   <tile/>
   <tile/>
   <tile/>
   <tile/>
   <tile/>
   <tile/>
   <tile/>
   <tile/>
   <tile/>
   <tile/>
   <tile/>
   <tile/>
   <tile/>
   <tile/>
   <tile/>
   <tile/>
   <tile/>
   <tile/>
   <tile/>
   <tile/>
   <tile/>
   <tile/>
   <tile gid="65"/>
   <tile gid="65"/>
   <tile gid="65"/>
   <tile/>
   <tile/>
   <tile/>
   <tile/>
   <tile/>
   <tile/>
   <tile/>
   <tile gid="65"/>
   <tile gid="65"/>
   <tile gid="65"/>
   <tile gid="65"/>
   <tile gid="65"/>
   <tile/>
   <tile/>
   <tile/>
   <tile/>
   <tile/>
   <tile/>
   <tile/>
   <tile/>
   <tile/>
   <tile/>
   <tile/>
   <tile/>
   <tile/>
   <tile/>
   <tile/>
   <tile/>
   <tile/>
   <tile/>
   <tile/>
   <tile/>
   <tile/>
   <tile/>
   <tile/>
   <tile/>
   <tile/>
   <tile/>
   <tile/>
   <tile/>
   <tile/>
   <tile/>
   <tile/>
   <tile/>
   <tile/>
   <tile/>
   <tile/>
   <tile/>
   <tile/>
   <tile/>
   <tile/>
   <tile/>
   <tile/>
   <tile/>
   <tile/>
   <tile/>
   <tile/>
   <tile/>
   <tile/>
   <tile/>
   <tile/>
   <tile/>
   <tile/>
   <tile/>
   <tile gid="65"/>
   <tile gid="65"/>
   <tile/>
   <tile/>
   <tile/>
   <tile/>
   <tile/>
   <tile/>
   <tile/>
   <tile/>
   <tile/>
   <tile/>
   <tile/>
   <tile/>
   <tile/>
   <tile/>
   <tile/>
   <tile/>
   <tile/>
   <tile/>
   <tile/>
   <tile/>
   <tile/>
   <tile/>
   <tile/>
   <tile/>
   <tile/>
   <tile/>
   <tile/>
   <tile/>
   <tile/>
   <tile/>
   <tile/>
   <tile/>
   <tile/>
   <tile/>
   <tile/>
   <tile gid="65"/>
   <tile gid="65"/>
   <tile gid="65"/>
   <tile/>
   <tile/>
   <tile/>
   <tile gid="65"/>
   <tile/>
   <tile/>
   <tile/>
   <tile gid="65"/>
   <tile gid="65"/>
   <tile gid="65"/>
   <tile gid="65"/>
   <tile gid="65"/>
   <tile/>
   <tile/>
   <tile/>
   <tile/>
   <tile/>
   <tile/>
   <tile/>
   <tile/>
   <tile/>
   <tile/>
   <tile/>
   <tile/>
   <tile/>
   <tile/>
   <tile/>
   <tile/>
   <tile/>
   <tile/>
   <tile/>
   <tile/>
   <tile/>
   <tile/>
   <tile/>
   <tile/>
   <tile/>
   <tile/>
   <tile/>
   <tile/>
   <tile/>
   <tile/>
   <tile/>
   <tile/>
   <tile/>
   <tile/>
   <tile/>
   <tile/>
   <tile/>
   <tile/>
   <tile/>
   <tile/>
   <tile/>
   <tile/>
   <tile/>
   <tile/>
   <tile/>
   <tile/>
   <tile/>
   <tile/>
   <tile/>
   <tile/>
   <tile/>
   <tile/>
   <tile gid="65"/>
   <tile gid="65"/>
   <tile/>
   <tile/>
   <tile/>
   <tile/>
   <tile/>
   <tile/>
   <tile/>
   <tile/>
   <tile/>
   <tile/>
   <tile/>
   <tile/>
   <tile/>
   <tile/>
   <tile/>
   <tile/>
   <tile/>
   <tile/>
   <tile/>
   <tile/>
   <tile/>
   <tile/>
   <tile/>
   <tile/>
   <tile/>
   <tile/>
   <tile/>
   <tile/>
   <tile/>
   <tile/>
   <tile/>
   <tile/>
   <tile/>
   <tile/>
   <tile/>
   <tile gid="65"/>
   <tile gid="65"/>
   <tile gid="65"/>
   <tile/>
   <tile/>
   <tile/>
   <tile gid="65"/>
   <tile/>
   <tile/>
   <tile/>
   <tile/>
   <tile gid="65"/>
   <tile gid="65"/>
   <tile gid="65"/>
   <tile gid="65"/>
   <tile/>
   <tile/>
   <tile/>
   <tile/>
   <tile/>
   <tile/>
   <tile/>
   <tile/>
   <tile/>
   <tile/>
   <tile gid="65"/>
   <tile gid="65"/>
   <tile gid="65"/>
   <tile/>
   <tile/>
   <tile/>
   <tile/>
   <tile/>
   <tile/>
   <tile/>
   <tile/>
   <tile/>
   <tile/>
   <tile/>
   <tile/>
   <tile/>
   <tile/>
   <tile/>
   <tile/>
   <tile/>
   <tile/>
   <tile/>
   <tile/>
   <tile/>
   <tile/>
   <tile/>
   <tile/>
   <tile/>
   <tile/>
   <tile/>
   <tile/>
   <tile/>
   <tile/>
   <tile/>
   <tile/>
   <tile/>
   <tile/>
   <tile/>
   <tile/>
   <tile/>
   <tile/>
   <tile/>
   <tile gid="65"/>
   <tile gid="65"/>
   <tile gid="65"/>
   <tile gid="65"/>
   <tile gid="65"/>
   <tile gid="65"/>
   <tile gid="65"/>
   <tile gid="65"/>
   <tile gid="65"/>
   <tile gid="65"/>
   <tile gid="65"/>
   <tile gid="65"/>
   <tile gid="65"/>
   <tile gid="65"/>
   <tile gid="65"/>
   <tile gid="65"/>
   <tile gid="65"/>
   <tile gid="65"/>
   <tile gid="65"/>
   <tile gid="65"/>
   <tile gid="65"/>
   <tile gid="65"/>
   <tile gid="65"/>
   <tile gid="65"/>
   <tile gid="65"/>
   <tile gid="65"/>
   <tile gid="65"/>
   <tile gid="65"/>
   <tile gid="65"/>
   <tile gid="65"/>
   <tile gid="65"/>
   <tile gid="65"/>
   <tile gid="65"/>
   <tile gid="65"/>
   <tile/>
   <tile/>
   <tile/>
   <tile gid="65"/>
   <tile gid="65"/>
   <tile gid="65"/>
   <tile/>
   <tile/>
   <tile/>
   <tile gid="65"/>
   <tile/>
   <tile/>
   <tile/>
   <tile/>
   <tile gid="65"/>
   <tile gid="65"/>
   <tile gid="65"/>
   <tile gid="65"/>
   <tile/>
   <tile/>
   <tile/>
   <tile/>
   <tile/>
   <tile/>
   <tile/>
   <tile/>
   <tile/>
   <tile/>
   <tile/>
   <tile/>
   <tile/>
   <tile/>
   <tile/>
   <tile/>
   <tile/>
   <tile/>
   <tile/>
   <tile/>
   <tile/>
   <tile/>
   <tile/>
   <tile/>
   <tile/>
   <tile/>
   <tile/>
   <tile/>
   <tile/>
   <tile/>
   <tile/>
   <tile/>
   <tile/>
   <tile/>
   <tile/>
   <tile/>
   <tile/>
   <tile/>
   <tile/>
   <tile/>
   <tile/>
   <tile/>
   <tile/>
   <tile/>
   <tile/>
   <tile/>
   <tile/>
   <tile/>
   <tile/>
   <tile/>
   <tile/>
   <tile/>
   <tile gid="65"/>
   <tile gid="65"/>
   <tile gid="65"/>
   <tile gid="65"/>
   <tile gid="65"/>
   <tile gid="65"/>
   <tile gid="65"/>
   <tile gid="65"/>
   <tile gid="65"/>
   <tile gid="65"/>
   <tile gid="65"/>
   <tile gid="65"/>
   <tile gid="65"/>
   <tile gid="65"/>
   <tile gid="65"/>
   <tile gid="65"/>
   <tile gid="65"/>
   <tile gid="65"/>
   <tile gid="65"/>
   <tile gid="65"/>
   <tile gid="65"/>
   <tile gid="65"/>
   <tile gid="65"/>
   <tile gid="65"/>
   <tile gid="65"/>
   <tile gid="65"/>
   <tile gid="65"/>
   <tile gid="65"/>
   <tile gid="65"/>
   <tile gid="65"/>
   <tile gid="65"/>
   <tile gid="65"/>
   <tile gid="65"/>
   <tile gid="65"/>
   <tile/>
   <tile/>
   <tile/>
   <tile gid="65"/>
   <tile gid="65"/>
   <tile gid="65"/>
   <tile/>
   <tile/>
   <tile/>
   <tile gid="65"/>
   <tile/>
   <tile/>
   <tile/>
   <tile/>
   <tile gid="65"/>
   <tile gid="65"/>
   <tile gid="65"/>
   <tile gid="65"/>
   <tile/>
   <tile/>
   <tile/>
   <tile/>
   <tile/>
   <tile/>
   <tile/>
   <tile/>
   <tile/>
   <tile/>
   <tile/>
   <tile/>
   <tile/>
   <tile/>
   <tile/>
   <tile/>
   <tile/>
   <tile/>
   <tile/>
   <tile/>
   <tile/>
   <tile/>
   <tile/>
   <tile/>
   <tile/>
   <tile/>
   <tile/>
   <tile/>
   <tile/>
   <tile/>
   <tile/>
   <tile/>
   <tile/>
   <tile/>
   <tile/>
   <tile/>
   <tile/>
   <tile/>
   <tile/>
   <tile/>
   <tile/>
   <tile/>
   <tile/>
   <tile/>
   <tile/>
   <tile/>
   <tile/>
   <tile/>
   <tile/>
   <tile/>
   <tile/>
   <tile/>
   <tile gid="65"/>
   <tile gid="65"/>
   <tile/>
   <tile/>
   <tile/>
   <tile/>
   <tile/>
   <tile/>
   <tile/>
   <tile/>
   <tile/>
   <tile/>
   <tile/>
   <tile/>
   <tile/>
   <tile/>
   <tile/>
   <tile/>
   <tile/>
   <tile/>
   <tile/>
   <tile/>
   <tile/>
   <tile/>
   <tile/>
   <tile/>
   <tile/>
   <tile/>
   <tile/>
   <tile/>
   <tile/>
   <tile/>
   <tile/>
   <tile/>
   <tile/>
   <tile/>
   <tile/>
   <tile gid="65"/>
   <tile gid="65"/>
   <tile gid="65"/>
   <tile/>
   <tile/>
   <tile/>
   <tile/>
   <tile/>
   <tile/>
   <tile/>
   <tile/>
   <tile gid="65"/>
   <tile gid="65"/>
   <tile gid="65"/>
   <tile gid="65"/>
   <tile/>
   <tile/>
   <tile/>
   <tile/>
   <tile/>
   <tile/>
   <tile/>
   <tile/>
   <tile/>
   <tile/>
   <tile/>
   <tile/>
   <tile/>
   <tile/>
   <tile/>
   <tile/>
   <tile/>
   <tile/>
   <tile gid="65"/>
   <tile gid="65"/>
   <tile gid="65"/>
   <tile/>
   <tile/>
   <tile/>
   <tile/>
   <tile/>
   <tile/>
   <tile/>
   <tile/>
   <tile/>
   <tile/>
   <tile/>
   <tile/>
   <tile/>
   <tile/>
   <tile/>
   <tile/>
   <tile/>
   <tile/>
   <tile/>
   <tile/>
   <tile/>
   <tile/>
   <tile/>
   <tile/>
   <tile/>
   <tile/>
   <tile/>
   <tile/>
   <tile/>
   <tile/>
   <tile/>
   <tile gid="65"/>
   <tile gid="65"/>
   <tile/>
   <tile/>
   <tile/>
   <tile/>
   <tile/>
   <tile/>
   <tile/>
   <tile/>
   <tile/>
   <tile/>
   <tile/>
   <tile/>
   <tile/>
   <tile/>
   <tile/>
   <tile/>
   <tile/>
   <tile/>
   <tile/>
   <tile/>
   <tile/>
   <tile/>
   <tile/>
   <tile/>
   <tile/>
   <tile/>
   <tile/>
   <tile/>
   <tile/>
   <tile/>
   <tile/>
   <tile/>
   <tile/>
   <tile/>
   <tile/>
   <tile gid="65"/>
   <tile gid="65"/>
   <tile gid="65"/>
   <tile/>
   <tile/>
   <tile/>
   <tile/>
   <tile/>
   <tile/>
   <tile/>
   <tile/>
   <tile gid="65"/>
   <tile gid="65"/>
   <tile gid="65"/>
   <tile gid="65"/>
   <tile/>
   <tile/>
   <tile/>
   <tile/>
   <tile/>
   <tile/>
   <tile/>
   <tile/>
   <tile/>
   <tile/>
   <tile/>
   <tile/>
   <tile/>
   <tile/>
   <tile/>
   <tile/>
   <tile/>
   <tile/>
   <tile/>
   <tile/>
   <tile/>
   <tile/>
   <tile/>
   <tile/>
   <tile/>
   <tile/>
   <tile/>
   <tile/>
   <tile/>
   <tile/>
   <tile/>
   <tile/>
   <tile/>
   <tile/>
   <tile/>
   <tile/>
   <tile/>
   <tile/>
   <tile/>
   <tile/>
   <tile/>
   <tile/>
   <tile/>
   <tile/>
   <tile/>
   <tile/>
   <tile/>
   <tile/>
   <tile/>
   <tile/>
   <tile/>
   <tile/>
   <tile gid="65"/>
   <tile gid="65"/>
   <tile/>
   <tile/>
   <tile/>
   <tile/>
   <tile/>
   <tile/>
   <tile/>
   <tile/>
   <tile/>
   <tile/>
   <tile/>
   <tile/>
   <tile/>
   <tile/>
   <tile/>
   <tile/>
   <tile/>
   <tile/>
   <tile/>
   <tile/>
   <tile/>
   <tile/>
   <tile/>
   <tile/>
   <tile/>
   <tile/>
   <tile/>
   <tile/>
   <tile/>
   <tile/>
   <tile/>
   <tile/>
   <tile/>
   <tile/>
   <tile/>
   <tile gid="65"/>
   <tile gid="65"/>
   <tile/>
   <tile/>
   <tile/>
   <tile/>
   <tile/>
   <tile/>
   <tile/>
   <tile/>
   <tile gid="65"/>
   <tile gid="65"/>
   <tile gid="65"/>
   <tile gid="65"/>
   <tile gid="65"/>
   <tile/>
   <tile/>
   <tile/>
   <tile/>
   <tile/>
   <tile/>
   <tile/>
   <tile/>
   <tile/>
   <tile/>
   <tile/>
   <tile/>
   <tile/>
   <tile/>
   <tile/>
   <tile/>
   <tile/>
   <tile/>
   <tile/>
   <tile/>
   <tile/>
   <tile/>
   <tile/>
   <tile/>
   <tile/>
   <tile/>
   <tile/>
   <tile/>
   <tile/>
   <tile/>
   <tile/>
   <tile/>
   <tile/>
   <tile/>
   <tile/>
   <tile/>
   <tile/>
   <tile/>
   <tile/>
   <tile/>
   <tile/>
   <tile/>
   <tile/>
   <tile/>
   <tile/>
   <tile/>
   <tile/>
   <tile/>
   <tile/>
   <tile/>
   <tile/>
   <tile/>
   <tile gid="65"/>
   <tile gid="65"/>
   <tile/>
   <tile/>
   <tile/>
   <tile/>
   <tile/>
   <tile/>
   <tile/>
   <tile/>
   <tile/>
   <tile/>
   <tile/>
   <tile/>
   <tile/>
   <tile/>
   <tile/>
   <tile/>
   <tile/>
   <tile/>
   <tile/>
   <tile/>
   <tile/>
   <tile/>
   <tile/>
   <tile/>
   <tile/>
   <tile/>
   <tile/>
   <tile/>
   <tile/>
   <tile/>
   <tile/>
   <tile/>
   <tile/>
   <tile/>
   <tile/>
   <tile gid="65"/>
   <tile gid="65"/>
   <tile/>
   <tile/>
   <tile/>
   <tile/>
   <tile/>
   <tile/>
   <tile/>
   <tile/>
   <tile gid="65"/>
   <tile gid="65"/>
   <tile gid="65"/>
   <tile gid="65"/>
   <tile gid="65"/>
   <tile/>
   <tile/>
   <tile/>
   <tile/>
   <tile/>
   <tile/>
   <tile/>
   <tile/>
   <tile/>
   <tile/>
   <tile/>
   <tile/>
   <tile/>
   <tile/>
   <tile/>
   <tile/>
   <tile/>
   <tile/>
   <tile/>
   <tile/>
   <tile/>
   <tile/>
   <tile/>
   <tile/>
   <tile/>
   <tile/>
   <tile/>
   <tile/>
   <tile/>
   <tile/>
   <tile/>
   <tile/>
   <tile/>
   <tile/>
   <tile/>
   <tile/>
   <tile/>
   <tile/>
   <tile/>
   <tile/>
   <tile/>
   <tile/>
   <tile/>
   <tile/>
   <tile/>
   <tile/>
   <tile/>
   <tile/>
   <tile/>
   <tile/>
   <tile/>
   <tile/>
   <tile gid="65"/>
   <tile gid="65"/>
   <tile/>
   <tile/>
   <tile/>
   <tile/>
   <tile/>
   <tile/>
   <tile/>
   <tile/>
   <tile/>
   <tile/>
   <tile/>
   <tile/>
   <tile/>
   <tile/>
   <tile/>
   <tile/>
   <tile/>
   <tile/>
   <tile/>
   <tile/>
   <tile/>
   <tile/>
   <tile/>
   <tile/>
   <tile/>
   <tile/>
   <tile/>
   <tile/>
   <tile/>
   <tile/>
   <tile/>
   <tile/>
   <tile/>
   <tile/>
   <tile/>
   <tile gid="65"/>
   <tile gid="65"/>
   <tile/>
   <tile/>
   <tile/>
   <tile/>
   <tile/>
   <tile/>
   <tile/>
   <tile/>
   <tile gid="65"/>
   <tile gid="65"/>
   <tile gid="65"/>
   <tile gid="65"/>
   <tile gid="65"/>
   <tile/>
   <tile/>
   <tile/>
   <tile/>
   <tile/>
   <tile/>
   <tile/>
   <tile/>
   <tile/>
   <tile/>
   <tile/>
   <tile/>
   <tile/>
   <tile/>
   <tile/>
   <tile/>
   <tile/>
   <tile/>
   <tile/>
   <tile/>
   <tile/>
   <tile/>
   <tile/>
   <tile/>
   <tile/>
   <tile/>
   <tile gid="65"/>
   <tile gid="65"/>
   <tile gid="65"/>
   <tile/>
   <tile/>
   <tile/>
   <tile/>
   <tile/>
   <tile/>
   <tile/>
   <tile/>
   <tile/>
   <tile/>
   <tile/>
   <tile/>
   <tile/>
   <tile/>
   <tile/>
   <tile/>
   <tile/>
   <tile/>
   <tile/>
   <tile/>
   <tile/>
   <tile/>
   <tile/>
   <tile gid="65"/>
   <tile gid="65"/>
   <tile/>
   <tile/>
   <tile/>
   <tile/>
   <tile gid="65"/>
   <tile gid="65"/>
   <tile gid="65"/>
   <tile gid="65"/>
   <tile gid="65"/>
   <tile gid="65"/>
   <tile gid="65"/>
   <tile gid="65"/>
   <tile gid="65"/>
   <tile gid="65"/>
   <tile gid="65"/>
   <tile gid="65"/>
   <tile gid="65"/>
   <tile gid="65"/>
   <tile gid="65"/>
   <tile gid="65"/>
   <tile gid="65"/>
   <tile gid="65"/>
   <tile gid="65"/>
   <tile gid="65"/>
   <tile gid="65"/>
   <tile gid="65"/>
   <tile gid="65"/>
   <tile gid="65"/>
   <tile gid="65"/>
   <tile gid="65"/>
   <tile gid="65"/>
   <tile gid="65"/>
   <tile/>
   <tile/>
   <tile/>
   <tile gid="65"/>
   <tile gid="65"/>
   <tile/>
   <tile/>
   <tile/>
   <tile/>
   <tile/>
   <tile/>
   <tile/>
   <tile/>
   <tile/>
   <tile gid="65"/>
   <tile gid="65"/>
   <tile gid="65"/>
   <tile gid="65"/>
   <tile/>
   <tile/>
   <tile/>
   <tile/>
   <tile/>
   <tile/>
   <tile/>
   <tile/>
   <tile/>
   <tile/>
   <tile/>
   <tile/>
   <tile/>
   <tile/>
   <tile/>
   <tile/>
   <tile/>
   <tile/>
   <tile/>
   <tile/>
   <tile/>
   <tile/>
   <tile/>
   <tile/>
   <tile/>
   <tile/>
   <tile/>
   <tile/>
   <tile/>
   <tile/>
   <tile/>
   <tile/>
   <tile/>
   <tile/>
   <tile/>
   <tile/>
   <tile/>
   <tile/>
   <tile/>
   <tile/>
   <tile/>
   <tile/>
   <tile/>
   <tile/>
   <tile/>
   <tile/>
   <tile/>
   <tile/>
   <tile/>
   <tile/>
   <tile/>
   <tile/>
   <tile gid="65"/>
   <tile gid="65"/>
   <tile/>
   <tile/>
   <tile/>
   <tile/>
   <tile/>
   <tile/>
   <tile/>
   <tile/>
   <tile/>
   <tile/>
   <tile/>
   <tile/>
   <tile/>
   <tile/>
   <tile/>
   <tile/>
   <tile/>
   <tile/>
   <tile/>
   <tile/>
   <tile/>
   <tile/>
   <tile/>
   <tile/>
   <tile/>
   <tile/>
   <tile/>
   <tile/>
   <tile/>
   <tile/>
   <tile/>
   <tile/>
   <tile/>
   <tile/>
   <tile/>
   <tile gid="65"/>
   <tile gid="65"/>
   <tile/>
   <tile/>
   <tile/>
   <tile/>
   <tile/>
   <tile/>
   <tile/>
   <tile/>
   <tile/>
   <tile gid="65"/>
   <tile gid="65"/>
   <tile gid="65"/>
   <tile gid="65"/>
   <tile gid="65"/>
   <tile gid="65"/>
   <tile gid="65"/>
   <tile gid="65"/>
   <tile gid="65"/>
   <tile gid="65"/>
   <tile gid="65"/>
   <tile gid="65"/>
   <tile gid="65"/>
   <tile gid="65"/>
   <tile gid="65"/>
   <tile gid="65"/>
   <tile gid="65"/>
   <tile gid="65"/>
   <tile gid="65"/>
   <tile gid="65"/>
   <tile gid="65"/>
   <tile gid="65"/>
   <tile gid="65"/>
   <tile/>
   <tile/>
   <tile/>
   <tile/>
   <tile/>
   <tile/>
   <tile/>
   <tile/>
   <tile/>
   <tile/>
   <tile/>
   <tile/>
   <tile/>
   <tile/>
   <tile/>
   <tile/>
   <tile/>
   <tile/>
   <tile/>
   <tile/>
   <tile/>
   <tile/>
   <tile/>
   <tile/>
   <tile/>
   <tile/>
   <tile/>
   <tile/>
   <tile/>
   <tile/>
   <tile/>
   <tile/>
   <tile/>
   <tile gid="65"/>
   <tile gid="65"/>
   <tile/>
   <tile/>
   <tile/>
   <tile/>
   <tile/>
   <tile/>
   <tile/>
   <tile/>
   <tile/>
   <tile/>
   <tile/>
   <tile/>
   <tile/>
   <tile/>
   <tile/>
   <tile/>
   <tile/>
   <tile/>
   <tile/>
   <tile/>
   <tile/>
   <tile/>
   <tile/>
   <tile/>
   <tile/>
   <tile/>
   <tile/>
   <tile/>
   <tile/>
   <tile/>
   <tile/>
   <tile/>
   <tile/>
   <tile/>
   <tile/>
   <tile gid="65"/>
   <tile gid="65"/>
   <tile/>
   <tile/>
   <tile/>
   <tile/>
   <tile/>
   <tile/>
   <tile/>
   <tile/>
   <tile/>
   <tile gid="65"/>
   <tile gid="65"/>
   <tile gid="65"/>
   <tile gid="65"/>
   <tile gid="65"/>
   <tile gid="65"/>
   <tile gid="65"/>
   <tile gid="65"/>
   <tile gid="65"/>
   <tile gid="65"/>
   <tile gid="65"/>
   <tile gid="65"/>
   <tile gid="65"/>
   <tile gid="65"/>
   <tile gid="65"/>
   <tile gid="65"/>
   <tile gid="65"/>
   <tile gid="65"/>
   <tile gid="65"/>
   <tile gid="65"/>
   <tile gid="65"/>
   <tile gid="65"/>
   <tile gid="65"/>
   <tile/>
   <tile/>
   <tile/>
   <tile/>
   <tile/>
   <tile/>
   <tile/>
   <tile/>
   <tile/>
   <tile/>
   <tile/>
   <tile/>
   <tile/>
   <tile/>
   <tile/>
   <tile/>
   <tile gid="65"/>
   <tile gid="65"/>
   <tile gid="65"/>
   <tile/>
   <tile/>
   <tile/>
   <tile/>
   <tile/>
   <tile/>
   <tile/>
   <tile/>
   <tile/>
   <tile/>
   <tile/>
   <tile/>
   <tile/>
   <tile/>
   <tile gid="65"/>
   <tile gid="65"/>
   <tile/>
   <tile/>
   <tile/>
   <tile/>
   <tile/>
   <tile/>
   <tile/>
   <tile/>
   <tile/>
   <tile/>
   <tile/>
   <tile/>
   <tile/>
   <tile/>
   <tile/>
   <tile/>
   <tile/>
   <tile/>
   <tile/>
   <tile/>
   <tile/>
   <tile/>
   <tile/>
   <tile/>
   <tile/>
   <tile/>
   <tile/>
   <tile/>
   <tile/>
   <tile/>
   <tile/>
   <tile/>
   <tile/>
   <tile/>
   <tile/>
   <tile gid="65"/>
   <tile gid="65"/>
   <tile/>
   <tile/>
   <tile/>
   <tile/>
   <tile/>
   <tile/>
   <tile/>
   <tile/>
   <tile/>
   <tile gid="65"/>
   <tile gid="65"/>
   <tile gid="65"/>
   <tile gid="65"/>
   <tile gid="65"/>
   <tile gid="65"/>
   <tile gid="65"/>
   <tile gid="65"/>
   <tile gid="65"/>
   <tile gid="65"/>
   <tile gid="65"/>
   <tile gid="65"/>
   <tile gid="65"/>
   <tile gid="65"/>
   <tile gid="65"/>
   <tile gid="65"/>
   <tile gid="65"/>
   <tile gid="65"/>
   <tile gid="65"/>
   <tile gid="65"/>
   <tile gid="65"/>
   <tile gid="65"/>
   <tile gid="65"/>
   <tile/>
   <tile/>
   <tile/>
   <tile/>
   <tile/>
   <tile/>
   <tile/>
   <tile/>
   <tile/>
   <tile/>
   <tile/>
   <tile/>
   <tile/>
   <tile/>
   <tile/>
   <tile/>
   <tile/>
   <tile/>
   <tile/>
   <tile/>
   <tile/>
   <tile/>
   <tile/>
   <tile/>
   <tile/>
   <tile/>
   <tile/>
   <tile/>
   <tile/>
   <tile/>
   <tile/>
   <tile/>
   <tile/>
   <tile gid="65"/>
   <tile gid="65"/>
   <tile/>
   <tile/>
   <tile/>
   <tile/>
   <tile/>
   <tile/>
   <tile/>
   <tile/>
   <tile/>
   <tile/>
   <tile/>
   <tile/>
   <tile/>
   <tile/>
   <tile/>
   <tile/>
   <tile/>
   <tile/>
   <tile/>
   <tile/>
   <tile/>
   <tile/>
   <tile/>
   <tile/>
   <tile/>
   <tile/>
   <tile/>
   <tile/>
   <tile/>
   <tile/>
   <tile/>
   <tile/>
   <tile/>
   <tile/>
   <tile/>
   <tile gid="65"/>
   <tile gid="65"/>
   <tile gid="65"/>
   <tile/>
   <tile/>
   <tile/>
   <tile/>
   <tile/>
   <tile/>
   <tile gid="65"/>
   <tile gid="65"/>
   <tile gid="65"/>
   <tile gid="65"/>
   <tile gid="65"/>
   <tile gid="65"/>
   <tile gid="65"/>
   <tile gid="65"/>
   <tile gid="65"/>
   <tile gid="65"/>
   <tile gid="65"/>
   <tile gid="65"/>
   <tile gid="65"/>
   <tile gid="65"/>
   <tile gid="65"/>
   <tile gid="65"/>
   <tile gid="65"/>
   <tile gid="65"/>
   <tile gid="65"/>
   <tile gid="65"/>
   <tile gid="65"/>
   <tile gid="65"/>
   <tile gid="65"/>
   <tile gid="65"/>
   <tile gid="65"/>
   <tile/>
   <tile/>
   <tile/>
   <tile/>
   <tile/>
   <tile/>
   <tile/>
   <tile/>
   <tile/>
   <tile/>
   <tile/>
   <tile/>
   <tile/>
   <tile/>
   <tile/>
   <tile/>
   <tile/>
   <tile/>
   <tile/>
   <tile/>
   <tile/>
   <tile/>
   <tile/>
   <tile/>
   <tile/>
   <tile gid="65"/>
   <tile gid="65"/>
   <tile gid="65"/>
   <tile/>
   <tile/>
   <tile/>
   <tile/>
   <tile/>
   <tile gid="65"/>
   <tile gid="65"/>
   <tile gid="65"/>
   <tile gid="65"/>
   <tile gid="65"/>
   <tile gid="65"/>
   <tile gid="65"/>
   <tile gid="65"/>
   <tile gid="65"/>
   <tile gid="65"/>
   <tile gid="65"/>
   <tile gid="65"/>
   <tile gid="65"/>
   <tile gid="65"/>
   <tile gid="65"/>
   <tile gid="65"/>
   <tile gid="65"/>
   <tile gid="65"/>
   <tile gid="65"/>
   <tile gid="65"/>
   <tile gid="65"/>
   <tile gid="65"/>
   <tile gid="65"/>
   <tile gid="65"/>
   <tile gid="65"/>
   <tile gid="65"/>
   <tile gid="65"/>
   <tile gid="65"/>
   <tile gid="65"/>
   <tile gid="65"/>
   <tile/>
   <tile/>
   <tile/>
   <tile/>
   <tile/>
   <tile/>
   <tile/>
   <tile gid="65"/>
   <tile gid="65"/>
   <tile gid="65"/>
   <tile/>
   <tile/>
   <tile/>
   <tile/>
   <tile/>
   <tile/>
   <tile/>
   <tile/>
   <tile gid="65"/>
   <tile gid="65"/>
   <tile gid="65"/>
   <tile gid="65"/>
   <tile gid="65"/>
   <tile gid="65"/>
   <tile gid="65"/>
   <tile gid="65"/>
   <tile gid="65"/>
   <tile gid="65"/>
   <tile gid="65"/>
   <tile gid="65"/>
   <tile gid="65"/>
   <tile gid="65"/>
   <tile gid="65"/>
   <tile gid="65"/>
   <tile gid="65"/>
   <tile gid="65"/>
   <tile gid="65"/>
   <tile gid="65"/>
   <tile gid="65"/>
   <tile gid="65"/>
   <tile gid="65"/>
   <tile/>
   <tile/>
   <tile/>
   <tile/>
   <tile/>
   <tile/>
   <tile/>
   <tile/>
   <tile/>
   <tile/>
   <tile/>
   <tile/>
   <tile/>
   <tile/>
   <tile/>
   <tile/>
   <tile/>
   <tile/>
   <tile/>
   <tile/>
   <tile/>
   <tile/>
   <tile/>
   <tile/>
   <tile/>
   <tile/>
   <tile/>
   <tile/>
   <tile/>
   <tile/>
   <tile/>
   <tile/>
   <tile/>
   <tile gid="65"/>
   <tile gid="65"/>
   <tile gid="65"/>
   <tile gid="65"/>
   <tile gid="65"/>
   <tile gid="65"/>
   <tile gid="65"/>
   <tile gid="65"/>
   <tile gid="65"/>
   <tile gid="65"/>
   <tile gid="65"/>
   <tile gid="65"/>
   <tile gid="65"/>
   <tile gid="65"/>
   <tile gid="65"/>
   <tile gid="65"/>
   <tile gid="65"/>
   <tile gid="65"/>
   <tile gid="65"/>
   <tile gid="65"/>
   <tile gid="65"/>
   <tile gid="65"/>
   <tile gid="65"/>
   <tile gid="65"/>
   <tile gid="65"/>
   <tile gid="65"/>
   <tile gid="65"/>
   <tile gid="65"/>
   <tile gid="65"/>
   <tile gid="65"/>
   <tile gid="65"/>
   <tile/>
   <tile/>
   <tile/>
   <tile/>
   <tile/>
   <tile/>
   <tile gid="65"/>
   <tile gid="65"/>
   <tile gid="65"/>
   <tile/>
   <tile/>
   <tile/>
   <tile/>
   <tile/>
   <tile/>
   <tile/>
   <tile/>
   <tile gid="65"/>
   <tile gid="65"/>
   <tile gid="65"/>
   <tile gid="65"/>
   <tile gid="65"/>
   <tile gid="65"/>
   <tile gid="65"/>
   <tile gid="65"/>
   <tile gid="65"/>
   <tile gid="65"/>
   <tile gid="65"/>
   <tile gid="65"/>
   <tile gid="65"/>
   <tile gid="65"/>
   <tile gid="65"/>
   <tile gid="65"/>
   <tile gid="65"/>
   <tile gid="65"/>
   <tile gid="65"/>
   <tile gid="65"/>
   <tile gid="65"/>
   <tile gid="65"/>
   <tile gid="65"/>
   <tile/>
   <tile/>
   <tile/>
   <tile/>
   <tile/>
   <tile/>
   <tile/>
   <tile/>
   <tile/>
   <tile/>
   <tile/>
   <tile/>
   <tile/>
   <tile/>
   <tile/>
   <tile/>
   <tile/>
   <tile/>
   <tile/>
   <tile/>
   <tile/>
   <tile/>
   <tile/>
   <tile/>
   <tile/>
   <tile/>
   <tile/>
   <tile/>
   <tile/>
   <tile/>
   <tile/>
   <tile/>
   <tile/>
   <tile/>
   <tile/>
   <tile/>
   <tile/>
   <tile/>
   <tile/>
   <tile/>
   <tile/>
   <tile/>
   <tile/>
   <tile/>
   <tile/>
   <tile/>
   <tile/>
   <tile/>
   <tile/>
   <tile/>
   <tile/>
   <tile/>
   <tile/>
   <tile/>
   <tile/>
   <tile/>
   <tile/>
   <tile/>
   <tile/>
   <tile/>
   <tile/>
   <tile/>
   <tile/>
   <tile/>
   <tile/>
   <tile/>
   <tile/>
   <tile/>
   <tile/>
   <tile/>
   <tile gid="65"/>
   <tile gid="65"/>
   <tile/>
   <tile/>
   <tile/>
   <tile/>
   <tile/>
   <tile/>
   <tile/>
   <tile/>
   <tile/>
   <tile gid="65"/>
   <tile gid="65"/>
   <tile gid="65"/>
   <tile gid="65"/>
   <tile gid="65"/>
   <tile gid="65"/>
   <tile gid="65"/>
   <tile gid="65"/>
   <tile gid="65"/>
   <tile gid="65"/>
   <tile gid="65"/>
   <tile gid="65"/>
   <tile gid="65"/>
   <tile gid="65"/>
   <tile gid="65"/>
   <tile gid="65"/>
   <tile gid="65"/>
   <tile gid="65"/>
   <tile gid="65"/>
   <tile gid="65"/>
   <tile gid="65"/>
   <tile gid="65"/>
   <tile gid="65"/>
   <tile/>
   <tile/>
   <tile/>
   <tile/>
   <tile/>
   <tile/>
   <tile/>
   <tile/>
   <tile/>
   <tile/>
   <tile/>
   <tile/>
   <tile/>
   <tile/>
   <tile/>
   <tile/>
   <tile/>
   <tile/>
   <tile/>
   <tile/>
   <tile/>
   <tile/>
   <tile/>
   <tile/>
   <tile/>
   <tile/>
   <tile/>
   <tile/>
   <tile/>
   <tile/>
   <tile/>
   <tile/>
   <tile/>
   <tile/>
   <tile/>
   <tile/>
   <tile/>
   <tile/>
   <tile/>
   <tile/>
   <tile/>
   <tile/>
   <tile/>
   <tile/>
   <tile/>
   <tile/>
   <tile/>
   <tile/>
   <tile/>
   <tile/>
   <tile/>
   <tile/>
   <tile/>
   <tile/>
   <tile/>
   <tile/>
   <tile/>
   <tile/>
   <tile/>
   <tile/>
   <tile/>
   <tile/>
   <tile/>
   <tile/>
   <tile/>
   <tile/>
   <tile/>
   <tile/>
   <tile/>
   <tile/>
   <tile gid="65"/>
   <tile gid="65"/>
   <tile/>
   <tile/>
   <tile/>
   <tile/>
   <tile/>
   <tile/>
   <tile/>
   <tile/>
   <tile/>
   <tile gid="65"/>
   <tile gid="65"/>
   <tile gid="65"/>
   <tile gid="65"/>
   <tile gid="65"/>
   <tile gid="65"/>
   <tile gid="65"/>
   <tile gid="65"/>
   <tile gid="65"/>
   <tile gid="65"/>
   <tile gid="65"/>
   <tile gid="65"/>
   <tile gid="65"/>
   <tile gid="65"/>
   <tile gid="65"/>
   <tile gid="65"/>
   <tile gid="65"/>
   <tile gid="65"/>
   <tile gid="65"/>
   <tile gid="65"/>
   <tile gid="65"/>
   <tile gid="65"/>
   <tile gid="65"/>
   <tile/>
   <tile/>
   <tile/>
   <tile/>
   <tile/>
   <tile/>
   <tile/>
   <tile/>
   <tile/>
   <tile/>
   <tile/>
   <tile/>
   <tile/>
   <tile/>
   <tile/>
   <tile/>
   <tile/>
   <tile/>
   <tile/>
   <tile/>
   <tile/>
   <tile/>
   <tile/>
   <tile/>
   <tile/>
   <tile/>
   <tile/>
   <tile/>
   <tile/>
   <tile/>
   <tile/>
   <tile/>
   <tile/>
   <tile/>
   <tile/>
   <tile/>
   <tile/>
   <tile/>
   <tile/>
   <tile/>
   <tile/>
   <tile/>
   <tile/>
   <tile/>
   <tile/>
   <tile/>
   <tile/>
   <tile/>
   <tile/>
   <tile/>
   <tile/>
   <tile/>
   <tile/>
   <tile/>
   <tile/>
   <tile/>
   <tile/>
   <tile/>
   <tile/>
   <tile/>
   <tile/>
   <tile/>
   <tile/>
   <tile/>
   <tile/>
   <tile/>
   <tile/>
   <tile/>
   <tile/>
   <tile/>
   <tile gid="65"/>
   <tile gid="65"/>
   <tile/>
   <tile/>
   <tile/>
   <tile/>
   <tile/>
   <tile/>
   <tile/>
   <tile/>
   <tile/>
   <tile gid="65"/>
   <tile gid="65"/>
   <tile gid="65"/>
   <tile gid="65"/>
   <tile gid="65"/>
   <tile gid="65"/>
   <tile gid="65"/>
   <tile gid="65"/>
   <tile gid="65"/>
   <tile gid="65"/>
   <tile gid="65"/>
   <tile gid="65"/>
   <tile gid="65"/>
   <tile gid="65"/>
   <tile gid="65"/>
   <tile gid="65"/>
   <tile gid="65"/>
   <tile gid="65"/>
   <tile gid="65"/>
   <tile gid="65"/>
   <tile gid="65"/>
   <tile gid="65"/>
   <tile gid="65"/>
   <tile/>
   <tile/>
   <tile/>
   <tile/>
   <tile/>
   <tile/>
   <tile/>
   <tile/>
   <tile/>
   <tile/>
   <tile/>
   <tile/>
   <tile/>
   <tile/>
   <tile/>
   <tile/>
   <tile/>
   <tile/>
   <tile/>
   <tile/>
   <tile/>
   <tile/>
   <tile/>
   <tile/>
   <tile/>
   <tile/>
   <tile/>
   <tile/>
   <tile/>
   <tile/>
   <tile/>
   <tile/>
   <tile/>
   <tile/>
   <tile/>
   <tile/>
   <tile/>
   <tile/>
   <tile/>
   <tile/>
   <tile/>
   <tile/>
   <tile/>
   <tile/>
   <tile/>
   <tile/>
   <tile/>
   <tile/>
   <tile/>
   <tile/>
   <tile/>
   <tile/>
   <tile/>
   <tile/>
   <tile/>
   <tile/>
   <tile/>
   <tile/>
   <tile/>
   <tile/>
   <tile/>
   <tile/>
   <tile/>
   <tile/>
   <tile/>
   <tile/>
   <tile/>
   <tile/>
   <tile/>
   <tile/>
   <tile gid="65"/>
   <tile gid="65"/>
   <tile gid="65"/>
   <tile gid="65"/>
   <tile gid="65"/>
   <tile gid="65"/>
   <tile gid="65"/>
   <tile gid="65"/>
   <tile gid="65"/>
   <tile gid="65"/>
   <tile gid="65"/>
   <tile gid="65"/>
   <tile gid="65"/>
   <tile gid="65"/>
   <tile gid="65"/>
   <tile gid="65"/>
   <tile gid="65"/>
   <tile gid="65"/>
   <tile gid="65"/>
   <tile gid="65"/>
   <tile gid="65"/>
   <tile gid="65"/>
   <tile gid="65"/>
   <tile gid="65"/>
   <tile gid="65"/>
   <tile gid="65"/>
   <tile gid="65"/>
   <tile gid="65"/>
   <tile gid="65"/>
   <tile gid="65"/>
   <tile gid="65"/>
   <tile gid="65"/>
   <tile gid="65"/>
   <tile gid="65"/>
   <tile/>
   <tile/>
   <tile/>
   <tile/>
   <tile/>
   <tile/>
   <tile/>
   <tile/>
   <tile/>
   <tile/>
   <tile/>
   <tile/>
   <tile/>
   <tile/>
   <tile gid="65"/>
   <tile/>
   <tile/>
   <tile/>
   <tile/>
   <tile/>
   <tile/>
   <tile/>
   <tile/>
   <tile/>
   <tile/>
   <tile/>
   <tile/>
   <tile/>
   <tile/>
   <tile/>
   <tile/>
   <tile gid="65"/>
   <tile/>
   <tile/>
   <tile/>
   <tile/>
   <tile gid="65"/>
   <tile/>
   <tile/>
   <tile/>
   <tile/>
   <tile/>
   <tile/>
   <tile/>
   <tile/>
   <tile/>
   <tile/>
   <tile/>
   <tile/>
   <tile/>
   <tile/>
   <tile/>
   <tile/>
   <tile/>
   <tile/>
   <tile/>
   <tile/>
   <tile/>
   <tile/>
   <tile/>
   <tile/>
   <tile/>
   <tile/>
   <tile/>
   <tile/>
   <tile/>
   <tile gid="65"/>
   <tile gid="65"/>
   <tile gid="65"/>
   <tile gid="65"/>
   <tile gid="65"/>
   <tile gid="65"/>
   <tile gid="65"/>
   <tile gid="65"/>
   <tile gid="65"/>
   <tile gid="65"/>
   <tile gid="65"/>
   <tile gid="65"/>
   <tile gid="65"/>
   <tile gid="65"/>
   <tile gid="65"/>
   <tile gid="65"/>
   <tile gid="65"/>
   <tile gid="65"/>
   <tile gid="65"/>
   <tile gid="65"/>
   <tile gid="65"/>
   <tile gid="65"/>
   <tile gid="65"/>
   <tile gid="65"/>
   <tile gid="65"/>
   <tile gid="65"/>
   <tile gid="65"/>
   <tile gid="65"/>
   <tile gid="65"/>
   <tile gid="65"/>
   <tile gid="65"/>
   <tile gid="65"/>
   <tile gid="65"/>
   <tile gid="65"/>
   <tile gid="65"/>
   <tile gid="65"/>
   <tile gid="65"/>
   <tile gid="65"/>
   <tile/>
   <tile/>
   <tile/>
   <tile/>
   <tile/>
   <tile/>
   <tile/>
   <tile/>
   <tile/>
   <tile/>
   <tile/>
   <tile/>
   <tile/>
   <tile/>
   <tile gid="65"/>
   <tile gid="65"/>
   <tile gid="65"/>
   <tile gid="65"/>
   <tile gid="65"/>
   <tile gid="65"/>
   <tile gid="65"/>
   <tile gid="65"/>
   <tile gid="65"/>
   <tile gid="65"/>
   <tile gid="65"/>
   <tile gid="65"/>
   <tile gid="65"/>
   <tile gid="65"/>
   <tile gid="65"/>
   <tile gid="65"/>
   <tile gid="65"/>
   <tile gid="65"/>
   <tile gid="65"/>
   <tile gid="65"/>
   <tile gid="65"/>
   <tile gid="65"/>
   <tile gid="65"/>
   <tile gid="65"/>
   <tile gid="65"/>
   <tile gid="65"/>
   <tile gid="65"/>
   <tile gid="65"/>
   <tile gid="65"/>
   <tile gid="65"/>
   <tile gid="65"/>
   <tile gid="65"/>
   <tile gid="65"/>
   <tile gid="65"/>
   <tile gid="65"/>
   <tile gid="65"/>
   <tile gid="65"/>
   <tile gid="65"/>
   <tile gid="65"/>
   <tile gid="65"/>
   <tile gid="65"/>
   <tile gid="65"/>
   <tile gid="65"/>
   <tile gid="65"/>
   <tile gid="65"/>
   <tile gid="65"/>
   <tile gid="65"/>
   <tile gid="65"/>
   <tile gid="65"/>
   <tile gid="65"/>
   <tile gid="65"/>
   <tile gid="65"/>
   <tile gid="65"/>
   <tile gid="65"/>
   <tile gid="65"/>
   <tile gid="65"/>
   <tile gid="65"/>
   <tile gid="65"/>
   <tile gid="65"/>
   <tile gid="65"/>
   <tile gid="65"/>
   <tile gid="65"/>
   <tile gid="65"/>
   <tile gid="65"/>
   <tile gid="65"/>
   <tile gid="65"/>
   <tile gid="65"/>
   <tile gid="65"/>
   <tile gid="65"/>
   <tile gid="65"/>
   <tile gid="65"/>
   <tile gid="65"/>
   <tile gid="65"/>
   <tile gid="65"/>
   <tile gid="65"/>
   <tile gid="65"/>
   <tile gid="65"/>
   <tile gid="65"/>
   <tile gid="65"/>
   <tile gid="65"/>
   <tile gid="65"/>
   <tile gid="65"/>
   <tile gid="65"/>
   <tile gid="65"/>
   <tile gid="65"/>
   <tile gid="65"/>
   <tile gid="65"/>
   <tile gid="65"/>
   <tile gid="65"/>
   <tile gid="65"/>
   <tile/>
   <tile/>
   <tile/>
   <tile/>
   <tile/>
   <tile/>
   <tile/>
   <tile/>
   <tile/>
   <tile/>
   <tile/>
   <tile/>
   <tile/>
   <tile/>
   <tile gid="65"/>
   <tile gid="65"/>
   <tile gid="65"/>
   <tile gid="65"/>
   <tile gid="65"/>
   <tile gid="65"/>
   <tile gid="65"/>
   <tile gid="65"/>
   <tile gid="65"/>
   <tile gid="65"/>
   <tile gid="65"/>
   <tile gid="65"/>
   <tile gid="65"/>
   <tile gid="65"/>
   <tile gid="65"/>
   <tile gid="65"/>
   <tile gid="65"/>
   <tile gid="65"/>
   <tile gid="65"/>
   <tile gid="65"/>
   <tile gid="65"/>
   <tile gid="65"/>
   <tile gid="65"/>
   <tile gid="65"/>
   <tile gid="65"/>
   <tile gid="65"/>
   <tile gid="65"/>
   <tile gid="65"/>
   <tile gid="65"/>
   <tile gid="65"/>
   <tile gid="65"/>
   <tile gid="65"/>
   <tile gid="65"/>
   <tile gid="65"/>
   <tile gid="65"/>
   <tile gid="65"/>
   <tile gid="65"/>
   <tile gid="65"/>
   <tile gid="65"/>
   <tile gid="65"/>
   <tile gid="65"/>
   <tile gid="65"/>
   <tile gid="65"/>
   <tile gid="65"/>
   <tile gid="65"/>
   <tile gid="65"/>
   <tile gid="65"/>
   <tile gid="65"/>
   <tile gid="65"/>
   <tile gid="65"/>
   <tile gid="65"/>
   <tile gid="65"/>
   <tile gid="65"/>
   <tile gid="65"/>
   <tile gid="65"/>
   <tile gid="65"/>
   <tile gid="65"/>
   <tile gid="65"/>
   <tile gid="65"/>
   <tile gid="65"/>
   <tile gid="65"/>
   <tile gid="65"/>
   <tile gid="65"/>
   <tile gid="65"/>
   <tile gid="65"/>
   <tile gid="65"/>
   <tile gid="65"/>
   <tile gid="65"/>
   <tile gid="65"/>
   <tile gid="65"/>
   <tile gid="65"/>
   <tile gid="65"/>
   <tile gid="65"/>
   <tile gid="65"/>
   <tile gid="65"/>
   <tile gid="65"/>
   <tile gid="65"/>
   <tile gid="65"/>
   <tile gid="65"/>
   <tile gid="65"/>
   <tile gid="65"/>
   <tile gid="65"/>
   <tile gid="65"/>
   <tile gid="65"/>
   <tile gid="65"/>
   <tile gid="65"/>
   <tile gid="65"/>
   <tile gid="65"/>
   <tile gid="65"/>
   <tile gid="65"/>
   <tile/>
   <tile/>
   <tile/>
   <tile/>
   <tile/>
   <tile/>
   <tile/>
   <tile/>
   <tile/>
   <tile/>
   <tile/>
   <tile/>
   <tile/>
   <tile/>
   <tile gid="65"/>
   <tile gid="65"/>
   <tile gid="65"/>
   <tile gid="65"/>
   <tile gid="65"/>
   <tile gid="65"/>
   <tile gid="65"/>
   <tile gid="65"/>
   <tile gid="65"/>
   <tile gid="65"/>
   <tile gid="65"/>
   <tile gid="65"/>
   <tile gid="65"/>
   <tile gid="65"/>
   <tile gid="65"/>
   <tile gid="65"/>
   <tile gid="65"/>
   <tile gid="65"/>
   <tile gid="65"/>
   <tile gid="65"/>
   <tile gid="65"/>
   <tile gid="65"/>
   <tile gid="65"/>
   <tile gid="65"/>
   <tile gid="65"/>
   <tile gid="65"/>
   <tile gid="65"/>
   <tile gid="65"/>
   <tile gid="65"/>
   <tile gid="65"/>
   <tile gid="65"/>
   <tile gid="65"/>
   <tile gid="65"/>
   <tile gid="65"/>
   <tile gid="65"/>
   <tile gid="65"/>
   <tile gid="65"/>
   <tile gid="65"/>
   <tile gid="65"/>
   <tile gid="65"/>
   <tile gid="65"/>
   <tile gid="65"/>
   <tile gid="65"/>
   <tile gid="65"/>
   <tile gid="65"/>
   <tile gid="65"/>
   <tile gid="65"/>
   <tile gid="65"/>
   <tile gid="65"/>
   <tile gid="65"/>
   <tile gid="65"/>
   <tile gid="65"/>
   <tile gid="65"/>
   <tile gid="65"/>
   <tile gid="65"/>
   <tile gid="65"/>
   <tile gid="65"/>
   <tile gid="65"/>
   <tile gid="65"/>
   <tile gid="65"/>
   <tile gid="65"/>
   <tile gid="65"/>
   <tile gid="65"/>
   <tile gid="65"/>
   <tile gid="65"/>
   <tile gid="65"/>
   <tile gid="65"/>
   <tile gid="65"/>
   <tile gid="65"/>
   <tile gid="65"/>
   <tile gid="65"/>
   <tile gid="65"/>
   <tile gid="65"/>
   <tile gid="65"/>
   <tile gid="65"/>
   <tile gid="65"/>
   <tile gid="65"/>
   <tile gid="65"/>
   <tile gid="65"/>
   <tile gid="65"/>
   <tile gid="65"/>
   <tile gid="65"/>
   <tile gid="65"/>
   <tile gid="65"/>
   <tile gid="65"/>
   <tile gid="65"/>
   <tile gid="65"/>
   <tile gid="65"/>
   <tile gid="65"/>
   <tile gid="65"/>
   <tile/>
   <tile/>
   <tile/>
   <tile/>
   <tile/>
   <tile/>
   <tile/>
   <tile/>
   <tile/>
   <tile/>
   <tile/>
   <tile/>
   <tile/>
   <tile/>
   <tile gid="65"/>
   <tile gid="65"/>
   <tile gid="65"/>
   <tile gid="65"/>
   <tile gid="65"/>
   <tile gid="65"/>
   <tile gid="65"/>
   <tile gid="65"/>
   <tile gid="65"/>
   <tile gid="65"/>
   <tile gid="65"/>
   <tile gid="65"/>
   <tile gid="65"/>
   <tile gid="65"/>
   <tile gid="65"/>
   <tile gid="65"/>
   <tile gid="65"/>
   <tile gid="65"/>
   <tile gid="65"/>
   <tile gid="65"/>
   <tile gid="65"/>
   <tile gid="65"/>
   <tile gid="65"/>
   <tile gid="65"/>
   <tile gid="65"/>
   <tile gid="65"/>
   <tile gid="65"/>
   <tile gid="65"/>
   <tile gid="65"/>
   <tile gid="65"/>
   <tile gid="65"/>
   <tile gid="65"/>
   <tile gid="65"/>
   <tile gid="65"/>
   <tile gid="65"/>
   <tile gid="65"/>
   <tile gid="65"/>
   <tile gid="65"/>
   <tile gid="65"/>
   <tile gid="65"/>
   <tile gid="65"/>
   <tile gid="65"/>
   <tile gid="65"/>
   <tile gid="65"/>
   <tile gid="65"/>
   <tile gid="65"/>
   <tile gid="65"/>
   <tile gid="65"/>
   <tile gid="65"/>
   <tile gid="65"/>
   <tile gid="65"/>
   <tile gid="65"/>
   <tile gid="65"/>
   <tile gid="65"/>
   <tile gid="65"/>
   <tile gid="65"/>
   <tile gid="65"/>
   <tile gid="65"/>
   <tile gid="65"/>
   <tile gid="65"/>
   <tile gid="65"/>
   <tile gid="65"/>
   <tile gid="65"/>
   <tile gid="65"/>
   <tile gid="65"/>
   <tile gid="65"/>
   <tile gid="65"/>
   <tile gid="65"/>
   <tile gid="65"/>
   <tile gid="65"/>
   <tile gid="65"/>
   <tile gid="65"/>
   <tile gid="65"/>
   <tile gid="65"/>
   <tile gid="65"/>
   <tile gid="65"/>
   <tile gid="65"/>
   <tile gid="65"/>
   <tile gid="65"/>
   <tile gid="65"/>
   <tile gid="65"/>
   <tile gid="65"/>
   <tile gid="65"/>
   <tile gid="65"/>
   <tile gid="65"/>
   <tile gid="65"/>
   <tile gid="65"/>
   <tile gid="65"/>
   <tile gid="65"/>
   <tile gid="65"/>
   <tile/>
   <tile/>
   <tile/>
   <tile/>
   <tile/>
   <tile/>
   <tile/>
   <tile/>
   <tile/>
   <tile/>
   <tile/>
   <tile/>
   <tile/>
   <tile/>
   <tile gid="65"/>
   <tile gid="65"/>
   <tile gid="65"/>
   <tile gid="65"/>
   <tile gid="65"/>
   <tile gid="65"/>
   <tile gid="65"/>
   <tile gid="65"/>
   <tile gid="65"/>
   <tile gid="65"/>
   <tile gid="65"/>
   <tile gid="65"/>
   <tile gid="65"/>
   <tile gid="65"/>
   <tile gid="65"/>
   <tile gid="65"/>
   <tile gid="65"/>
   <tile gid="65"/>
   <tile gid="65"/>
   <tile gid="65"/>
   <tile gid="65"/>
   <tile gid="65"/>
   <tile gid="65"/>
   <tile gid="65"/>
   <tile gid="65"/>
   <tile gid="65"/>
   <tile gid="65"/>
   <tile gid="65"/>
   <tile gid="65"/>
   <tile gid="65"/>
   <tile gid="65"/>
   <tile gid="65"/>
   <tile gid="65"/>
   <tile gid="65"/>
   <tile gid="65"/>
   <tile gid="65"/>
   <tile gid="65"/>
   <tile gid="65"/>
   <tile gid="65"/>
   <tile gid="65"/>
   <tile gid="65"/>
   <tile gid="65"/>
   <tile gid="65"/>
   <tile gid="65"/>
   <tile gid="65"/>
   <tile gid="65"/>
   <tile gid="65"/>
   <tile gid="65"/>
   <tile gid="65"/>
   <tile gid="65"/>
   <tile gid="65"/>
   <tile gid="65"/>
   <tile gid="65"/>
   <tile gid="65"/>
   <tile gid="65"/>
   <tile gid="65"/>
   <tile gid="65"/>
   <tile gid="65"/>
   <tile gid="65"/>
   <tile gid="65"/>
   <tile gid="65"/>
   <tile gid="65"/>
   <tile gid="65"/>
   <tile gid="65"/>
   <tile gid="65"/>
   <tile gid="65"/>
   <tile gid="65"/>
   <tile gid="65"/>
   <tile gid="65"/>
   <tile gid="65"/>
   <tile gid="65"/>
   <tile gid="65"/>
   <tile gid="65"/>
   <tile gid="65"/>
   <tile gid="65"/>
   <tile gid="65"/>
   <tile gid="65"/>
   <tile gid="65"/>
   <tile gid="65"/>
   <tile gid="65"/>
   <tile gid="65"/>
   <tile gid="65"/>
   <tile gid="65"/>
   <tile gid="65"/>
   <tile gid="65"/>
   <tile gid="65"/>
   <tile gid="65"/>
   <tile gid="65"/>
   <tile gid="65"/>
   <tile gid="65"/>
   <tile/>
   <tile/>
   <tile/>
   <tile/>
   <tile/>
   <tile/>
   <tile/>
   <tile/>
   <tile/>
   <tile/>
   <tile/>
   <tile/>
   <tile/>
   <tile/>
   <tile gid="65"/>
   <tile gid="65"/>
   <tile gid="65"/>
   <tile gid="65"/>
   <tile gid="65"/>
   <tile gid="65"/>
   <tile gid="65"/>
   <tile gid="65"/>
   <tile gid="65"/>
   <tile gid="65"/>
   <tile gid="65"/>
   <tile gid="65"/>
   <tile gid="65"/>
   <tile gid="65"/>
   <tile gid="65"/>
   <tile gid="65"/>
   <tile gid="65"/>
   <tile gid="65"/>
   <tile gid="65"/>
   <tile gid="65"/>
   <tile gid="65"/>
   <tile gid="65"/>
   <tile gid="65"/>
   <tile gid="65"/>
   <tile gid="65"/>
   <tile gid="65"/>
   <tile gid="65"/>
   <tile gid="65"/>
   <tile gid="65"/>
   <tile gid="65"/>
   <tile gid="65"/>
   <tile gid="65"/>
   <tile gid="65"/>
   <tile gid="65"/>
   <tile gid="65"/>
   <tile gid="65"/>
   <tile gid="65"/>
   <tile gid="65"/>
   <tile gid="65"/>
   <tile gid="65"/>
   <tile gid="65"/>
   <tile gid="65"/>
   <tile gid="65"/>
   <tile gid="65"/>
   <tile gid="65"/>
   <tile gid="65"/>
   <tile gid="65"/>
   <tile gid="65"/>
   <tile gid="65"/>
   <tile gid="65"/>
   <tile gid="65"/>
   <tile gid="65"/>
   <tile gid="65"/>
   <tile gid="65"/>
   <tile gid="65"/>
   <tile gid="65"/>
   <tile gid="65"/>
   <tile gid="65"/>
   <tile gid="65"/>
   <tile gid="65"/>
   <tile gid="65"/>
   <tile gid="65"/>
   <tile gid="65"/>
   <tile gid="65"/>
   <tile gid="65"/>
   <tile gid="65"/>
   <tile gid="65"/>
   <tile gid="65"/>
   <tile gid="65"/>
   <tile gid="65"/>
   <tile gid="65"/>
   <tile gid="65"/>
   <tile gid="65"/>
   <tile gid="65"/>
   <tile gid="65"/>
   <tile gid="65"/>
   <tile gid="65"/>
   <tile gid="65"/>
   <tile gid="65"/>
   <tile gid="65"/>
   <tile gid="65"/>
   <tile gid="65"/>
   <tile gid="65"/>
   <tile gid="65"/>
   <tile gid="65"/>
   <tile gid="65"/>
   <tile gid="65"/>
   <tile gid="65"/>
   <tile gid="65"/>
   <tile gid="65"/>
   <tile/>
   <tile/>
   <tile/>
   <tile/>
   <tile/>
   <tile/>
   <tile/>
   <tile/>
   <tile/>
   <tile/>
   <tile/>
   <tile/>
   <tile/>
   <tile/>
   <tile gid="65"/>
   <tile gid="65"/>
   <tile gid="65"/>
   <tile gid="65"/>
   <tile gid="65"/>
   <tile gid="65"/>
   <tile gid="65"/>
   <tile gid="65"/>
   <tile gid="65"/>
   <tile gid="65"/>
   <tile gid="65"/>
   <tile gid="65"/>
   <tile gid="65"/>
   <tile gid="65"/>
   <tile gid="65"/>
   <tile gid="65"/>
   <tile gid="65"/>
   <tile gid="65"/>
   <tile gid="65"/>
   <tile gid="65"/>
   <tile gid="65"/>
   <tile gid="65"/>
   <tile gid="65"/>
   <tile gid="65"/>
   <tile gid="65"/>
   <tile gid="65"/>
   <tile gid="65"/>
   <tile gid="65"/>
   <tile gid="65"/>
   <tile gid="65"/>
   <tile gid="65"/>
   <tile gid="65"/>
   <tile gid="65"/>
   <tile gid="65"/>
   <tile gid="65"/>
   <tile gid="65"/>
   <tile gid="65"/>
   <tile gid="65"/>
   <tile gid="65"/>
   <tile gid="65"/>
   <tile gid="65"/>
   <tile gid="65"/>
   <tile gid="65"/>
   <tile gid="65"/>
   <tile gid="65"/>
   <tile gid="65"/>
   <tile gid="65"/>
   <tile gid="65"/>
   <tile gid="65"/>
   <tile gid="65"/>
   <tile gid="65"/>
   <tile gid="65"/>
   <tile gid="65"/>
   <tile gid="65"/>
   <tile gid="65"/>
   <tile gid="65"/>
   <tile gid="65"/>
   <tile gid="65"/>
   <tile gid="65"/>
   <tile gid="65"/>
   <tile gid="65"/>
   <tile gid="65"/>
   <tile gid="65"/>
   <tile gid="65"/>
   <tile gid="65"/>
   <tile gid="65"/>
   <tile gid="65"/>
   <tile gid="65"/>
   <tile gid="65"/>
   <tile gid="65"/>
   <tile gid="65"/>
   <tile gid="65"/>
   <tile gid="65"/>
   <tile gid="65"/>
   <tile gid="65"/>
   <tile gid="65"/>
   <tile gid="65"/>
   <tile gid="65"/>
   <tile gid="65"/>
   <tile gid="65"/>
   <tile gid="65"/>
   <tile gid="65"/>
   <tile gid="65"/>
   <tile gid="65"/>
   <tile gid="65"/>
   <tile gid="65"/>
   <tile gid="65"/>
   <tile gid="65"/>
   <tile gid="65"/>
   <tile gid="65"/>
   <tile gid="65"/>
   <tile gid="65"/>
   <tile gid="65"/>
   <tile/>
   <tile/>
   <tile/>
   <tile/>
   <tile/>
   <tile/>
   <tile/>
   <tile/>
   <tile gid="65"/>
   <tile gid="65"/>
   <tile gid="65"/>
   <tile gid="65"/>
   <tile gid="65"/>
   <tile gid="65"/>
   <tile gid="65"/>
   <tile gid="65"/>
   <tile gid="65"/>
   <tile gid="65"/>
   <tile gid="65"/>
   <tile gid="65"/>
   <tile gid="65"/>
   <tile gid="65"/>
   <tile gid="65"/>
   <tile gid="65"/>
   <tile gid="65"/>
   <tile gid="65"/>
   <tile gid="65"/>
   <tile gid="65"/>
   <tile gid="65"/>
   <tile gid="65"/>
   <tile gid="65"/>
   <tile gid="65"/>
   <tile gid="65"/>
   <tile gid="65"/>
   <tile gid="65"/>
   <tile gid="65"/>
   <tile gid="65"/>
   <tile gid="65"/>
   <tile gid="65"/>
   <tile gid="65"/>
   <tile gid="65"/>
   <tile gid="65"/>
   <tile gid="65"/>
   <tile gid="65"/>
   <tile gid="65"/>
   <tile gid="65"/>
   <tile gid="65"/>
   <tile gid="65"/>
   <tile gid="65"/>
   <tile gid="65"/>
   <tile gid="65"/>
   <tile gid="65"/>
   <tile gid="65"/>
   <tile gid="65"/>
   <tile gid="65"/>
   <tile gid="65"/>
   <tile gid="65"/>
   <tile gid="65"/>
   <tile gid="65"/>
   <tile gid="65"/>
   <tile gid="65"/>
   <tile gid="65"/>
   <tile gid="65"/>
   <tile gid="65"/>
   <tile gid="65"/>
   <tile gid="65"/>
   <tile gid="65"/>
   <tile gid="65"/>
  </data>
 </layer>
 <objectgroup id="13" name="Path" visible="0">
  <properties>
   <property name="Path" type="bool" value="true"/>
   <property name="Sensor" type="bool" value="true"/>
   <property name="Square" type="bool" value="true"/>
  </properties>
  <object id="440" x="7424" y="-256" width="896" height="128">
   <properties>
    <property name="TeleportTo" type="file" value="Mountain_03.tmx"/>
   </properties>
  </object>
  <object id="519" x="4608" y="9472" width="1024" height="128">
   <properties>
    <property name="TeleportTo" type="file" value="Mountain_01.tmx"/>
   </properties>
  </object>
 </objectgroup>
 <objectgroup id="11" name="EntitiesSpawnPoints">
  <object id="52" name="Player" type="Player" x="-809.7" y="8498.3">
   <point/>
  </object>
  <object id="159" name="SkillPointOrb" type="SkillPointOrb" x="672" y="8000">
   <point/>
  </object>
  <object id="444" name="SkillPointOrb" type="SkillPointOrb" x="9472" y="448">
   <point/>
  </object>
  <object id="445" name="SkillPointOrb" type="SkillPointOrb" x="6784" y="3200">
   <point/>
  </object>
  <object id="446" name="SkillPointOrb" type="SkillPointOrb" x="9088" y="5504">
   <point/>
  </object>
  <object id="552" name="SkillPointOrb" type="SkillPointOrb" x="512" y="1280">
   <point/>
  </object>
  <object id="926" name="SavePoint" type="SavePoint" x="1536" y="4744">
   <point/>
  </object>
  <object id="927" name="Correfoc" type="Correfoc" x="11520" y="8064">
   <point/>
  </object>
  <object id="931" name="Ninfa" type="Ninfa" x="384" y="6784">
   <properties>
    <property name="Mud" type="bool" value="false"/>
   </properties>
   <point/>
  </object>
  <object id="932" name="Ninfa" type="Ninfa" x="3584" y="5248">
   <properties>
    <property name="Mud" type="bool" value="false"/>
   </properties>
   <point/>
  </object>
  <object id="933" name="Ninfa" type="Ninfa" x="1024" y="7936">
   <properties>
    <property name="Mud" type="bool" value="false"/>
   </properties>
   <point/>
  </object>
  <object id="934" name="Ninfa" type="Ninfa" x="1664" y="512">
   <properties>
    <property name="Mud" type="bool" value="false"/>
   </properties>
   <point/>
  </object>
  <object id="935" name="Ninfa" type="Ninfa" x="3712" y="896">
   <properties>
    <property name="Mud" type="bool" value="false"/>
   </properties>
   <point/>
  </object>
  <object id="936" name="Correfoc" type="Correfoc" x="9088" y="7168">
   <point/>
  </object>
  <object id="937" name="Correfoc" type="Correfoc" x="11992" y="6520">
   <point/>
  </object>
  <object id="939" name="Ninfa" type="Ninfa" x="10112" y="4480">
   <properties>
    <property name="Mud" type="bool" value="false"/>
   </properties>
   <point/>
  </object>
  <object id="940" name="Ninfa" type="Ninfa" x="11136" y="3712">
   <properties>
    <property name="Mud" type="bool" value="false"/>
   </properties>
   <point/>
  </object>
  <object id="941" name="Ninfa" type="Ninfa" x="11648" y="384">
   <properties>
    <property name="Mud" type="bool" value="false"/>
   </properties>
   <point/>
  </object>
  <object id="942" name="Ninfa" type="Ninfa" x="7936" y="2816">
   <properties>
    <property name="Mud" type="bool" value="false"/>
   </properties>
   <point/>
  </object>
  <object id="943" name="Correfoc" type="Correfoc" x="10880" y="5632">
   <point/>
  </object>
  <object id="944" name="Correfoc" type="Correfoc" x="11520" y="4736">
   <point/>
  </object>
  <object id="945" name="Correfoc" type="Correfoc" x="12928" y="3712">
   <point/>
  </object>
  <object id="1732" name="Dib" type="Dib" x="10608" y="6448">
   <point/>
  </object>
  <object id="1734" name="Roca" type="Trunco" x="9984" y="6552">
   <point/>
  </object>
  <object id="1735" name="Roca" type="Trunco" x="9984" y="6280">
   <point/>
  </object>
  <object id="1736" name="Roca" type="Trunco" x="9672" y="5600">
   <point/>
  </object>
  <object id="1737" name="Roca" type="Trunco" x="9672" y="5308">
   <point/>
  </object>
  <object id="1738" name="Correfoc" type="Correfoc" x="9216" y="5632">
   <point/>
  </object>
  <object id="1739" name="Correfoc" type="Correfoc" x="8832" y="5632">
   <point/>
  </object>
  <object id="1826" name="SavePoint" type="SavePoint" x="7227.94" y="8060.79">
   <point/>
  </object>
  <object id="1829" name="SavePoint" type="SavePoint" x="11008" y="4352">
   <point/>
  </object>
 </objectgroup>
 <objectgroup id="15" name="PlayerSpawns" visible="0">
  <properties>
   <property name="PlayerSpawns" type="bool" value="true"/>
  </properties>
  <object id="132" name="Player" type="Player" x="7204" y="684">
   <properties>
    <property name="FromRoom" type="file" value="Mountain_03.tmx"/>
   </properties>
   <point/>
  </object>
  <object id="442" name="Player" type="Player" x="5840" y="9072">
   <properties>
    <property name="FromRoom" type="file" value="Mountain_01.tmx"/>
   </properties>
   <point/>
  </object>
 </objectgroup>
</map>
