<?xml version="1.0" encoding="UTF-8"?>
<map version="1.10" tiledversion="1.10.2" orientation="orthogonal" renderorder="right-down" width="180" height="80" tilewidth="128" tileheight="128" infinite="0" nextlayerid="47" nextobjectid="1176">
 <properties>
  <property name="Ground" type="bool" value="true"/>
  <property name="Navigation" type="bool" value="true"/>
 </properties>
 <tileset firstgid="1" name="Espinas" tilewidth="128" tileheight="128" tilecount="64" columns="8">
  <image source="Forest/Archivo PSD Espinas.png" width="1024" height="1024"/>
 </tileset>
 <tileset firstgid="65" name="MapMetadata" tilewidth="128" tileheight="128" tilecount="2" columns="2">
  <image source="Pathfinding/MapMetadata.png" trans="ffffff" width="256" height="128"/>
 </tileset>
 <tileset firstgid="67" name="Atl_Montaña" tilewidth="128" tileheight="128" tilecount="64" columns="8">
  <image source="Montain/Tiles/Atl_Montaña.png" width="1024" height="1024"/>
  <wangsets>
   <wangset name="Mixes" type="mixed" tile="-1">
    <wangcolor name="MixTierra" color="#ff0000" tile="-1" probability="1"/>
    <wangcolor name="MixSuperficies" color="#00ff00" tile="-1" probability="1"/>
    <wangtile tileid="28" wangid="2,2,2,2,2,2,2,2"/>
    <wangtile tileid="30" wangid="2,2,2,2,2,2,2,2"/>
    <wangtile tileid="31" wangid="2,2,2,2,2,2,2,2"/>
    <wangtile tileid="36" wangid="1,1,1,1,1,1,1,1"/>
    <wangtile tileid="38" wangid="1,1,1,1,1,1,1,1"/>
    <wangtile tileid="39" wangid="1,1,1,1,1,1,1,1"/>
    <wangtile tileid="46" wangid="1,1,1,1,1,1,1,1"/>
    <wangtile tileid="47" wangid="1,1,1,1,1,1,1,1"/>
   </wangset>
  </wangsets>
 </tileset>
 <tileset firstgid="131" name="Atl_Montaña_Fondo" tilewidth="2304" tileheight="2304" tilecount="1" columns="1">
  <image source="Montain/Fondos/Atl_Montaña_Fondo.png" width="2304" height="2304"/>
 </tileset>
 <tileset firstgid="132" name="Barricada_" tilewidth="1156" tileheight="264" tilecount="1" columns="1">
  <image source="Montain/Deco/Barricada_.PNG" width="1156" height="264"/>
 </tileset>
 <tileset firstgid="133" name="Atl_Montaña_Arboles" tilewidth="2304" tileheight="2304" tilecount="1" columns="1">
  <image source="Montain/Fondos/Atl_Montaña_Arboles.png" width="2304" height="2304"/>
 </tileset>
 <tileset firstgid="134" name="T_Montaña" tilewidth="4096" tileheight="3025" tilecount="1" columns="1">
  <image source="Montain/Fondos/T_Montaña.png" width="4096" height="3025"/>
 </tileset>
 <tileset firstgid="135" name="T_Montaña_2" tilewidth="4096" tileheight="3025" tilecount="1" columns="1">
  <image source="Montain/Fondos/T_Montaña_2.png" width="4096" height="3025"/>
 </tileset>
 <tileset firstgid="136" name="T_Montaña_2" tilewidth="4096" tileheight="3025" tilecount="1" columns="1">
  <image source="Montain/Fondos/T_Montaña_Castillo.png" width="4096" height="3025"/>
 </tileset>
 <tileset firstgid="137" name="Sol" tilewidth="2048" tileheight="2048" tilecount="1" columns="1">
  <image source="Montain/Fondos/Sol.png" width="2048" height="2048"/>
 </tileset>
 <tileset firstgid="138" name="T_Nubes" tilewidth="1152" tileheight="384" tilecount="4" columns="1">
  <image source="Montain/Fondos/T_Nubes.png" width="1152" height="1536"/>
 </tileset>
 <tileset firstgid="142" name="T_Arbustos" tilewidth="384" tileheight="307" tilecount="35" columns="7">
  <image source="Montain/Arbustos y Rocas/T_Arbustos.png" width="2688" height="1536"/>
 </tileset>
 <tileset firstgid="177" name="t_filas" tilewidth="1024" tileheight="341" tilecount="3" columns="1">
  <image source="Montain/Arbustos y Rocas/t_filas.png" width="1024" height="1024"/>
 </tileset>
 <tileset firstgid="180" name="T_Luz (1)" tilewidth="4096" tileheight="3025" tilecount="1" columns="1">
  <image source="Montain/luces/T_Luz (1).png" width="4096" height="3025"/>
 </tileset>
 <tileset firstgid="181" name="T_Montaña_Blur" tilewidth="4096" tileheight="3025" tilecount="1" columns="1">
  <image source="Montain/Fondos/T_Montaña_Blur.png" width="4096" height="3025"/>
 </tileset>
 <objectgroup id="23" name="Fondo-Azul">
  <properties>
   <property name="BG" type="bool" value="true"/>
   <property name="Draw" type="bool" value="true"/>
  </properties>
  <object id="430" gid="131" x="-160.606" y="10227.9" width="23040" height="10240"/>
 </objectgroup>
 <objectgroup id="41" name="NuevesFondo">
  <properties>
   <property name="BG" type="bool" value="true"/>
   <property name="Draw" type="bool" value="true"/>
   <property name="ParalaxX" type="float" value="0.8"/>
  </properties>
  <object id="946" gid="140" x="20608" y="5760" width="1416" height="472"/>
  <object id="949" gid="139" x="19584" y="7024" width="2032" height="677.333"/>
  <object id="951" gid="139" x="19456" y="8960" width="2032" height="677.333"/>
  <object id="953" gid="140" x="19312" y="7520" width="1432" height="477.333"/>
  <object id="958" gid="140" x="20224" y="6272" width="1416" height="472"/>
  <object id="959" gid="140" x="21632" y="4864" width="1416" height="472"/>
 </objectgroup>
 <objectgroup id="30" name="M-Fondo_01">
  <properties>
   <property name="BG" type="bool" value="true"/>
   <property name="Draw" type="bool" value="true"/>
   <property name="ParalaxX" type="float" value="0.95"/>
  </properties>
  <object id="923" gid="135" x="1568" y="10665" width="4096" height="3025"/>
  <object id="927" gid="134" x="-264" y="11816" width="4096" height="3025"/>
  <object id="929" gid="2147483782" x="-1024" y="11777" width="4096" height="3025"/>
 </objectgroup>
 <objectgroup id="31" name="M-Fondo_02">
  <properties>
   <property name="BG" type="bool" value="true"/>
   <property name="Draw" type="bool" value="true"/>
   <property name="Paralax" type="float" value="0.95"/>
   <property name="ParalaxY" type="float" value="0.9"/>
  </properties>
  <object id="724" gid="134" x="5584" y="4160" width="5056" height="3733.98"/>
  <object id="727" gid="134" x="16384" y="11072" width="14992.6" height="10924.6"/>
  <object id="728" gid="135" x="8192" y="11264" width="13152" height="9713.09"/>
  <object id="744" gid="1073741959" x="12976" y="7872" width="8464" height="6250.87"/>
  <object id="745" gid="1073741959" x="15872" y="9088" width="10343.9" height="7255.07"/>
  <object id="939" gid="134" x="640" y="10880" width="13338.6" height="8758.38"/>
  <object id="940" gid="134" x="8576" y="3232" width="7720.77" height="5701.98"/>
  <object id="960" gid="1073741958" x="8704" y="8832" width="6408.77" height="5701.98"/>
 </objectgroup>
 <objectgroup id="40" name="M_Fondo_03">
  <properties>
   <property name="BG" type="bool" value="true"/>
   <property name="Draw" type="bool" value="true"/>
   <property name="ParalaxY" type="float" value="1"/>
  </properties>
 </objectgroup>
 <objectgroup id="32" name="M_Fondo_04">
  <properties>
   <property name="BG" type="bool" value="true"/>
   <property name="Draw" type="bool" value="true"/>
   <property name="Paralax" type="float" value="1"/>
  </properties>
  <object id="734" gid="2147483782" x="11056" y="5184" width="3200" height="2304"/>
  <object id="739" gid="1073741958" x="11136" y="7616" width="3359.4" height="2481"/>
 </objectgroup>
 <objectgroup id="44" name="Fondo-Luces" locked="1">
  <properties>
   <property name="BG" type="bool" value="true"/>
   <property name="Draw" type="bool" value="true"/>
  </properties>
  <object id="1019" gid="1073742004" x="8064" y="10624" width="2176" height="1607.03"/>
  <object id="1020" gid="1073742004" x="8096" y="10732.5" width="2176" height="1607.03"/>
 </objectgroup>
 <objectgroup id="39" name="Fondo Rocas">
  <properties>
   <property name="BG" type="bool" value="true"/>
   <property name="Draw" type="bool" value="true"/>
  </properties>
  <object id="876" gid="146" x="-128" y="9984" width="876.06" height="730.434"/>
  <object id="877" gid="146" x="2304" y="9984" width="866.033" height="647.828"/>
  <object id="878" gid="153" x="512" y="9984" width="463.06" height="370.207"/>
  <object id="879" gid="153" x="2048" y="9984" width="384" height="307"/>
  <object id="883" gid="148" x="1676.93" y="9984" width="499.075" height="399"/>
  <object id="930" gid="147" x="2757.82" y="9652" width="654.176" height="523"/>
  <object id="931" gid="153" x="2932" y="9756" width="608" height="486.083"/>
  <object id="1046" gid="154" x="2948" y="8628" width="1074.45" height="859"/>
 </objectgroup>
 <objectgroup id="25" name="Fondo4">
  <properties>
   <property name="BG" type="bool" value="true"/>
   <property name="Draw" type="bool" value="true"/>
  </properties>
  <object id="852" gid="171" x="495.879" y="10026.7" width="384" height="307"/>
  <object id="854" gid="171" x="1056.48" y="10075.2" width="384" height="307"/>
  <object id="856" gid="164" x="1895.88" y="10093.4" width="384" height="307"/>
  <object id="860" gid="164" x="677.697" y="10129.8" width="384" height="307"/>
  <object id="861" gid="164" x="2795.88" y="10069.2" width="384" height="307"/>
  <object id="865" gid="171" x="2417.09" y="10060.1" width="384" height="307"/>
  <object id="887" gid="169" x="0" y="9984" width="384" height="307"/>
  <object id="888" gid="169" x="2046" y="10002" width="384" height="307"/>
  <object id="889" gid="169" x="2560" y="9984" width="384" height="307"/>
  <object id="890" gid="169" x="-128" y="9984" width="384" height="307"/>
  <object id="936" gid="152" x="2892" y="9866" width="384" height="307"/>
  <object id="1037" gid="150" x="3152" y="9074" width="384" height="307"/>
  <object id="1038" gid="1073741974" x="3184" y="9282" width="384" height="307"/>
  <object id="1041" gid="165" x="2976" y="9730" width="384" height="307"/>
  <object id="1136" gid="147" x="3071.64" y="9517.64" width="384" height="307"/>
 </objectgroup>
 <objectgroup id="27" name="Barricadas">
  <properties>
   <property name="BG" type="bool" value="true"/>
   <property name="Draw" type="bool" value="true"/>
  </properties>
  <object id="565" gid="132" x="896" y="9984" width="1156" height="264"/>
 </objectgroup>
 <objectgroup id="24" name="Arboles-Fondo">
  <properties>
   <property name="BG" type="bool" value="true"/>
   <property name="Draw" type="bool" value="true"/>
  </properties>
  <object id="475" gid="133" x="4228.92" y="8448" width="1270.15" height="1920"/>
  <object id="491" gid="133" x="15616" y="10112" width="2304" height="2304"/>
  <object id="492" gid="2147483781" x="18304" y="10240" width="2304" height="2304"/>
  <object id="493" gid="133" x="20736" y="10112" width="2304" height="2304"/>
  <object id="494" gid="133" x="6144" y="3584" width="2304" height="2304"/>
  <object id="495" gid="2147483781" x="9600" y="2816" width="2304" height="2304"/>
  <object id="496" gid="2147483781" x="10752" y="7168" width="2304" height="2304"/>
  <object id="497" gid="2147483781" x="18432" y="3840" width="2304" height="2304"/>
  <object id="498" gid="2147483781" x="9984" y="11392" width="2304" height="2304"/>
  <object id="751" gid="133" x="18176" y="7808" width="1688" height="1688"/>
  <object id="1153" gid="1073741957" x="4224" y="6528" width="1270.15" height="1408"/>
 </objectgroup>
 <objectgroup id="34" name="Sol">
  <properties>
   <property name="BG" type="bool" value="true"/>
   <property name="Draw" type="bool" value="true"/>
  </properties>
  <object id="795" gid="137" x="256" y="3968" width="3856" height="3856"/>
 </objectgroup>
 <objectgroup id="42" name="NuvesPlat">
  <properties>
   <property name="BG" type="bool" value="true"/>
   <property name="Draw" type="bool" value="true"/>
  </properties>
  <object id="966" gid="139" x="2200" y="8716.24" width="1152" height="384"/>
  <object id="967" gid="141" x="398" y="8876" width="1368" height="456"/>
  <object id="968" gid="140" x="1248" y="9088" width="1152" height="384"/>
  <object id="969" gid="139" x="2086" y="9474" width="1152" height="384"/>
  <object id="970" gid="139" x="-103.273" y="9208" width="1152" height="384"/>
 </objectgroup>
 <objectgroup id="26" name="Nuves">
  <properties>
   <property name="BG" type="bool" value="true"/>
   <property name="Draw" type="bool" value="true"/>
   <property name="ParalaxX" type="float" value="0.9"/>
   <property name="ParalaxY" type="float" value="0.83"/>
  </properties>
  <object id="783" gid="138" x="-64" y="8774.5" width="2136" height="712"/>
  <object id="784" gid="138" x="2100" y="8478.5" width="2224" height="741.333"/>
  <object id="786" gid="1073741963" x="848" y="5086.5" width="3239" height="1079.67"/>
  <object id="787" gid="139" x="3238" y="5085.5" width="2727" height="909"/>
  <object id="789" gid="138" x="1592" y="7270.5" width="2448" height="816"/>
  <object id="790" gid="138" x="1968" y="4334.5" width="3511" height="1170.33"/>
  <object id="792" gid="2147483787" x="1184" y="9558.5" width="1808" height="602.667"/>
  <object id="794" gid="138" x="-568" y="5566.5" width="3415" height="1138.33"/>
  <object id="796" gid="1073741963" x="-224" y="7931.83" width="1984" height="661.333"/>
  <object id="797" gid="141" x="731.697" y="8381.94" width="2692.3" height="897.434"/>
  <object id="798" gid="139" x="-400" y="3830.5" width="4727" height="1575.67"/>
  <object id="799" gid="2147483787" x="55.9997" y="9209.17" width="1630.29" height="543.429"/>
  <object id="971" gid="2147483786" x="2696" y="6854.5" width="2136" height="712"/>
  <object id="972" gid="2147483786" x="-216" y="5854.5" width="2224" height="741.333"/>
  <object id="973" gid="2147483786" x="1064" y="5878.5" width="2448" height="816"/>
  <object id="974" gid="139" x="232" y="7310.5" width="1824" height="608"/>
  <object id="975" gid="3221225611" x="3192" y="5667.83" width="1984" height="661.333"/>
  <object id="976" gid="2147483789" x="1496" y="6549.94" width="2692.3" height="897.434"/>
  <object id="977" gid="139" x="668.5" y="3584" width="2727" height="909"/>
  <object id="978" gid="140" x="2176" y="7646.5" width="1480" height="493.333"/>
  <object id="979" gid="141" x="1968" y="8478.5" width="1152" height="384"/>
  <object id="980" gid="2147483787" x="2528" y="9182.5" width="1824" height="608"/>
  <object id="981" gid="2147483789" x="-186.15" y="8295.28" width="2692.3" height="897.434"/>
  <object id="982" gid="3221225611" x="-803.5" y="6820.16" width="3239" height="1079.67"/>
  <object id="983" gid="1073741963" x="-187.5" y="6820.16" width="3239" height="1079.67"/>
  <object id="985" gid="138" x="2376" y="5800" width="1920" height="640"/>
  <object id="988" gid="141" x="-688" y="4576" width="3360" height="1120"/>
  <object id="989" gid="141" x="2176" y="8064" width="1152" height="384"/>
  <object id="990" gid="141" x="2688" y="8576" width="1152" height="384"/>
  <object id="991" gid="141" x="2816" y="7936" width="1152" height="384"/>
  <object id="993" gid="138" x="4480" y="4608" width="2048" height="682.667"/>
  <object id="994" gid="2147483786" x="3840" y="4554.67" width="2048" height="682.667"/>
 </objectgroup>
 <layer id="1" name="Map" width="180" height="80">
  <properties>
   <property name="Draw" type="bool" value="true"/>
  </properties>
  <data>
   <tile/>
   <tile/>
   <tile/>
   <tile/>
   <tile/>
   <tile/>
   <tile/>
   <tile/>
   <tile/>
   <tile/>
   <tile/>
   <tile/>
   <tile/>
   <tile/>
   <tile/>
   <tile/>
   <tile/>
   <tile/>
   <tile/>
   <tile/>
   <tile/>
   <tile/>
   <tile/>
   <tile/>
   <tile/>
   <tile/>
   <tile/>
   <tile/>
   <tile/>
   <tile/>
   <tile/>
   <tile/>
   <tile/>
   <tile/>
   <tile/>
   <tile/>
   <tile/>
   <tile/>
   <tile/>
   <tile/>
   <tile/>
   <tile/>
   <tile/>
   <tile/>
   <tile/>
   <tile/>
   <tile/>
   <tile gid="102"/>
   <tile gid="103"/>
   <tile gid="103"/>
   <tile gid="103"/>
   <tile gid="103"/>
   <tile gid="106"/>
   <tile gid="105"/>
   <tile gid="103"/>
   <tile gid="105"/>
   <tile gid="103"/>
   <tile gid="114"/>
   <tile gid="103"/>
   <tile gid="103"/>
   <tile gid="103"/>
   <tile gid="103"/>
   <tile gid="103"/>
   <tile gid="106"/>
   <tile gid="105"/>
   <tile gid="105"/>
   <tile gid="105"/>
   <tile gid="103"/>
   <tile gid="113"/>
   <tile gid="103"/>
   <tile gid="113"/>
   <tile gid="113"/>
   <tile gid="103"/>
   <tile gid="103"/>
   <tile gid="103"/>
   <tile gid="103"/>
   <tile gid="103"/>
   <tile gid="103"/>
   <tile gid="103"/>
   <tile gid="103"/>
   <tile gid="114"/>
   <tile gid="114"/>
   <tile gid="103"/>
   <tile gid="114"/>
   <tile gid="113"/>
   <tile gid="103"/>
   <tile gid="103"/>
   <tile gid="106"/>
   <tile gid="106"/>
   <tile gid="105"/>
   <tile gid="103"/>
   <tile gid="114"/>
   <tile gid="103"/>
   <tile gid="103"/>
   <tile gid="103"/>
   <tile gid="103"/>
   <tile gid="2147483750"/>
   <tile/>
   <tile/>
   <tile/>
   <tile/>
   <tile/>
   <tile/>
   <tile/>
   <tile/>
   <tile gid="102"/>
   <tile gid="105"/>
   <tile gid="106"/>
   <tile gid="105"/>
   <tile gid="106"/>
   <tile gid="114"/>
   <tile gid="113"/>
   <tile gid="103"/>
   <tile gid="105"/>
   <tile gid="113"/>
   <tile gid="114"/>
   <tile gid="113"/>
   <tile gid="105"/>
   <tile gid="113"/>
   <tile gid="113"/>
   <tile gid="106"/>
   <tile gid="114"/>
   <tile gid="113"/>
   <tile gid="114"/>
   <tile gid="113"/>
   <tile gid="114"/>
   <tile gid="114"/>
   <tile gid="105"/>
   <tile gid="105"/>
   <tile gid="103"/>
   <tile gid="114"/>
   <tile gid="105"/>
   <tile gid="105"/>
   <tile gid="114"/>
   <tile gid="106"/>
   <tile gid="103"/>
   <tile gid="103"/>
   <tile gid="103"/>
   <tile gid="103"/>
   <tile gid="103"/>
   <tile gid="105"/>
   <tile gid="105"/>
   <tile gid="114"/>
   <tile gid="105"/>
   <tile gid="113"/>
   <tile gid="106"/>
   <tile gid="103"/>
   <tile gid="103"/>
   <tile gid="114"/>
   <tile gid="105"/>
   <tile gid="113"/>
   <tile gid="103"/>
   <tile gid="106"/>
   <tile gid="105"/>
   <tile gid="106"/>
   <tile gid="114"/>
   <tile gid="105"/>
   <tile gid="105"/>
   <tile gid="103"/>
   <tile gid="114"/>
   <tile gid="105"/>
   <tile gid="103"/>
   <tile gid="105"/>
   <tile gid="103"/>
   <tile gid="106"/>
   <tile gid="105"/>
   <tile gid="103"/>
   <tile gid="105"/>
   <tile gid="106"/>
   <tile gid="105"/>
   <tile gid="114"/>
   <tile gid="105"/>
   <tile gid="103"/>
   <tile gid="103"/>
   <tile gid="114"/>
   <tile gid="105"/>
   <tile gid="113"/>
   <tile gid="113"/>
   <tile gid="105"/>
   <tile gid="103"/>
   <tile/>
   <tile/>
   <tile/>
   <tile/>
   <tile/>
   <tile/>
   <tile/>
   <tile/>
   <tile/>
   <tile/>
   <tile/>
   <tile/>
   <tile/>
   <tile/>
   <tile/>
   <tile/>
   <tile/>
   <tile/>
   <tile/>
   <tile/>
   <tile/>
   <tile/>
   <tile/>
   <tile/>
   <tile/>
   <tile/>
   <tile/>
   <tile/>
   <tile/>
   <tile/>
   <tile/>
   <tile/>
   <tile/>
   <tile/>
   <tile/>
   <tile/>
   <tile/>
   <tile/>
   <tile/>
   <tile/>
   <tile/>
   <tile/>
   <tile/>
   <tile/>
   <tile/>
   <tile/>
   <tile gid="2684354670"/>
   <tile gid="103"/>
   <tile gid="103"/>
   <tile gid="113"/>
   <tile gid="103"/>
   <tile gid="113"/>
   <tile gid="105"/>
   <tile gid="103"/>
   <tile gid="103"/>
   <tile gid="103"/>
   <tile gid="103"/>
   <tile gid="103"/>
   <tile gid="103"/>
   <tile gid="103"/>
   <tile gid="114"/>
   <tile gid="105"/>
   <tile gid="106"/>
   <tile gid="105"/>
   <tile gid="103"/>
   <tile gid="114"/>
   <tile gid="113"/>
   <tile gid="113"/>
   <tile gid="103"/>
   <tile gid="103"/>
   <tile gid="103"/>
   <tile gid="103"/>
   <tile gid="103"/>
   <tile gid="103"/>
   <tile gid="103"/>
   <tile gid="103"/>
   <tile gid="103"/>
   <tile gid="106"/>
   <tile gid="114"/>
   <tile gid="103"/>
   <tile gid="106"/>
   <tile gid="114"/>
   <tile gid="103"/>
   <tile gid="103"/>
   <tile gid="113"/>
   <tile gid="113"/>
   <tile gid="114"/>
   <tile gid="114"/>
   <tile gid="103"/>
   <tile gid="103"/>
   <tile gid="103"/>
   <tile gid="103"/>
   <tile gid="103"/>
   <tile gid="103"/>
   <tile gid="103"/>
   <tile gid="103"/>
   <tile gid="2147483750"/>
   <tile/>
   <tile/>
   <tile/>
   <tile/>
   <tile/>
   <tile/>
   <tile/>
   <tile/>
   <tile gid="102"/>
   <tile gid="105"/>
   <tile gid="113"/>
   <tile gid="105"/>
   <tile gid="103"/>
   <tile gid="114"/>
   <tile gid="114"/>
   <tile gid="113"/>
   <tile gid="103"/>
   <tile gid="113"/>
   <tile gid="114"/>
   <tile gid="103"/>
   <tile gid="106"/>
   <tile gid="114"/>
   <tile gid="103"/>
   <tile gid="105"/>
   <tile gid="105"/>
   <tile gid="103"/>
   <tile gid="106"/>
   <tile gid="113"/>
   <tile gid="113"/>
   <tile gid="106"/>
   <tile gid="105"/>
   <tile gid="106"/>
   <tile gid="114"/>
   <tile gid="105"/>
   <tile gid="114"/>
   <tile gid="105"/>
   <tile gid="103"/>
   <tile gid="113"/>
   <tile gid="103"/>
   <tile gid="103"/>
   <tile gid="113"/>
   <tile gid="113"/>
   <tile gid="114"/>
   <tile gid="113"/>
   <tile gid="105"/>
   <tile gid="114"/>
   <tile gid="106"/>
   <tile gid="113"/>
   <tile gid="114"/>
   <tile gid="103"/>
   <tile gid="106"/>
   <tile gid="114"/>
   <tile gid="114"/>
   <tile gid="106"/>
   <tile gid="113"/>
   <tile gid="114"/>
   <tile gid="106"/>
   <tile gid="113"/>
   <tile gid="113"/>
   <tile gid="114"/>
   <tile gid="114"/>
   <tile gid="106"/>
   <tile gid="114"/>
   <tile gid="113"/>
   <tile gid="114"/>
   <tile gid="105"/>
   <tile gid="113"/>
   <tile gid="114"/>
   <tile gid="114"/>
   <tile gid="106"/>
   <tile gid="103"/>
   <tile gid="105"/>
   <tile gid="103"/>
   <tile gid="103"/>
   <tile gid="114"/>
   <tile gid="106"/>
   <tile gid="113"/>
   <tile gid="106"/>
   <tile gid="113"/>
   <tile gid="105"/>
   <tile gid="103"/>
   <tile gid="113"/>
   <tile gid="114"/>
   <tile/>
   <tile/>
   <tile/>
   <tile/>
   <tile/>
   <tile/>
   <tile/>
   <tile/>
   <tile/>
   <tile/>
   <tile/>
   <tile/>
   <tile/>
   <tile/>
   <tile/>
   <tile/>
   <tile/>
   <tile/>
   <tile/>
   <tile/>
   <tile/>
   <tile/>
   <tile/>
   <tile/>
   <tile/>
   <tile/>
   <tile/>
   <tile/>
   <tile/>
   <tile/>
   <tile/>
   <tile/>
   <tile/>
   <tile/>
   <tile/>
   <tile/>
   <tile/>
   <tile/>
   <tile/>
   <tile/>
   <tile/>
   <tile/>
   <tile/>
   <tile/>
   <tile/>
   <tile gid="2684354670"/>
   <tile gid="103"/>
   <tile gid="113"/>
   <tile gid="113"/>
   <tile gid="106"/>
   <tile gid="106"/>
   <tile gid="103"/>
   <tile gid="103"/>
   <tile gid="103"/>
   <tile gid="103"/>
   <tile gid="103"/>
   <tile gid="114"/>
   <tile gid="105"/>
   <tile gid="105"/>
   <tile gid="114"/>
   <tile gid="103"/>
   <tile gid="103"/>
   <tile gid="106"/>
   <tile gid="113"/>
   <tile gid="103"/>
   <tile gid="103"/>
   <tile gid="103"/>
   <tile gid="103"/>
   <tile gid="103"/>
   <tile gid="103"/>
   <tile gid="103"/>
   <tile gid="103"/>
   <tile gid="103"/>
   <tile gid="103"/>
   <tile gid="113"/>
   <tile gid="106"/>
   <tile gid="103"/>
   <tile gid="103"/>
   <tile gid="106"/>
   <tile gid="105"/>
   <tile gid="113"/>
   <tile gid="113"/>
   <tile gid="114"/>
   <tile gid="113"/>
   <tile gid="105"/>
   <tile gid="114"/>
   <tile gid="106"/>
   <tile gid="105"/>
   <tile gid="103"/>
   <tile gid="103"/>
   <tile gid="103"/>
   <tile gid="103"/>
   <tile gid="103"/>
   <tile gid="105"/>
   <tile gid="114"/>
   <tile gid="106"/>
   <tile gid="2147483750"/>
   <tile/>
   <tile/>
   <tile/>
   <tile/>
   <tile/>
   <tile/>
   <tile/>
   <tile/>
   <tile gid="102"/>
   <tile gid="105"/>
   <tile gid="105"/>
   <tile gid="105"/>
   <tile gid="113"/>
   <tile gid="105"/>
   <tile gid="105"/>
   <tile gid="105"/>
   <tile gid="113"/>
   <tile gid="106"/>
   <tile gid="106"/>
   <tile gid="106"/>
   <tile gid="103"/>
   <tile gid="113"/>
   <tile gid="114"/>
   <tile gid="106"/>
   <tile gid="113"/>
   <tile gid="114"/>
   <tile gid="113"/>
   <tile gid="114"/>
   <tile gid="113"/>
   <tile gid="113"/>
   <tile gid="114"/>
   <tile gid="114"/>
   <tile gid="103"/>
   <tile gid="103"/>
   <tile gid="103"/>
   <tile gid="106"/>
   <tile gid="103"/>
   <tile gid="113"/>
   <tile gid="103"/>
   <tile gid="106"/>
   <tile gid="103"/>
   <tile gid="113"/>
   <tile gid="106"/>
   <tile gid="114"/>
   <tile gid="106"/>
   <tile gid="113"/>
   <tile gid="106"/>
   <tile gid="105"/>
   <tile gid="103"/>
   <tile gid="105"/>
   <tile gid="113"/>
   <tile gid="106"/>
   <tile gid="114"/>
   <tile gid="113"/>
   <tile gid="113"/>
   <tile gid="106"/>
   <tile gid="103"/>
   <tile gid="103"/>
   <tile gid="106"/>
   <tile gid="103"/>
   <tile gid="105"/>
   <tile gid="114"/>
   <tile gid="114"/>
   <tile gid="113"/>
   <tile gid="113"/>
   <tile gid="113"/>
   <tile gid="113"/>
   <tile gid="105"/>
   <tile gid="114"/>
   <tile gid="106"/>
   <tile gid="103"/>
   <tile gid="103"/>
   <tile gid="113"/>
   <tile gid="113"/>
   <tile gid="114"/>
   <tile gid="106"/>
   <tile gid="105"/>
   <tile gid="105"/>
   <tile gid="103"/>
   <tile gid="106"/>
   <tile gid="113"/>
   <tile gid="114"/>
   <tile gid="105"/>
   <tile/>
   <tile/>
   <tile/>
   <tile/>
   <tile/>
   <tile/>
   <tile/>
   <tile/>
   <tile/>
   <tile/>
   <tile/>
   <tile/>
   <tile/>
   <tile/>
   <tile/>
   <tile/>
   <tile/>
   <tile/>
   <tile/>
   <tile/>
   <tile/>
   <tile/>
   <tile/>
   <tile/>
   <tile/>
   <tile/>
   <tile/>
   <tile/>
   <tile/>
   <tile/>
   <tile/>
   <tile/>
   <tile/>
   <tile/>
   <tile/>
   <tile/>
   <tile/>
   <tile/>
   <tile/>
   <tile/>
   <tile/>
   <tile/>
   <tile/>
   <tile/>
   <tile gid="2684354670"/>
   <tile gid="113"/>
   <tile gid="105"/>
   <tile gid="114"/>
   <tile gid="103"/>
   <tile gid="103"/>
   <tile gid="103"/>
   <tile gid="103"/>
   <tile gid="105"/>
   <tile gid="114"/>
   <tile gid="106"/>
   <tile gid="103"/>
   <tile gid="114"/>
   <tile gid="114"/>
   <tile gid="103"/>
   <tile gid="103"/>
   <tile gid="103"/>
   <tile gid="105"/>
   <tile gid="103"/>
   <tile gid="103"/>
   <tile gid="103"/>
   <tile gid="103"/>
   <tile gid="103"/>
   <tile gid="103"/>
   <tile gid="103"/>
   <tile gid="103"/>
   <tile gid="103"/>
   <tile gid="105"/>
   <tile gid="106"/>
   <tile gid="114"/>
   <tile gid="105"/>
   <tile gid="113"/>
   <tile gid="105"/>
   <tile gid="103"/>
   <tile gid="105"/>
   <tile gid="106"/>
   <tile gid="113"/>
   <tile gid="105"/>
   <tile gid="106"/>
   <tile gid="105"/>
   <tile gid="114"/>
   <tile gid="114"/>
   <tile gid="113"/>
   <tile gid="103"/>
   <tile gid="103"/>
   <tile gid="103"/>
   <tile gid="113"/>
   <tile gid="103"/>
   <tile gid="114"/>
   <tile gid="105"/>
   <tile gid="103"/>
   <tile gid="114"/>
   <tile gid="2147483750"/>
   <tile/>
   <tile/>
   <tile/>
   <tile/>
   <tile/>
   <tile/>
   <tile/>
   <tile/>
   <tile gid="102"/>
   <tile gid="103"/>
   <tile gid="103"/>
   <tile gid="106"/>
   <tile gid="103"/>
   <tile gid="113"/>
   <tile gid="106"/>
   <tile gid="113"/>
   <tile gid="103"/>
   <tile gid="103"/>
   <tile gid="114"/>
   <tile gid="105"/>
   <tile gid="114"/>
   <tile gid="103"/>
   <tile gid="114"/>
   <tile gid="106"/>
   <tile gid="105"/>
   <tile gid="113"/>
   <tile gid="106"/>
   <tile gid="113"/>
   <tile gid="106"/>
   <tile gid="114"/>
   <tile gid="114"/>
   <tile gid="103"/>
   <tile gid="105"/>
   <tile gid="103"/>
   <tile gid="106"/>
   <tile gid="113"/>
   <tile gid="106"/>
   <tile gid="105"/>
   <tile gid="106"/>
   <tile gid="103"/>
   <tile gid="113"/>
   <tile gid="114"/>
   <tile gid="105"/>
   <tile gid="113"/>
   <tile gid="106"/>
   <tile gid="113"/>
   <tile gid="114"/>
   <tile gid="105"/>
   <tile gid="103"/>
   <tile gid="103"/>
   <tile gid="105"/>
   <tile gid="113"/>
   <tile gid="105"/>
   <tile gid="103"/>
   <tile gid="114"/>
   <tile gid="105"/>
   <tile gid="114"/>
   <tile gid="103"/>
   <tile gid="106"/>
   <tile gid="105"/>
   <tile gid="114"/>
   <tile gid="103"/>
   <tile gid="103"/>
   <tile gid="103"/>
   <tile gid="114"/>
   <tile gid="103"/>
   <tile gid="103"/>
   <tile gid="105"/>
   <tile gid="103"/>
   <tile gid="113"/>
   <tile gid="105"/>
   <tile gid="113"/>
   <tile gid="114"/>
   <tile gid="114"/>
   <tile gid="103"/>
   <tile gid="103"/>
   <tile gid="103"/>
   <tile gid="113"/>
   <tile gid="103"/>
   <tile gid="113"/>
   <tile gid="113"/>
   <tile gid="106"/>
   <tile gid="105"/>
   <tile/>
   <tile/>
   <tile/>
   <tile/>
   <tile/>
   <tile/>
   <tile/>
   <tile/>
   <tile/>
   <tile/>
   <tile/>
   <tile/>
   <tile/>
   <tile/>
   <tile/>
   <tile/>
   <tile/>
   <tile/>
   <tile/>
   <tile/>
   <tile/>
   <tile/>
   <tile/>
   <tile/>
   <tile/>
   <tile/>
   <tile/>
   <tile/>
   <tile/>
   <tile/>
   <tile/>
   <tile/>
   <tile/>
   <tile/>
   <tile/>
   <tile/>
   <tile/>
   <tile/>
   <tile/>
   <tile/>
   <tile/>
   <tile/>
   <tile/>
   <tile gid="2684354670"/>
   <tile gid="105"/>
   <tile gid="105"/>
   <tile gid="103"/>
   <tile gid="103"/>
   <tile gid="103"/>
   <tile gid="106"/>
   <tile gid="114"/>
   <tile gid="103"/>
   <tile gid="106"/>
   <tile gid="106"/>
   <tile gid="106"/>
   <tile gid="106"/>
   <tile gid="106"/>
   <tile gid="113"/>
   <tile gid="114"/>
   <tile gid="105"/>
   <tile gid="103"/>
   <tile gid="103"/>
   <tile gid="103"/>
   <tile gid="103"/>
   <tile gid="103"/>
   <tile gid="114"/>
   <tile gid="106"/>
   <tile gid="106"/>
   <tile gid="103"/>
   <tile gid="106"/>
   <tile gid="114"/>
   <tile gid="103"/>
   <tile gid="105"/>
   <tile gid="105"/>
   <tile gid="106"/>
   <tile gid="103"/>
   <tile gid="105"/>
   <tile gid="105"/>
   <tile gid="106"/>
   <tile gid="114"/>
   <tile gid="113"/>
   <tile gid="113"/>
   <tile gid="114"/>
   <tile gid="106"/>
   <tile gid="106"/>
   <tile gid="113"/>
   <tile gid="114"/>
   <tile gid="103"/>
   <tile gid="114"/>
   <tile gid="113"/>
   <tile gid="103"/>
   <tile gid="105"/>
   <tile gid="103"/>
   <tile gid="105"/>
   <tile gid="113"/>
   <tile gid="114"/>
   <tile gid="2147483750"/>
   <tile/>
   <tile/>
   <tile/>
   <tile/>
   <tile/>
   <tile/>
   <tile/>
   <tile/>
   <tile gid="102"/>
   <tile gid="105"/>
   <tile gid="106"/>
   <tile gid="113"/>
   <tile gid="114"/>
   <tile gid="103"/>
   <tile gid="103"/>
   <tile gid="105"/>
   <tile gid="113"/>
   <tile gid="114"/>
   <tile gid="113"/>
   <tile gid="105"/>
   <tile gid="113"/>
   <tile gid="103"/>
   <tile gid="114"/>
   <tile gid="103"/>
   <tile gid="103"/>
   <tile gid="103"/>
   <tile gid="103"/>
   <tile gid="106"/>
   <tile gid="113"/>
   <tile gid="103"/>
   <tile gid="105"/>
   <tile gid="106"/>
   <tile gid="105"/>
   <tile gid="105"/>
   <tile gid="106"/>
   <tile gid="114"/>
   <tile gid="105"/>
   <tile gid="114"/>
   <tile gid="114"/>
   <tile gid="105"/>
   <tile gid="103"/>
   <tile gid="106"/>
   <tile gid="103"/>
   <tile gid="105"/>
   <tile gid="103"/>
   <tile gid="113"/>
   <tile gid="103"/>
   <tile gid="113"/>
   <tile gid="105"/>
   <tile gid="103"/>
   <tile gid="103"/>
   <tile gid="103"/>
   <tile gid="114"/>
   <tile gid="106"/>
   <tile gid="113"/>
   <tile gid="105"/>
   <tile gid="114"/>
   <tile gid="114"/>
   <tile gid="113"/>
   <tile gid="106"/>
   <tile gid="113"/>
   <tile gid="106"/>
   <tile gid="106"/>
   <tile gid="105"/>
   <tile gid="103"/>
   <tile gid="106"/>
   <tile gid="105"/>
   <tile gid="103"/>
   <tile gid="114"/>
   <tile gid="114"/>
   <tile gid="106"/>
   <tile gid="106"/>
   <tile gid="105"/>
   <tile gid="106"/>
   <tile gid="106"/>
   <tile gid="114"/>
   <tile gid="105"/>
   <tile gid="105"/>
   <tile gid="103"/>
   <tile gid="113"/>
   <tile gid="113"/>
   <tile gid="113"/>
   <tile gid="106"/>
   <tile/>
   <tile/>
   <tile/>
   <tile/>
   <tile/>
   <tile/>
   <tile/>
   <tile/>
   <tile/>
   <tile/>
   <tile/>
   <tile/>
   <tile/>
   <tile/>
   <tile/>
   <tile/>
   <tile/>
   <tile/>
   <tile/>
   <tile/>
   <tile/>
   <tile/>
   <tile/>
   <tile/>
   <tile/>
   <tile/>
   <tile/>
   <tile/>
   <tile/>
   <tile/>
   <tile/>
   <tile/>
   <tile/>
   <tile/>
   <tile/>
   <tile/>
   <tile/>
   <tile/>
   <tile/>
   <tile/>
   <tile/>
   <tile/>
   <tile/>
   <tile gid="103"/>
   <tile gid="105"/>
   <tile gid="114"/>
   <tile gid="106"/>
   <tile gid="105"/>
   <tile gid="103"/>
   <tile gid="114"/>
   <tile gid="103"/>
   <tile gid="105"/>
   <tile gid="103"/>
   <tile gid="113"/>
   <tile gid="113"/>
   <tile gid="103"/>
   <tile gid="114"/>
   <tile gid="103"/>
   <tile gid="103"/>
   <tile gid="103"/>
   <tile gid="105"/>
   <tile gid="106"/>
   <tile gid="114"/>
   <tile gid="114"/>
   <tile gid="113"/>
   <tile gid="105"/>
   <tile gid="103"/>
   <tile gid="113"/>
   <tile gid="103"/>
   <tile gid="114"/>
   <tile gid="103"/>
   <tile gid="103"/>
   <tile gid="113"/>
   <tile gid="106"/>
   <tile gid="105"/>
   <tile gid="114"/>
   <tile gid="105"/>
   <tile gid="103"/>
   <tile gid="105"/>
   <tile gid="114"/>
   <tile gid="114"/>
   <tile gid="105"/>
   <tile gid="114"/>
   <tile gid="103"/>
   <tile gid="114"/>
   <tile gid="114"/>
   <tile gid="114"/>
   <tile gid="113"/>
   <tile gid="103"/>
   <tile gid="113"/>
   <tile gid="105"/>
   <tile gid="113"/>
   <tile gid="105"/>
   <tile gid="113"/>
   <tile gid="105"/>
   <tile gid="106"/>
   <tile gid="2147483750"/>
   <tile/>
   <tile/>
   <tile/>
   <tile/>
   <tile/>
   <tile/>
   <tile/>
   <tile/>
   <tile gid="102"/>
   <tile gid="103"/>
   <tile gid="114"/>
   <tile gid="114"/>
   <tile gid="114"/>
   <tile gid="106"/>
   <tile gid="103"/>
   <tile gid="113"/>
   <tile gid="114"/>
   <tile gid="106"/>
   <tile gid="114"/>
   <tile gid="105"/>
   <tile gid="105"/>
   <tile gid="105"/>
   <tile gid="113"/>
   <tile gid="106"/>
   <tile gid="103"/>
   <tile gid="113"/>
   <tile gid="113"/>
   <tile gid="114"/>
   <tile gid="106"/>
   <tile gid="103"/>
   <tile gid="113"/>
   <tile gid="113"/>
   <tile gid="113"/>
   <tile gid="114"/>
   <tile gid="106"/>
   <tile gid="114"/>
   <tile gid="113"/>
   <tile gid="103"/>
   <tile gid="113"/>
   <tile gid="105"/>
   <tile gid="113"/>
   <tile gid="105"/>
   <tile gid="106"/>
   <tile gid="103"/>
   <tile gid="105"/>
   <tile gid="105"/>
   <tile gid="103"/>
   <tile gid="103"/>
   <tile gid="114"/>
   <tile gid="113"/>
   <tile gid="103"/>
   <tile gid="105"/>
   <tile gid="113"/>
   <tile gid="103"/>
   <tile gid="103"/>
   <tile gid="103"/>
   <tile gid="103"/>
   <tile gid="105"/>
   <tile gid="106"/>
   <tile gid="113"/>
   <tile gid="103"/>
   <tile gid="106"/>
   <tile gid="105"/>
   <tile gid="106"/>
   <tile gid="106"/>
   <tile gid="114"/>
   <tile gid="106"/>
   <tile gid="103"/>
   <tile gid="113"/>
   <tile gid="103"/>
   <tile gid="103"/>
   <tile gid="105"/>
   <tile gid="114"/>
   <tile gid="106"/>
   <tile gid="103"/>
   <tile gid="114"/>
   <tile gid="103"/>
   <tile gid="105"/>
   <tile gid="113"/>
   <tile gid="103"/>
   <tile gid="113"/>
   <tile gid="105"/>
   <tile gid="113"/>
   <tile/>
   <tile/>
   <tile/>
   <tile/>
   <tile/>
   <tile/>
   <tile/>
   <tile/>
   <tile/>
   <tile/>
   <tile/>
   <tile/>
   <tile/>
   <tile/>
   <tile/>
   <tile/>
   <tile/>
   <tile/>
   <tile/>
   <tile/>
   <tile/>
   <tile/>
   <tile/>
   <tile/>
   <tile/>
   <tile/>
   <tile/>
   <tile/>
   <tile/>
   <tile/>
   <tile/>
   <tile/>
   <tile/>
   <tile/>
   <tile/>
   <tile/>
   <tile/>
   <tile/>
   <tile/>
   <tile/>
   <tile/>
   <tile/>
   <tile gid="2684354670"/>
   <tile gid="113"/>
   <tile gid="114"/>
   <tile gid="106"/>
   <tile gid="103"/>
   <tile gid="114"/>
   <tile gid="103"/>
   <tile gid="114"/>
   <tile gid="103"/>
   <tile gid="114"/>
   <tile gid="103"/>
   <tile gid="114"/>
   <tile gid="106"/>
   <tile gid="114"/>
   <tile gid="106"/>
   <tile gid="114"/>
   <tile gid="114"/>
   <tile gid="103"/>
   <tile gid="103"/>
   <tile gid="114"/>
   <tile gid="103"/>
   <tile gid="113"/>
   <tile gid="105"/>
   <tile gid="103"/>
   <tile gid="114"/>
   <tile gid="105"/>
   <tile gid="106"/>
   <tile gid="114"/>
   <tile gid="105"/>
   <tile gid="103"/>
   <tile gid="106"/>
   <tile gid="113"/>
   <tile gid="114"/>
   <tile gid="113"/>
   <tile gid="105"/>
   <tile gid="103"/>
   <tile gid="114"/>
   <tile gid="103"/>
   <tile gid="114"/>
   <tile gid="114"/>
   <tile gid="114"/>
   <tile gid="106"/>
   <tile gid="103"/>
   <tile gid="106"/>
   <tile gid="105"/>
   <tile gid="103"/>
   <tile gid="114"/>
   <tile gid="113"/>
   <tile gid="105"/>
   <tile gid="106"/>
   <tile gid="105"/>
   <tile gid="106"/>
   <tile gid="106"/>
   <tile gid="114"/>
   <tile gid="2147483750"/>
   <tile/>
   <tile/>
   <tile/>
   <tile/>
   <tile/>
   <tile/>
   <tile/>
   <tile/>
   <tile gid="102"/>
   <tile gid="103"/>
   <tile gid="105"/>
   <tile gid="113"/>
   <tile gid="106"/>
   <tile gid="106"/>
   <tile gid="103"/>
   <tile gid="113"/>
   <tile gid="103"/>
   <tile gid="113"/>
   <tile gid="113"/>
   <tile gid="114"/>
   <tile gid="106"/>
   <tile gid="105"/>
   <tile gid="106"/>
   <tile gid="106"/>
   <tile gid="114"/>
   <tile gid="103"/>
   <tile gid="103"/>
   <tile gid="106"/>
   <tile gid="103"/>
   <tile gid="105"/>
   <tile gid="113"/>
   <tile gid="114"/>
   <tile gid="113"/>
   <tile gid="113"/>
   <tile gid="103"/>
   <tile gid="114"/>
   <tile gid="106"/>
   <tile gid="103"/>
   <tile gid="106"/>
   <tile gid="105"/>
   <tile gid="114"/>
   <tile gid="113"/>
   <tile gid="114"/>
   <tile gid="106"/>
   <tile gid="106"/>
   <tile gid="105"/>
   <tile gid="113"/>
   <tile gid="113"/>
   <tile gid="105"/>
   <tile gid="113"/>
   <tile gid="103"/>
   <tile gid="103"/>
   <tile gid="103"/>
   <tile gid="103"/>
   <tile gid="103"/>
   <tile gid="106"/>
   <tile gid="113"/>
   <tile gid="105"/>
   <tile gid="105"/>
   <tile gid="103"/>
   <tile gid="113"/>
   <tile gid="114"/>
   <tile gid="106"/>
   <tile gid="105"/>
   <tile gid="105"/>
   <tile gid="106"/>
   <tile gid="105"/>
   <tile gid="114"/>
   <tile gid="113"/>
   <tile gid="114"/>
   <tile gid="106"/>
   <tile gid="103"/>
   <tile gid="113"/>
   <tile gid="106"/>
   <tile gid="114"/>
   <tile gid="113"/>
   <tile gid="114"/>
   <tile gid="114"/>
   <tile gid="113"/>
   <tile gid="105"/>
   <tile gid="105"/>
   <tile gid="105"/>
   <tile gid="113"/>
   <tile/>
   <tile/>
   <tile/>
   <tile/>
   <tile/>
   <tile/>
   <tile/>
   <tile/>
   <tile/>
   <tile/>
   <tile/>
   <tile/>
   <tile/>
   <tile/>
   <tile/>
   <tile/>
   <tile/>
   <tile/>
   <tile/>
   <tile/>
   <tile/>
   <tile/>
   <tile/>
   <tile/>
   <tile/>
   <tile/>
   <tile/>
   <tile/>
   <tile/>
   <tile/>
   <tile/>
   <tile/>
   <tile/>
   <tile/>
   <tile/>
   <tile/>
   <tile/>
   <tile/>
   <tile/>
   <tile/>
   <tile/>
   <tile gid="2684354670"/>
   <tile gid="113"/>
   <tile gid="103"/>
   <tile gid="103"/>
   <tile gid="103"/>
   <tile gid="105"/>
   <tile gid="103"/>
   <tile gid="103"/>
   <tile gid="113"/>
   <tile gid="105"/>
   <tile gid="106"/>
   <tile gid="106"/>
   <tile gid="114"/>
   <tile gid="113"/>
   <tile gid="106"/>
   <tile gid="113"/>
   <tile gid="103"/>
   <tile gid="106"/>
   <tile gid="103"/>
   <tile gid="103"/>
   <tile gid="114"/>
   <tile gid="113"/>
   <tile gid="103"/>
   <tile gid="113"/>
   <tile gid="114"/>
   <tile gid="105"/>
   <tile gid="114"/>
   <tile gid="105"/>
   <tile gid="114"/>
   <tile gid="105"/>
   <tile gid="105"/>
   <tile gid="103"/>
   <tile gid="106"/>
   <tile gid="114"/>
   <tile gid="106"/>
   <tile gid="103"/>
   <tile gid="103"/>
   <tile gid="103"/>
   <tile gid="103"/>
   <tile gid="113"/>
   <tile gid="114"/>
   <tile gid="106"/>
   <tile gid="105"/>
   <tile gid="113"/>
   <tile gid="105"/>
   <tile gid="105"/>
   <tile gid="105"/>
   <tile gid="105"/>
   <tile gid="106"/>
   <tile gid="105"/>
   <tile gid="105"/>
   <tile gid="113"/>
   <tile gid="113"/>
   <tile gid="105"/>
   <tile gid="105"/>
   <tile gid="104"/>
   <tile/>
   <tile/>
   <tile/>
   <tile/>
   <tile/>
   <tile/>
   <tile/>
   <tile/>
   <tile gid="2147483752"/>
   <tile gid="113"/>
   <tile gid="103"/>
   <tile gid="105"/>
   <tile gid="114"/>
   <tile gid="114"/>
   <tile gid="103"/>
   <tile gid="113"/>
   <tile gid="106"/>
   <tile gid="105"/>
   <tile gid="105"/>
   <tile gid="113"/>
   <tile gid="114"/>
   <tile gid="103"/>
   <tile gid="113"/>
   <tile gid="114"/>
   <tile gid="103"/>
   <tile gid="103"/>
   <tile gid="105"/>
   <tile gid="103"/>
   <tile gid="103"/>
   <tile gid="113"/>
   <tile gid="114"/>
   <tile gid="113"/>
   <tile gid="103"/>
   <tile gid="105"/>
   <tile gid="113"/>
   <tile gid="105"/>
   <tile gid="106"/>
   <tile gid="106"/>
   <tile gid="113"/>
   <tile gid="103"/>
   <tile gid="113"/>
   <tile gid="106"/>
   <tile gid="113"/>
   <tile gid="113"/>
   <tile gid="106"/>
   <tile gid="113"/>
   <tile gid="114"/>
   <tile gid="105"/>
   <tile gid="103"/>
   <tile gid="103"/>
   <tile gid="103"/>
   <tile gid="103"/>
   <tile gid="114"/>
   <tile gid="105"/>
   <tile gid="105"/>
   <tile gid="114"/>
   <tile gid="103"/>
   <tile gid="105"/>
   <tile gid="114"/>
   <tile gid="105"/>
   <tile gid="113"/>
   <tile gid="105"/>
   <tile gid="114"/>
   <tile gid="103"/>
   <tile gid="114"/>
   <tile gid="103"/>
   <tile gid="114"/>
   <tile gid="105"/>
   <tile gid="113"/>
   <tile gid="106"/>
   <tile gid="113"/>
   <tile gid="114"/>
   <tile gid="106"/>
   <tile gid="103"/>
   <tile gid="113"/>
   <tile gid="105"/>
   <tile gid="106"/>
   <tile gid="103"/>
   <tile gid="114"/>
   <tile gid="103"/>
   <tile gid="103"/>
   <tile gid="103"/>
   <tile gid="103"/>
   <tile/>
   <tile/>
   <tile/>
   <tile/>
   <tile/>
   <tile/>
   <tile/>
   <tile/>
   <tile/>
   <tile/>
   <tile/>
   <tile/>
   <tile/>
   <tile/>
   <tile/>
   <tile/>
   <tile/>
   <tile/>
   <tile/>
   <tile/>
   <tile/>
   <tile/>
   <tile/>
   <tile/>
   <tile/>
   <tile/>
   <tile/>
   <tile/>
   <tile/>
   <tile/>
   <tile/>
   <tile/>
   <tile/>
   <tile/>
   <tile/>
   <tile/>
   <tile/>
   <tile/>
   <tile/>
   <tile/>
   <tile gid="2684354670"/>
   <tile gid="106"/>
   <tile gid="105"/>
   <tile gid="105"/>
   <tile gid="103"/>
   <tile gid="113"/>
   <tile gid="103"/>
   <tile gid="106"/>
   <tile gid="105"/>
   <tile gid="103"/>
   <tile gid="113"/>
   <tile gid="105"/>
   <tile gid="103"/>
   <tile gid="113"/>
   <tile gid="103"/>
   <tile gid="106"/>
   <tile gid="106"/>
   <tile gid="105"/>
   <tile gid="106"/>
   <tile gid="113"/>
   <tile gid="106"/>
   <tile gid="105"/>
   <tile gid="105"/>
   <tile gid="114"/>
   <tile gid="105"/>
   <tile gid="103"/>
   <tile gid="105"/>
   <tile gid="105"/>
   <tile gid="106"/>
   <tile gid="103"/>
   <tile gid="113"/>
   <tile gid="103"/>
   <tile gid="106"/>
   <tile gid="103"/>
   <tile gid="103"/>
   <tile gid="103"/>
   <tile gid="105"/>
   <tile gid="113"/>
   <tile gid="105"/>
   <tile gid="113"/>
   <tile gid="114"/>
   <tile gid="114"/>
   <tile gid="106"/>
   <tile gid="114"/>
   <tile gid="114"/>
   <tile gid="105"/>
   <tile gid="106"/>
   <tile gid="103"/>
   <tile gid="105"/>
   <tile gid="103"/>
   <tile gid="103"/>
   <tile gid="105"/>
   <tile gid="113"/>
   <tile gid="105"/>
   <tile gid="113"/>
   <tile gid="105"/>
   <tile gid="104"/>
   <tile/>
   <tile/>
   <tile/>
   <tile/>
   <tile/>
   <tile/>
   <tile/>
   <tile/>
   <tile gid="2147483752"/>
   <tile gid="113"/>
   <tile gid="106"/>
   <tile gid="103"/>
   <tile gid="105"/>
   <tile gid="113"/>
   <tile gid="106"/>
   <tile gid="114"/>
   <tile gid="114"/>
   <tile gid="103"/>
   <tile gid="113"/>
   <tile gid="103"/>
   <tile gid="114"/>
   <tile gid="103"/>
   <tile gid="113"/>
   <tile gid="106"/>
   <tile gid="114"/>
   <tile gid="106"/>
   <tile gid="103"/>
   <tile gid="103"/>
   <tile gid="105"/>
   <tile gid="103"/>
   <tile gid="103"/>
   <tile gid="103"/>
   <tile gid="114"/>
   <tile gid="113"/>
   <tile gid="113"/>
   <tile gid="113"/>
   <tile gid="105"/>
   <tile gid="106"/>
   <tile gid="103"/>
   <tile gid="106"/>
   <tile gid="114"/>
   <tile gid="114"/>
   <tile gid="105"/>
   <tile gid="103"/>
   <tile gid="113"/>
   <tile gid="103"/>
   <tile gid="103"/>
   <tile gid="113"/>
   <tile gid="114"/>
   <tile gid="103"/>
   <tile gid="103"/>
   <tile gid="113"/>
   <tile gid="105"/>
   <tile gid="105"/>
   <tile gid="105"/>
   <tile gid="106"/>
   <tile gid="105"/>
   <tile gid="113"/>
   <tile gid="103"/>
   <tile gid="105"/>
   <tile gid="114"/>
   <tile gid="105"/>
   <tile gid="103"/>
   <tile gid="103"/>
   <tile gid="114"/>
   <tile gid="106"/>
   <tile gid="105"/>
   <tile gid="114"/>
   <tile gid="114"/>
   <tile gid="103"/>
   <tile gid="113"/>
   <tile gid="103"/>
   <tile gid="106"/>
   <tile gid="106"/>
   <tile gid="103"/>
   <tile gid="106"/>
   <tile gid="103"/>
   <tile gid="103"/>
   <tile gid="106"/>
   <tile gid="106"/>
   <tile gid="103"/>
   <tile gid="103"/>
   <tile gid="114"/>
   <tile/>
   <tile/>
   <tile/>
   <tile/>
   <tile/>
   <tile/>
   <tile/>
   <tile/>
   <tile/>
   <tile/>
   <tile/>
   <tile/>
   <tile/>
   <tile/>
   <tile/>
   <tile/>
   <tile/>
   <tile/>
   <tile/>
   <tile/>
   <tile/>
   <tile/>
   <tile/>
   <tile/>
   <tile/>
   <tile/>
   <tile/>
   <tile/>
   <tile/>
   <tile/>
   <tile/>
   <tile/>
   <tile/>
   <tile/>
   <tile/>
   <tile/>
   <tile/>
   <tile/>
   <tile/>
   <tile/>
   <tile gid="113"/>
   <tile gid="105"/>
   <tile gid="106"/>
   <tile gid="106"/>
   <tile gid="113"/>
   <tile gid="105"/>
   <tile gid="113"/>
   <tile gid="106"/>
   <tile gid="106"/>
   <tile gid="103"/>
   <tile gid="113"/>
   <tile gid="105"/>
   <tile gid="113"/>
   <tile gid="114"/>
   <tile gid="113"/>
   <tile gid="105"/>
   <tile gid="105"/>
   <tile gid="114"/>
   <tile gid="113"/>
   <tile gid="114"/>
   <tile gid="103"/>
   <tile gid="105"/>
   <tile gid="103"/>
   <tile gid="103"/>
   <tile gid="103"/>
   <tile gid="103"/>
   <tile gid="105"/>
   <tile gid="103"/>
   <tile gid="103"/>
   <tile gid="103"/>
   <tile gid="103"/>
   <tile gid="103"/>
   <tile gid="103"/>
   <tile gid="113"/>
   <tile gid="105"/>
   <tile gid="114"/>
   <tile gid="103"/>
   <tile gid="114"/>
   <tile gid="106"/>
   <tile gid="113"/>
   <tile gid="103"/>
   <tile gid="103"/>
   <tile gid="103"/>
   <tile gid="105"/>
   <tile gid="105"/>
   <tile gid="114"/>
   <tile gid="105"/>
   <tile gid="114"/>
   <tile gid="103"/>
   <tile gid="103"/>
   <tile gid="103"/>
   <tile gid="103"/>
   <tile gid="103"/>
   <tile gid="103"/>
   <tile gid="103"/>
   <tile gid="105"/>
   <tile gid="104"/>
   <tile/>
   <tile/>
   <tile/>
   <tile/>
   <tile/>
   <tile/>
   <tile/>
   <tile/>
   <tile gid="2147483752"/>
   <tile gid="106"/>
   <tile gid="114"/>
   <tile gid="114"/>
   <tile gid="113"/>
   <tile gid="114"/>
   <tile gid="103"/>
   <tile gid="114"/>
   <tile gid="105"/>
   <tile gid="114"/>
   <tile gid="114"/>
   <tile gid="105"/>
   <tile gid="105"/>
   <tile gid="105"/>
   <tile gid="105"/>
   <tile gid="105"/>
   <tile gid="103"/>
   <tile gid="103"/>
   <tile gid="105"/>
   <tile gid="103"/>
   <tile gid="103"/>
   <tile gid="103"/>
   <tile gid="106"/>
   <tile gid="114"/>
   <tile gid="113"/>
   <tile gid="103"/>
   <tile gid="106"/>
   <tile gid="114"/>
   <tile gid="103"/>
   <tile gid="114"/>
   <tile gid="103"/>
   <tile gid="103"/>
   <tile gid="105"/>
   <tile gid="105"/>
   <tile gid="103"/>
   <tile gid="113"/>
   <tile gid="103"/>
   <tile gid="103"/>
   <tile gid="103"/>
   <tile gid="103"/>
   <tile gid="103"/>
   <tile gid="106"/>
   <tile gid="105"/>
   <tile gid="113"/>
   <tile gid="113"/>
   <tile gid="106"/>
   <tile gid="105"/>
   <tile gid="114"/>
   <tile gid="103"/>
   <tile gid="106"/>
   <tile gid="113"/>
   <tile gid="114"/>
   <tile gid="103"/>
   <tile gid="114"/>
   <tile gid="105"/>
   <tile gid="106"/>
   <tile gid="105"/>
   <tile gid="106"/>
   <tile gid="113"/>
   <tile gid="114"/>
   <tile gid="113"/>
   <tile gid="113"/>
   <tile gid="105"/>
   <tile gid="106"/>
   <tile gid="113"/>
   <tile gid="113"/>
   <tile gid="113"/>
   <tile gid="114"/>
   <tile gid="103"/>
   <tile gid="114"/>
   <tile gid="105"/>
   <tile gid="106"/>
   <tile gid="113"/>
   <tile gid="106"/>
   <tile gid="113"/>
   <tile/>
   <tile/>
   <tile/>
   <tile/>
   <tile/>
   <tile/>
   <tile/>
   <tile/>
   <tile/>
   <tile/>
   <tile/>
   <tile/>
   <tile/>
   <tile/>
   <tile/>
   <tile/>
   <tile/>
   <tile/>
   <tile/>
   <tile/>
   <tile/>
   <tile/>
   <tile/>
   <tile/>
   <tile/>
   <tile/>
   <tile/>
   <tile/>
   <tile/>
   <tile/>
   <tile/>
   <tile/>
   <tile/>
   <tile/>
   <tile/>
   <tile/>
   <tile/>
   <tile/>
   <tile/>
   <tile gid="2684354670"/>
   <tile gid="105"/>
   <tile gid="103"/>
   <tile gid="105"/>
   <tile gid="114"/>
   <tile gid="106"/>
   <tile gid="103"/>
   <tile gid="114"/>
   <tile gid="105"/>
   <tile gid="103"/>
   <tile gid="113"/>
   <tile gid="105"/>
   <tile gid="105"/>
   <tile gid="114"/>
   <tile gid="103"/>
   <tile gid="103"/>
   <tile gid="106"/>
   <tile gid="105"/>
   <tile gid="105"/>
   <tile gid="113"/>
   <tile gid="111"/>
   <tile gid="111"/>
   <tile gid="111"/>
   <tile gid="111"/>
   <tile gid="111"/>
   <tile gid="111"/>
   <tile gid="111"/>
   <tile gid="111"/>
   <tile gid="111"/>
   <tile gid="111"/>
   <tile gid="111"/>
   <tile gid="111"/>
   <tile gid="111"/>
   <tile gid="111"/>
   <tile gid="111"/>
   <tile gid="111"/>
   <tile gid="111"/>
   <tile gid="111"/>
   <tile gid="111"/>
   <tile gid="111"/>
   <tile gid="111"/>
   <tile gid="111"/>
   <tile gid="111"/>
   <tile gid="111"/>
   <tile gid="111"/>
   <tile gid="111"/>
   <tile gid="111"/>
   <tile gid="111"/>
   <tile gid="111"/>
   <tile gid="111"/>
   <tile gid="111"/>
   <tile gid="111"/>
   <tile gid="103"/>
   <tile gid="105"/>
   <tile gid="113"/>
   <tile gid="103"/>
   <tile gid="106"/>
   <tile gid="104"/>
   <tile/>
   <tile/>
   <tile/>
   <tile/>
   <tile/>
   <tile/>
   <tile/>
   <tile/>
   <tile gid="2147483752"/>
   <tile gid="114"/>
   <tile gid="113"/>
   <tile gid="106"/>
   <tile gid="105"/>
   <tile gid="114"/>
   <tile gid="113"/>
   <tile gid="113"/>
   <tile gid="105"/>
   <tile gid="114"/>
   <tile gid="114"/>
   <tile gid="103"/>
   <tile gid="106"/>
   <tile gid="103"/>
   <tile gid="113"/>
   <tile gid="105"/>
   <tile gid="113"/>
   <tile gid="103"/>
   <tile gid="113"/>
   <tile gid="113"/>
   <tile gid="106"/>
   <tile gid="103"/>
   <tile gid="103"/>
   <tile gid="103"/>
   <tile gid="103"/>
   <tile gid="103"/>
   <tile gid="103"/>
   <tile gid="103"/>
   <tile gid="106"/>
   <tile gid="105"/>
   <tile gid="114"/>
   <tile gid="103"/>
   <tile gid="103"/>
   <tile gid="113"/>
   <tile gid="105"/>
   <tile gid="113"/>
   <tile gid="114"/>
   <tile gid="106"/>
   <tile gid="113"/>
   <tile gid="105"/>
   <tile gid="105"/>
   <tile gid="114"/>
   <tile gid="113"/>
   <tile gid="106"/>
   <tile gid="103"/>
   <tile gid="103"/>
   <tile gid="103"/>
   <tile gid="113"/>
   <tile gid="106"/>
   <tile gid="114"/>
   <tile gid="113"/>
   <tile gid="114"/>
   <tile gid="103"/>
   <tile gid="114"/>
   <tile gid="103"/>
   <tile gid="114"/>
   <tile gid="105"/>
   <tile gid="113"/>
   <tile gid="113"/>
   <tile gid="113"/>
   <tile gid="114"/>
   <tile gid="105"/>
   <tile gid="105"/>
   <tile gid="114"/>
   <tile gid="103"/>
   <tile gid="113"/>
   <tile gid="105"/>
   <tile gid="103"/>
   <tile gid="114"/>
   <tile gid="103"/>
   <tile gid="105"/>
   <tile gid="114"/>
   <tile gid="105"/>
   <tile gid="103"/>
   <tile gid="103"/>
   <tile/>
   <tile/>
   <tile/>
   <tile/>
   <tile/>
   <tile/>
   <tile/>
   <tile/>
   <tile/>
   <tile/>
   <tile/>
   <tile/>
   <tile/>
   <tile/>
   <tile/>
   <tile/>
   <tile/>
   <tile/>
   <tile/>
   <tile/>
   <tile/>
   <tile/>
   <tile/>
   <tile/>
   <tile/>
   <tile/>
   <tile/>
   <tile/>
   <tile/>
   <tile/>
   <tile/>
   <tile/>
   <tile/>
   <tile/>
   <tile/>
   <tile/>
   <tile/>
   <tile/>
   <tile gid="2684354670"/>
   <tile gid="113"/>
   <tile gid="103"/>
   <tile gid="113"/>
   <tile gid="103"/>
   <tile gid="103"/>
   <tile gid="105"/>
   <tile gid="105"/>
   <tile gid="113"/>
   <tile gid="113"/>
   <tile gid="113"/>
   <tile gid="106"/>
   <tile gid="105"/>
   <tile gid="114"/>
   <tile gid="105"/>
   <tile gid="103"/>
   <tile gid="103"/>
   <tile gid="103"/>
   <tile gid="103"/>
   <tile gid="111"/>
   <tile gid="112"/>
   <tile/>
   <tile/>
   <tile/>
   <tile/>
   <tile/>
   <tile/>
   <tile/>
   <tile/>
   <tile/>
   <tile/>
   <tile/>
   <tile/>
   <tile/>
   <tile/>
   <tile/>
   <tile/>
   <tile/>
   <tile/>
   <tile/>
   <tile/>
   <tile/>
   <tile/>
   <tile/>
   <tile/>
   <tile/>
   <tile/>
   <tile/>
   <tile/>
   <tile/>
   <tile/>
   <tile/>
   <tile/>
   <tile gid="110"/>
   <tile gid="111"/>
   <tile gid="111"/>
   <tile gid="105"/>
   <tile gid="105"/>
   <tile gid="2147483750"/>
   <tile/>
   <tile/>
   <tile/>
   <tile/>
   <tile/>
   <tile/>
   <tile/>
   <tile/>
   <tile gid="102"/>
   <tile gid="105"/>
   <tile gid="114"/>
   <tile gid="106"/>
   <tile gid="103"/>
   <tile gid="105"/>
   <tile gid="113"/>
   <tile gid="106"/>
   <tile gid="105"/>
   <tile gid="103"/>
   <tile gid="103"/>
   <tile gid="103"/>
   <tile gid="114"/>
   <tile gid="113"/>
   <tile gid="105"/>
   <tile gid="105"/>
   <tile gid="106"/>
   <tile gid="103"/>
   <tile gid="103"/>
   <tile gid="103"/>
   <tile gid="103"/>
   <tile gid="103"/>
   <tile gid="103"/>
   <tile gid="103"/>
   <tile gid="106"/>
   <tile gid="106"/>
   <tile gid="105"/>
   <tile gid="105"/>
   <tile gid="113"/>
   <tile gid="103"/>
   <tile gid="105"/>
   <tile gid="103"/>
   <tile gid="114"/>
   <tile gid="105"/>
   <tile gid="103"/>
   <tile gid="103"/>
   <tile gid="103"/>
   <tile gid="106"/>
   <tile gid="114"/>
   <tile gid="113"/>
   <tile gid="103"/>
   <tile gid="103"/>
   <tile gid="103"/>
   <tile gid="103"/>
   <tile gid="103"/>
   <tile gid="113"/>
   <tile gid="113"/>
   <tile gid="113"/>
   <tile gid="106"/>
   <tile gid="113"/>
   <tile gid="105"/>
   <tile gid="114"/>
   <tile gid="103"/>
   <tile gid="105"/>
   <tile gid="113"/>
   <tile gid="113"/>
   <tile gid="114"/>
   <tile gid="103"/>
   <tile gid="103"/>
   <tile gid="106"/>
   <tile gid="114"/>
   <tile gid="106"/>
   <tile gid="114"/>
   <tile gid="103"/>
   <tile gid="106"/>
   <tile gid="103"/>
   <tile gid="113"/>
   <tile gid="106"/>
   <tile gid="106"/>
   <tile gid="113"/>
   <tile gid="106"/>
   <tile gid="113"/>
   <tile gid="103"/>
   <tile gid="103"/>
   <tile gid="103"/>
   <tile/>
   <tile/>
   <tile/>
   <tile/>
   <tile/>
   <tile/>
   <tile/>
   <tile/>
   <tile/>
   <tile/>
   <tile/>
   <tile/>
   <tile/>
   <tile/>
   <tile/>
   <tile/>
   <tile/>
   <tile/>
   <tile/>
   <tile/>
   <tile/>
   <tile/>
   <tile/>
   <tile/>
   <tile/>
   <tile/>
   <tile/>
   <tile/>
   <tile/>
   <tile/>
   <tile/>
   <tile/>
   <tile/>
   <tile/>
   <tile/>
   <tile/>
   <tile/>
   <tile/>
   <tile gid="114"/>
   <tile gid="113"/>
   <tile gid="103"/>
   <tile gid="105"/>
   <tile gid="106"/>
   <tile gid="105"/>
   <tile gid="103"/>
   <tile gid="103"/>
   <tile gid="114"/>
   <tile gid="105"/>
   <tile gid="103"/>
   <tile gid="114"/>
   <tile gid="113"/>
   <tile gid="105"/>
   <tile gid="114"/>
   <tile gid="105"/>
   <tile gid="106"/>
   <tile gid="113"/>
   <tile gid="112"/>
   <tile/>
   <tile/>
   <tile/>
   <tile/>
   <tile/>
   <tile/>
   <tile/>
   <tile/>
   <tile/>
   <tile/>
   <tile/>
   <tile/>
   <tile/>
   <tile/>
   <tile/>
   <tile/>
   <tile/>
   <tile/>
   <tile/>
   <tile/>
   <tile/>
   <tile/>
   <tile/>
   <tile/>
   <tile/>
   <tile/>
   <tile/>
   <tile/>
   <tile/>
   <tile/>
   <tile/>
   <tile/>
   <tile/>
   <tile/>
   <tile/>
   <tile/>
   <tile/>
   <tile gid="102"/>
   <tile gid="105"/>
   <tile gid="2147483750"/>
   <tile/>
   <tile/>
   <tile/>
   <tile/>
   <tile/>
   <tile/>
   <tile/>
   <tile/>
   <tile gid="102"/>
   <tile gid="105"/>
   <tile gid="103"/>
   <tile gid="103"/>
   <tile gid="103"/>
   <tile gid="103"/>
   <tile gid="106"/>
   <tile gid="106"/>
   <tile gid="114"/>
   <tile gid="114"/>
   <tile gid="113"/>
   <tile gid="113"/>
   <tile gid="103"/>
   <tile gid="103"/>
   <tile gid="103"/>
   <tile gid="103"/>
   <tile gid="103"/>
   <tile gid="103"/>
   <tile gid="103"/>
   <tile gid="105"/>
   <tile gid="103"/>
   <tile gid="103"/>
   <tile gid="106"/>
   <tile gid="103"/>
   <tile gid="113"/>
   <tile gid="103"/>
   <tile gid="105"/>
   <tile gid="103"/>
   <tile gid="106"/>
   <tile gid="103"/>
   <tile gid="113"/>
   <tile gid="103"/>
   <tile gid="105"/>
   <tile gid="113"/>
   <tile gid="103"/>
   <tile gid="114"/>
   <tile gid="103"/>
   <tile gid="113"/>
   <tile gid="114"/>
   <tile gid="105"/>
   <tile gid="106"/>
   <tile gid="105"/>
   <tile gid="103"/>
   <tile gid="105"/>
   <tile gid="113"/>
   <tile gid="105"/>
   <tile gid="114"/>
   <tile gid="103"/>
   <tile gid="103"/>
   <tile gid="113"/>
   <tile gid="105"/>
   <tile gid="103"/>
   <tile gid="103"/>
   <tile gid="106"/>
   <tile gid="106"/>
   <tile gid="113"/>
   <tile gid="103"/>
   <tile gid="114"/>
   <tile gid="105"/>
   <tile gid="114"/>
   <tile gid="105"/>
   <tile gid="103"/>
   <tile gid="105"/>
   <tile gid="103"/>
   <tile gid="103"/>
   <tile gid="106"/>
   <tile gid="114"/>
   <tile gid="105"/>
   <tile gid="114"/>
   <tile gid="103"/>
   <tile gid="103"/>
   <tile gid="106"/>
   <tile gid="114"/>
   <tile gid="103"/>
   <tile gid="103"/>
   <tile/>
   <tile/>
   <tile/>
   <tile/>
   <tile/>
   <tile/>
   <tile/>
   <tile/>
   <tile/>
   <tile/>
   <tile/>
   <tile/>
   <tile/>
   <tile/>
   <tile/>
   <tile/>
   <tile/>
   <tile/>
   <tile/>
   <tile/>
   <tile/>
   <tile/>
   <tile/>
   <tile/>
   <tile/>
   <tile/>
   <tile/>
   <tile/>
   <tile/>
   <tile/>
   <tile/>
   <tile/>
   <tile/>
   <tile/>
   <tile/>
   <tile/>
   <tile/>
   <tile gid="2684354670"/>
   <tile gid="106"/>
   <tile gid="105"/>
   <tile gid="103"/>
   <tile gid="105"/>
   <tile gid="105"/>
   <tile gid="106"/>
   <tile gid="103"/>
   <tile gid="103"/>
   <tile gid="105"/>
   <tile gid="106"/>
   <tile gid="105"/>
   <tile gid="113"/>
   <tile gid="106"/>
   <tile gid="114"/>
   <tile gid="113"/>
   <tile gid="113"/>
   <tile gid="103"/>
   <tile gid="112"/>
   <tile/>
   <tile/>
   <tile/>
   <tile/>
   <tile/>
   <tile/>
   <tile/>
   <tile/>
   <tile/>
   <tile/>
   <tile/>
   <tile/>
   <tile/>
   <tile/>
   <tile/>
   <tile/>
   <tile/>
   <tile/>
   <tile/>
   <tile/>
   <tile/>
   <tile/>
   <tile/>
   <tile/>
   <tile/>
   <tile/>
   <tile/>
   <tile/>
   <tile/>
   <tile/>
   <tile/>
   <tile/>
   <tile/>
   <tile/>
   <tile/>
   <tile/>
   <tile/>
   <tile/>
   <tile gid="2147483752"/>
   <tile gid="103"/>
   <tile gid="104"/>
   <tile/>
   <tile/>
   <tile/>
   <tile/>
   <tile/>
   <tile/>
   <tile/>
   <tile/>
   <tile gid="110"/>
   <tile gid="111"/>
   <tile gid="111"/>
   <tile gid="111"/>
   <tile gid="111"/>
   <tile gid="111"/>
   <tile gid="111"/>
   <tile gid="111"/>
   <tile gid="111"/>
   <tile gid="111"/>
   <tile gid="111"/>
   <tile gid="111"/>
   <tile gid="111"/>
   <tile gid="111"/>
   <tile gid="111"/>
   <tile gid="111"/>
   <tile gid="111"/>
   <tile gid="111"/>
   <tile gid="111"/>
   <tile gid="111"/>
   <tile gid="111"/>
   <tile gid="111"/>
   <tile gid="111"/>
   <tile gid="111"/>
   <tile gid="111"/>
   <tile gid="111"/>
   <tile gid="111"/>
   <tile gid="111"/>
   <tile gid="111"/>
   <tile gid="111"/>
   <tile gid="111"/>
   <tile gid="111"/>
   <tile gid="111"/>
   <tile gid="111"/>
   <tile gid="111"/>
   <tile gid="111"/>
   <tile gid="113"/>
   <tile gid="114"/>
   <tile gid="111"/>
   <tile gid="111"/>
   <tile gid="111"/>
   <tile gid="111"/>
   <tile gid="111"/>
   <tile gid="111"/>
   <tile gid="111"/>
   <tile gid="111"/>
   <tile gid="111"/>
   <tile gid="111"/>
   <tile gid="111"/>
   <tile gid="111"/>
   <tile gid="111"/>
   <tile gid="111"/>
   <tile gid="111"/>
   <tile gid="111"/>
   <tile gid="111"/>
   <tile gid="111"/>
   <tile gid="111"/>
   <tile gid="111"/>
   <tile gid="111"/>
   <tile gid="111"/>
   <tile gid="111"/>
   <tile gid="111"/>
   <tile gid="111"/>
   <tile gid="111"/>
   <tile gid="111"/>
   <tile gid="111"/>
   <tile gid="111"/>
   <tile gid="111"/>
   <tile gid="111"/>
   <tile gid="111"/>
   <tile gid="111"/>
   <tile gid="111"/>
   <tile gid="111"/>
   <tile gid="111"/>
   <tile gid="103"/>
   <tile/>
   <tile/>
   <tile/>
   <tile/>
   <tile/>
   <tile/>
   <tile/>
   <tile/>
   <tile/>
   <tile/>
   <tile/>
   <tile/>
   <tile/>
   <tile/>
   <tile/>
   <tile/>
   <tile/>
   <tile/>
   <tile/>
   <tile/>
   <tile/>
   <tile/>
   <tile/>
   <tile/>
   <tile/>
   <tile/>
   <tile/>
   <tile/>
   <tile/>
   <tile/>
   <tile/>
   <tile/>
   <tile/>
   <tile/>
   <tile/>
   <tile/>
   <tile gid="2684354670"/>
   <tile gid="103"/>
   <tile gid="113"/>
   <tile gid="106"/>
   <tile gid="114"/>
   <tile gid="114"/>
   <tile gid="106"/>
   <tile gid="113"/>
   <tile gid="103"/>
   <tile gid="105"/>
   <tile gid="106"/>
   <tile gid="114"/>
   <tile gid="105"/>
   <tile gid="105"/>
   <tile gid="106"/>
   <tile gid="113"/>
   <tile gid="105"/>
   <tile gid="103"/>
   <tile gid="104"/>
   <tile/>
   <tile/>
   <tile/>
   <tile/>
   <tile/>
   <tile/>
   <tile/>
   <tile/>
   <tile/>
   <tile/>
   <tile/>
   <tile/>
   <tile/>
   <tile/>
   <tile/>
   <tile/>
   <tile/>
   <tile/>
   <tile/>
   <tile/>
   <tile/>
   <tile/>
   <tile/>
   <tile/>
   <tile/>
   <tile/>
   <tile/>
   <tile/>
   <tile/>
   <tile/>
   <tile/>
   <tile/>
   <tile/>
   <tile/>
   <tile/>
   <tile/>
   <tile/>
   <tile/>
   <tile/>
   <tile gid="102"/>
   <tile gid="106"/>
   <tile gid="104"/>
   <tile/>
   <tile/>
   <tile/>
   <tile/>
   <tile/>
   <tile/>
   <tile/>
   <tile/>
   <tile/>
   <tile/>
   <tile/>
   <tile/>
   <tile/>
   <tile/>
   <tile/>
   <tile/>
   <tile/>
   <tile/>
   <tile/>
   <tile/>
   <tile/>
   <tile/>
   <tile/>
   <tile/>
   <tile/>
   <tile/>
   <tile/>
   <tile/>
   <tile/>
   <tile/>
   <tile/>
   <tile/>
   <tile/>
   <tile/>
   <tile/>
   <tile/>
   <tile/>
   <tile/>
   <tile/>
   <tile/>
   <tile/>
   <tile/>
   <tile/>
   <tile/>
   <tile gid="2147483752"/>
   <tile gid="104"/>
   <tile/>
   <tile/>
   <tile/>
   <tile/>
   <tile/>
   <tile/>
   <tile/>
   <tile/>
   <tile/>
   <tile/>
   <tile/>
   <tile/>
   <tile/>
   <tile/>
   <tile/>
   <tile/>
   <tile/>
   <tile/>
   <tile/>
   <tile/>
   <tile/>
   <tile/>
   <tile/>
   <tile/>
   <tile/>
   <tile/>
   <tile/>
   <tile/>
   <tile/>
   <tile/>
   <tile/>
   <tile/>
   <tile/>
   <tile/>
   <tile/>
   <tile/>
   <tile gid="102"/>
   <tile/>
   <tile/>
   <tile/>
   <tile/>
   <tile/>
   <tile/>
   <tile/>
   <tile/>
   <tile/>
   <tile/>
   <tile/>
   <tile/>
   <tile/>
   <tile/>
   <tile/>
   <tile/>
   <tile/>
   <tile/>
   <tile/>
   <tile/>
   <tile/>
   <tile/>
   <tile/>
   <tile/>
   <tile/>
   <tile/>
   <tile/>
   <tile/>
   <tile/>
   <tile/>
   <tile/>
   <tile/>
   <tile/>
   <tile/>
   <tile/>
   <tile gid="2684354670"/>
   <tile gid="103"/>
   <tile gid="113"/>
   <tile gid="105"/>
   <tile gid="114"/>
   <tile gid="113"/>
   <tile gid="103"/>
   <tile gid="106"/>
   <tile gid="114"/>
   <tile gid="103"/>
   <tile gid="114"/>
   <tile gid="114"/>
   <tile gid="114"/>
   <tile gid="113"/>
   <tile gid="114"/>
   <tile gid="105"/>
   <tile gid="103"/>
   <tile gid="103"/>
   <tile gid="114"/>
   <tile gid="112"/>
   <tile/>
   <tile/>
   <tile/>
   <tile/>
   <tile/>
   <tile/>
   <tile/>
   <tile/>
   <tile/>
   <tile/>
   <tile/>
   <tile/>
   <tile/>
   <tile/>
   <tile/>
   <tile/>
   <tile/>
   <tile/>
   <tile/>
   <tile/>
   <tile/>
   <tile/>
   <tile/>
   <tile/>
   <tile/>
   <tile/>
   <tile/>
   <tile/>
   <tile/>
   <tile/>
   <tile/>
   <tile/>
   <tile/>
   <tile/>
   <tile/>
   <tile/>
   <tile/>
   <tile/>
   <tile/>
   <tile gid="102"/>
   <tile gid="103"/>
   <tile gid="2147483750"/>
   <tile/>
   <tile/>
   <tile/>
   <tile/>
   <tile/>
   <tile/>
   <tile/>
   <tile/>
   <tile/>
   <tile/>
   <tile/>
   <tile/>
   <tile/>
   <tile/>
   <tile/>
   <tile/>
   <tile/>
   <tile/>
   <tile/>
   <tile/>
   <tile/>
   <tile/>
   <tile/>
   <tile/>
   <tile/>
   <tile/>
   <tile/>
   <tile/>
   <tile/>
   <tile/>
   <tile/>
   <tile/>
   <tile/>
   <tile/>
   <tile/>
   <tile/>
   <tile/>
   <tile/>
   <tile/>
   <tile/>
   <tile/>
   <tile/>
   <tile/>
   <tile/>
   <tile gid="102"/>
   <tile gid="104"/>
   <tile/>
   <tile/>
   <tile/>
   <tile/>
   <tile/>
   <tile/>
   <tile/>
   <tile/>
   <tile/>
   <tile/>
   <tile/>
   <tile/>
   <tile/>
   <tile/>
   <tile/>
   <tile/>
   <tile/>
   <tile/>
   <tile/>
   <tile/>
   <tile/>
   <tile/>
   <tile/>
   <tile/>
   <tile/>
   <tile/>
   <tile/>
   <tile/>
   <tile/>
   <tile/>
   <tile/>
   <tile/>
   <tile/>
   <tile/>
   <tile/>
   <tile/>
   <tile gid="102"/>
   <tile/>
   <tile/>
   <tile/>
   <tile/>
   <tile/>
   <tile/>
   <tile/>
   <tile/>
   <tile/>
   <tile/>
   <tile/>
   <tile/>
   <tile/>
   <tile/>
   <tile/>
   <tile/>
   <tile/>
   <tile/>
   <tile/>
   <tile/>
   <tile/>
   <tile/>
   <tile/>
   <tile/>
   <tile/>
   <tile/>
   <tile/>
   <tile/>
   <tile/>
   <tile/>
   <tile/>
   <tile/>
   <tile/>
   <tile/>
   <tile gid="2684354670"/>
   <tile gid="113"/>
   <tile gid="113"/>
   <tile gid="106"/>
   <tile gid="113"/>
   <tile gid="106"/>
   <tile gid="103"/>
   <tile gid="103"/>
   <tile gid="103"/>
   <tile gid="103"/>
   <tile gid="106"/>
   <tile gid="114"/>
   <tile gid="103"/>
   <tile gid="113"/>
   <tile gid="105"/>
   <tile gid="114"/>
   <tile gid="114"/>
   <tile gid="103"/>
   <tile gid="113"/>
   <tile gid="112"/>
   <tile/>
   <tile/>
   <tile/>
   <tile/>
   <tile/>
   <tile/>
   <tile/>
   <tile/>
   <tile/>
   <tile/>
   <tile/>
   <tile/>
   <tile/>
   <tile/>
   <tile/>
   <tile/>
   <tile/>
   <tile/>
   <tile/>
   <tile/>
   <tile/>
   <tile/>
   <tile/>
   <tile/>
   <tile/>
   <tile/>
   <tile/>
   <tile/>
   <tile/>
   <tile/>
   <tile/>
   <tile/>
   <tile/>
   <tile/>
   <tile/>
   <tile/>
   <tile/>
   <tile/>
   <tile/>
   <tile/>
   <tile gid="102"/>
   <tile gid="105"/>
   <tile gid="2147483750"/>
   <tile/>
   <tile/>
   <tile gid="94"/>
   <tile gid="95"/>
   <tile gid="95"/>
   <tile gid="96"/>
   <tile/>
   <tile/>
   <tile/>
   <tile/>
   <tile/>
   <tile/>
   <tile/>
   <tile/>
   <tile/>
   <tile/>
   <tile/>
   <tile/>
   <tile/>
   <tile/>
   <tile/>
   <tile/>
   <tile/>
   <tile/>
   <tile/>
   <tile/>
   <tile/>
   <tile/>
   <tile/>
   <tile/>
   <tile/>
   <tile/>
   <tile/>
   <tile/>
   <tile/>
   <tile/>
   <tile/>
   <tile/>
   <tile/>
   <tile/>
   <tile/>
   <tile/>
   <tile/>
   <tile/>
   <tile gid="102"/>
   <tile gid="104"/>
   <tile/>
   <tile/>
   <tile/>
   <tile/>
   <tile/>
   <tile/>
   <tile/>
   <tile/>
   <tile/>
   <tile/>
   <tile/>
   <tile/>
   <tile/>
   <tile/>
   <tile/>
   <tile/>
   <tile/>
   <tile/>
   <tile/>
   <tile/>
   <tile/>
   <tile/>
   <tile/>
   <tile/>
   <tile/>
   <tile/>
   <tile/>
   <tile/>
   <tile/>
   <tile/>
   <tile/>
   <tile/>
   <tile/>
   <tile/>
   <tile/>
   <tile/>
   <tile gid="102"/>
   <tile/>
   <tile/>
   <tile/>
   <tile/>
   <tile/>
   <tile/>
   <tile/>
   <tile/>
   <tile/>
   <tile/>
   <tile/>
   <tile/>
   <tile/>
   <tile/>
   <tile/>
   <tile/>
   <tile/>
   <tile/>
   <tile/>
   <tile/>
   <tile/>
   <tile/>
   <tile/>
   <tile/>
   <tile/>
   <tile/>
   <tile/>
   <tile/>
   <tile/>
   <tile/>
   <tile/>
   <tile/>
   <tile/>
   <tile gid="2684354670"/>
   <tile gid="103"/>
   <tile gid="114"/>
   <tile gid="105"/>
   <tile gid="106"/>
   <tile gid="105"/>
   <tile gid="113"/>
   <tile gid="113"/>
   <tile gid="113"/>
   <tile gid="103"/>
   <tile gid="103"/>
   <tile gid="113"/>
   <tile gid="113"/>
   <tile gid="113"/>
   <tile gid="105"/>
   <tile gid="106"/>
   <tile gid="103"/>
   <tile gid="106"/>
   <tile gid="114"/>
   <tile gid="112"/>
   <tile/>
   <tile/>
   <tile/>
   <tile/>
   <tile/>
   <tile/>
   <tile/>
   <tile/>
   <tile/>
   <tile/>
   <tile/>
   <tile/>
   <tile/>
   <tile/>
   <tile/>
   <tile/>
   <tile/>
   <tile/>
   <tile/>
   <tile/>
   <tile/>
   <tile/>
   <tile/>
   <tile/>
   <tile/>
   <tile/>
   <tile/>
   <tile/>
   <tile/>
   <tile/>
   <tile/>
   <tile/>
   <tile/>
   <tile/>
   <tile/>
   <tile/>
   <tile/>
   <tile/>
   <tile/>
   <tile/>
   <tile/>
   <tile gid="2147483752"/>
   <tile gid="103"/>
   <tile gid="2147483750"/>
   <tile/>
   <tile/>
   <tile/>
   <tile/>
   <tile/>
   <tile/>
   <tile/>
   <tile/>
   <tile/>
   <tile/>
   <tile/>
   <tile/>
   <tile/>
   <tile/>
   <tile/>
   <tile/>
   <tile/>
   <tile/>
   <tile/>
   <tile/>
   <tile/>
   <tile/>
   <tile/>
   <tile/>
   <tile/>
   <tile/>
   <tile/>
   <tile/>
   <tile/>
   <tile/>
   <tile/>
   <tile/>
   <tile/>
   <tile/>
   <tile/>
   <tile/>
   <tile/>
   <tile/>
   <tile/>
   <tile/>
   <tile/>
   <tile/>
   <tile/>
   <tile/>
   <tile gid="2147483752"/>
   <tile gid="104"/>
   <tile/>
   <tile/>
   <tile/>
   <tile/>
   <tile/>
   <tile/>
   <tile/>
   <tile/>
   <tile/>
   <tile/>
   <tile/>
   <tile/>
   <tile/>
   <tile/>
   <tile/>
   <tile/>
   <tile/>
   <tile/>
   <tile/>
   <tile/>
   <tile/>
   <tile/>
   <tile/>
   <tile/>
   <tile/>
   <tile/>
   <tile/>
   <tile/>
   <tile/>
   <tile/>
   <tile/>
   <tile/>
   <tile/>
   <tile/>
   <tile/>
   <tile/>
   <tile gid="102"/>
   <tile/>
   <tile/>
   <tile/>
   <tile/>
   <tile/>
   <tile/>
   <tile/>
   <tile/>
   <tile/>
   <tile/>
   <tile/>
   <tile/>
   <tile/>
   <tile/>
   <tile/>
   <tile/>
   <tile/>
   <tile/>
   <tile/>
   <tile/>
   <tile/>
   <tile/>
   <tile/>
   <tile/>
   <tile/>
   <tile/>
   <tile/>
   <tile/>
   <tile/>
   <tile/>
   <tile/>
   <tile/>
   <tile/>
   <tile gid="106"/>
   <tile gid="103"/>
   <tile gid="105"/>
   <tile gid="103"/>
   <tile gid="114"/>
   <tile gid="106"/>
   <tile gid="113"/>
   <tile gid="105"/>
   <tile gid="106"/>
   <tile gid="114"/>
   <tile gid="106"/>
   <tile gid="113"/>
   <tile gid="114"/>
   <tile gid="114"/>
   <tile gid="103"/>
   <tile gid="114"/>
   <tile gid="114"/>
   <tile gid="114"/>
   <tile gid="112"/>
   <tile/>
   <tile/>
   <tile/>
   <tile/>
   <tile/>
   <tile/>
   <tile/>
   <tile/>
   <tile/>
   <tile/>
   <tile/>
   <tile/>
   <tile/>
   <tile/>
   <tile/>
   <tile/>
   <tile/>
   <tile/>
   <tile/>
   <tile/>
   <tile/>
   <tile/>
   <tile/>
   <tile/>
   <tile/>
   <tile/>
   <tile/>
   <tile/>
   <tile/>
   <tile/>
   <tile/>
   <tile/>
   <tile/>
   <tile/>
   <tile/>
   <tile/>
   <tile/>
   <tile/>
   <tile/>
   <tile/>
   <tile/>
   <tile/>
   <tile gid="102"/>
   <tile gid="106"/>
   <tile gid="104"/>
   <tile/>
   <tile/>
   <tile/>
   <tile/>
   <tile/>
   <tile/>
   <tile/>
   <tile/>
   <tile/>
   <tile/>
   <tile/>
   <tile/>
   <tile/>
   <tile/>
   <tile/>
   <tile/>
   <tile/>
   <tile/>
   <tile/>
   <tile/>
   <tile/>
   <tile/>
   <tile/>
   <tile/>
   <tile/>
   <tile/>
   <tile/>
   <tile/>
   <tile/>
   <tile/>
   <tile/>
   <tile/>
   <tile/>
   <tile/>
   <tile/>
   <tile/>
   <tile/>
   <tile/>
   <tile/>
   <tile/>
   <tile/>
   <tile/>
   <tile/>
   <tile/>
   <tile gid="2147483752"/>
   <tile gid="104"/>
   <tile/>
   <tile/>
   <tile/>
   <tile/>
   <tile/>
   <tile/>
   <tile/>
   <tile/>
   <tile/>
   <tile/>
   <tile/>
   <tile/>
   <tile/>
   <tile/>
   <tile/>
   <tile/>
   <tile/>
   <tile/>
   <tile/>
   <tile/>
   <tile/>
   <tile/>
   <tile/>
   <tile/>
   <tile/>
   <tile/>
   <tile/>
   <tile/>
   <tile/>
   <tile/>
   <tile/>
   <tile/>
   <tile/>
   <tile/>
   <tile/>
   <tile/>
   <tile gid="102"/>
   <tile/>
   <tile/>
   <tile/>
   <tile/>
   <tile/>
   <tile/>
   <tile/>
   <tile/>
   <tile/>
   <tile/>
   <tile/>
   <tile/>
   <tile/>
   <tile/>
   <tile/>
   <tile/>
   <tile/>
   <tile/>
   <tile/>
   <tile/>
   <tile/>
   <tile/>
   <tile/>
   <tile/>
   <tile/>
   <tile/>
   <tile/>
   <tile/>
   <tile/>
   <tile/>
   <tile/>
   <tile/>
   <tile gid="2684354670"/>
   <tile gid="114"/>
   <tile gid="105"/>
   <tile gid="106"/>
   <tile gid="114"/>
   <tile gid="113"/>
   <tile gid="114"/>
   <tile gid="103"/>
   <tile gid="105"/>
   <tile gid="114"/>
   <tile gid="103"/>
   <tile gid="106"/>
   <tile gid="105"/>
   <tile gid="114"/>
   <tile gid="114"/>
   <tile gid="114"/>
   <tile gid="103"/>
   <tile gid="105"/>
   <tile gid="104"/>
   <tile/>
   <tile/>
   <tile/>
   <tile/>
   <tile/>
   <tile/>
   <tile/>
   <tile/>
   <tile/>
   <tile/>
   <tile/>
   <tile/>
   <tile/>
   <tile/>
   <tile/>
   <tile/>
   <tile/>
   <tile/>
   <tile/>
   <tile/>
   <tile/>
   <tile/>
   <tile/>
   <tile/>
   <tile/>
   <tile/>
   <tile/>
   <tile/>
   <tile/>
   <tile/>
   <tile/>
   <tile/>
   <tile/>
   <tile/>
   <tile/>
   <tile/>
   <tile/>
   <tile/>
   <tile/>
   <tile/>
   <tile/>
   <tile/>
   <tile/>
   <tile gid="102"/>
   <tile gid="106"/>
   <tile gid="104"/>
   <tile/>
   <tile/>
   <tile/>
   <tile/>
   <tile/>
   <tile/>
   <tile/>
   <tile/>
   <tile/>
   <tile/>
   <tile/>
   <tile/>
   <tile/>
   <tile/>
   <tile/>
   <tile/>
   <tile/>
   <tile/>
   <tile/>
   <tile/>
   <tile/>
   <tile/>
   <tile/>
   <tile/>
   <tile/>
   <tile/>
   <tile/>
   <tile/>
   <tile/>
   <tile/>
   <tile/>
   <tile/>
   <tile/>
   <tile/>
   <tile/>
   <tile/>
   <tile/>
   <tile/>
   <tile/>
   <tile/>
   <tile/>
   <tile/>
   <tile/>
   <tile/>
   <tile gid="2147483752"/>
   <tile gid="114"/>
   <tile gid="95"/>
   <tile gid="97"/>
   <tile gid="98"/>
   <tile gid="95"/>
   <tile gid="97"/>
   <tile gid="95"/>
   <tile gid="97"/>
   <tile gid="97"/>
   <tile gid="98"/>
   <tile gid="97"/>
   <tile gid="95"/>
   <tile gid="95"/>
   <tile gid="98"/>
   <tile gid="95"/>
   <tile gid="98"/>
   <tile gid="95"/>
   <tile gid="95"/>
   <tile gid="95"/>
   <tile gid="97"/>
   <tile gid="96"/>
   <tile/>
   <tile/>
   <tile/>
   <tile/>
   <tile/>
   <tile/>
   <tile/>
   <tile/>
   <tile/>
   <tile/>
   <tile/>
   <tile/>
   <tile/>
   <tile/>
   <tile/>
   <tile/>
   <tile gid="102"/>
   <tile/>
   <tile/>
   <tile/>
   <tile/>
   <tile/>
   <tile/>
   <tile/>
   <tile/>
   <tile/>
   <tile/>
   <tile/>
   <tile/>
   <tile/>
   <tile/>
   <tile/>
   <tile/>
   <tile/>
   <tile/>
   <tile/>
   <tile/>
   <tile/>
   <tile/>
   <tile/>
   <tile/>
   <tile/>
   <tile/>
   <tile/>
   <tile/>
   <tile/>
   <tile/>
   <tile/>
   <tile/>
   <tile gid="2147483760"/>
   <tile gid="111"/>
   <tile gid="111"/>
   <tile gid="111"/>
   <tile gid="111"/>
   <tile gid="111"/>
   <tile gid="105"/>
   <tile gid="105"/>
   <tile gid="113"/>
   <tile gid="103"/>
   <tile gid="103"/>
   <tile gid="103"/>
   <tile gid="114"/>
   <tile gid="113"/>
   <tile gid="114"/>
   <tile gid="113"/>
   <tile gid="105"/>
   <tile gid="114"/>
   <tile gid="112"/>
   <tile/>
   <tile/>
   <tile/>
   <tile/>
   <tile/>
   <tile/>
   <tile/>
   <tile/>
   <tile/>
   <tile/>
   <tile/>
   <tile/>
   <tile/>
   <tile/>
   <tile/>
   <tile/>
   <tile/>
   <tile/>
   <tile/>
   <tile/>
   <tile/>
   <tile/>
   <tile/>
   <tile/>
   <tile/>
   <tile/>
   <tile/>
   <tile/>
   <tile/>
   <tile/>
   <tile/>
   <tile/>
   <tile/>
   <tile/>
   <tile/>
   <tile/>
   <tile/>
   <tile/>
   <tile/>
   <tile/>
   <tile/>
   <tile/>
   <tile/>
   <tile gid="102"/>
   <tile gid="105"/>
   <tile gid="104"/>
   <tile/>
   <tile/>
   <tile/>
   <tile/>
   <tile/>
   <tile/>
   <tile/>
   <tile/>
   <tile gid="2684354668"/>
   <tile gid="2684354660"/>
   <tile gid="1610612844"/>
   <tile/>
   <tile/>
   <tile/>
   <tile/>
   <tile/>
   <tile/>
   <tile/>
   <tile/>
   <tile/>
   <tile/>
   <tile/>
   <tile/>
   <tile/>
   <tile/>
   <tile/>
   <tile/>
   <tile/>
   <tile/>
   <tile/>
   <tile/>
   <tile/>
   <tile/>
   <tile/>
   <tile/>
   <tile/>
   <tile/>
   <tile/>
   <tile/>
   <tile/>
   <tile/>
   <tile/>
   <tile/>
   <tile/>
   <tile gid="102"/>
   <tile gid="114"/>
   <tile gid="111"/>
   <tile gid="111"/>
   <tile gid="111"/>
   <tile gid="111"/>
   <tile gid="111"/>
   <tile gid="111"/>
   <tile gid="111"/>
   <tile gid="111"/>
   <tile gid="111"/>
   <tile gid="111"/>
   <tile gid="111"/>
   <tile gid="111"/>
   <tile gid="111"/>
   <tile gid="111"/>
   <tile gid="111"/>
   <tile gid="111"/>
   <tile gid="111"/>
   <tile gid="111"/>
   <tile gid="105"/>
   <tile gid="104"/>
   <tile/>
   <tile/>
   <tile/>
   <tile/>
   <tile/>
   <tile/>
   <tile/>
   <tile/>
   <tile/>
   <tile/>
   <tile/>
   <tile/>
   <tile/>
   <tile/>
   <tile/>
   <tile/>
   <tile gid="102"/>
   <tile/>
   <tile/>
   <tile/>
   <tile/>
   <tile/>
   <tile/>
   <tile/>
   <tile/>
   <tile/>
   <tile/>
   <tile/>
   <tile/>
   <tile/>
   <tile/>
   <tile/>
   <tile/>
   <tile/>
   <tile/>
   <tile/>
   <tile/>
   <tile/>
   <tile/>
   <tile/>
   <tile/>
   <tile/>
   <tile/>
   <tile/>
   <tile/>
   <tile/>
   <tile/>
   <tile/>
   <tile/>
   <tile/>
   <tile/>
   <tile/>
   <tile/>
   <tile/>
   <tile/>
   <tile gid="110"/>
   <tile gid="111"/>
   <tile gid="105"/>
   <tile gid="113"/>
   <tile gid="114"/>
   <tile gid="103"/>
   <tile gid="103"/>
   <tile gid="113"/>
   <tile gid="114"/>
   <tile gid="113"/>
   <tile gid="103"/>
   <tile gid="112"/>
   <tile/>
   <tile/>
   <tile/>
   <tile/>
   <tile/>
   <tile/>
   <tile/>
   <tile/>
   <tile/>
   <tile/>
   <tile/>
   <tile/>
   <tile/>
   <tile/>
   <tile/>
   <tile/>
   <tile/>
   <tile/>
   <tile/>
   <tile/>
   <tile/>
   <tile/>
   <tile/>
   <tile/>
   <tile/>
   <tile/>
   <tile/>
   <tile/>
   <tile/>
   <tile/>
   <tile/>
   <tile/>
   <tile/>
   <tile/>
   <tile/>
   <tile/>
   <tile/>
   <tile/>
   <tile/>
   <tile/>
   <tile/>
   <tile/>
   <tile/>
   <tile/>
   <tile gid="2147483752"/>
   <tile gid="105"/>
   <tile gid="2147483750"/>
   <tile/>
   <tile/>
   <tile/>
   <tile/>
   <tile/>
   <tile/>
   <tile/>
   <tile/>
   <tile/>
   <tile/>
   <tile/>
   <tile/>
   <tile/>
   <tile/>
   <tile/>
   <tile/>
   <tile/>
   <tile/>
   <tile/>
   <tile/>
   <tile/>
   <tile/>
   <tile/>
   <tile/>
   <tile/>
   <tile/>
   <tile/>
   <tile/>
   <tile/>
   <tile/>
   <tile/>
   <tile/>
   <tile/>
   <tile/>
   <tile/>
   <tile/>
   <tile/>
   <tile/>
   <tile/>
   <tile/>
   <tile/>
   <tile/>
   <tile/>
   <tile/>
   <tile gid="102"/>
   <tile gid="2147483750"/>
   <tile/>
   <tile/>
   <tile/>
   <tile/>
   <tile/>
   <tile/>
   <tile/>
   <tile/>
   <tile/>
   <tile/>
   <tile/>
   <tile/>
   <tile/>
   <tile/>
   <tile/>
   <tile/>
   <tile/>
   <tile/>
   <tile gid="102"/>
   <tile gid="104"/>
   <tile/>
   <tile/>
   <tile/>
   <tile gid="124"/>
   <tile/>
   <tile/>
   <tile/>
   <tile/>
   <tile/>
   <tile/>
   <tile/>
   <tile/>
   <tile/>
   <tile/>
   <tile/>
   <tile/>
   <tile gid="102"/>
   <tile/>
   <tile/>
   <tile/>
   <tile/>
   <tile/>
   <tile/>
   <tile/>
   <tile/>
   <tile/>
   <tile/>
   <tile/>
   <tile/>
   <tile/>
   <tile/>
   <tile/>
   <tile/>
   <tile/>
   <tile/>
   <tile/>
   <tile/>
   <tile/>
   <tile/>
   <tile/>
   <tile/>
   <tile/>
   <tile/>
   <tile/>
   <tile/>
   <tile/>
   <tile/>
   <tile/>
   <tile/>
   <tile/>
   <tile/>
   <tile/>
   <tile/>
   <tile/>
   <tile/>
   <tile/>
   <tile/>
   <tile gid="110"/>
   <tile gid="111"/>
   <tile gid="111"/>
   <tile gid="111"/>
   <tile gid="111"/>
   <tile gid="103"/>
   <tile gid="114"/>
   <tile gid="106"/>
   <tile gid="112"/>
   <tile/>
   <tile/>
   <tile/>
   <tile/>
   <tile/>
   <tile/>
   <tile/>
   <tile/>
   <tile/>
   <tile/>
   <tile/>
   <tile/>
   <tile/>
   <tile/>
   <tile/>
   <tile/>
   <tile/>
   <tile/>
   <tile/>
   <tile/>
   <tile/>
   <tile/>
   <tile/>
   <tile/>
   <tile gid="94"/>
   <tile gid="98"/>
   <tile gid="98"/>
   <tile gid="97"/>
   <tile gid="97"/>
   <tile gid="95"/>
   <tile gid="95"/>
   <tile gid="97"/>
   <tile gid="95"/>
   <tile gid="95"/>
   <tile gid="97"/>
   <tile gid="98"/>
   <tile gid="95"/>
   <tile gid="97"/>
   <tile gid="95"/>
   <tile gid="97"/>
   <tile gid="97"/>
   <tile gid="98"/>
   <tile gid="95"/>
   <tile gid="95"/>
   <tile gid="98"/>
   <tile gid="103"/>
   <tile gid="103"/>
   <tile gid="104"/>
   <tile/>
   <tile/>
   <tile/>
   <tile/>
   <tile/>
   <tile/>
   <tile/>
   <tile/>
   <tile/>
   <tile/>
   <tile/>
   <tile/>
   <tile/>
   <tile/>
   <tile/>
   <tile/>
   <tile/>
   <tile/>
   <tile gid="2684354668"/>
   <tile gid="2684354660"/>
   <tile gid="1610612844"/>
   <tile/>
   <tile/>
   <tile/>
   <tile/>
   <tile/>
   <tile/>
   <tile/>
   <tile/>
   <tile/>
   <tile/>
   <tile/>
   <tile/>
   <tile/>
   <tile/>
   <tile/>
   <tile/>
   <tile/>
   <tile/>
   <tile/>
   <tile/>
   <tile/>
   <tile/>
   <tile/>
   <tile gid="102"/>
   <tile gid="2147483750"/>
   <tile/>
   <tile/>
   <tile/>
   <tile/>
   <tile/>
   <tile/>
   <tile/>
   <tile/>
   <tile/>
   <tile/>
   <tile/>
   <tile/>
   <tile/>
   <tile/>
   <tile/>
   <tile/>
   <tile/>
   <tile/>
   <tile gid="102"/>
   <tile gid="104"/>
   <tile/>
   <tile/>
   <tile/>
   <tile/>
   <tile/>
   <tile/>
   <tile/>
   <tile/>
   <tile/>
   <tile/>
   <tile/>
   <tile/>
   <tile/>
   <tile/>
   <tile/>
   <tile/>
   <tile gid="102"/>
   <tile/>
   <tile/>
   <tile/>
   <tile/>
   <tile/>
   <tile/>
   <tile/>
   <tile/>
   <tile/>
   <tile/>
   <tile/>
   <tile/>
   <tile/>
   <tile/>
   <tile/>
   <tile/>
   <tile/>
   <tile/>
   <tile/>
   <tile/>
   <tile/>
   <tile/>
   <tile/>
   <tile/>
   <tile/>
   <tile/>
   <tile/>
   <tile/>
   <tile/>
   <tile/>
   <tile/>
   <tile/>
   <tile/>
   <tile/>
   <tile/>
   <tile/>
   <tile/>
   <tile/>
   <tile/>
   <tile/>
   <tile/>
   <tile/>
   <tile/>
   <tile/>
   <tile/>
   <tile gid="2147483760"/>
   <tile gid="111"/>
   <tile gid="112"/>
   <tile/>
   <tile/>
   <tile/>
   <tile/>
   <tile/>
   <tile/>
   <tile/>
   <tile/>
   <tile/>
   <tile/>
   <tile/>
   <tile/>
   <tile/>
   <tile/>
   <tile/>
   <tile/>
   <tile/>
   <tile/>
   <tile/>
   <tile/>
   <tile/>
   <tile/>
   <tile/>
   <tile/>
   <tile/>
   <tile gid="102"/>
   <tile gid="113"/>
   <tile gid="103"/>
   <tile gid="114"/>
   <tile gid="105"/>
   <tile gid="105"/>
   <tile gid="113"/>
   <tile gid="113"/>
   <tile gid="113"/>
   <tile gid="113"/>
   <tile gid="113"/>
   <tile gid="105"/>
   <tile gid="105"/>
   <tile gid="105"/>
   <tile gid="105"/>
   <tile gid="105"/>
   <tile gid="105"/>
   <tile gid="113"/>
   <tile gid="113"/>
   <tile gid="113"/>
   <tile gid="106"/>
   <tile gid="105"/>
   <tile gid="106"/>
   <tile gid="104"/>
   <tile/>
   <tile/>
   <tile/>
   <tile/>
   <tile/>
   <tile/>
   <tile/>
   <tile/>
   <tile/>
   <tile/>
   <tile/>
   <tile/>
   <tile/>
   <tile/>
   <tile/>
   <tile/>
   <tile/>
   <tile/>
   <tile/>
   <tile/>
   <tile/>
   <tile/>
   <tile/>
   <tile/>
   <tile/>
   <tile/>
   <tile/>
   <tile/>
   <tile/>
   <tile/>
   <tile/>
   <tile/>
   <tile/>
   <tile/>
   <tile/>
   <tile/>
   <tile/>
   <tile/>
   <tile gid="94"/>
   <tile gid="95"/>
   <tile gid="2147483742"/>
   <tile/>
   <tile/>
   <tile/>
   <tile gid="110"/>
   <tile gid="112"/>
   <tile/>
   <tile/>
   <tile/>
   <tile/>
   <tile/>
   <tile/>
   <tile/>
   <tile/>
   <tile/>
   <tile/>
   <tile/>
   <tile/>
   <tile/>
   <tile/>
   <tile/>
   <tile/>
   <tile/>
   <tile/>
   <tile gid="110"/>
   <tile gid="112"/>
   <tile/>
   <tile/>
   <tile/>
   <tile/>
   <tile/>
   <tile/>
   <tile/>
   <tile/>
   <tile/>
   <tile/>
   <tile gid="2684354668"/>
   <tile gid="1610612844"/>
   <tile/>
   <tile/>
   <tile/>
   <tile/>
   <tile gid="102"/>
   <tile/>
   <tile/>
   <tile/>
   <tile/>
   <tile/>
   <tile/>
   <tile/>
   <tile/>
   <tile/>
   <tile/>
   <tile/>
   <tile/>
   <tile/>
   <tile/>
   <tile/>
   <tile/>
   <tile/>
   <tile/>
   <tile/>
   <tile/>
   <tile/>
   <tile/>
   <tile/>
   <tile/>
   <tile/>
   <tile/>
   <tile/>
   <tile/>
   <tile/>
   <tile/>
   <tile/>
   <tile/>
   <tile/>
   <tile/>
   <tile/>
   <tile/>
   <tile/>
   <tile/>
   <tile/>
   <tile/>
   <tile/>
   <tile/>
   <tile/>
   <tile/>
   <tile/>
   <tile/>
   <tile/>
   <tile/>
   <tile/>
   <tile/>
   <tile/>
   <tile/>
   <tile/>
   <tile/>
   <tile/>
   <tile/>
   <tile/>
   <tile/>
   <tile/>
   <tile/>
   <tile/>
   <tile/>
   <tile/>
   <tile/>
   <tile/>
   <tile/>
   <tile/>
   <tile/>
   <tile gid="94"/>
   <tile gid="95"/>
   <tile gid="96"/>
   <tile/>
   <tile/>
   <tile gid="102"/>
   <tile gid="103"/>
   <tile gid="103"/>
   <tile gid="103"/>
   <tile gid="103"/>
   <tile gid="103"/>
   <tile gid="103"/>
   <tile gid="103"/>
   <tile gid="113"/>
   <tile gid="103"/>
   <tile gid="103"/>
   <tile gid="103"/>
   <tile gid="103"/>
   <tile gid="103"/>
   <tile gid="113"/>
   <tile gid="103"/>
   <tile gid="105"/>
   <tile gid="105"/>
   <tile gid="105"/>
   <tile gid="105"/>
   <tile gid="106"/>
   <tile gid="106"/>
   <tile gid="105"/>
   <tile gid="2147483750"/>
   <tile/>
   <tile/>
   <tile/>
   <tile/>
   <tile/>
   <tile/>
   <tile/>
   <tile/>
   <tile/>
   <tile/>
   <tile/>
   <tile/>
   <tile/>
   <tile/>
   <tile/>
   <tile/>
   <tile/>
   <tile/>
   <tile/>
   <tile/>
   <tile/>
   <tile/>
   <tile/>
   <tile/>
   <tile/>
   <tile/>
   <tile/>
   <tile gid="94"/>
   <tile gid="95"/>
   <tile gid="2147483742"/>
   <tile/>
   <tile/>
   <tile/>
   <tile/>
   <tile/>
   <tile/>
   <tile/>
   <tile/>
   <tile/>
   <tile/>
   <tile/>
   <tile/>
   <tile/>
   <tile/>
   <tile/>
   <tile/>
   <tile/>
   <tile/>
   <tile/>
   <tile/>
   <tile/>
   <tile/>
   <tile/>
   <tile/>
   <tile/>
   <tile/>
   <tile/>
   <tile/>
   <tile/>
   <tile/>
   <tile/>
   <tile/>
   <tile/>
   <tile/>
   <tile/>
   <tile/>
   <tile/>
   <tile/>
   <tile/>
   <tile/>
   <tile/>
   <tile/>
   <tile/>
   <tile/>
   <tile/>
   <tile/>
   <tile/>
   <tile/>
   <tile/>
   <tile/>
   <tile/>
   <tile/>
   <tile gid="102"/>
   <tile/>
   <tile/>
   <tile/>
   <tile/>
   <tile/>
   <tile/>
   <tile/>
   <tile/>
   <tile/>
   <tile/>
   <tile/>
   <tile/>
   <tile/>
   <tile/>
   <tile/>
   <tile/>
   <tile/>
   <tile/>
   <tile/>
   <tile/>
   <tile/>
   <tile/>
   <tile/>
   <tile/>
   <tile/>
   <tile/>
   <tile/>
   <tile/>
   <tile/>
   <tile/>
   <tile/>
   <tile/>
   <tile/>
   <tile/>
   <tile/>
   <tile/>
   <tile/>
   <tile/>
   <tile/>
   <tile/>
   <tile/>
   <tile/>
   <tile/>
   <tile/>
   <tile/>
   <tile/>
   <tile/>
   <tile/>
   <tile/>
   <tile/>
   <tile/>
   <tile/>
   <tile/>
   <tile/>
   <tile/>
   <tile/>
   <tile/>
   <tile/>
   <tile/>
   <tile/>
   <tile/>
   <tile/>
   <tile/>
   <tile/>
   <tile/>
   <tile/>
   <tile/>
   <tile/>
   <tile/>
   <tile/>
   <tile/>
   <tile/>
   <tile/>
   <tile gid="2147483757"/>
   <tile gid="111"/>
   <tile gid="111"/>
   <tile gid="111"/>
   <tile gid="111"/>
   <tile gid="111"/>
   <tile gid="111"/>
   <tile gid="111"/>
   <tile gid="111"/>
   <tile gid="111"/>
   <tile gid="111"/>
   <tile gid="111"/>
   <tile gid="111"/>
   <tile gid="111"/>
   <tile gid="111"/>
   <tile gid="111"/>
   <tile gid="111"/>
   <tile gid="111"/>
   <tile gid="111"/>
   <tile gid="111"/>
   <tile gid="111"/>
   <tile gid="111"/>
   <tile gid="111"/>
   <tile gid="112"/>
   <tile/>
   <tile/>
   <tile/>
   <tile/>
   <tile/>
   <tile/>
   <tile/>
   <tile/>
   <tile/>
   <tile/>
   <tile/>
   <tile/>
   <tile/>
   <tile/>
   <tile/>
   <tile/>
   <tile/>
   <tile/>
   <tile/>
   <tile/>
   <tile/>
   <tile/>
   <tile/>
   <tile/>
   <tile/>
   <tile/>
   <tile/>
   <tile/>
   <tile/>
   <tile/>
   <tile/>
   <tile/>
   <tile/>
   <tile/>
   <tile/>
   <tile/>
   <tile/>
   <tile/>
   <tile/>
   <tile/>
   <tile/>
   <tile/>
   <tile/>
   <tile/>
   <tile/>
   <tile/>
   <tile/>
   <tile/>
   <tile/>
   <tile/>
   <tile/>
   <tile/>
   <tile/>
   <tile/>
   <tile/>
   <tile/>
   <tile/>
   <tile/>
   <tile/>
   <tile/>
   <tile/>
   <tile/>
   <tile/>
   <tile/>
   <tile/>
   <tile/>
   <tile/>
   <tile/>
   <tile/>
   <tile/>
   <tile/>
   <tile/>
   <tile/>
   <tile/>
   <tile/>
   <tile/>
   <tile/>
   <tile/>
   <tile/>
   <tile/>
   <tile/>
   <tile/>
   <tile gid="102"/>
   <tile/>
   <tile/>
   <tile/>
   <tile/>
   <tile/>
   <tile/>
   <tile/>
   <tile/>
   <tile/>
   <tile/>
   <tile/>
   <tile/>
   <tile/>
   <tile/>
   <tile/>
   <tile/>
   <tile/>
   <tile/>
   <tile/>
   <tile/>
   <tile/>
   <tile/>
   <tile/>
   <tile/>
   <tile/>
   <tile/>
   <tile/>
   <tile/>
   <tile/>
   <tile/>
   <tile/>
   <tile/>
   <tile/>
   <tile/>
   <tile/>
   <tile/>
   <tile/>
   <tile/>
   <tile/>
   <tile/>
   <tile/>
   <tile/>
   <tile/>
   <tile/>
   <tile/>
   <tile/>
   <tile/>
   <tile/>
   <tile/>
   <tile/>
   <tile/>
   <tile/>
   <tile/>
   <tile/>
   <tile/>
   <tile/>
   <tile/>
   <tile/>
   <tile/>
   <tile/>
   <tile/>
   <tile/>
   <tile/>
   <tile/>
   <tile/>
   <tile/>
   <tile/>
   <tile/>
   <tile/>
   <tile/>
   <tile/>
   <tile/>
   <tile/>
   <tile/>
   <tile/>
   <tile/>
   <tile/>
   <tile/>
   <tile/>
   <tile/>
   <tile/>
   <tile/>
   <tile/>
   <tile/>
   <tile/>
   <tile/>
   <tile/>
   <tile/>
   <tile/>
   <tile/>
   <tile/>
   <tile/>
   <tile/>
   <tile/>
   <tile/>
   <tile/>
   <tile/>
   <tile/>
   <tile/>
   <tile/>
   <tile/>
   <tile/>
   <tile/>
   <tile/>
   <tile/>
   <tile/>
   <tile/>
   <tile/>
   <tile/>
   <tile/>
   <tile/>
   <tile/>
   <tile/>
   <tile/>
   <tile/>
   <tile/>
   <tile/>
   <tile/>
   <tile/>
   <tile/>
   <tile/>
   <tile/>
   <tile/>
   <tile/>
   <tile/>
   <tile/>
   <tile/>
   <tile/>
   <tile/>
   <tile/>
   <tile/>
   <tile/>
   <tile/>
   <tile/>
   <tile/>
   <tile/>
   <tile/>
   <tile/>
   <tile gid="124"/>
   <tile/>
   <tile/>
   <tile/>
   <tile/>
   <tile/>
   <tile/>
   <tile/>
   <tile/>
   <tile/>
   <tile/>
   <tile/>
   <tile/>
   <tile/>
   <tile/>
   <tile/>
   <tile/>
   <tile/>
   <tile/>
   <tile/>
   <tile/>
   <tile/>
   <tile/>
   <tile/>
   <tile/>
   <tile/>
   <tile/>
   <tile/>
   <tile/>
   <tile/>
   <tile/>
   <tile/>
   <tile/>
   <tile/>
   <tile/>
   <tile/>
   <tile/>
   <tile/>
   <tile/>
   <tile/>
   <tile/>
   <tile gid="102"/>
   <tile/>
   <tile/>
   <tile/>
   <tile/>
   <tile/>
   <tile/>
   <tile/>
   <tile/>
   <tile/>
   <tile/>
   <tile/>
   <tile/>
   <tile/>
   <tile/>
   <tile/>
   <tile/>
   <tile/>
   <tile/>
   <tile/>
   <tile/>
   <tile/>
   <tile/>
   <tile/>
   <tile/>
   <tile/>
   <tile/>
   <tile/>
   <tile/>
   <tile/>
   <tile/>
   <tile/>
   <tile/>
   <tile/>
   <tile/>
   <tile/>
   <tile/>
   <tile/>
   <tile/>
   <tile/>
   <tile/>
   <tile/>
   <tile/>
   <tile/>
   <tile/>
   <tile/>
   <tile/>
   <tile/>
   <tile/>
   <tile/>
   <tile/>
   <tile/>
   <tile/>
   <tile/>
   <tile/>
   <tile/>
   <tile/>
   <tile/>
   <tile/>
   <tile/>
   <tile/>
   <tile/>
   <tile/>
   <tile/>
   <tile/>
   <tile/>
   <tile/>
   <tile/>
   <tile/>
   <tile/>
   <tile/>
   <tile/>
   <tile/>
   <tile/>
   <tile/>
   <tile/>
   <tile/>
   <tile/>
   <tile/>
   <tile/>
   <tile/>
   <tile/>
   <tile/>
   <tile/>
   <tile/>
   <tile/>
   <tile/>
   <tile/>
   <tile/>
   <tile/>
   <tile/>
   <tile/>
   <tile/>
   <tile/>
   <tile/>
   <tile/>
   <tile/>
   <tile/>
   <tile/>
   <tile/>
   <tile/>
   <tile/>
   <tile/>
   <tile/>
   <tile/>
   <tile/>
   <tile/>
   <tile/>
   <tile/>
   <tile/>
   <tile/>
   <tile/>
   <tile/>
   <tile/>
   <tile/>
   <tile/>
   <tile/>
   <tile/>
   <tile/>
   <tile/>
   <tile/>
   <tile/>
   <tile/>
   <tile/>
   <tile/>
   <tile/>
   <tile/>
   <tile/>
   <tile/>
   <tile/>
   <tile/>
   <tile/>
   <tile/>
   <tile/>
   <tile/>
   <tile/>
   <tile/>
   <tile/>
   <tile/>
   <tile/>
   <tile/>
   <tile/>
   <tile/>
   <tile/>
   <tile/>
   <tile/>
   <tile/>
   <tile/>
   <tile/>
   <tile/>
   <tile/>
   <tile/>
   <tile/>
   <tile/>
   <tile/>
   <tile/>
   <tile/>
   <tile/>
   <tile/>
   <tile/>
   <tile/>
   <tile/>
   <tile/>
   <tile/>
   <tile/>
   <tile/>
   <tile/>
   <tile/>
   <tile/>
   <tile/>
   <tile/>
   <tile/>
   <tile/>
   <tile/>
   <tile/>
   <tile/>
   <tile/>
   <tile/>
   <tile/>
   <tile/>
   <tile gid="102"/>
   <tile/>
   <tile/>
   <tile/>
   <tile/>
   <tile/>
   <tile/>
   <tile/>
   <tile/>
   <tile/>
   <tile/>
   <tile/>
   <tile/>
   <tile/>
   <tile/>
   <tile/>
   <tile/>
   <tile/>
   <tile/>
   <tile/>
   <tile/>
   <tile/>
   <tile/>
   <tile/>
   <tile/>
   <tile/>
   <tile/>
   <tile/>
   <tile/>
   <tile/>
   <tile/>
   <tile/>
   <tile/>
   <tile/>
   <tile/>
   <tile/>
   <tile/>
   <tile/>
   <tile/>
   <tile/>
   <tile/>
   <tile/>
   <tile/>
   <tile/>
   <tile/>
   <tile/>
   <tile gid="94"/>
   <tile gid="97"/>
   <tile gid="98"/>
   <tile gid="98"/>
   <tile gid="97"/>
   <tile gid="98"/>
   <tile gid="97"/>
   <tile gid="95"/>
   <tile gid="95"/>
   <tile gid="97"/>
   <tile gid="97"/>
   <tile gid="98"/>
   <tile gid="95"/>
   <tile gid="95"/>
   <tile gid="95"/>
   <tile gid="98"/>
   <tile gid="98"/>
   <tile gid="97"/>
   <tile gid="98"/>
   <tile gid="98"/>
   <tile gid="97"/>
   <tile gid="97"/>
   <tile gid="97"/>
   <tile gid="98"/>
   <tile gid="98"/>
   <tile gid="98"/>
   <tile gid="95"/>
   <tile gid="97"/>
   <tile gid="98"/>
   <tile gid="96"/>
   <tile/>
   <tile/>
   <tile/>
   <tile/>
   <tile/>
   <tile/>
   <tile/>
   <tile/>
   <tile/>
   <tile/>
   <tile/>
   <tile/>
   <tile/>
   <tile/>
   <tile/>
   <tile/>
   <tile/>
   <tile/>
   <tile/>
   <tile/>
   <tile/>
   <tile/>
   <tile/>
   <tile/>
   <tile/>
   <tile/>
   <tile/>
   <tile/>
   <tile/>
   <tile/>
   <tile/>
   <tile/>
   <tile/>
   <tile/>
   <tile/>
   <tile/>
   <tile/>
   <tile/>
   <tile/>
   <tile/>
   <tile/>
   <tile/>
   <tile/>
   <tile/>
   <tile/>
   <tile/>
   <tile/>
   <tile/>
   <tile/>
   <tile/>
   <tile/>
   <tile/>
   <tile/>
   <tile/>
   <tile/>
   <tile/>
   <tile/>
   <tile/>
   <tile/>
   <tile/>
   <tile/>
   <tile/>
   <tile/>
   <tile/>
   <tile/>
   <tile gid="94"/>
   <tile gid="95"/>
   <tile gid="2147483742"/>
   <tile/>
   <tile/>
   <tile/>
   <tile/>
   <tile/>
   <tile/>
   <tile/>
   <tile/>
   <tile/>
   <tile/>
   <tile/>
   <tile/>
   <tile/>
   <tile/>
   <tile/>
   <tile/>
   <tile/>
   <tile/>
   <tile gid="94"/>
   <tile gid="98"/>
   <tile gid="2147483742"/>
   <tile/>
   <tile/>
   <tile/>
   <tile/>
   <tile/>
   <tile/>
   <tile/>
   <tile/>
   <tile/>
   <tile/>
   <tile/>
   <tile/>
   <tile/>
   <tile/>
   <tile/>
   <tile gid="102"/>
   <tile/>
   <tile/>
   <tile/>
   <tile/>
   <tile/>
   <tile/>
   <tile/>
   <tile/>
   <tile/>
   <tile/>
   <tile/>
   <tile/>
   <tile/>
   <tile/>
   <tile/>
   <tile/>
   <tile/>
   <tile/>
   <tile/>
   <tile/>
   <tile/>
   <tile/>
   <tile/>
   <tile/>
   <tile/>
   <tile/>
   <tile/>
   <tile/>
   <tile/>
   <tile/>
   <tile/>
   <tile/>
   <tile/>
   <tile/>
   <tile/>
   <tile/>
   <tile/>
   <tile/>
   <tile/>
   <tile/>
   <tile/>
   <tile/>
   <tile/>
   <tile/>
   <tile gid="2684354670"/>
   <tile gid="103"/>
   <tile gid="103"/>
   <tile gid="103"/>
   <tile gid="106"/>
   <tile gid="105"/>
   <tile gid="113"/>
   <tile gid="113"/>
   <tile gid="106"/>
   <tile gid="106"/>
   <tile gid="113"/>
   <tile gid="105"/>
   <tile gid="103"/>
   <tile gid="105"/>
   <tile gid="105"/>
   <tile gid="103"/>
   <tile gid="106"/>
   <tile gid="114"/>
   <tile gid="114"/>
   <tile gid="105"/>
   <tile gid="114"/>
   <tile gid="114"/>
   <tile gid="103"/>
   <tile gid="103"/>
   <tile gid="106"/>
   <tile gid="105"/>
   <tile gid="103"/>
   <tile gid="103"/>
   <tile gid="103"/>
   <tile gid="103"/>
   <tile gid="103"/>
   <tile gid="96"/>
   <tile/>
   <tile/>
   <tile/>
   <tile/>
   <tile/>
   <tile/>
   <tile/>
   <tile/>
   <tile/>
   <tile/>
   <tile/>
   <tile/>
   <tile/>
   <tile/>
   <tile/>
   <tile/>
   <tile/>
   <tile/>
   <tile/>
   <tile/>
   <tile/>
   <tile/>
   <tile/>
   <tile/>
   <tile/>
   <tile/>
   <tile/>
   <tile/>
   <tile/>
   <tile/>
   <tile/>
   <tile/>
   <tile/>
   <tile/>
   <tile/>
   <tile/>
   <tile/>
   <tile/>
   <tile/>
   <tile/>
   <tile/>
   <tile/>
   <tile/>
   <tile/>
   <tile/>
   <tile/>
   <tile/>
   <tile/>
   <tile/>
   <tile/>
   <tile/>
   <tile/>
   <tile/>
   <tile/>
   <tile/>
   <tile/>
   <tile/>
   <tile/>
   <tile/>
   <tile/>
   <tile/>
   <tile/>
   <tile/>
   <tile/>
   <tile gid="102"/>
   <tile gid="113"/>
   <tile gid="103"/>
   <tile/>
   <tile/>
   <tile/>
   <tile/>
   <tile/>
   <tile/>
   <tile/>
   <tile/>
   <tile/>
   <tile/>
   <tile/>
   <tile/>
   <tile/>
   <tile/>
   <tile/>
   <tile/>
   <tile/>
   <tile/>
   <tile gid="102"/>
   <tile gid="106"/>
   <tile gid="112"/>
   <tile/>
   <tile/>
   <tile/>
   <tile gid="94"/>
   <tile gid="95"/>
   <tile gid="97"/>
   <tile gid="98"/>
   <tile gid="98"/>
   <tile gid="2147483742"/>
   <tile/>
   <tile/>
   <tile/>
   <tile/>
   <tile/>
   <tile/>
   <tile gid="102"/>
   <tile/>
   <tile/>
   <tile/>
   <tile/>
   <tile/>
   <tile/>
   <tile/>
   <tile/>
   <tile/>
   <tile/>
   <tile/>
   <tile/>
   <tile/>
   <tile/>
   <tile/>
   <tile/>
   <tile/>
   <tile/>
   <tile/>
   <tile/>
   <tile/>
   <tile/>
   <tile/>
   <tile/>
   <tile/>
   <tile/>
   <tile/>
   <tile/>
   <tile/>
   <tile/>
   <tile/>
   <tile/>
   <tile/>
   <tile/>
   <tile/>
   <tile/>
   <tile/>
   <tile/>
   <tile/>
   <tile/>
   <tile/>
   <tile/>
   <tile/>
   <tile gid="2684354670"/>
   <tile gid="103"/>
   <tile gid="103"/>
   <tile gid="105"/>
   <tile gid="106"/>
   <tile gid="103"/>
   <tile gid="105"/>
   <tile gid="114"/>
   <tile gid="103"/>
   <tile gid="103"/>
   <tile gid="106"/>
   <tile gid="114"/>
   <tile gid="103"/>
   <tile gid="113"/>
   <tile gid="114"/>
   <tile gid="106"/>
   <tile gid="106"/>
   <tile gid="103"/>
   <tile gid="105"/>
   <tile gid="103"/>
   <tile gid="103"/>
   <tile gid="103"/>
   <tile gid="114"/>
   <tile gid="106"/>
   <tile gid="114"/>
   <tile gid="111"/>
   <tile gid="111"/>
   <tile gid="111"/>
   <tile gid="111"/>
   <tile gid="103"/>
   <tile gid="103"/>
   <tile gid="105"/>
   <tile gid="105"/>
   <tile gid="96"/>
   <tile/>
   <tile/>
   <tile/>
   <tile/>
   <tile/>
   <tile/>
   <tile/>
   <tile/>
   <tile/>
   <tile/>
   <tile/>
   <tile/>
   <tile/>
   <tile/>
   <tile/>
   <tile/>
   <tile/>
   <tile/>
   <tile/>
   <tile/>
   <tile gid="2684354668"/>
   <tile gid="2684354660"/>
   <tile gid="2684354660"/>
   <tile gid="1610612844"/>
   <tile/>
   <tile/>
   <tile/>
   <tile/>
   <tile/>
   <tile/>
   <tile/>
   <tile/>
   <tile/>
   <tile/>
   <tile/>
   <tile/>
   <tile/>
   <tile/>
   <tile/>
   <tile/>
   <tile/>
   <tile/>
   <tile/>
   <tile/>
   <tile/>
   <tile/>
   <tile/>
   <tile/>
   <tile/>
   <tile/>
   <tile/>
   <tile/>
   <tile/>
   <tile/>
   <tile/>
   <tile/>
   <tile/>
   <tile/>
   <tile/>
   <tile/>
   <tile/>
   <tile/>
   <tile/>
   <tile gid="2147483749"/>
   <tile gid="106"/>
   <tile gid="105"/>
   <tile gid="98"/>
   <tile gid="95"/>
   <tile gid="95"/>
   <tile gid="95"/>
   <tile gid="98"/>
   <tile gid="98"/>
   <tile gid="97"/>
   <tile gid="97"/>
   <tile gid="97"/>
   <tile gid="97"/>
   <tile gid="97"/>
   <tile gid="98"/>
   <tile gid="97"/>
   <tile gid="98"/>
   <tile gid="98"/>
   <tile gid="97"/>
   <tile gid="97"/>
   <tile gid="97"/>
   <tile gid="113"/>
   <tile gid="104"/>
   <tile/>
   <tile/>
   <tile/>
   <tile/>
   <tile/>
   <tile/>
   <tile/>
   <tile/>
   <tile/>
   <tile/>
   <tile/>
   <tile/>
   <tile/>
   <tile/>
   <tile/>
   <tile/>
   <tile gid="102"/>
   <tile/>
   <tile/>
   <tile/>
   <tile/>
   <tile/>
   <tile/>
   <tile/>
   <tile/>
   <tile/>
   <tile/>
   <tile/>
   <tile/>
   <tile/>
   <tile/>
   <tile/>
   <tile/>
   <tile/>
   <tile/>
   <tile/>
   <tile/>
   <tile/>
   <tile/>
   <tile/>
   <tile/>
   <tile/>
   <tile/>
   <tile/>
   <tile/>
   <tile/>
   <tile/>
   <tile/>
   <tile/>
   <tile/>
   <tile/>
   <tile/>
   <tile/>
   <tile/>
   <tile/>
   <tile/>
   <tile/>
   <tile/>
   <tile/>
   <tile/>
   <tile gid="102"/>
   <tile gid="106"/>
   <tile gid="106"/>
   <tile gid="103"/>
   <tile gid="105"/>
   <tile gid="113"/>
   <tile gid="113"/>
   <tile gid="106"/>
   <tile gid="113"/>
   <tile gid="113"/>
   <tile gid="113"/>
   <tile gid="103"/>
   <tile gid="105"/>
   <tile gid="103"/>
   <tile gid="103"/>
   <tile gid="103"/>
   <tile gid="103"/>
   <tile gid="103"/>
   <tile gid="111"/>
   <tile gid="111"/>
   <tile gid="111"/>
   <tile gid="111"/>
   <tile gid="111"/>
   <tile gid="111"/>
   <tile gid="1610612846"/>
   <tile/>
   <tile/>
   <tile/>
   <tile/>
   <tile gid="110"/>
   <tile gid="111"/>
   <tile gid="103"/>
   <tile gid="105"/>
   <tile gid="106"/>
   <tile gid="96"/>
   <tile/>
   <tile/>
   <tile/>
   <tile/>
   <tile/>
   <tile gid="2684354668"/>
   <tile gid="2684354660"/>
   <tile gid="1610612844"/>
   <tile/>
   <tile/>
   <tile/>
   <tile/>
   <tile/>
   <tile/>
   <tile/>
   <tile/>
   <tile/>
   <tile/>
   <tile/>
   <tile/>
   <tile/>
   <tile/>
   <tile/>
   <tile/>
   <tile/>
   <tile/>
   <tile/>
   <tile/>
   <tile/>
   <tile/>
   <tile/>
   <tile/>
   <tile/>
   <tile/>
   <tile/>
   <tile/>
   <tile/>
   <tile/>
   <tile/>
   <tile/>
   <tile/>
   <tile/>
   <tile/>
   <tile/>
   <tile/>
   <tile/>
   <tile/>
   <tile/>
   <tile/>
   <tile/>
   <tile/>
   <tile/>
   <tile/>
   <tile/>
   <tile/>
   <tile/>
   <tile/>
   <tile/>
   <tile/>
   <tile/>
   <tile/>
   <tile/>
   <tile/>
   <tile gid="102"/>
   <tile gid="113"/>
   <tile gid="105"/>
   <tile gid="103"/>
   <tile gid="106"/>
   <tile gid="103"/>
   <tile gid="114"/>
   <tile gid="106"/>
   <tile gid="106"/>
   <tile gid="114"/>
   <tile gid="106"/>
   <tile gid="105"/>
   <tile gid="103"/>
   <tile gid="103"/>
   <tile gid="114"/>
   <tile gid="114"/>
   <tile gid="106"/>
   <tile gid="103"/>
   <tile gid="103"/>
   <tile gid="114"/>
   <tile gid="103"/>
   <tile gid="104"/>
   <tile/>
   <tile/>
   <tile/>
   <tile/>
   <tile/>
   <tile/>
   <tile/>
   <tile/>
   <tile/>
   <tile/>
   <tile/>
   <tile/>
   <tile/>
   <tile/>
   <tile/>
   <tile/>
   <tile gid="102"/>
   <tile/>
   <tile/>
   <tile/>
   <tile/>
   <tile/>
   <tile/>
   <tile/>
   <tile/>
   <tile/>
   <tile/>
   <tile/>
   <tile/>
   <tile/>
   <tile/>
   <tile/>
   <tile/>
   <tile/>
   <tile/>
   <tile/>
   <tile/>
   <tile/>
   <tile/>
   <tile/>
   <tile/>
   <tile/>
   <tile/>
   <tile/>
   <tile/>
   <tile/>
   <tile/>
   <tile/>
   <tile/>
   <tile/>
   <tile/>
   <tile/>
   <tile/>
   <tile/>
   <tile/>
   <tile/>
   <tile/>
   <tile/>
   <tile/>
   <tile gid="2684354670"/>
   <tile gid="106"/>
   <tile gid="105"/>
   <tile gid="105"/>
   <tile gid="106"/>
   <tile gid="105"/>
   <tile gid="114"/>
   <tile gid="105"/>
   <tile gid="105"/>
   <tile gid="105"/>
   <tile gid="114"/>
   <tile gid="105"/>
   <tile gid="106"/>
   <tile gid="113"/>
   <tile gid="114"/>
   <tile gid="103"/>
   <tile gid="103"/>
   <tile gid="111"/>
   <tile gid="1610612846"/>
   <tile/>
   <tile/>
   <tile/>
   <tile/>
   <tile/>
   <tile/>
   <tile/>
   <tile/>
   <tile/>
   <tile/>
   <tile/>
   <tile/>
   <tile/>
   <tile gid="110"/>
   <tile gid="103"/>
   <tile gid="106"/>
   <tile gid="106"/>
   <tile gid="95"/>
   <tile gid="96"/>
   <tile/>
   <tile/>
   <tile/>
   <tile/>
   <tile/>
   <tile/>
   <tile/>
   <tile/>
   <tile/>
   <tile/>
   <tile/>
   <tile/>
   <tile/>
   <tile/>
   <tile/>
   <tile/>
   <tile/>
   <tile/>
   <tile/>
   <tile/>
   <tile/>
   <tile/>
   <tile/>
   <tile/>
   <tile/>
   <tile/>
   <tile/>
   <tile/>
   <tile/>
   <tile/>
   <tile/>
   <tile/>
   <tile/>
   <tile/>
   <tile/>
   <tile/>
   <tile/>
   <tile/>
   <tile/>
   <tile/>
   <tile/>
   <tile/>
   <tile/>
   <tile/>
   <tile/>
   <tile/>
   <tile/>
   <tile/>
   <tile/>
   <tile/>
   <tile/>
   <tile/>
   <tile/>
   <tile/>
   <tile/>
   <tile/>
   <tile/>
   <tile/>
   <tile/>
   <tile/>
   <tile/>
   <tile gid="102"/>
   <tile gid="103"/>
   <tile gid="103"/>
   <tile gid="113"/>
   <tile gid="106"/>
   <tile gid="106"/>
   <tile gid="103"/>
   <tile gid="105"/>
   <tile gid="105"/>
   <tile gid="113"/>
   <tile gid="113"/>
   <tile gid="114"/>
   <tile gid="113"/>
   <tile gid="113"/>
   <tile gid="106"/>
   <tile gid="106"/>
   <tile gid="106"/>
   <tile gid="105"/>
   <tile gid="105"/>
   <tile gid="105"/>
   <tile gid="103"/>
   <tile gid="104"/>
   <tile/>
   <tile/>
   <tile/>
   <tile/>
   <tile/>
   <tile/>
   <tile/>
   <tile/>
   <tile/>
   <tile/>
   <tile/>
   <tile/>
   <tile/>
   <tile/>
   <tile/>
   <tile gid="94"/>
   <tile gid="113"/>
   <tile/>
   <tile/>
   <tile/>
   <tile/>
   <tile/>
   <tile/>
   <tile/>
   <tile/>
   <tile/>
   <tile/>
   <tile/>
   <tile/>
   <tile/>
   <tile/>
   <tile/>
   <tile/>
   <tile/>
   <tile/>
   <tile/>
   <tile/>
   <tile/>
   <tile/>
   <tile/>
   <tile/>
   <tile/>
   <tile/>
   <tile/>
   <tile/>
   <tile/>
   <tile/>
   <tile/>
   <tile/>
   <tile/>
   <tile/>
   <tile/>
   <tile/>
   <tile/>
   <tile/>
   <tile/>
   <tile/>
   <tile/>
   <tile/>
   <tile gid="2147483752"/>
   <tile gid="113"/>
   <tile gid="113"/>
   <tile gid="105"/>
   <tile gid="105"/>
   <tile gid="113"/>
   <tile gid="103"/>
   <tile gid="103"/>
   <tile gid="114"/>
   <tile gid="113"/>
   <tile gid="103"/>
   <tile gid="105"/>
   <tile gid="113"/>
   <tile gid="103"/>
   <tile gid="103"/>
   <tile gid="111"/>
   <tile gid="1610612846"/>
   <tile/>
   <tile/>
   <tile/>
   <tile/>
   <tile/>
   <tile/>
   <tile/>
   <tile/>
   <tile/>
   <tile/>
   <tile/>
   <tile/>
   <tile/>
   <tile/>
   <tile/>
   <tile/>
   <tile gid="110"/>
   <tile gid="111"/>
   <tile gid="111"/>
   <tile gid="111"/>
   <tile gid="101"/>
   <tile/>
   <tile/>
   <tile/>
   <tile/>
   <tile/>
   <tile/>
   <tile/>
   <tile/>
   <tile/>
   <tile/>
   <tile/>
   <tile/>
   <tile/>
   <tile/>
   <tile/>
   <tile/>
   <tile/>
   <tile/>
   <tile/>
   <tile/>
   <tile/>
   <tile/>
   <tile/>
   <tile/>
   <tile/>
   <tile/>
   <tile/>
   <tile/>
   <tile/>
   <tile/>
   <tile/>
   <tile/>
   <tile/>
   <tile/>
   <tile/>
   <tile/>
   <tile/>
   <tile/>
   <tile/>
   <tile/>
   <tile/>
   <tile/>
   <tile/>
   <tile/>
   <tile/>
   <tile/>
   <tile/>
   <tile/>
   <tile/>
   <tile/>
   <tile/>
   <tile/>
   <tile/>
   <tile/>
   <tile/>
   <tile/>
   <tile/>
   <tile/>
   <tile/>
   <tile/>
   <tile/>
   <tile gid="2147483757"/>
   <tile gid="111"/>
   <tile gid="111"/>
   <tile gid="105"/>
   <tile gid="105"/>
   <tile gid="106"/>
   <tile gid="103"/>
   <tile gid="103"/>
   <tile gid="103"/>
   <tile gid="103"/>
   <tile gid="103"/>
   <tile gid="103"/>
   <tile gid="103"/>
   <tile gid="103"/>
   <tile gid="103"/>
   <tile gid="103"/>
   <tile gid="103"/>
   <tile gid="106"/>
   <tile gid="106"/>
   <tile gid="111"/>
   <tile gid="111"/>
   <tile gid="112"/>
   <tile/>
   <tile/>
   <tile/>
   <tile/>
   <tile/>
   <tile/>
   <tile/>
   <tile/>
   <tile/>
   <tile/>
   <tile/>
   <tile/>
   <tile/>
   <tile/>
   <tile gid="124"/>
   <tile gid="110"/>
   <tile gid="113"/>
   <tile/>
   <tile/>
   <tile/>
   <tile/>
   <tile/>
   <tile/>
   <tile/>
   <tile/>
   <tile/>
   <tile/>
   <tile/>
   <tile/>
   <tile/>
   <tile/>
   <tile/>
   <tile/>
   <tile/>
   <tile/>
   <tile/>
   <tile/>
   <tile/>
   <tile/>
   <tile/>
   <tile/>
   <tile/>
   <tile/>
   <tile/>
   <tile/>
   <tile/>
   <tile/>
   <tile/>
   <tile/>
   <tile/>
   <tile/>
   <tile/>
   <tile/>
   <tile/>
   <tile/>
   <tile/>
   <tile/>
   <tile/>
   <tile gid="2684354670"/>
   <tile gid="103"/>
   <tile gid="113"/>
   <tile gid="113"/>
   <tile gid="113"/>
   <tile gid="105"/>
   <tile gid="103"/>
   <tile gid="113"/>
   <tile gid="106"/>
   <tile gid="103"/>
   <tile gid="103"/>
   <tile gid="113"/>
   <tile gid="103"/>
   <tile gid="105"/>
   <tile gid="111"/>
   <tile gid="112"/>
   <tile/>
   <tile/>
   <tile/>
   <tile/>
   <tile/>
   <tile/>
   <tile/>
   <tile/>
   <tile/>
   <tile/>
   <tile/>
   <tile/>
   <tile/>
   <tile/>
   <tile/>
   <tile/>
   <tile/>
   <tile/>
   <tile/>
   <tile/>
   <tile/>
   <tile/>
   <tile/>
   <tile/>
   <tile/>
   <tile/>
   <tile/>
   <tile/>
   <tile/>
   <tile/>
   <tile/>
   <tile/>
   <tile/>
   <tile/>
   <tile/>
   <tile gid="2684354668"/>
   <tile gid="2684354660"/>
   <tile gid="1610612844"/>
   <tile/>
   <tile/>
   <tile/>
   <tile/>
   <tile/>
   <tile/>
   <tile/>
   <tile/>
   <tile/>
   <tile/>
   <tile/>
   <tile/>
   <tile/>
   <tile/>
   <tile/>
   <tile/>
   <tile/>
   <tile/>
   <tile/>
   <tile/>
   <tile/>
   <tile/>
   <tile/>
   <tile/>
   <tile/>
   <tile/>
   <tile/>
   <tile/>
   <tile/>
   <tile/>
   <tile/>
   <tile/>
   <tile/>
   <tile/>
   <tile/>
   <tile/>
   <tile/>
   <tile/>
   <tile/>
   <tile/>
   <tile/>
   <tile/>
   <tile/>
   <tile/>
   <tile/>
   <tile/>
   <tile/>
   <tile/>
   <tile/>
   <tile gid="2147483757"/>
   <tile gid="111"/>
   <tile gid="111"/>
   <tile gid="111"/>
   <tile gid="106"/>
   <tile gid="106"/>
   <tile gid="111"/>
   <tile gid="111"/>
   <tile gid="111"/>
   <tile gid="111"/>
   <tile gid="111"/>
   <tile gid="111"/>
   <tile gid="111"/>
   <tile gid="111"/>
   <tile gid="111"/>
   <tile gid="93"/>
   <tile/>
   <tile/>
   <tile/>
   <tile/>
   <tile/>
   <tile/>
   <tile/>
   <tile/>
   <tile/>
   <tile/>
   <tile/>
   <tile/>
   <tile/>
   <tile/>
   <tile/>
   <tile/>
   <tile/>
   <tile/>
   <tile/>
   <tile gid="102"/>
   <tile/>
   <tile/>
   <tile/>
   <tile/>
   <tile/>
   <tile/>
   <tile/>
   <tile/>
   <tile/>
   <tile/>
   <tile/>
   <tile/>
   <tile/>
   <tile/>
   <tile/>
   <tile/>
   <tile/>
   <tile/>
   <tile/>
   <tile/>
   <tile/>
   <tile/>
   <tile/>
   <tile/>
   <tile/>
   <tile/>
   <tile/>
   <tile/>
   <tile/>
   <tile/>
   <tile/>
   <tile/>
   <tile/>
   <tile/>
   <tile/>
   <tile/>
   <tile/>
   <tile/>
   <tile/>
   <tile/>
   <tile gid="2684354670"/>
   <tile gid="113"/>
   <tile gid="114"/>
   <tile gid="113"/>
   <tile gid="103"/>
   <tile gid="113"/>
   <tile gid="105"/>
   <tile gid="114"/>
   <tile gid="106"/>
   <tile gid="106"/>
   <tile gid="105"/>
   <tile gid="105"/>
   <tile gid="103"/>
   <tile gid="111"/>
   <tile gid="112"/>
   <tile/>
   <tile/>
   <tile/>
   <tile/>
   <tile/>
   <tile/>
   <tile/>
   <tile/>
   <tile/>
   <tile/>
   <tile/>
   <tile/>
   <tile/>
   <tile/>
   <tile/>
   <tile/>
   <tile/>
   <tile/>
   <tile/>
   <tile/>
   <tile/>
   <tile/>
   <tile/>
   <tile/>
   <tile/>
   <tile/>
   <tile/>
   <tile/>
   <tile/>
   <tile/>
   <tile/>
   <tile/>
   <tile/>
   <tile/>
   <tile/>
   <tile/>
   <tile/>
   <tile/>
   <tile/>
   <tile/>
   <tile/>
   <tile/>
   <tile/>
   <tile/>
   <tile/>
   <tile/>
   <tile/>
   <tile/>
   <tile/>
   <tile/>
   <tile/>
   <tile/>
   <tile/>
   <tile/>
   <tile/>
   <tile/>
   <tile/>
   <tile/>
   <tile/>
   <tile/>
   <tile/>
   <tile/>
   <tile/>
   <tile/>
   <tile/>
   <tile/>
   <tile/>
   <tile/>
   <tile/>
   <tile/>
   <tile/>
   <tile/>
   <tile/>
   <tile/>
   <tile/>
   <tile/>
   <tile/>
   <tile/>
   <tile/>
   <tile/>
   <tile/>
   <tile/>
   <tile/>
   <tile/>
   <tile/>
   <tile/>
   <tile/>
   <tile/>
   <tile/>
   <tile/>
   <tile/>
   <tile/>
   <tile/>
   <tile/>
   <tile/>
   <tile/>
   <tile/>
   <tile/>
   <tile/>
   <tile/>
   <tile/>
   <tile/>
   <tile/>
   <tile/>
   <tile/>
   <tile/>
   <tile/>
   <tile/>
   <tile/>
   <tile/>
   <tile/>
   <tile/>
   <tile/>
   <tile/>
   <tile/>
   <tile/>
   <tile/>
   <tile/>
   <tile/>
   <tile/>
   <tile/>
   <tile/>
   <tile/>
   <tile/>
   <tile gid="102"/>
   <tile/>
   <tile/>
   <tile/>
   <tile/>
   <tile/>
   <tile/>
   <tile/>
   <tile/>
   <tile/>
   <tile/>
   <tile/>
   <tile/>
   <tile/>
   <tile/>
   <tile/>
   <tile/>
   <tile/>
   <tile/>
   <tile/>
   <tile/>
   <tile/>
   <tile/>
   <tile/>
   <tile/>
   <tile/>
   <tile/>
   <tile/>
   <tile/>
   <tile/>
   <tile/>
   <tile/>
   <tile/>
   <tile/>
   <tile/>
   <tile/>
   <tile/>
   <tile/>
   <tile/>
   <tile/>
   <tile/>
   <tile gid="2147483752"/>
   <tile gid="105"/>
   <tile gid="106"/>
   <tile gid="103"/>
   <tile gid="105"/>
   <tile gid="113"/>
   <tile gid="114"/>
   <tile gid="106"/>
   <tile gid="113"/>
   <tile gid="114"/>
   <tile gid="111"/>
   <tile gid="111"/>
   <tile gid="112"/>
   <tile/>
   <tile/>
   <tile/>
   <tile/>
   <tile/>
   <tile/>
   <tile/>
   <tile/>
   <tile/>
   <tile/>
   <tile/>
   <tile/>
   <tile/>
   <tile/>
   <tile/>
   <tile/>
   <tile/>
   <tile/>
   <tile/>
   <tile/>
   <tile/>
   <tile/>
   <tile/>
   <tile/>
   <tile/>
   <tile/>
   <tile/>
   <tile/>
   <tile/>
   <tile/>
   <tile/>
   <tile/>
   <tile/>
   <tile/>
   <tile/>
   <tile/>
   <tile/>
   <tile/>
   <tile/>
   <tile/>
   <tile/>
   <tile/>
   <tile/>
   <tile/>
   <tile/>
   <tile/>
   <tile/>
   <tile/>
   <tile/>
   <tile/>
   <tile/>
   <tile/>
   <tile/>
   <tile/>
   <tile/>
   <tile/>
   <tile/>
   <tile/>
   <tile/>
   <tile/>
   <tile/>
   <tile/>
   <tile/>
   <tile/>
   <tile/>
   <tile/>
   <tile/>
   <tile/>
   <tile/>
   <tile/>
   <tile/>
   <tile/>
   <tile/>
   <tile/>
   <tile/>
   <tile/>
   <tile/>
   <tile/>
   <tile/>
   <tile/>
   <tile/>
   <tile/>
   <tile/>
   <tile/>
   <tile/>
   <tile/>
   <tile/>
   <tile/>
   <tile/>
   <tile/>
   <tile/>
   <tile/>
   <tile/>
   <tile/>
   <tile/>
   <tile/>
   <tile/>
   <tile/>
   <tile/>
   <tile/>
   <tile/>
   <tile/>
   <tile/>
   <tile/>
   <tile/>
   <tile/>
   <tile/>
   <tile/>
   <tile/>
   <tile/>
   <tile/>
   <tile/>
   <tile/>
   <tile/>
   <tile/>
   <tile/>
   <tile/>
   <tile/>
   <tile/>
   <tile/>
   <tile gid="2684354668"/>
   <tile gid="2684354660"/>
   <tile gid="2684354660"/>
   <tile gid="1610612844"/>
   <tile/>
   <tile/>
   <tile gid="102"/>
   <tile/>
   <tile/>
   <tile/>
   <tile/>
   <tile/>
   <tile/>
   <tile/>
   <tile/>
   <tile/>
   <tile/>
   <tile/>
   <tile/>
   <tile/>
   <tile/>
   <tile/>
   <tile/>
   <tile/>
   <tile/>
   <tile/>
   <tile/>
   <tile/>
   <tile/>
   <tile/>
   <tile/>
   <tile/>
   <tile/>
   <tile/>
   <tile/>
   <tile/>
   <tile/>
   <tile/>
   <tile/>
   <tile/>
   <tile/>
   <tile/>
   <tile/>
   <tile/>
   <tile/>
   <tile/>
   <tile gid="2684354670"/>
   <tile gid="106"/>
   <tile gid="105"/>
   <tile gid="106"/>
   <tile gid="103"/>
   <tile gid="105"/>
   <tile gid="105"/>
   <tile gid="103"/>
   <tile gid="111"/>
   <tile gid="111"/>
   <tile gid="112"/>
   <tile/>
   <tile/>
   <tile/>
   <tile/>
   <tile/>
   <tile/>
   <tile/>
   <tile/>
   <tile/>
   <tile/>
   <tile/>
   <tile/>
   <tile/>
   <tile/>
   <tile/>
   <tile/>
   <tile/>
   <tile/>
   <tile/>
   <tile/>
   <tile/>
   <tile/>
   <tile/>
   <tile/>
   <tile/>
   <tile/>
   <tile/>
   <tile/>
   <tile/>
   <tile/>
   <tile/>
   <tile/>
   <tile/>
   <tile/>
   <tile/>
   <tile/>
   <tile/>
   <tile/>
   <tile/>
   <tile/>
   <tile/>
   <tile/>
   <tile/>
   <tile/>
   <tile/>
   <tile/>
   <tile/>
   <tile/>
   <tile gid="94"/>
   <tile gid="96"/>
   <tile/>
   <tile/>
   <tile/>
   <tile/>
   <tile/>
   <tile/>
   <tile/>
   <tile/>
   <tile/>
   <tile/>
   <tile/>
   <tile/>
   <tile/>
   <tile/>
   <tile/>
   <tile/>
   <tile/>
   <tile/>
   <tile/>
   <tile/>
   <tile/>
   <tile/>
   <tile/>
   <tile/>
   <tile/>
   <tile/>
   <tile/>
   <tile/>
   <tile/>
   <tile/>
   <tile/>
   <tile/>
   <tile/>
   <tile/>
   <tile/>
   <tile/>
   <tile/>
   <tile/>
   <tile/>
   <tile/>
   <tile/>
   <tile/>
   <tile/>
   <tile/>
   <tile/>
   <tile/>
   <tile/>
   <tile/>
   <tile/>
   <tile/>
   <tile/>
   <tile/>
   <tile/>
   <tile/>
   <tile/>
   <tile/>
   <tile/>
   <tile/>
   <tile/>
   <tile/>
   <tile/>
   <tile/>
   <tile/>
   <tile/>
   <tile/>
   <tile/>
   <tile/>
   <tile/>
   <tile/>
   <tile/>
   <tile/>
   <tile/>
   <tile/>
   <tile/>
   <tile/>
   <tile/>
   <tile/>
   <tile/>
   <tile/>
   <tile gid="102"/>
   <tile/>
   <tile/>
   <tile/>
   <tile/>
   <tile/>
   <tile/>
   <tile/>
   <tile/>
   <tile/>
   <tile/>
   <tile/>
   <tile/>
   <tile/>
   <tile/>
   <tile/>
   <tile/>
   <tile/>
   <tile/>
   <tile/>
   <tile/>
   <tile/>
   <tile/>
   <tile/>
   <tile/>
   <tile/>
   <tile/>
   <tile/>
   <tile/>
   <tile/>
   <tile/>
   <tile/>
   <tile/>
   <tile/>
   <tile/>
   <tile/>
   <tile/>
   <tile/>
   <tile/>
   <tile gid="2684354670"/>
   <tile gid="103"/>
   <tile gid="113"/>
   <tile gid="103"/>
   <tile gid="103"/>
   <tile gid="103"/>
   <tile gid="105"/>
   <tile gid="111"/>
   <tile gid="2147483758"/>
   <tile/>
   <tile/>
   <tile/>
   <tile/>
   <tile/>
   <tile/>
   <tile/>
   <tile/>
   <tile/>
   <tile/>
   <tile/>
   <tile/>
   <tile/>
   <tile/>
   <tile/>
   <tile/>
   <tile/>
   <tile/>
   <tile/>
   <tile/>
   <tile/>
   <tile/>
   <tile/>
   <tile/>
   <tile/>
   <tile/>
   <tile/>
   <tile/>
   <tile/>
   <tile/>
   <tile/>
   <tile/>
   <tile/>
   <tile/>
   <tile/>
   <tile/>
   <tile/>
   <tile/>
   <tile gid="94"/>
   <tile gid="98"/>
   <tile gid="95"/>
   <tile gid="95"/>
   <tile gid="97"/>
   <tile gid="95"/>
   <tile gid="97"/>
   <tile gid="97"/>
   <tile gid="98"/>
   <tile gid="97"/>
   <tile gid="95"/>
   <tile gid="97"/>
   <tile gid="98"/>
   <tile gid="114"/>
   <tile gid="105"/>
   <tile gid="95"/>
   <tile gid="98"/>
   <tile gid="97"/>
   <tile gid="98"/>
   <tile gid="97"/>
   <tile gid="95"/>
   <tile gid="96"/>
   <tile/>
   <tile/>
   <tile/>
   <tile/>
   <tile/>
   <tile/>
   <tile/>
   <tile/>
   <tile/>
   <tile/>
   <tile/>
   <tile/>
   <tile/>
   <tile/>
   <tile/>
   <tile/>
   <tile/>
   <tile/>
   <tile/>
   <tile/>
   <tile/>
   <tile/>
   <tile/>
   <tile/>
   <tile/>
   <tile/>
   <tile/>
   <tile/>
   <tile/>
   <tile/>
   <tile/>
   <tile/>
   <tile/>
   <tile/>
   <tile/>
   <tile/>
   <tile/>
   <tile/>
   <tile/>
   <tile/>
   <tile/>
   <tile/>
   <tile/>
   <tile/>
   <tile/>
   <tile/>
   <tile/>
   <tile/>
   <tile/>
   <tile/>
   <tile/>
   <tile/>
   <tile/>
   <tile/>
   <tile/>
   <tile/>
   <tile/>
   <tile/>
   <tile/>
   <tile/>
   <tile/>
   <tile/>
   <tile/>
   <tile/>
   <tile/>
   <tile/>
   <tile/>
   <tile/>
   <tile/>
   <tile/>
   <tile/>
   <tile/>
   <tile gid="102"/>
   <tile/>
   <tile/>
   <tile/>
   <tile/>
   <tile/>
   <tile/>
   <tile/>
   <tile/>
   <tile/>
   <tile/>
   <tile/>
   <tile/>
   <tile/>
   <tile/>
   <tile/>
   <tile/>
   <tile/>
   <tile/>
   <tile/>
   <tile/>
   <tile/>
   <tile/>
   <tile/>
   <tile/>
   <tile/>
   <tile/>
   <tile/>
   <tile/>
   <tile/>
   <tile/>
   <tile/>
   <tile/>
   <tile/>
   <tile/>
   <tile/>
   <tile/>
   <tile/>
   <tile gid="2684354670"/>
   <tile gid="105"/>
   <tile gid="105"/>
   <tile gid="114"/>
   <tile gid="106"/>
   <tile gid="113"/>
   <tile gid="111"/>
   <tile gid="2147483758"/>
   <tile/>
   <tile/>
   <tile/>
   <tile/>
   <tile/>
   <tile/>
   <tile/>
   <tile/>
   <tile/>
   <tile/>
   <tile/>
   <tile/>
   <tile/>
   <tile/>
   <tile/>
   <tile/>
   <tile/>
   <tile/>
   <tile/>
   <tile/>
   <tile/>
   <tile/>
   <tile/>
   <tile/>
   <tile/>
   <tile/>
   <tile/>
   <tile/>
   <tile/>
   <tile/>
   <tile/>
   <tile/>
   <tile/>
   <tile/>
   <tile/>
   <tile/>
   <tile/>
   <tile/>
   <tile/>
   <tile/>
   <tile gid="110"/>
   <tile gid="111"/>
   <tile gid="111"/>
   <tile gid="111"/>
   <tile gid="111"/>
   <tile gid="111"/>
   <tile gid="111"/>
   <tile gid="111"/>
   <tile gid="111"/>
   <tile gid="111"/>
   <tile gid="111"/>
   <tile gid="111"/>
   <tile gid="111"/>
   <tile gid="111"/>
   <tile gid="111"/>
   <tile gid="111"/>
   <tile gid="111"/>
   <tile gid="111"/>
   <tile gid="111"/>
   <tile gid="111"/>
   <tile gid="111"/>
   <tile gid="111"/>
   <tile/>
   <tile/>
   <tile/>
   <tile/>
   <tile/>
   <tile/>
   <tile/>
   <tile/>
   <tile/>
   <tile/>
   <tile/>
   <tile/>
   <tile/>
   <tile/>
   <tile/>
   <tile/>
   <tile/>
   <tile/>
   <tile/>
   <tile/>
   <tile/>
   <tile/>
   <tile/>
   <tile/>
   <tile/>
   <tile/>
   <tile/>
   <tile/>
   <tile/>
   <tile/>
   <tile/>
   <tile/>
   <tile/>
   <tile/>
   <tile/>
   <tile/>
   <tile/>
   <tile/>
   <tile/>
   <tile/>
   <tile/>
   <tile/>
   <tile/>
   <tile/>
   <tile/>
   <tile/>
   <tile/>
   <tile/>
   <tile/>
   <tile/>
   <tile/>
   <tile/>
   <tile/>
   <tile/>
   <tile/>
   <tile/>
   <tile/>
   <tile/>
   <tile/>
   <tile/>
   <tile/>
   <tile/>
   <tile gid="94"/>
   <tile gid="95"/>
   <tile gid="96"/>
   <tile/>
   <tile/>
   <tile/>
   <tile/>
   <tile/>
   <tile/>
   <tile/>
   <tile gid="102"/>
   <tile/>
   <tile/>
   <tile/>
   <tile/>
   <tile/>
   <tile/>
   <tile/>
   <tile/>
   <tile/>
   <tile/>
   <tile/>
   <tile/>
   <tile/>
   <tile/>
   <tile/>
   <tile/>
   <tile/>
   <tile/>
   <tile/>
   <tile/>
   <tile/>
   <tile/>
   <tile/>
   <tile/>
   <tile/>
   <tile/>
   <tile/>
   <tile/>
   <tile/>
   <tile/>
   <tile/>
   <tile/>
   <tile/>
   <tile/>
   <tile/>
   <tile/>
   <tile gid="2684354670"/>
   <tile gid="113"/>
   <tile gid="103"/>
   <tile gid="106"/>
   <tile gid="106"/>
   <tile gid="111"/>
   <tile gid="112"/>
   <tile/>
   <tile/>
   <tile/>
   <tile/>
   <tile/>
   <tile/>
   <tile/>
   <tile/>
   <tile/>
   <tile/>
   <tile/>
   <tile/>
   <tile/>
   <tile/>
   <tile/>
   <tile/>
   <tile/>
   <tile/>
   <tile/>
   <tile/>
   <tile/>
   <tile/>
   <tile/>
   <tile/>
   <tile/>
   <tile/>
   <tile/>
   <tile/>
   <tile/>
   <tile/>
   <tile/>
   <tile/>
   <tile/>
   <tile/>
   <tile/>
   <tile/>
   <tile/>
   <tile/>
   <tile/>
   <tile/>
   <tile/>
   <tile/>
   <tile/>
   <tile/>
   <tile/>
   <tile/>
   <tile/>
   <tile/>
   <tile/>
   <tile/>
   <tile/>
   <tile/>
   <tile/>
   <tile/>
   <tile/>
   <tile/>
   <tile/>
   <tile/>
   <tile/>
   <tile/>
   <tile/>
   <tile/>
   <tile/>
   <tile/>
   <tile/>
   <tile/>
   <tile/>
   <tile/>
   <tile/>
   <tile/>
   <tile gid="103"/>
   <tile gid="103"/>
   <tile gid="103"/>
   <tile gid="103"/>
   <tile/>
   <tile/>
   <tile/>
   <tile/>
   <tile/>
   <tile/>
   <tile/>
   <tile/>
   <tile/>
   <tile/>
   <tile/>
   <tile/>
   <tile/>
   <tile/>
   <tile/>
   <tile/>
   <tile/>
   <tile/>
   <tile/>
   <tile/>
   <tile/>
   <tile/>
   <tile/>
   <tile/>
   <tile/>
   <tile/>
   <tile/>
   <tile/>
   <tile/>
   <tile/>
   <tile/>
   <tile/>
   <tile/>
   <tile/>
   <tile/>
   <tile/>
   <tile/>
   <tile/>
   <tile/>
   <tile/>
   <tile/>
   <tile/>
   <tile/>
   <tile/>
   <tile/>
   <tile/>
   <tile/>
   <tile/>
   <tile/>
   <tile/>
   <tile/>
   <tile/>
   <tile/>
   <tile/>
   <tile/>
   <tile/>
   <tile/>
   <tile/>
   <tile/>
   <tile/>
   <tile/>
   <tile/>
   <tile gid="102"/>
   <tile/>
   <tile/>
   <tile/>
   <tile/>
   <tile/>
   <tile/>
   <tile/>
   <tile/>
   <tile/>
   <tile/>
   <tile/>
   <tile/>
   <tile/>
   <tile/>
   <tile/>
   <tile/>
   <tile/>
   <tile/>
   <tile/>
   <tile/>
   <tile/>
   <tile/>
   <tile/>
   <tile/>
   <tile/>
   <tile/>
   <tile/>
   <tile/>
   <tile/>
   <tile/>
   <tile/>
   <tile/>
   <tile/>
   <tile/>
   <tile/>
   <tile/>
   <tile gid="102"/>
   <tile gid="103"/>
   <tile gid="105"/>
   <tile gid="113"/>
   <tile gid="112"/>
   <tile/>
   <tile/>
   <tile/>
   <tile/>
   <tile/>
   <tile/>
   <tile/>
   <tile/>
   <tile/>
   <tile/>
   <tile/>
   <tile/>
   <tile/>
   <tile/>
   <tile/>
   <tile/>
   <tile/>
   <tile/>
   <tile/>
   <tile/>
   <tile/>
   <tile/>
   <tile/>
   <tile/>
   <tile/>
   <tile/>
   <tile/>
   <tile/>
   <tile/>
   <tile/>
   <tile/>
   <tile/>
   <tile/>
   <tile/>
   <tile/>
   <tile/>
   <tile/>
   <tile/>
   <tile/>
   <tile/>
   <tile/>
   <tile/>
   <tile/>
   <tile/>
   <tile/>
   <tile/>
   <tile/>
   <tile/>
   <tile/>
   <tile/>
   <tile/>
   <tile/>
   <tile/>
   <tile/>
   <tile/>
   <tile/>
   <tile/>
   <tile/>
   <tile/>
   <tile/>
   <tile/>
   <tile/>
   <tile/>
   <tile/>
   <tile/>
   <tile/>
   <tile/>
   <tile/>
   <tile/>
   <tile/>
   <tile/>
   <tile/>
   <tile/>
   <tile/>
   <tile/>
   <tile/>
   <tile/>
   <tile/>
   <tile/>
   <tile/>
   <tile/>
   <tile/>
   <tile/>
   <tile/>
   <tile/>
   <tile/>
   <tile/>
   <tile/>
   <tile/>
   <tile/>
   <tile/>
   <tile/>
   <tile/>
   <tile/>
   <tile/>
   <tile/>
   <tile/>
   <tile/>
   <tile/>
   <tile/>
   <tile/>
   <tile/>
   <tile/>
   <tile/>
   <tile/>
   <tile/>
   <tile/>
   <tile/>
   <tile/>
   <tile/>
   <tile/>
   <tile/>
   <tile/>
   <tile/>
   <tile/>
   <tile/>
   <tile/>
   <tile/>
   <tile/>
   <tile/>
   <tile/>
   <tile/>
   <tile/>
   <tile/>
   <tile/>
   <tile/>
   <tile/>
   <tile/>
   <tile/>
   <tile/>
   <tile/>
   <tile/>
   <tile/>
   <tile/>
   <tile/>
   <tile/>
   <tile/>
   <tile/>
   <tile gid="102"/>
   <tile/>
   <tile/>
   <tile/>
   <tile/>
   <tile/>
   <tile/>
   <tile/>
   <tile/>
   <tile/>
   <tile/>
   <tile/>
   <tile/>
   <tile/>
   <tile/>
   <tile/>
   <tile/>
   <tile/>
   <tile/>
   <tile/>
   <tile/>
   <tile/>
   <tile/>
   <tile/>
   <tile/>
   <tile/>
   <tile/>
   <tile/>
   <tile/>
   <tile/>
   <tile/>
   <tile/>
   <tile/>
   <tile/>
   <tile/>
   <tile/>
   <tile gid="94"/>
   <tile gid="105"/>
   <tile gid="114"/>
   <tile gid="113"/>
   <tile gid="112"/>
   <tile/>
   <tile/>
   <tile/>
   <tile/>
   <tile/>
   <tile/>
   <tile/>
   <tile/>
   <tile/>
   <tile/>
   <tile/>
   <tile/>
   <tile/>
   <tile/>
   <tile/>
   <tile/>
   <tile/>
   <tile/>
   <tile/>
   <tile/>
   <tile/>
   <tile/>
   <tile/>
   <tile/>
   <tile/>
   <tile/>
   <tile/>
   <tile/>
   <tile/>
   <tile/>
   <tile/>
   <tile/>
   <tile/>
   <tile/>
   <tile/>
   <tile/>
   <tile/>
   <tile/>
   <tile/>
   <tile/>
   <tile/>
   <tile/>
   <tile/>
   <tile/>
   <tile/>
   <tile/>
   <tile/>
   <tile/>
   <tile/>
   <tile/>
   <tile/>
   <tile/>
   <tile/>
   <tile/>
   <tile/>
   <tile/>
   <tile/>
   <tile/>
   <tile/>
   <tile/>
   <tile/>
   <tile/>
   <tile/>
   <tile/>
   <tile/>
   <tile/>
   <tile/>
   <tile/>
   <tile/>
   <tile/>
   <tile/>
   <tile/>
   <tile/>
   <tile/>
   <tile/>
   <tile/>
   <tile/>
   <tile/>
   <tile/>
   <tile/>
   <tile/>
   <tile/>
   <tile/>
   <tile/>
   <tile/>
   <tile/>
   <tile/>
   <tile/>
   <tile/>
   <tile/>
   <tile/>
   <tile/>
   <tile/>
   <tile/>
   <tile/>
   <tile/>
   <tile/>
   <tile/>
   <tile/>
   <tile/>
   <tile/>
   <tile/>
   <tile/>
   <tile/>
   <tile/>
   <tile/>
   <tile/>
   <tile/>
   <tile/>
   <tile/>
   <tile/>
   <tile/>
   <tile/>
   <tile/>
   <tile/>
   <tile/>
   <tile/>
   <tile/>
   <tile/>
   <tile/>
   <tile/>
   <tile/>
   <tile/>
   <tile/>
   <tile gid="94"/>
   <tile gid="95"/>
   <tile gid="96"/>
   <tile/>
   <tile/>
   <tile/>
   <tile/>
   <tile/>
   <tile/>
   <tile/>
   <tile/>
   <tile/>
   <tile/>
   <tile/>
   <tile/>
   <tile gid="102"/>
   <tile/>
   <tile/>
   <tile/>
   <tile/>
   <tile/>
   <tile/>
   <tile/>
   <tile/>
   <tile/>
   <tile/>
   <tile/>
   <tile/>
   <tile/>
   <tile/>
   <tile/>
   <tile/>
   <tile/>
   <tile/>
   <tile/>
   <tile/>
   <tile/>
   <tile/>
   <tile/>
   <tile/>
   <tile/>
   <tile/>
   <tile/>
   <tile/>
   <tile/>
   <tile/>
   <tile/>
   <tile/>
   <tile/>
   <tile/>
   <tile/>
   <tile gid="102"/>
   <tile gid="114"/>
   <tile gid="106"/>
   <tile gid="112"/>
   <tile/>
   <tile/>
   <tile/>
   <tile/>
   <tile/>
   <tile/>
   <tile/>
   <tile/>
   <tile/>
   <tile/>
   <tile/>
   <tile/>
   <tile/>
   <tile/>
   <tile/>
   <tile/>
   <tile/>
   <tile/>
   <tile/>
   <tile/>
   <tile/>
   <tile/>
   <tile/>
   <tile/>
   <tile/>
   <tile/>
   <tile/>
   <tile/>
   <tile/>
   <tile/>
   <tile/>
   <tile/>
   <tile/>
   <tile/>
   <tile/>
   <tile/>
   <tile/>
   <tile/>
   <tile/>
   <tile/>
   <tile/>
   <tile/>
   <tile/>
   <tile/>
   <tile/>
   <tile/>
   <tile/>
   <tile/>
   <tile/>
   <tile/>
   <tile/>
   <tile/>
   <tile/>
   <tile/>
   <tile/>
   <tile/>
   <tile/>
   <tile/>
   <tile/>
   <tile/>
   <tile/>
   <tile/>
   <tile/>
   <tile/>
   <tile/>
   <tile/>
   <tile/>
   <tile/>
   <tile/>
   <tile/>
   <tile/>
   <tile/>
   <tile/>
   <tile/>
   <tile/>
   <tile/>
   <tile/>
   <tile/>
   <tile/>
   <tile/>
   <tile/>
   <tile gid="103"/>
   <tile gid="113"/>
   <tile gid="105"/>
   <tile gid="103"/>
   <tile/>
   <tile/>
   <tile/>
   <tile/>
   <tile/>
   <tile/>
   <tile/>
   <tile/>
   <tile/>
   <tile/>
   <tile/>
   <tile/>
   <tile/>
   <tile/>
   <tile/>
   <tile/>
   <tile/>
   <tile/>
   <tile/>
   <tile/>
   <tile/>
   <tile/>
   <tile/>
   <tile/>
   <tile/>
   <tile/>
   <tile/>
   <tile/>
   <tile/>
   <tile/>
   <tile/>
   <tile/>
   <tile/>
   <tile/>
   <tile/>
   <tile/>
   <tile/>
   <tile/>
   <tile/>
   <tile/>
   <tile/>
   <tile/>
   <tile/>
   <tile/>
   <tile/>
   <tile/>
   <tile/>
   <tile/>
   <tile/>
   <tile/>
   <tile/>
   <tile/>
   <tile/>
   <tile/>
   <tile/>
   <tile gid="102"/>
   <tile/>
   <tile/>
   <tile/>
   <tile/>
   <tile/>
   <tile/>
   <tile/>
   <tile/>
   <tile/>
   <tile/>
   <tile/>
   <tile/>
   <tile/>
   <tile/>
   <tile/>
   <tile/>
   <tile/>
   <tile/>
   <tile/>
   <tile/>
   <tile/>
   <tile/>
   <tile/>
   <tile/>
   <tile/>
   <tile/>
   <tile/>
   <tile/>
   <tile/>
   <tile/>
   <tile/>
   <tile/>
   <tile/>
   <tile/>
   <tile gid="94"/>
   <tile gid="103"/>
   <tile gid="105"/>
   <tile gid="112"/>
   <tile/>
   <tile/>
   <tile/>
   <tile/>
   <tile/>
   <tile/>
   <tile/>
   <tile/>
   <tile/>
   <tile/>
   <tile/>
   <tile/>
   <tile/>
   <tile/>
   <tile/>
   <tile/>
   <tile/>
   <tile/>
   <tile/>
   <tile/>
   <tile/>
   <tile/>
   <tile/>
   <tile/>
   <tile/>
   <tile/>
   <tile/>
   <tile/>
   <tile/>
   <tile/>
   <tile/>
   <tile/>
   <tile/>
   <tile/>
   <tile/>
   <tile/>
   <tile/>
   <tile/>
   <tile/>
   <tile/>
   <tile/>
   <tile/>
   <tile/>
   <tile/>
   <tile/>
   <tile/>
   <tile/>
   <tile/>
   <tile/>
   <tile/>
   <tile/>
   <tile/>
   <tile/>
   <tile/>
   <tile/>
   <tile/>
   <tile/>
   <tile/>
   <tile/>
   <tile/>
   <tile/>
   <tile/>
   <tile/>
   <tile/>
   <tile/>
   <tile/>
   <tile/>
   <tile/>
   <tile/>
   <tile/>
   <tile/>
   <tile/>
   <tile/>
   <tile/>
   <tile/>
   <tile/>
   <tile/>
   <tile/>
   <tile/>
   <tile/>
   <tile/>
   <tile/>
   <tile/>
   <tile/>
   <tile/>
   <tile/>
   <tile/>
   <tile/>
   <tile/>
   <tile/>
   <tile/>
   <tile/>
   <tile/>
   <tile/>
   <tile/>
   <tile/>
   <tile/>
   <tile/>
   <tile/>
   <tile/>
   <tile/>
   <tile/>
   <tile/>
   <tile/>
   <tile/>
   <tile/>
   <tile/>
   <tile/>
   <tile/>
   <tile/>
   <tile/>
   <tile/>
   <tile/>
   <tile/>
   <tile/>
   <tile/>
   <tile/>
   <tile/>
   <tile/>
   <tile/>
   <tile/>
   <tile/>
   <tile/>
   <tile/>
   <tile/>
   <tile/>
   <tile/>
   <tile/>
   <tile/>
   <tile/>
   <tile/>
   <tile/>
   <tile/>
   <tile/>
   <tile/>
   <tile/>
   <tile/>
   <tile/>
   <tile/>
   <tile/>
   <tile/>
   <tile gid="102"/>
   <tile/>
   <tile/>
   <tile/>
   <tile/>
   <tile/>
   <tile/>
   <tile/>
   <tile/>
   <tile/>
   <tile/>
   <tile/>
   <tile/>
   <tile/>
   <tile/>
   <tile/>
   <tile/>
   <tile/>
   <tile/>
   <tile/>
   <tile/>
   <tile/>
   <tile/>
   <tile/>
   <tile/>
   <tile/>
   <tile/>
   <tile/>
   <tile/>
   <tile/>
   <tile/>
   <tile/>
   <tile/>
   <tile/>
   <tile gid="94"/>
   <tile gid="113"/>
   <tile gid="111"/>
   <tile gid="112"/>
   <tile/>
   <tile/>
   <tile/>
   <tile/>
   <tile/>
   <tile/>
   <tile/>
   <tile/>
   <tile/>
   <tile/>
   <tile/>
   <tile/>
   <tile/>
   <tile/>
   <tile/>
   <tile/>
   <tile/>
   <tile/>
   <tile/>
   <tile/>
   <tile/>
   <tile/>
   <tile/>
   <tile/>
   <tile/>
   <tile/>
   <tile/>
   <tile/>
   <tile/>
   <tile/>
   <tile/>
   <tile/>
   <tile/>
   <tile/>
   <tile/>
   <tile/>
   <tile/>
   <tile/>
   <tile/>
   <tile/>
   <tile/>
   <tile/>
   <tile/>
   <tile/>
   <tile/>
   <tile/>
   <tile/>
   <tile/>
   <tile/>
   <tile/>
   <tile/>
   <tile/>
   <tile/>
   <tile/>
   <tile/>
   <tile/>
   <tile/>
   <tile/>
   <tile/>
   <tile/>
   <tile/>
   <tile/>
   <tile/>
   <tile/>
   <tile/>
   <tile/>
   <tile/>
   <tile/>
   <tile/>
   <tile/>
   <tile/>
   <tile/>
   <tile/>
   <tile/>
   <tile/>
   <tile/>
   <tile/>
   <tile/>
   <tile/>
   <tile/>
   <tile/>
   <tile/>
   <tile/>
   <tile/>
   <tile/>
   <tile/>
   <tile/>
   <tile/>
   <tile/>
   <tile/>
   <tile/>
   <tile/>
   <tile gid="87"/>
   <tile gid="87"/>
   <tile gid="87"/>
   <tile gid="87"/>
   <tile gid="87"/>
   <tile gid="87"/>
   <tile gid="87"/>
   <tile gid="87"/>
   <tile gid="87"/>
   <tile gid="87"/>
   <tile gid="87"/>
   <tile gid="87"/>
   <tile gid="87"/>
   <tile gid="87"/>
   <tile gid="87"/>
   <tile gid="103"/>
   <tile gid="103"/>
   <tile gid="103"/>
   <tile gid="87"/>
   <tile gid="87"/>
   <tile gid="87"/>
   <tile gid="87"/>
   <tile gid="87"/>
   <tile gid="87"/>
   <tile gid="87"/>
   <tile gid="87"/>
   <tile gid="87"/>
   <tile gid="87"/>
   <tile gid="87"/>
   <tile gid="87"/>
   <tile gid="87"/>
   <tile gid="87"/>
   <tile gid="87"/>
   <tile gid="87"/>
   <tile/>
   <tile/>
   <tile/>
   <tile/>
   <tile/>
   <tile/>
   <tile/>
   <tile/>
   <tile/>
   <tile/>
   <tile/>
   <tile/>
   <tile/>
   <tile/>
   <tile/>
   <tile/>
   <tile gid="102"/>
   <tile/>
   <tile/>
   <tile/>
   <tile/>
   <tile/>
   <tile/>
   <tile/>
   <tile/>
   <tile/>
   <tile/>
   <tile/>
   <tile/>
   <tile/>
   <tile/>
   <tile/>
   <tile/>
   <tile/>
   <tile/>
   <tile/>
   <tile/>
   <tile/>
   <tile/>
   <tile/>
   <tile/>
   <tile/>
   <tile/>
   <tile/>
   <tile/>
   <tile/>
   <tile/>
   <tile/>
   <tile/>
   <tile/>
   <tile gid="102"/>
   <tile gid="112"/>
   <tile/>
   <tile/>
   <tile/>
   <tile/>
   <tile/>
   <tile/>
   <tile/>
   <tile/>
   <tile/>
   <tile/>
   <tile/>
   <tile/>
   <tile/>
   <tile/>
   <tile/>
   <tile/>
   <tile/>
   <tile/>
   <tile/>
   <tile/>
   <tile/>
   <tile/>
   <tile/>
   <tile/>
   <tile/>
   <tile/>
   <tile/>
   <tile/>
   <tile/>
   <tile/>
   <tile/>
   <tile/>
   <tile/>
   <tile/>
   <tile/>
   <tile/>
   <tile/>
   <tile/>
   <tile/>
   <tile/>
   <tile/>
   <tile/>
   <tile/>
   <tile/>
   <tile/>
   <tile/>
   <tile/>
   <tile/>
   <tile/>
   <tile/>
   <tile/>
   <tile/>
   <tile/>
   <tile/>
   <tile/>
   <tile/>
   <tile/>
   <tile/>
   <tile/>
   <tile/>
   <tile/>
   <tile/>
   <tile/>
   <tile/>
   <tile/>
   <tile/>
   <tile/>
   <tile/>
   <tile/>
   <tile/>
   <tile/>
   <tile/>
   <tile/>
   <tile/>
   <tile/>
   <tile/>
   <tile/>
   <tile/>
   <tile/>
   <tile/>
   <tile/>
   <tile/>
   <tile/>
   <tile/>
   <tile/>
   <tile/>
   <tile/>
   <tile/>
   <tile/>
   <tile/>
   <tile/>
   <tile/>
   <tile/>
   <tile/>
   <tile/>
   <tile/>
   <tile/>
   <tile/>
   <tile/>
   <tile/>
   <tile/>
   <tile/>
   <tile/>
   <tile/>
   <tile/>
   <tile/>
   <tile/>
   <tile/>
   <tile/>
   <tile/>
   <tile/>
   <tile/>
   <tile/>
   <tile/>
   <tile/>
   <tile/>
   <tile/>
   <tile/>
   <tile/>
   <tile/>
   <tile/>
   <tile/>
   <tile/>
   <tile/>
   <tile/>
   <tile/>
   <tile/>
   <tile/>
   <tile/>
   <tile/>
   <tile/>
   <tile/>
   <tile/>
   <tile/>
   <tile/>
   <tile/>
   <tile/>
   <tile/>
   <tile/>
   <tile/>
   <tile/>
   <tile/>
   <tile/>
   <tile/>
   <tile gid="102"/>
   <tile/>
   <tile/>
   <tile/>
   <tile/>
   <tile/>
   <tile/>
   <tile/>
   <tile/>
   <tile/>
   <tile/>
   <tile/>
   <tile/>
   <tile/>
   <tile/>
   <tile/>
   <tile/>
   <tile/>
   <tile/>
   <tile/>
   <tile/>
   <tile/>
   <tile/>
   <tile/>
   <tile/>
   <tile/>
   <tile/>
   <tile/>
   <tile/>
   <tile/>
   <tile/>
   <tile/>
   <tile/>
   <tile gid="94"/>
   <tile gid="112"/>
   <tile/>
   <tile/>
   <tile/>
   <tile/>
   <tile/>
   <tile/>
   <tile/>
   <tile/>
   <tile/>
   <tile/>
   <tile/>
   <tile/>
   <tile/>
   <tile/>
   <tile/>
   <tile/>
   <tile/>
   <tile/>
   <tile/>
   <tile/>
   <tile/>
   <tile/>
   <tile/>
   <tile/>
   <tile/>
   <tile/>
   <tile/>
   <tile/>
   <tile/>
   <tile/>
   <tile/>
   <tile/>
   <tile/>
   <tile/>
   <tile/>
   <tile/>
   <tile/>
   <tile/>
   <tile/>
   <tile/>
   <tile/>
   <tile/>
   <tile/>
   <tile/>
   <tile/>
   <tile/>
   <tile/>
   <tile/>
   <tile/>
   <tile/>
   <tile/>
   <tile/>
   <tile/>
   <tile/>
   <tile/>
   <tile/>
   <tile/>
   <tile/>
   <tile/>
   <tile/>
   <tile/>
   <tile/>
   <tile/>
   <tile/>
   <tile/>
   <tile/>
   <tile/>
   <tile/>
   <tile/>
   <tile/>
   <tile/>
   <tile/>
   <tile/>
   <tile/>
   <tile/>
   <tile/>
   <tile/>
   <tile/>
   <tile/>
   <tile/>
   <tile/>
   <tile/>
   <tile/>
   <tile/>
   <tile/>
   <tile/>
   <tile/>
   <tile/>
   <tile/>
   <tile/>
   <tile/>
   <tile/>
   <tile gid="94"/>
   <tile gid="96"/>
   <tile gid="25"/>
   <tile gid="26"/>
   <tile gid="27"/>
   <tile gid="27"/>
   <tile gid="27"/>
   <tile gid="27"/>
   <tile gid="27"/>
   <tile gid="27"/>
   <tile gid="27"/>
   <tile gid="27"/>
   <tile gid="27"/>
   <tile gid="27"/>
   <tile gid="27"/>
   <tile gid="27"/>
   <tile gid="27"/>
   <tile gid="27"/>
   <tile gid="27"/>
   <tile gid="27"/>
   <tile gid="27"/>
   <tile gid="27"/>
   <tile gid="27"/>
   <tile gid="27"/>
   <tile gid="27"/>
   <tile gid="27"/>
   <tile gid="27"/>
   <tile gid="27"/>
   <tile gid="27"/>
   <tile gid="27"/>
   <tile gid="27"/>
   <tile gid="27"/>
   <tile gid="27"/>
   <tile gid="27"/>
   <tile gid="27"/>
   <tile gid="27"/>
   <tile gid="28"/>
   <tile gid="29"/>
   <tile gid="94"/>
   <tile gid="96"/>
   <tile/>
   <tile/>
   <tile/>
   <tile/>
   <tile/>
   <tile/>
   <tile/>
   <tile/>
   <tile/>
   <tile/>
   <tile/>
   <tile/>
   <tile/>
   <tile gid="102"/>
   <tile/>
   <tile/>
   <tile/>
   <tile/>
   <tile/>
   <tile/>
   <tile/>
   <tile/>
   <tile/>
   <tile/>
   <tile/>
   <tile/>
   <tile/>
   <tile/>
   <tile/>
   <tile/>
   <tile/>
   <tile/>
   <tile/>
   <tile/>
   <tile/>
   <tile/>
   <tile/>
   <tile/>
   <tile/>
   <tile/>
   <tile/>
   <tile/>
   <tile/>
   <tile/>
   <tile/>
   <tile gid="94"/>
   <tile gid="112"/>
   <tile/>
   <tile/>
   <tile/>
   <tile/>
   <tile/>
   <tile/>
   <tile/>
   <tile/>
   <tile/>
   <tile/>
   <tile/>
   <tile/>
   <tile/>
   <tile/>
   <tile/>
   <tile/>
   <tile/>
   <tile/>
   <tile/>
   <tile/>
   <tile/>
   <tile/>
   <tile/>
   <tile/>
   <tile/>
   <tile/>
   <tile/>
   <tile/>
   <tile/>
   <tile/>
   <tile/>
   <tile/>
   <tile/>
   <tile/>
   <tile/>
   <tile/>
   <tile/>
   <tile/>
   <tile/>
   <tile/>
   <tile/>
   <tile/>
   <tile/>
   <tile/>
   <tile/>
   <tile/>
   <tile/>
   <tile/>
   <tile/>
   <tile/>
   <tile/>
   <tile/>
   <tile/>
   <tile/>
   <tile/>
   <tile/>
   <tile/>
   <tile/>
   <tile/>
   <tile/>
   <tile/>
   <tile/>
   <tile/>
   <tile/>
   <tile/>
   <tile/>
   <tile/>
   <tile/>
   <tile/>
   <tile/>
   <tile/>
   <tile/>
   <tile/>
   <tile/>
   <tile/>
   <tile/>
   <tile/>
   <tile/>
   <tile/>
   <tile/>
   <tile/>
   <tile/>
   <tile/>
   <tile/>
   <tile/>
   <tile/>
   <tile/>
   <tile/>
   <tile/>
   <tile/>
   <tile/>
   <tile/>
   <tile gid="94"/>
   <tile gid="105"/>
   <tile gid="103"/>
   <tile gid="98"/>
   <tile gid="95"/>
   <tile gid="95"/>
   <tile gid="98"/>
   <tile gid="97"/>
   <tile gid="97"/>
   <tile gid="98"/>
   <tile gid="98"/>
   <tile gid="97"/>
   <tile gid="95"/>
   <tile gid="97"/>
   <tile gid="98"/>
   <tile gid="98"/>
   <tile gid="97"/>
   <tile gid="97"/>
   <tile gid="97"/>
   <tile gid="95"/>
   <tile gid="98"/>
   <tile gid="97"/>
   <tile gid="95"/>
   <tile gid="95"/>
   <tile gid="97"/>
   <tile gid="97"/>
   <tile gid="97"/>
   <tile gid="95"/>
   <tile gid="95"/>
   <tile gid="95"/>
   <tile gid="98"/>
   <tile gid="95"/>
   <tile gid="98"/>
   <tile gid="95"/>
   <tile gid="98"/>
   <tile gid="97"/>
   <tile gid="95"/>
   <tile gid="98"/>
   <tile gid="97"/>
   <tile gid="103"/>
   <tile gid="103"/>
   <tile gid="96"/>
   <tile/>
   <tile/>
   <tile gid="2684354668"/>
   <tile gid="1610612844"/>
   <tile/>
   <tile/>
   <tile/>
   <tile/>
   <tile/>
   <tile/>
   <tile/>
   <tile/>
   <tile gid="102"/>
   <tile/>
   <tile/>
   <tile/>
   <tile/>
   <tile/>
   <tile/>
   <tile/>
   <tile/>
   <tile/>
   <tile/>
   <tile/>
   <tile/>
   <tile/>
   <tile/>
   <tile/>
   <tile/>
   <tile/>
   <tile/>
   <tile/>
   <tile/>
   <tile/>
   <tile/>
   <tile/>
   <tile/>
   <tile/>
   <tile/>
   <tile/>
   <tile/>
   <tile/>
   <tile/>
   <tile gid="94"/>
   <tile gid="112"/>
   <tile/>
   <tile/>
   <tile/>
   <tile/>
   <tile/>
   <tile/>
   <tile/>
   <tile/>
   <tile/>
   <tile/>
   <tile/>
   <tile/>
   <tile/>
   <tile/>
   <tile/>
   <tile/>
   <tile/>
   <tile/>
   <tile/>
   <tile/>
   <tile/>
   <tile/>
   <tile/>
   <tile/>
   <tile/>
   <tile/>
   <tile/>
   <tile/>
   <tile/>
   <tile/>
   <tile/>
   <tile/>
   <tile/>
   <tile/>
   <tile/>
   <tile/>
   <tile/>
   <tile/>
   <tile/>
   <tile/>
   <tile/>
   <tile/>
   <tile/>
   <tile/>
   <tile/>
   <tile/>
   <tile/>
   <tile/>
   <tile/>
   <tile/>
   <tile/>
   <tile/>
   <tile/>
   <tile/>
   <tile/>
   <tile/>
   <tile/>
   <tile/>
   <tile/>
   <tile/>
   <tile/>
   <tile/>
   <tile/>
   <tile/>
   <tile/>
   <tile/>
   <tile/>
   <tile/>
   <tile/>
   <tile/>
   <tile/>
   <tile/>
   <tile/>
   <tile/>
   <tile/>
   <tile/>
   <tile/>
   <tile/>
   <tile/>
   <tile/>
   <tile/>
   <tile/>
   <tile/>
   <tile/>
   <tile/>
   <tile/>
   <tile/>
   <tile/>
   <tile/>
   <tile/>
   <tile/>
   <tile/>
   <tile/>
   <tile gid="110"/>
   <tile gid="111"/>
   <tile gid="111"/>
   <tile gid="111"/>
   <tile gid="111"/>
   <tile gid="111"/>
   <tile gid="111"/>
   <tile gid="111"/>
   <tile gid="111"/>
   <tile gid="111"/>
   <tile gid="111"/>
   <tile gid="111"/>
   <tile gid="111"/>
   <tile gid="111"/>
   <tile gid="111"/>
   <tile gid="103"/>
   <tile gid="103"/>
   <tile gid="111"/>
   <tile gid="111"/>
   <tile gid="111"/>
   <tile gid="111"/>
   <tile gid="111"/>
   <tile gid="111"/>
   <tile gid="111"/>
   <tile gid="111"/>
   <tile gid="111"/>
   <tile gid="111"/>
   <tile gid="111"/>
   <tile gid="111"/>
   <tile gid="111"/>
   <tile gid="111"/>
   <tile gid="111"/>
   <tile gid="111"/>
   <tile gid="111"/>
   <tile gid="111"/>
   <tile gid="111"/>
   <tile gid="111"/>
   <tile gid="111"/>
   <tile gid="111"/>
   <tile gid="111"/>
   <tile gid="111"/>
   <tile gid="112"/>
   <tile/>
   <tile/>
   <tile/>
   <tile/>
   <tile/>
   <tile/>
   <tile/>
   <tile/>
   <tile/>
   <tile/>
   <tile/>
   <tile/>
   <tile gid="102"/>
   <tile/>
   <tile/>
   <tile/>
   <tile/>
   <tile/>
   <tile/>
   <tile/>
   <tile/>
   <tile/>
   <tile/>
   <tile/>
   <tile/>
   <tile/>
   <tile/>
   <tile/>
   <tile/>
   <tile/>
   <tile/>
   <tile/>
   <tile/>
   <tile/>
   <tile/>
   <tile/>
   <tile/>
   <tile/>
   <tile/>
   <tile/>
   <tile/>
   <tile/>
   <tile/>
   <tile gid="100"/>
   <tile/>
   <tile/>
   <tile/>
   <tile/>
   <tile/>
   <tile/>
   <tile/>
   <tile/>
   <tile/>
   <tile/>
   <tile/>
   <tile/>
   <tile/>
   <tile/>
   <tile/>
   <tile/>
   <tile/>
   <tile/>
   <tile/>
   <tile/>
   <tile/>
   <tile/>
   <tile/>
   <tile/>
   <tile/>
   <tile/>
   <tile/>
   <tile/>
   <tile/>
   <tile/>
   <tile/>
   <tile/>
   <tile/>
   <tile/>
   <tile/>
   <tile/>
   <tile/>
   <tile/>
   <tile/>
   <tile/>
   <tile/>
   <tile/>
   <tile/>
   <tile/>
   <tile/>
   <tile/>
   <tile/>
   <tile/>
   <tile/>
   <tile/>
   <tile/>
   <tile/>
   <tile/>
   <tile/>
   <tile/>
   <tile/>
   <tile/>
   <tile/>
   <tile/>
   <tile/>
   <tile/>
   <tile/>
   <tile/>
   <tile/>
   <tile/>
   <tile/>
   <tile/>
   <tile/>
   <tile/>
   <tile/>
   <tile/>
   <tile/>
   <tile/>
   <tile/>
   <tile/>
   <tile/>
   <tile/>
   <tile/>
   <tile/>
   <tile/>
   <tile/>
   <tile/>
   <tile/>
   <tile/>
   <tile/>
   <tile/>
   <tile/>
   <tile/>
   <tile/>
   <tile/>
   <tile/>
   <tile/>
   <tile/>
   <tile/>
   <tile/>
   <tile/>
   <tile/>
   <tile/>
   <tile/>
   <tile/>
   <tile/>
   <tile/>
   <tile/>
   <tile/>
   <tile/>
   <tile/>
   <tile/>
   <tile/>
   <tile/>
   <tile gid="102"/>
   <tile gid="104"/>
   <tile/>
   <tile/>
   <tile/>
   <tile/>
   <tile/>
   <tile/>
   <tile/>
   <tile/>
   <tile/>
   <tile/>
   <tile/>
   <tile/>
   <tile/>
   <tile/>
   <tile/>
   <tile/>
   <tile/>
   <tile/>
   <tile/>
   <tile/>
   <tile/>
   <tile/>
   <tile/>
   <tile/>
   <tile/>
   <tile/>
   <tile/>
   <tile/>
   <tile/>
   <tile/>
   <tile/>
   <tile/>
   <tile/>
   <tile/>
   <tile/>
   <tile/>
   <tile/>
   <tile gid="102"/>
   <tile/>
   <tile/>
   <tile/>
   <tile/>
   <tile/>
   <tile/>
   <tile/>
   <tile/>
   <tile/>
   <tile/>
   <tile/>
   <tile/>
   <tile/>
   <tile/>
   <tile/>
   <tile/>
   <tile/>
   <tile/>
   <tile/>
   <tile/>
   <tile/>
   <tile/>
   <tile/>
   <tile/>
   <tile/>
   <tile/>
   <tile/>
   <tile/>
   <tile/>
   <tile gid="94"/>
   <tile gid="104"/>
   <tile/>
   <tile/>
   <tile/>
   <tile/>
   <tile/>
   <tile/>
   <tile/>
   <tile/>
   <tile/>
   <tile/>
   <tile/>
   <tile/>
   <tile/>
   <tile/>
   <tile/>
   <tile/>
   <tile/>
   <tile/>
   <tile/>
   <tile/>
   <tile/>
   <tile/>
   <tile/>
   <tile/>
   <tile/>
   <tile/>
   <tile/>
   <tile/>
   <tile/>
   <tile/>
   <tile/>
   <tile/>
   <tile/>
   <tile/>
   <tile/>
   <tile/>
   <tile/>
   <tile/>
   <tile/>
   <tile/>
   <tile/>
   <tile/>
   <tile/>
   <tile/>
   <tile/>
   <tile/>
   <tile/>
   <tile/>
   <tile/>
   <tile/>
   <tile/>
   <tile/>
   <tile/>
   <tile gid="94"/>
   <tile gid="96"/>
   <tile/>
   <tile/>
   <tile/>
   <tile/>
   <tile/>
   <tile/>
   <tile/>
   <tile/>
   <tile/>
   <tile/>
   <tile/>
   <tile/>
   <tile/>
   <tile/>
   <tile/>
   <tile/>
   <tile/>
   <tile/>
   <tile/>
   <tile/>
   <tile/>
   <tile/>
   <tile/>
   <tile/>
   <tile/>
   <tile/>
   <tile/>
   <tile/>
   <tile/>
   <tile/>
   <tile/>
   <tile/>
   <tile/>
   <tile/>
   <tile/>
   <tile/>
   <tile/>
   <tile/>
   <tile/>
   <tile/>
   <tile/>
   <tile/>
   <tile/>
   <tile/>
   <tile/>
   <tile/>
   <tile/>
   <tile/>
   <tile/>
   <tile/>
   <tile/>
   <tile/>
   <tile/>
   <tile/>
   <tile gid="102"/>
   <tile gid="104"/>
   <tile/>
   <tile/>
   <tile/>
   <tile/>
   <tile/>
   <tile/>
   <tile/>
   <tile/>
   <tile/>
   <tile/>
   <tile/>
   <tile/>
   <tile/>
   <tile/>
   <tile/>
   <tile/>
   <tile/>
   <tile/>
   <tile/>
   <tile/>
   <tile/>
   <tile/>
   <tile/>
   <tile/>
   <tile/>
   <tile/>
   <tile/>
   <tile/>
   <tile/>
   <tile/>
   <tile/>
   <tile/>
   <tile gid="2684354668"/>
   <tile gid="1610612844"/>
   <tile/>
   <tile/>
   <tile/>
   <tile gid="102"/>
   <tile/>
   <tile/>
   <tile/>
   <tile/>
   <tile/>
   <tile/>
   <tile/>
   <tile/>
   <tile/>
   <tile/>
   <tile/>
   <tile/>
   <tile/>
   <tile/>
   <tile/>
   <tile/>
   <tile/>
   <tile/>
   <tile/>
   <tile/>
   <tile/>
   <tile/>
   <tile/>
   <tile/>
   <tile/>
   <tile/>
   <tile/>
   <tile/>
   <tile/>
   <tile gid="102"/>
   <tile gid="104"/>
   <tile/>
   <tile/>
   <tile/>
   <tile/>
   <tile/>
   <tile/>
   <tile/>
   <tile/>
   <tile/>
   <tile/>
   <tile/>
   <tile/>
   <tile/>
   <tile/>
   <tile/>
   <tile/>
   <tile/>
   <tile/>
   <tile/>
   <tile/>
   <tile/>
   <tile/>
   <tile/>
   <tile/>
   <tile/>
   <tile/>
   <tile/>
   <tile/>
   <tile/>
   <tile/>
   <tile/>
   <tile/>
   <tile/>
   <tile/>
   <tile/>
   <tile/>
   <tile/>
   <tile/>
   <tile/>
   <tile/>
   <tile/>
   <tile/>
   <tile/>
   <tile/>
   <tile/>
   <tile/>
   <tile/>
   <tile gid="94"/>
   <tile gid="96"/>
   <tile/>
   <tile/>
   <tile/>
   <tile/>
   <tile gid="102"/>
   <tile gid="104"/>
   <tile/>
   <tile/>
   <tile/>
   <tile/>
   <tile/>
   <tile/>
   <tile/>
   <tile/>
   <tile/>
   <tile/>
   <tile/>
   <tile/>
   <tile/>
   <tile/>
   <tile/>
   <tile/>
   <tile/>
   <tile/>
   <tile/>
   <tile/>
   <tile/>
   <tile/>
   <tile/>
   <tile/>
   <tile/>
   <tile gid="94"/>
   <tile gid="96"/>
   <tile/>
   <tile/>
   <tile/>
   <tile/>
   <tile/>
   <tile/>
   <tile/>
   <tile/>
   <tile/>
   <tile/>
   <tile/>
   <tile/>
   <tile/>
   <tile/>
   <tile/>
   <tile/>
   <tile/>
   <tile/>
   <tile/>
   <tile/>
   <tile/>
   <tile/>
   <tile/>
   <tile/>
   <tile/>
   <tile/>
   <tile/>
   <tile gid="102"/>
   <tile gid="104"/>
   <tile/>
   <tile/>
   <tile/>
   <tile/>
   <tile/>
   <tile/>
   <tile/>
   <tile/>
   <tile/>
   <tile/>
   <tile/>
   <tile/>
   <tile/>
   <tile/>
   <tile/>
   <tile/>
   <tile/>
   <tile/>
   <tile/>
   <tile/>
   <tile/>
   <tile/>
   <tile/>
   <tile/>
   <tile/>
   <tile/>
   <tile/>
   <tile/>
   <tile/>
   <tile/>
   <tile/>
   <tile/>
   <tile/>
   <tile/>
   <tile/>
   <tile/>
   <tile/>
   <tile gid="102"/>
   <tile/>
   <tile/>
   <tile/>
   <tile/>
   <tile/>
   <tile/>
   <tile/>
   <tile/>
   <tile/>
   <tile/>
   <tile/>
   <tile/>
   <tile/>
   <tile/>
   <tile/>
   <tile/>
   <tile/>
   <tile/>
   <tile/>
   <tile/>
   <tile/>
   <tile/>
   <tile/>
   <tile/>
   <tile/>
   <tile/>
   <tile/>
   <tile/>
   <tile gid="94"/>
   <tile gid="114"/>
   <tile gid="104"/>
   <tile/>
   <tile/>
   <tile/>
   <tile/>
   <tile/>
   <tile/>
   <tile/>
   <tile/>
   <tile/>
   <tile/>
   <tile/>
   <tile/>
   <tile/>
   <tile/>
   <tile/>
   <tile/>
   <tile/>
   <tile/>
   <tile/>
   <tile/>
   <tile/>
   <tile/>
   <tile/>
   <tile/>
   <tile/>
   <tile/>
   <tile/>
   <tile/>
   <tile/>
   <tile/>
   <tile/>
   <tile/>
   <tile/>
   <tile/>
   <tile/>
   <tile/>
   <tile/>
   <tile/>
   <tile/>
   <tile gid="120"/>
   <tile gid="121"/>
   <tile gid="98"/>
   <tile gid="2147483770"/>
   <tile gid="2147483768"/>
   <tile/>
   <tile/>
   <tile/>
   <tile gid="102"/>
   <tile gid="104"/>
   <tile/>
   <tile/>
   <tile/>
   <tile/>
   <tile gid="102"/>
   <tile gid="104"/>
   <tile/>
   <tile/>
   <tile/>
   <tile/>
   <tile/>
   <tile gid="94"/>
   <tile gid="96"/>
   <tile/>
   <tile/>
   <tile/>
   <tile/>
   <tile/>
   <tile/>
   <tile/>
   <tile/>
   <tile/>
   <tile/>
   <tile/>
   <tile/>
   <tile/>
   <tile/>
   <tile/>
   <tile/>
   <tile/>
   <tile/>
   <tile gid="102"/>
   <tile gid="103"/>
   <tile gid="95"/>
   <tile gid="95"/>
   <tile/>
   <tile/>
   <tile/>
   <tile/>
   <tile/>
   <tile/>
   <tile/>
   <tile/>
   <tile/>
   <tile/>
   <tile/>
   <tile/>
   <tile/>
   <tile/>
   <tile/>
   <tile/>
   <tile/>
   <tile/>
   <tile/>
   <tile/>
   <tile/>
   <tile/>
   <tile/>
   <tile/>
   <tile/>
   <tile gid="102"/>
   <tile gid="104"/>
   <tile/>
   <tile/>
   <tile/>
   <tile/>
   <tile/>
   <tile/>
   <tile/>
   <tile/>
   <tile/>
   <tile/>
   <tile/>
   <tile/>
   <tile/>
   <tile/>
   <tile/>
   <tile/>
   <tile/>
   <tile/>
   <tile/>
   <tile/>
   <tile/>
   <tile/>
   <tile/>
   <tile/>
   <tile/>
   <tile/>
   <tile/>
   <tile/>
   <tile/>
   <tile/>
   <tile/>
   <tile/>
   <tile/>
   <tile/>
   <tile/>
   <tile/>
   <tile/>
   <tile gid="102"/>
   <tile/>
   <tile/>
   <tile/>
   <tile/>
   <tile/>
   <tile/>
   <tile/>
   <tile/>
   <tile/>
   <tile/>
   <tile/>
   <tile/>
   <tile/>
   <tile/>
   <tile/>
   <tile/>
   <tile/>
   <tile/>
   <tile/>
   <tile/>
   <tile/>
   <tile/>
   <tile/>
   <tile/>
   <tile/>
   <tile/>
   <tile/>
   <tile/>
   <tile gid="102"/>
   <tile gid="103"/>
   <tile gid="104"/>
   <tile/>
   <tile/>
   <tile/>
   <tile/>
   <tile/>
   <tile/>
   <tile/>
   <tile/>
   <tile/>
   <tile/>
   <tile/>
   <tile/>
   <tile/>
   <tile/>
   <tile/>
   <tile/>
   <tile/>
   <tile/>
   <tile/>
   <tile/>
   <tile/>
   <tile/>
   <tile/>
   <tile/>
   <tile/>
   <tile/>
   <tile/>
   <tile/>
   <tile/>
   <tile/>
   <tile/>
   <tile/>
   <tile/>
   <tile/>
   <tile/>
   <tile/>
   <tile gid="94"/>
   <tile gid="95"/>
   <tile gid="95"/>
   <tile gid="128"/>
   <tile gid="129"/>
   <tile gid="103"/>
   <tile gid="2147483777"/>
   <tile gid="2147483776"/>
   <tile gid="98"/>
   <tile gid="97"/>
   <tile gid="97"/>
   <tile gid="114"/>
   <tile gid="103"/>
   <tile gid="98"/>
   <tile gid="97"/>
   <tile gid="97"/>
   <tile gid="97"/>
   <tile gid="114"/>
   <tile gid="113"/>
   <tile gid="97"/>
   <tile gid="97"/>
   <tile gid="98"/>
   <tile gid="97"/>
   <tile gid="97"/>
   <tile gid="105"/>
   <tile gid="103"/>
   <tile gid="95"/>
   <tile gid="97"/>
   <tile gid="98"/>
   <tile gid="98"/>
   <tile gid="97"/>
   <tile gid="96"/>
   <tile/>
   <tile/>
   <tile/>
   <tile/>
   <tile/>
   <tile/>
   <tile/>
   <tile/>
   <tile/>
   <tile/>
   <tile/>
   <tile/>
   <tile gid="102"/>
   <tile gid="104"/>
   <tile/>
   <tile/>
   <tile/>
   <tile/>
   <tile/>
   <tile/>
   <tile/>
   <tile/>
   <tile/>
   <tile/>
   <tile/>
   <tile/>
   <tile/>
   <tile/>
   <tile/>
   <tile/>
   <tile/>
   <tile/>
   <tile/>
   <tile/>
   <tile/>
   <tile/>
   <tile/>
   <tile/>
   <tile/>
   <tile/>
   <tile/>
   <tile gid="102"/>
   <tile gid="104"/>
   <tile/>
   <tile/>
   <tile/>
   <tile/>
   <tile/>
   <tile/>
   <tile/>
   <tile/>
   <tile/>
   <tile/>
   <tile/>
   <tile/>
   <tile/>
   <tile gid="94"/>
   <tile gid="98"/>
   <tile gid="97"/>
   <tile gid="98"/>
   <tile gid="95"/>
   <tile gid="97"/>
   <tile gid="95"/>
   <tile gid="95"/>
   <tile gid="98"/>
   <tile gid="95"/>
   <tile gid="95"/>
   <tile gid="97"/>
   <tile gid="98"/>
   <tile gid="98"/>
   <tile gid="97"/>
   <tile gid="98"/>
   <tile gid="97"/>
   <tile gid="96"/>
   <tile/>
   <tile/>
   <tile/>
   <tile/>
   <tile/>
   <tile/>
   <tile gid="102"/>
   <tile/>
   <tile/>
   <tile/>
   <tile/>
   <tile/>
   <tile/>
   <tile/>
   <tile/>
   <tile/>
   <tile/>
   <tile/>
   <tile/>
   <tile/>
   <tile/>
   <tile/>
   <tile/>
   <tile/>
   <tile/>
   <tile/>
   <tile/>
   <tile/>
   <tile/>
   <tile/>
   <tile/>
   <tile/>
   <tile/>
   <tile/>
   <tile gid="94"/>
   <tile gid="103"/>
   <tile gid="103"/>
   <tile gid="103"/>
   <tile gid="3221225583"/>
   <tile gid="3221225583"/>
   <tile gid="3221225583"/>
   <tile gid="3221225583"/>
   <tile gid="3221225583"/>
   <tile gid="3221225582"/>
   <tile/>
   <tile/>
   <tile/>
   <tile/>
   <tile/>
   <tile/>
   <tile/>
   <tile/>
   <tile/>
   <tile/>
   <tile/>
   <tile/>
   <tile/>
   <tile/>
   <tile/>
   <tile/>
   <tile/>
   <tile/>
   <tile/>
   <tile/>
   <tile/>
   <tile/>
   <tile/>
   <tile/>
   <tile/>
   <tile/>
   <tile/>
   <tile/>
   <tile/>
   <tile/>
   <tile gid="110"/>
   <tile gid="103"/>
   <tile gid="114"/>
   <tile gid="103"/>
   <tile gid="113"/>
   <tile gid="113"/>
   <tile gid="105"/>
   <tile gid="103"/>
   <tile gid="113"/>
   <tile gid="106"/>
   <tile gid="113"/>
   <tile gid="103"/>
   <tile gid="114"/>
   <tile gid="103"/>
   <tile gid="106"/>
   <tile gid="105"/>
   <tile gid="114"/>
   <tile gid="105"/>
   <tile gid="105"/>
   <tile gid="103"/>
   <tile gid="103"/>
   <tile gid="105"/>
   <tile gid="106"/>
   <tile gid="113"/>
   <tile gid="114"/>
   <tile gid="114"/>
   <tile gid="105"/>
   <tile gid="105"/>
   <tile gid="114"/>
   <tile gid="106"/>
   <tile gid="103"/>
   <tile gid="104"/>
   <tile/>
   <tile/>
   <tile/>
   <tile/>
   <tile/>
   <tile/>
   <tile/>
   <tile/>
   <tile/>
   <tile/>
   <tile gid="95"/>
   <tile gid="95"/>
   <tile gid="103"/>
   <tile gid="104"/>
   <tile/>
   <tile/>
   <tile/>
   <tile/>
   <tile/>
   <tile/>
   <tile/>
   <tile/>
   <tile/>
   <tile/>
   <tile/>
   <tile/>
   <tile/>
   <tile/>
   <tile/>
   <tile/>
   <tile/>
   <tile/>
   <tile/>
   <tile/>
   <tile/>
   <tile/>
   <tile gid="94"/>
   <tile gid="96"/>
   <tile/>
   <tile/>
   <tile/>
   <tile gid="110"/>
   <tile gid="112"/>
   <tile/>
   <tile/>
   <tile/>
   <tile gid="94"/>
   <tile gid="96"/>
   <tile/>
   <tile/>
   <tile/>
   <tile/>
   <tile/>
   <tile/>
   <tile gid="3758096492"/>
   <tile gid="2684354660"/>
   <tile gid="111"/>
   <tile gid="111"/>
   <tile gid="111"/>
   <tile gid="111"/>
   <tile gid="111"/>
   <tile gid="111"/>
   <tile gid="111"/>
   <tile gid="111"/>
   <tile gid="111"/>
   <tile gid="111"/>
   <tile gid="111"/>
   <tile gid="111"/>
   <tile gid="111"/>
   <tile gid="111"/>
   <tile gid="111"/>
   <tile gid="111"/>
   <tile gid="111"/>
   <tile gid="111"/>
   <tile gid="536871012"/>
   <tile gid="1610612844"/>
   <tile/>
   <tile/>
   <tile/>
   <tile/>
   <tile gid="102"/>
   <tile/>
   <tile/>
   <tile/>
   <tile/>
   <tile/>
   <tile/>
   <tile/>
   <tile/>
   <tile/>
   <tile/>
   <tile/>
   <tile/>
   <tile/>
   <tile/>
   <tile/>
   <tile/>
   <tile/>
   <tile/>
   <tile/>
   <tile/>
   <tile/>
   <tile/>
   <tile/>
   <tile/>
   <tile/>
   <tile/>
   <tile/>
   <tile gid="102"/>
   <tile gid="103"/>
   <tile gid="103"/>
   <tile gid="103"/>
   <tile gid="105"/>
   <tile gid="114"/>
   <tile gid="105"/>
   <tile gid="113"/>
   <tile gid="111"/>
   <tile gid="101"/>
   <tile/>
   <tile/>
   <tile/>
   <tile/>
   <tile/>
   <tile/>
   <tile/>
   <tile/>
   <tile/>
   <tile/>
   <tile/>
   <tile/>
   <tile/>
   <tile/>
   <tile/>
   <tile/>
   <tile/>
   <tile/>
   <tile/>
   <tile/>
   <tile/>
   <tile/>
   <tile/>
   <tile/>
   <tile/>
   <tile/>
   <tile/>
   <tile gid="94"/>
   <tile gid="96"/>
   <tile/>
   <tile/>
   <tile gid="110"/>
   <tile gid="111"/>
   <tile gid="1610612838"/>
   <tile gid="111"/>
   <tile gid="111"/>
   <tile gid="111"/>
   <tile gid="111"/>
   <tile gid="1610612838"/>
   <tile gid="111"/>
   <tile gid="111"/>
   <tile gid="2684354664"/>
   <tile gid="111"/>
   <tile gid="111"/>
   <tile gid="2684354664"/>
   <tile gid="2684354664"/>
   <tile gid="111"/>
   <tile gid="111"/>
   <tile gid="111"/>
   <tile gid="2684354664"/>
   <tile gid="111"/>
   <tile gid="111"/>
   <tile gid="2684354664"/>
   <tile gid="111"/>
   <tile gid="111"/>
   <tile gid="1610612838"/>
   <tile gid="111"/>
   <tile gid="111"/>
   <tile gid="1610612838"/>
   <tile gid="2684354664"/>
   <tile gid="111"/>
   <tile gid="112"/>
   <tile/>
   <tile/>
   <tile/>
   <tile/>
   <tile/>
   <tile/>
   <tile/>
   <tile/>
   <tile/>
   <tile/>
   <tile/>
   <tile/>
   <tile gid="102"/>
   <tile gid="104"/>
   <tile/>
   <tile/>
   <tile/>
   <tile/>
   <tile/>
   <tile/>
   <tile/>
   <tile/>
   <tile/>
   <tile/>
   <tile/>
   <tile/>
   <tile/>
   <tile/>
   <tile/>
   <tile/>
   <tile/>
   <tile/>
   <tile/>
   <tile/>
   <tile/>
   <tile/>
   <tile gid="102"/>
   <tile gid="104"/>
   <tile/>
   <tile/>
   <tile/>
   <tile/>
   <tile/>
   <tile/>
   <tile/>
   <tile/>
   <tile gid="102"/>
   <tile gid="104"/>
   <tile/>
   <tile/>
   <tile/>
   <tile/>
   <tile/>
   <tile/>
   <tile/>
   <tile/>
   <tile/>
   <tile/>
   <tile/>
   <tile/>
   <tile/>
   <tile/>
   <tile/>
   <tile/>
   <tile/>
   <tile/>
   <tile/>
   <tile/>
   <tile/>
   <tile/>
   <tile/>
   <tile/>
   <tile/>
   <tile/>
   <tile/>
   <tile/>
   <tile/>
   <tile/>
   <tile/>
   <tile/>
   <tile gid="102"/>
   <tile/>
   <tile/>
   <tile/>
   <tile/>
   <tile/>
   <tile/>
   <tile/>
   <tile/>
   <tile/>
   <tile/>
   <tile/>
   <tile/>
   <tile/>
   <tile/>
   <tile/>
   <tile/>
   <tile/>
   <tile/>
   <tile/>
   <tile/>
   <tile/>
   <tile/>
   <tile/>
   <tile/>
   <tile/>
   <tile/>
   <tile/>
   <tile gid="102"/>
   <tile gid="103"/>
   <tile gid="103"/>
   <tile gid="103"/>
   <tile gid="114"/>
   <tile gid="114"/>
   <tile gid="111"/>
   <tile gid="93"/>
   <tile/>
   <tile/>
   <tile/>
   <tile/>
   <tile/>
   <tile/>
   <tile/>
   <tile/>
   <tile/>
   <tile/>
   <tile/>
   <tile/>
   <tile/>
   <tile/>
   <tile/>
   <tile/>
   <tile/>
   <tile/>
   <tile/>
   <tile/>
   <tile/>
   <tile/>
   <tile/>
   <tile/>
   <tile/>
   <tile/>
   <tile/>
   <tile/>
   <tile/>
   <tile gid="102"/>
   <tile gid="104"/>
   <tile/>
   <tile/>
   <tile/>
   <tile/>
   <tile/>
   <tile/>
   <tile/>
   <tile/>
   <tile/>
   <tile/>
   <tile/>
   <tile/>
   <tile/>
   <tile/>
   <tile/>
   <tile/>
   <tile/>
   <tile/>
   <tile/>
   <tile/>
   <tile/>
   <tile/>
   <tile/>
   <tile/>
   <tile/>
   <tile/>
   <tile/>
   <tile/>
   <tile/>
   <tile/>
   <tile/>
   <tile/>
   <tile/>
   <tile/>
   <tile/>
   <tile/>
   <tile/>
   <tile/>
   <tile/>
   <tile/>
   <tile/>
   <tile/>
   <tile/>
   <tile/>
   <tile/>
   <tile gid="102"/>
   <tile gid="104"/>
   <tile/>
   <tile/>
   <tile/>
   <tile gid="95"/>
   <tile gid="95"/>
   <tile/>
   <tile/>
   <tile/>
   <tile/>
   <tile/>
   <tile/>
   <tile/>
   <tile/>
   <tile/>
   <tile/>
   <tile/>
   <tile/>
   <tile/>
   <tile/>
   <tile/>
   <tile/>
   <tile gid="2684354668"/>
   <tile gid="106"/>
   <tile gid="106"/>
   <tile gid="1610612844"/>
   <tile/>
   <tile/>
   <tile/>
   <tile/>
   <tile/>
   <tile/>
   <tile gid="2684354668"/>
   <tile gid="106"/>
   <tile gid="106"/>
   <tile gid="1610612844"/>
   <tile/>
   <tile/>
   <tile/>
   <tile/>
   <tile/>
   <tile/>
   <tile/>
   <tile/>
   <tile/>
   <tile/>
   <tile/>
   <tile/>
   <tile/>
   <tile/>
   <tile/>
   <tile/>
   <tile/>
   <tile/>
   <tile/>
   <tile/>
   <tile/>
   <tile/>
   <tile/>
   <tile/>
   <tile/>
   <tile/>
   <tile/>
   <tile/>
   <tile/>
   <tile gid="94"/>
   <tile gid="95"/>
   <tile gid="103"/>
   <tile/>
   <tile/>
   <tile/>
   <tile/>
   <tile/>
   <tile/>
   <tile/>
   <tile/>
   <tile/>
   <tile/>
   <tile/>
   <tile/>
   <tile/>
   <tile/>
   <tile/>
   <tile/>
   <tile/>
   <tile/>
   <tile/>
   <tile/>
   <tile/>
   <tile/>
   <tile/>
   <tile/>
   <tile/>
   <tile/>
   <tile/>
   <tile gid="2147483757"/>
   <tile gid="111"/>
   <tile gid="111"/>
   <tile gid="111"/>
   <tile gid="111"/>
   <tile gid="109"/>
   <tile/>
   <tile/>
   <tile/>
   <tile/>
   <tile/>
   <tile/>
   <tile/>
   <tile/>
   <tile/>
   <tile/>
   <tile/>
   <tile/>
   <tile/>
   <tile/>
   <tile/>
   <tile/>
   <tile/>
   <tile/>
   <tile/>
   <tile/>
   <tile/>
   <tile/>
   <tile/>
   <tile/>
   <tile/>
   <tile/>
   <tile/>
   <tile/>
   <tile/>
   <tile/>
   <tile gid="2684354668"/>
   <tile gid="103"/>
   <tile gid="104"/>
   <tile/>
   <tile/>
   <tile/>
   <tile/>
   <tile/>
   <tile/>
   <tile/>
   <tile/>
   <tile/>
   <tile/>
   <tile/>
   <tile/>
   <tile/>
   <tile/>
   <tile/>
   <tile/>
   <tile/>
   <tile/>
   <tile/>
   <tile/>
   <tile/>
   <tile/>
   <tile/>
   <tile/>
   <tile/>
   <tile/>
   <tile/>
   <tile/>
   <tile/>
   <tile/>
   <tile/>
   <tile/>
   <tile/>
   <tile/>
   <tile/>
   <tile/>
   <tile/>
   <tile/>
   <tile/>
   <tile/>
   <tile/>
   <tile/>
   <tile/>
   <tile/>
   <tile/>
   <tile gid="102"/>
   <tile gid="104"/>
   <tile/>
   <tile/>
   <tile/>
   <tile/>
   <tile/>
   <tile/>
   <tile/>
   <tile/>
   <tile/>
   <tile/>
   <tile/>
   <tile/>
   <tile/>
   <tile/>
   <tile/>
   <tile/>
   <tile/>
   <tile/>
   <tile/>
   <tile/>
   <tile/>
   <tile/>
   <tile gid="102"/>
   <tile gid="104"/>
   <tile/>
   <tile/>
   <tile/>
   <tile/>
   <tile/>
   <tile/>
   <tile/>
   <tile/>
   <tile gid="102"/>
   <tile gid="104"/>
   <tile/>
   <tile/>
   <tile/>
   <tile/>
   <tile/>
   <tile/>
   <tile/>
   <tile/>
   <tile/>
   <tile/>
   <tile/>
   <tile/>
   <tile/>
   <tile/>
   <tile/>
   <tile/>
   <tile/>
   <tile/>
   <tile/>
   <tile/>
   <tile/>
   <tile/>
   <tile/>
   <tile/>
   <tile/>
   <tile/>
   <tile/>
   <tile/>
   <tile/>
   <tile/>
   <tile/>
   <tile/>
   <tile gid="102"/>
   <tile/>
   <tile/>
   <tile/>
   <tile/>
   <tile/>
   <tile/>
   <tile/>
   <tile/>
   <tile/>
   <tile/>
   <tile/>
   <tile/>
   <tile/>
   <tile/>
   <tile/>
   <tile/>
   <tile/>
   <tile/>
   <tile/>
   <tile/>
   <tile/>
   <tile/>
   <tile/>
   <tile/>
   <tile/>
   <tile/>
   <tile/>
   <tile/>
   <tile/>
   <tile/>
   <tile/>
   <tile/>
   <tile/>
   <tile/>
   <tile/>
   <tile/>
   <tile/>
   <tile/>
   <tile/>
   <tile/>
   <tile/>
   <tile/>
   <tile/>
   <tile/>
   <tile/>
   <tile/>
   <tile/>
   <tile/>
   <tile/>
   <tile/>
   <tile/>
   <tile/>
   <tile/>
   <tile/>
   <tile/>
   <tile/>
   <tile/>
   <tile/>
   <tile/>
   <tile/>
   <tile/>
   <tile/>
   <tile/>
   <tile/>
   <tile gid="102"/>
   <tile gid="104"/>
   <tile/>
   <tile/>
   <tile/>
   <tile/>
   <tile/>
   <tile/>
   <tile/>
   <tile/>
   <tile/>
   <tile/>
   <tile/>
   <tile/>
   <tile/>
   <tile/>
   <tile/>
   <tile/>
   <tile/>
   <tile/>
   <tile/>
   <tile/>
   <tile/>
   <tile/>
   <tile/>
   <tile/>
   <tile/>
   <tile/>
   <tile/>
   <tile/>
   <tile/>
   <tile/>
   <tile/>
   <tile/>
   <tile/>
   <tile/>
   <tile/>
   <tile/>
   <tile/>
   <tile/>
   <tile/>
   <tile/>
   <tile gid="95"/>
   <tile gid="95"/>
   <tile/>
   <tile/>
   <tile/>
   <tile gid="102"/>
   <tile gid="104"/>
   <tile/>
   <tile/>
   <tile/>
   <tile/>
   <tile/>
   <tile/>
   <tile/>
   <tile/>
   <tile/>
   <tile/>
   <tile/>
   <tile/>
   <tile/>
   <tile/>
   <tile/>
   <tile/>
   <tile/>
   <tile/>
   <tile/>
   <tile/>
   <tile/>
   <tile/>
   <tile gid="102"/>
   <tile gid="104"/>
   <tile/>
   <tile/>
   <tile/>
   <tile/>
   <tile/>
   <tile/>
   <tile/>
   <tile/>
   <tile gid="102"/>
   <tile gid="104"/>
   <tile/>
   <tile/>
   <tile/>
   <tile/>
   <tile/>
   <tile/>
   <tile/>
   <tile/>
   <tile/>
   <tile/>
   <tile/>
   <tile/>
   <tile/>
   <tile/>
   <tile/>
   <tile/>
   <tile/>
   <tile/>
   <tile/>
   <tile/>
   <tile/>
   <tile/>
   <tile/>
   <tile/>
   <tile/>
   <tile/>
   <tile/>
   <tile/>
   <tile/>
   <tile/>
   <tile/>
   <tile/>
   <tile gid="102"/>
   <tile/>
   <tile/>
   <tile/>
   <tile/>
   <tile/>
   <tile/>
   <tile/>
   <tile/>
   <tile/>
   <tile/>
   <tile/>
   <tile/>
   <tile/>
   <tile/>
   <tile/>
   <tile/>
   <tile/>
   <tile/>
   <tile/>
   <tile/>
   <tile/>
   <tile/>
   <tile/>
   <tile/>
   <tile/>
   <tile/>
   <tile/>
   <tile/>
   <tile/>
   <tile/>
   <tile/>
   <tile/>
   <tile/>
   <tile/>
   <tile/>
   <tile/>
   <tile/>
   <tile/>
   <tile/>
   <tile/>
   <tile/>
   <tile/>
   <tile/>
   <tile/>
   <tile/>
   <tile/>
   <tile/>
   <tile/>
   <tile/>
   <tile/>
   <tile/>
   <tile/>
   <tile/>
   <tile/>
   <tile/>
   <tile/>
   <tile/>
   <tile/>
   <tile/>
   <tile gid="86"/>
   <tile gid="88"/>
   <tile/>
   <tile/>
   <tile/>
   <tile gid="102"/>
   <tile gid="104"/>
   <tile/>
   <tile/>
   <tile/>
   <tile/>
   <tile/>
   <tile/>
   <tile/>
   <tile/>
   <tile/>
   <tile/>
   <tile/>
   <tile/>
   <tile/>
   <tile/>
   <tile/>
   <tile/>
   <tile/>
   <tile/>
   <tile/>
   <tile/>
   <tile/>
   <tile/>
   <tile/>
   <tile/>
   <tile/>
   <tile/>
   <tile/>
   <tile/>
   <tile/>
   <tile/>
   <tile/>
   <tile/>
   <tile/>
   <tile/>
   <tile/>
   <tile/>
   <tile/>
   <tile/>
   <tile/>
   <tile/>
   <tile/>
   <tile/>
   <tile/>
   <tile/>
   <tile/>
   <tile gid="102"/>
   <tile gid="103"/>
   <tile gid="95"/>
   <tile gid="95"/>
   <tile/>
   <tile/>
   <tile/>
   <tile/>
   <tile/>
   <tile/>
   <tile/>
   <tile gid="94"/>
   <tile gid="98"/>
   <tile gid="95"/>
   <tile gid="97"/>
   <tile gid="98"/>
   <tile gid="95"/>
   <tile gid="95"/>
   <tile gid="98"/>
   <tile gid="97"/>
   <tile gid="95"/>
   <tile gid="98"/>
   <tile gid="98"/>
   <tile gid="98"/>
   <tile gid="105"/>
   <tile gid="106"/>
   <tile gid="95"/>
   <tile gid="98"/>
   <tile gid="98"/>
   <tile gid="95"/>
   <tile gid="97"/>
   <tile gid="98"/>
   <tile gid="98"/>
   <tile gid="97"/>
   <tile gid="103"/>
   <tile gid="106"/>
   <tile gid="98"/>
   <tile gid="95"/>
   <tile gid="98"/>
   <tile gid="98"/>
   <tile gid="98"/>
   <tile gid="95"/>
   <tile gid="98"/>
   <tile gid="95"/>
   <tile gid="95"/>
   <tile gid="97"/>
   <tile gid="98"/>
   <tile gid="98"/>
   <tile gid="97"/>
   <tile gid="98"/>
   <tile gid="97"/>
   <tile gid="98"/>
   <tile gid="98"/>
   <tile gid="95"/>
   <tile gid="95"/>
   <tile gid="97"/>
   <tile gid="95"/>
   <tile gid="97"/>
   <tile gid="95"/>
   <tile gid="95"/>
   <tile gid="97"/>
   <tile gid="95"/>
   <tile gid="95"/>
   <tile gid="98"/>
   <tile gid="97"/>
   <tile gid="98"/>
   <tile gid="95"/>
   <tile gid="98"/>
   <tile gid="103"/>
   <tile/>
   <tile/>
   <tile/>
   <tile/>
   <tile/>
   <tile/>
   <tile/>
   <tile/>
   <tile/>
   <tile/>
   <tile/>
   <tile/>
   <tile/>
   <tile/>
   <tile/>
   <tile/>
   <tile/>
   <tile/>
   <tile/>
   <tile/>
   <tile/>
   <tile/>
   <tile/>
   <tile/>
   <tile/>
   <tile/>
   <tile/>
   <tile/>
   <tile/>
   <tile/>
   <tile/>
   <tile/>
   <tile/>
   <tile/>
   <tile/>
   <tile/>
   <tile/>
   <tile/>
   <tile/>
   <tile/>
   <tile/>
   <tile/>
   <tile/>
   <tile/>
   <tile/>
   <tile/>
   <tile/>
   <tile/>
   <tile/>
   <tile/>
   <tile/>
   <tile/>
   <tile/>
   <tile/>
   <tile/>
   <tile/>
   <tile/>
   <tile/>
   <tile/>
   <tile/>
   <tile/>
   <tile/>
   <tile/>
   <tile/>
   <tile gid="102"/>
   <tile gid="104"/>
   <tile/>
   <tile/>
   <tile/>
   <tile/>
   <tile/>
   <tile/>
   <tile/>
   <tile/>
   <tile/>
   <tile/>
   <tile/>
   <tile/>
   <tile/>
   <tile/>
   <tile/>
   <tile/>
   <tile/>
   <tile/>
   <tile/>
   <tile/>
   <tile/>
   <tile/>
   <tile/>
   <tile/>
   <tile/>
   <tile/>
   <tile/>
   <tile/>
   <tile/>
   <tile/>
   <tile/>
   <tile/>
   <tile/>
   <tile/>
   <tile/>
   <tile/>
   <tile/>
   <tile/>
   <tile/>
   <tile/>
   <tile/>
   <tile/>
   <tile/>
   <tile/>
   <tile/>
   <tile gid="102"/>
   <tile gid="104"/>
   <tile/>
   <tile/>
   <tile/>
   <tile/>
   <tile/>
   <tile/>
   <tile/>
   <tile/>
   <tile/>
   <tile gid="110"/>
   <tile gid="111"/>
   <tile gid="111"/>
   <tile gid="111"/>
   <tile gid="111"/>
   <tile gid="111"/>
   <tile gid="111"/>
   <tile gid="111"/>
   <tile gid="111"/>
   <tile gid="111"/>
   <tile gid="111"/>
   <tile gid="111"/>
   <tile gid="111"/>
   <tile gid="111"/>
   <tile gid="111"/>
   <tile gid="111"/>
   <tile gid="111"/>
   <tile gid="111"/>
   <tile gid="111"/>
   <tile gid="111"/>
   <tile gid="111"/>
   <tile gid="111"/>
   <tile gid="111"/>
   <tile gid="111"/>
   <tile gid="111"/>
   <tile gid="111"/>
   <tile gid="103"/>
   <tile gid="114"/>
   <tile gid="105"/>
   <tile gid="114"/>
   <tile gid="105"/>
   <tile gid="105"/>
   <tile gid="113"/>
   <tile gid="114"/>
   <tile gid="113"/>
   <tile gid="103"/>
   <tile gid="106"/>
   <tile gid="103"/>
   <tile gid="114"/>
   <tile gid="103"/>
   <tile gid="113"/>
   <tile gid="113"/>
   <tile gid="105"/>
   <tile gid="103"/>
   <tile gid="2147483750"/>
   <tile/>
   <tile/>
   <tile/>
   <tile/>
   <tile/>
   <tile/>
   <tile/>
   <tile/>
   <tile/>
   <tile/>
   <tile/>
   <tile/>
   <tile gid="102"/>
   <tile/>
   <tile/>
   <tile/>
   <tile/>
   <tile/>
   <tile/>
   <tile/>
   <tile/>
   <tile/>
   <tile/>
   <tile/>
   <tile/>
   <tile/>
   <tile/>
   <tile/>
   <tile/>
   <tile/>
   <tile/>
   <tile/>
   <tile/>
   <tile/>
   <tile/>
   <tile/>
   <tile/>
   <tile/>
   <tile/>
   <tile/>
   <tile/>
   <tile/>
   <tile/>
   <tile/>
   <tile/>
   <tile/>
   <tile/>
   <tile/>
   <tile/>
   <tile/>
   <tile/>
   <tile/>
   <tile/>
   <tile/>
   <tile/>
   <tile/>
   <tile/>
   <tile/>
   <tile/>
   <tile/>
   <tile/>
   <tile/>
   <tile/>
   <tile/>
   <tile/>
   <tile/>
   <tile/>
   <tile/>
   <tile/>
   <tile/>
   <tile/>
   <tile/>
   <tile/>
   <tile/>
   <tile/>
   <tile/>
   <tile/>
   <tile gid="102"/>
   <tile gid="104"/>
   <tile/>
   <tile/>
   <tile/>
   <tile/>
   <tile/>
   <tile/>
   <tile/>
   <tile/>
   <tile/>
   <tile/>
   <tile/>
   <tile/>
   <tile/>
   <tile/>
   <tile/>
   <tile/>
   <tile/>
   <tile/>
   <tile/>
   <tile/>
   <tile/>
   <tile/>
   <tile/>
   <tile/>
   <tile/>
   <tile/>
   <tile/>
   <tile/>
   <tile/>
   <tile/>
   <tile/>
   <tile/>
   <tile/>
   <tile/>
   <tile/>
   <tile/>
   <tile/>
   <tile/>
   <tile/>
   <tile/>
   <tile/>
   <tile/>
   <tile/>
   <tile/>
   <tile/>
   <tile gid="102"/>
   <tile gid="104"/>
   <tile/>
   <tile/>
   <tile/>
   <tile/>
   <tile/>
   <tile/>
   <tile/>
   <tile/>
   <tile/>
   <tile/>
   <tile/>
   <tile/>
   <tile/>
   <tile/>
   <tile/>
   <tile/>
   <tile/>
   <tile/>
   <tile/>
   <tile/>
   <tile/>
   <tile/>
   <tile/>
   <tile/>
   <tile/>
   <tile/>
   <tile/>
   <tile/>
   <tile/>
   <tile/>
   <tile/>
   <tile/>
   <tile/>
   <tile/>
   <tile/>
   <tile gid="2147483741"/>
   <tile gid="105"/>
   <tile gid="103"/>
   <tile gid="105"/>
   <tile gid="106"/>
   <tile gid="103"/>
   <tile gid="114"/>
   <tile gid="106"/>
   <tile gid="105"/>
   <tile gid="105"/>
   <tile gid="114"/>
   <tile gid="103"/>
   <tile gid="114"/>
   <tile gid="105"/>
   <tile gid="103"/>
   <tile gid="105"/>
   <tile gid="113"/>
   <tile gid="103"/>
   <tile gid="2147483750"/>
   <tile/>
   <tile/>
   <tile/>
   <tile/>
   <tile/>
   <tile/>
   <tile/>
   <tile/>
   <tile/>
   <tile/>
   <tile/>
   <tile/>
   <tile gid="102"/>
   <tile/>
   <tile/>
   <tile/>
   <tile/>
   <tile/>
   <tile/>
   <tile/>
   <tile/>
   <tile/>
   <tile/>
   <tile/>
   <tile/>
   <tile/>
   <tile/>
   <tile/>
   <tile/>
   <tile/>
   <tile/>
   <tile/>
   <tile/>
   <tile/>
   <tile/>
   <tile/>
   <tile/>
   <tile/>
   <tile/>
   <tile/>
   <tile/>
   <tile/>
   <tile/>
   <tile/>
   <tile/>
   <tile/>
   <tile/>
   <tile/>
   <tile/>
   <tile/>
   <tile/>
   <tile/>
   <tile/>
   <tile/>
   <tile/>
   <tile/>
   <tile/>
   <tile/>
   <tile/>
   <tile/>
   <tile/>
   <tile/>
   <tile/>
   <tile/>
   <tile/>
   <tile/>
   <tile/>
   <tile/>
   <tile gid="86"/>
   <tile gid="88"/>
   <tile/>
   <tile/>
   <tile/>
   <tile/>
   <tile/>
   <tile/>
   <tile/>
   <tile gid="102"/>
   <tile gid="104"/>
   <tile/>
   <tile/>
   <tile/>
   <tile/>
   <tile/>
   <tile/>
   <tile/>
   <tile/>
   <tile/>
   <tile/>
   <tile/>
   <tile/>
   <tile/>
   <tile/>
   <tile/>
   <tile/>
   <tile/>
   <tile/>
   <tile/>
   <tile/>
   <tile/>
   <tile/>
   <tile/>
   <tile/>
   <tile/>
   <tile/>
   <tile/>
   <tile/>
   <tile/>
   <tile/>
   <tile/>
   <tile/>
   <tile/>
   <tile/>
   <tile/>
   <tile/>
   <tile/>
   <tile/>
   <tile/>
   <tile/>
   <tile/>
   <tile/>
   <tile/>
   <tile/>
   <tile/>
   <tile gid="102"/>
   <tile gid="104"/>
   <tile/>
   <tile/>
   <tile/>
   <tile/>
   <tile/>
   <tile/>
   <tile/>
   <tile/>
   <tile/>
   <tile/>
   <tile/>
   <tile/>
   <tile/>
   <tile/>
   <tile/>
   <tile/>
   <tile/>
   <tile/>
   <tile/>
   <tile/>
   <tile/>
   <tile/>
   <tile/>
   <tile/>
   <tile/>
   <tile/>
   <tile/>
   <tile/>
   <tile/>
   <tile/>
   <tile/>
   <tile/>
   <tile/>
   <tile/>
   <tile/>
   <tile/>
   <tile gid="2147483741"/>
   <tile gid="111"/>
   <tile gid="111"/>
   <tile gid="111"/>
   <tile gid="111"/>
   <tile gid="111"/>
   <tile gid="111"/>
   <tile gid="111"/>
   <tile gid="111"/>
   <tile gid="111"/>
   <tile gid="111"/>
   <tile gid="111"/>
   <tile gid="111"/>
   <tile gid="111"/>
   <tile gid="111"/>
   <tile gid="111"/>
   <tile gid="103"/>
   <tile gid="2147483750"/>
   <tile/>
   <tile/>
   <tile/>
   <tile/>
   <tile/>
   <tile/>
   <tile/>
   <tile/>
   <tile/>
   <tile/>
   <tile/>
   <tile/>
   <tile gid="102"/>
   <tile/>
   <tile/>
   <tile/>
   <tile/>
   <tile/>
   <tile/>
   <tile/>
   <tile/>
   <tile/>
   <tile/>
   <tile/>
   <tile/>
   <tile/>
   <tile/>
   <tile/>
   <tile/>
   <tile/>
   <tile/>
   <tile/>
   <tile/>
   <tile/>
   <tile/>
   <tile/>
   <tile/>
   <tile/>
   <tile/>
   <tile/>
   <tile/>
   <tile/>
   <tile/>
   <tile/>
   <tile/>
   <tile/>
   <tile/>
   <tile/>
   <tile/>
   <tile/>
   <tile/>
   <tile/>
   <tile/>
   <tile/>
   <tile/>
   <tile/>
   <tile/>
   <tile/>
   <tile/>
   <tile/>
   <tile/>
   <tile/>
   <tile/>
   <tile/>
   <tile/>
   <tile/>
   <tile/>
   <tile/>
   <tile/>
   <tile/>
   <tile/>
   <tile/>
   <tile/>
   <tile/>
   <tile/>
   <tile/>
   <tile/>
   <tile gid="110"/>
   <tile gid="112"/>
   <tile/>
   <tile/>
   <tile/>
   <tile/>
   <tile/>
   <tile/>
   <tile/>
   <tile/>
   <tile/>
   <tile/>
   <tile/>
   <tile/>
   <tile/>
   <tile/>
   <tile/>
   <tile/>
   <tile/>
   <tile/>
   <tile/>
   <tile/>
   <tile/>
   <tile/>
   <tile/>
   <tile/>
   <tile/>
   <tile/>
   <tile/>
   <tile/>
   <tile/>
   <tile/>
   <tile/>
   <tile/>
   <tile/>
   <tile/>
   <tile/>
   <tile/>
   <tile/>
   <tile/>
   <tile/>
   <tile/>
   <tile/>
   <tile/>
   <tile/>
   <tile gid="2147483749"/>
   <tile gid="1610612836"/>
   <tile gid="103"/>
   <tile gid="104"/>
   <tile/>
   <tile/>
   <tile/>
   <tile gid="95"/>
   <tile gid="95"/>
   <tile/>
   <tile/>
   <tile/>
   <tile/>
   <tile/>
   <tile/>
   <tile/>
   <tile/>
   <tile/>
   <tile/>
   <tile/>
   <tile/>
   <tile/>
   <tile/>
   <tile/>
   <tile/>
   <tile/>
   <tile/>
   <tile/>
   <tile/>
   <tile/>
   <tile/>
   <tile/>
   <tile/>
   <tile/>
   <tile/>
   <tile/>
   <tile/>
   <tile/>
   <tile/>
   <tile/>
   <tile/>
   <tile/>
   <tile/>
   <tile/>
   <tile/>
   <tile/>
   <tile/>
   <tile/>
   <tile/>
   <tile/>
   <tile/>
   <tile/>
   <tile/>
   <tile/>
   <tile/>
   <tile/>
   <tile gid="102"/>
   <tile gid="2147483750"/>
   <tile/>
   <tile/>
   <tile/>
   <tile/>
   <tile/>
   <tile/>
   <tile/>
   <tile/>
   <tile/>
   <tile/>
   <tile/>
   <tile/>
   <tile gid="102"/>
   <tile/>
   <tile/>
   <tile/>
   <tile/>
   <tile/>
   <tile/>
   <tile/>
   <tile/>
   <tile/>
   <tile/>
   <tile/>
   <tile/>
   <tile/>
   <tile/>
   <tile/>
   <tile/>
   <tile/>
   <tile/>
   <tile/>
   <tile/>
   <tile/>
   <tile/>
   <tile/>
   <tile/>
   <tile/>
   <tile/>
   <tile/>
   <tile/>
   <tile/>
   <tile/>
   <tile/>
   <tile/>
   <tile/>
   <tile/>
   <tile/>
   <tile/>
   <tile/>
   <tile/>
   <tile/>
   <tile/>
   <tile/>
   <tile/>
   <tile/>
   <tile/>
   <tile/>
   <tile/>
   <tile/>
   <tile/>
   <tile/>
   <tile/>
   <tile/>
   <tile/>
   <tile/>
   <tile/>
   <tile/>
   <tile/>
   <tile/>
   <tile/>
   <tile/>
   <tile/>
   <tile/>
   <tile/>
   <tile/>
   <tile/>
   <tile/>
   <tile/>
   <tile/>
   <tile/>
   <tile/>
   <tile/>
   <tile/>
   <tile/>
   <tile/>
   <tile/>
   <tile/>
   <tile/>
   <tile/>
   <tile/>
   <tile/>
   <tile/>
   <tile/>
   <tile/>
   <tile/>
   <tile/>
   <tile/>
   <tile/>
   <tile/>
   <tile/>
   <tile/>
   <tile/>
   <tile/>
   <tile/>
   <tile/>
   <tile/>
   <tile/>
   <tile/>
   <tile/>
   <tile/>
   <tile/>
   <tile/>
   <tile/>
   <tile/>
   <tile/>
   <tile/>
   <tile/>
   <tile/>
   <tile/>
   <tile/>
   <tile/>
   <tile/>
   <tile/>
   <tile gid="102"/>
   <tile gid="104"/>
   <tile/>
   <tile/>
   <tile/>
   <tile/>
   <tile/>
   <tile/>
   <tile/>
   <tile/>
   <tile/>
   <tile/>
   <tile/>
   <tile/>
   <tile/>
   <tile/>
   <tile/>
   <tile/>
   <tile/>
   <tile/>
   <tile/>
   <tile/>
   <tile/>
   <tile/>
   <tile/>
   <tile/>
   <tile/>
   <tile/>
   <tile/>
   <tile/>
   <tile/>
   <tile/>
   <tile/>
   <tile/>
   <tile/>
   <tile/>
   <tile/>
   <tile/>
   <tile/>
   <tile/>
   <tile/>
   <tile/>
   <tile/>
   <tile/>
   <tile/>
   <tile/>
   <tile/>
   <tile/>
   <tile/>
   <tile/>
   <tile/>
   <tile/>
   <tile/>
   <tile/>
   <tile gid="2147483752"/>
   <tile gid="113"/>
   <tile gid="1610612836"/>
   <tile gid="2684354660"/>
   <tile gid="536871020"/>
   <tile/>
   <tile/>
   <tile/>
   <tile/>
   <tile/>
   <tile/>
   <tile/>
   <tile/>
   <tile/>
   <tile gid="102"/>
   <tile/>
   <tile/>
   <tile/>
   <tile/>
   <tile/>
   <tile/>
   <tile/>
   <tile/>
   <tile/>
   <tile/>
   <tile/>
   <tile/>
   <tile/>
   <tile/>
   <tile/>
   <tile/>
   <tile/>
   <tile/>
   <tile/>
   <tile/>
   <tile/>
   <tile/>
   <tile/>
   <tile/>
   <tile/>
   <tile gid="120"/>
   <tile gid="122"/>
   <tile gid="97"/>
   <tile gid="95"/>
   <tile gid="97"/>
   <tile gid="97"/>
   <tile gid="98"/>
   <tile gid="98"/>
   <tile gid="95"/>
   <tile gid="95"/>
   <tile gid="97"/>
   <tile gid="95"/>
   <tile gid="97"/>
   <tile gid="98"/>
   <tile gid="97"/>
   <tile gid="98"/>
   <tile gid="98"/>
   <tile gid="95"/>
   <tile gid="97"/>
   <tile gid="95"/>
   <tile gid="98"/>
   <tile gid="97"/>
   <tile gid="95"/>
   <tile gid="98"/>
   <tile gid="98"/>
   <tile gid="97"/>
   <tile gid="97"/>
   <tile gid="2147483770"/>
   <tile gid="2147483768"/>
   <tile/>
   <tile/>
   <tile/>
   <tile/>
   <tile/>
   <tile/>
   <tile/>
   <tile/>
   <tile/>
   <tile/>
   <tile/>
   <tile/>
   <tile/>
   <tile/>
   <tile/>
   <tile/>
   <tile/>
   <tile/>
   <tile/>
   <tile/>
   <tile/>
   <tile/>
   <tile/>
   <tile/>
   <tile/>
   <tile/>
   <tile/>
   <tile/>
   <tile gid="94"/>
   <tile gid="95"/>
   <tile gid="97"/>
   <tile gid="95"/>
   <tile gid="97"/>
   <tile gid="97"/>
   <tile gid="98"/>
   <tile gid="95"/>
   <tile gid="95"/>
   <tile gid="98"/>
   <tile gid="98"/>
   <tile gid="97"/>
   <tile gid="95"/>
   <tile gid="95"/>
   <tile gid="97"/>
   <tile gid="98"/>
   <tile gid="98"/>
   <tile gid="96"/>
   <tile/>
   <tile/>
   <tile/>
   <tile/>
   <tile/>
   <tile/>
   <tile/>
   <tile/>
   <tile/>
   <tile/>
   <tile/>
   <tile gid="102"/>
   <tile gid="104"/>
   <tile/>
   <tile/>
   <tile/>
   <tile/>
   <tile/>
   <tile/>
   <tile/>
   <tile/>
   <tile/>
   <tile/>
   <tile/>
   <tile/>
   <tile/>
   <tile/>
   <tile/>
   <tile/>
   <tile/>
   <tile/>
   <tile/>
   <tile/>
   <tile/>
   <tile/>
   <tile/>
   <tile/>
   <tile/>
   <tile/>
   <tile/>
   <tile/>
   <tile/>
   <tile/>
   <tile/>
   <tile/>
   <tile/>
   <tile/>
   <tile/>
   <tile/>
   <tile/>
   <tile/>
   <tile/>
   <tile/>
   <tile/>
   <tile/>
   <tile/>
   <tile/>
   <tile/>
   <tile/>
   <tile/>
   <tile/>
   <tile/>
   <tile/>
   <tile/>
   <tile/>
   <tile gid="102"/>
   <tile gid="104"/>
   <tile/>
   <tile/>
   <tile/>
   <tile/>
   <tile/>
   <tile/>
   <tile/>
   <tile/>
   <tile/>
   <tile/>
   <tile/>
   <tile/>
   <tile gid="102"/>
   <tile/>
   <tile/>
   <tile/>
   <tile/>
   <tile/>
   <tile/>
   <tile/>
   <tile/>
   <tile/>
   <tile/>
   <tile/>
   <tile/>
   <tile/>
   <tile/>
   <tile/>
   <tile/>
   <tile/>
   <tile/>
   <tile/>
   <tile/>
   <tile/>
   <tile/>
   <tile/>
   <tile/>
   <tile/>
   <tile gid="94"/>
   <tile gid="105"/>
   <tile gid="106"/>
   <tile gid="113"/>
   <tile gid="106"/>
   <tile gid="105"/>
   <tile gid="105"/>
   <tile gid="103"/>
   <tile gid="106"/>
   <tile gid="113"/>
   <tile gid="106"/>
   <tile gid="105"/>
   <tile gid="113"/>
   <tile gid="103"/>
   <tile gid="113"/>
   <tile gid="105"/>
   <tile gid="105"/>
   <tile gid="105"/>
   <tile gid="105"/>
   <tile gid="114"/>
   <tile gid="106"/>
   <tile gid="103"/>
   <tile gid="113"/>
   <tile gid="106"/>
   <tile gid="114"/>
   <tile gid="106"/>
   <tile gid="106"/>
   <tile gid="103"/>
   <tile gid="2147483776"/>
   <tile gid="2147483770"/>
   <tile gid="2147483768"/>
   <tile/>
   <tile/>
   <tile/>
   <tile/>
   <tile/>
   <tile/>
   <tile/>
   <tile/>
   <tile/>
   <tile/>
   <tile/>
   <tile/>
   <tile/>
   <tile/>
   <tile/>
   <tile/>
   <tile/>
   <tile/>
   <tile/>
   <tile/>
   <tile/>
   <tile/>
   <tile/>
   <tile/>
   <tile/>
   <tile gid="94"/>
   <tile gid="105"/>
   <tile gid="113"/>
   <tile gid="113"/>
   <tile gid="103"/>
   <tile gid="113"/>
   <tile gid="114"/>
   <tile gid="103"/>
   <tile gid="103"/>
   <tile gid="103"/>
   <tile gid="103"/>
   <tile gid="105"/>
   <tile gid="103"/>
   <tile gid="103"/>
   <tile gid="103"/>
   <tile gid="103"/>
   <tile gid="103"/>
   <tile gid="103"/>
   <tile gid="103"/>
   <tile gid="98"/>
   <tile gid="98"/>
   <tile gid="96"/>
   <tile/>
   <tile/>
   <tile/>
   <tile/>
   <tile/>
   <tile/>
   <tile/>
   <tile/>
   <tile gid="102"/>
   <tile gid="104"/>
   <tile/>
   <tile/>
   <tile/>
   <tile/>
   <tile/>
   <tile/>
   <tile/>
   <tile/>
   <tile/>
   <tile/>
   <tile/>
   <tile/>
   <tile/>
   <tile/>
   <tile/>
   <tile/>
   <tile/>
   <tile/>
   <tile/>
   <tile/>
   <tile/>
   <tile/>
   <tile/>
   <tile/>
   <tile/>
   <tile/>
   <tile/>
   <tile/>
   <tile/>
   <tile/>
   <tile/>
   <tile/>
   <tile/>
   <tile/>
   <tile/>
   <tile/>
   <tile/>
   <tile/>
   <tile/>
   <tile/>
   <tile/>
   <tile/>
   <tile/>
   <tile/>
   <tile/>
   <tile/>
   <tile/>
   <tile/>
   <tile/>
   <tile/>
   <tile/>
   <tile/>
   <tile gid="102"/>
   <tile gid="104"/>
   <tile/>
   <tile/>
   <tile/>
   <tile/>
   <tile gid="124"/>
   <tile/>
   <tile/>
   <tile/>
   <tile/>
   <tile/>
   <tile/>
   <tile/>
   <tile gid="102"/>
   <tile/>
   <tile/>
   <tile/>
   <tile/>
   <tile/>
   <tile/>
   <tile/>
   <tile/>
   <tile/>
   <tile/>
   <tile/>
   <tile/>
   <tile/>
   <tile/>
   <tile/>
   <tile/>
   <tile/>
   <tile/>
   <tile/>
   <tile/>
   <tile/>
   <tile/>
   <tile/>
   <tile/>
   <tile/>
   <tile gid="2147483757"/>
   <tile gid="111"/>
   <tile gid="103"/>
   <tile gid="103"/>
   <tile gid="114"/>
   <tile gid="106"/>
   <tile gid="105"/>
   <tile gid="114"/>
   <tile gid="113"/>
   <tile gid="103"/>
   <tile gid="113"/>
   <tile gid="113"/>
   <tile gid="114"/>
   <tile gid="105"/>
   <tile gid="103"/>
   <tile gid="114"/>
   <tile gid="106"/>
   <tile gid="105"/>
   <tile gid="106"/>
   <tile gid="103"/>
   <tile gid="114"/>
   <tile gid="103"/>
   <tile gid="106"/>
   <tile gid="106"/>
   <tile gid="106"/>
   <tile gid="114"/>
   <tile gid="114"/>
   <tile gid="103"/>
   <tile gid="106"/>
   <tile gid="103"/>
   <tile gid="2147483776"/>
   <tile gid="2147483770"/>
   <tile gid="2147483768"/>
   <tile/>
   <tile/>
   <tile/>
   <tile/>
   <tile/>
   <tile/>
   <tile/>
   <tile/>
   <tile/>
   <tile/>
   <tile/>
   <tile/>
   <tile/>
   <tile/>
   <tile/>
   <tile/>
   <tile/>
   <tile/>
   <tile/>
   <tile/>
   <tile/>
   <tile/>
   <tile gid="94"/>
   <tile gid="106"/>
   <tile gid="105"/>
   <tile gid="114"/>
   <tile gid="105"/>
   <tile gid="114"/>
   <tile gid="114"/>
   <tile gid="103"/>
   <tile gid="103"/>
   <tile gid="105"/>
   <tile gid="103"/>
   <tile gid="103"/>
   <tile gid="113"/>
   <tile gid="103"/>
   <tile gid="103"/>
   <tile gid="103"/>
   <tile gid="103"/>
   <tile gid="103"/>
   <tile gid="103"/>
   <tile gid="103"/>
   <tile gid="103"/>
   <tile gid="103"/>
   <tile gid="103"/>
   <tile gid="96"/>
   <tile/>
   <tile/>
   <tile/>
   <tile/>
   <tile/>
   <tile/>
   <tile/>
   <tile gid="102"/>
   <tile gid="103"/>
   <tile gid="2684354660"/>
   <tile gid="93"/>
   <tile/>
   <tile/>
   <tile/>
   <tile/>
   <tile/>
   <tile/>
   <tile/>
   <tile/>
   <tile/>
   <tile/>
   <tile/>
   <tile/>
   <tile/>
   <tile/>
   <tile/>
   <tile/>
   <tile/>
   <tile/>
   <tile/>
   <tile/>
   <tile/>
   <tile/>
   <tile/>
   <tile/>
   <tile/>
   <tile/>
   <tile/>
   <tile/>
   <tile/>
   <tile/>
   <tile/>
   <tile/>
   <tile/>
   <tile/>
   <tile/>
   <tile/>
   <tile/>
   <tile/>
   <tile/>
   <tile/>
   <tile/>
   <tile/>
   <tile/>
   <tile/>
   <tile/>
   <tile/>
   <tile/>
   <tile/>
   <tile/>
   <tile/>
   <tile gid="102"/>
   <tile gid="2147483750"/>
   <tile/>
   <tile/>
   <tile/>
   <tile/>
   <tile/>
   <tile/>
   <tile/>
   <tile/>
   <tile/>
   <tile/>
   <tile/>
   <tile/>
   <tile gid="102"/>
   <tile/>
   <tile/>
   <tile/>
   <tile/>
   <tile/>
   <tile/>
   <tile/>
   <tile/>
   <tile/>
   <tile/>
   <tile/>
   <tile/>
   <tile/>
   <tile/>
   <tile/>
   <tile/>
   <tile/>
   <tile/>
   <tile/>
   <tile/>
   <tile/>
   <tile/>
   <tile/>
   <tile/>
   <tile/>
   <tile/>
   <tile/>
   <tile gid="1610612833"/>
   <tile gid="103"/>
   <tile gid="106"/>
   <tile gid="103"/>
   <tile gid="106"/>
   <tile gid="105"/>
   <tile gid="106"/>
   <tile gid="105"/>
   <tile gid="106"/>
   <tile gid="105"/>
   <tile gid="113"/>
   <tile gid="113"/>
   <tile gid="114"/>
   <tile gid="113"/>
   <tile gid="114"/>
   <tile gid="105"/>
   <tile gid="114"/>
   <tile gid="106"/>
   <tile gid="114"/>
   <tile gid="113"/>
   <tile gid="106"/>
   <tile gid="103"/>
   <tile gid="114"/>
   <tile gid="113"/>
   <tile gid="106"/>
   <tile gid="106"/>
   <tile gid="114"/>
   <tile gid="103"/>
   <tile gid="106"/>
   <tile gid="103"/>
   <tile gid="2147483776"/>
   <tile gid="2147483770"/>
   <tile gid="2147483768"/>
   <tile/>
   <tile/>
   <tile/>
   <tile/>
   <tile/>
   <tile/>
   <tile/>
   <tile/>
   <tile/>
   <tile/>
   <tile/>
   <tile/>
   <tile/>
   <tile/>
   <tile/>
   <tile/>
   <tile/>
   <tile/>
   <tile/>
   <tile/>
   <tile gid="102"/>
   <tile gid="113"/>
   <tile gid="105"/>
   <tile gid="113"/>
   <tile gid="114"/>
   <tile gid="105"/>
   <tile gid="105"/>
   <tile gid="114"/>
   <tile gid="114"/>
   <tile gid="114"/>
   <tile gid="103"/>
   <tile gid="103"/>
   <tile gid="114"/>
   <tile gid="105"/>
   <tile gid="103"/>
   <tile gid="103"/>
   <tile gid="103"/>
   <tile gid="103"/>
   <tile gid="103"/>
   <tile gid="103"/>
   <tile gid="103"/>
   <tile gid="103"/>
   <tile gid="103"/>
   <tile gid="104"/>
   <tile/>
   <tile/>
   <tile/>
   <tile/>
   <tile/>
   <tile/>
   <tile/>
   <tile gid="2147483749"/>
   <tile gid="93"/>
   <tile/>
   <tile/>
   <tile/>
   <tile/>
   <tile/>
   <tile/>
   <tile/>
   <tile/>
   <tile/>
   <tile/>
   <tile/>
   <tile/>
   <tile/>
   <tile/>
   <tile/>
   <tile/>
   <tile/>
   <tile/>
   <tile/>
   <tile/>
   <tile/>
   <tile/>
   <tile/>
   <tile/>
   <tile/>
   <tile/>
   <tile/>
   <tile/>
   <tile/>
   <tile/>
   <tile/>
   <tile/>
   <tile/>
   <tile/>
   <tile/>
   <tile/>
   <tile/>
   <tile/>
   <tile/>
   <tile/>
   <tile/>
   <tile/>
   <tile/>
   <tile/>
   <tile/>
   <tile/>
   <tile/>
   <tile/>
   <tile/>
   <tile/>
   <tile/>
   <tile/>
   <tile gid="2147483752"/>
   <tile gid="2147483750"/>
   <tile/>
   <tile/>
   <tile/>
   <tile/>
   <tile/>
   <tile/>
   <tile/>
   <tile/>
   <tile/>
   <tile gid="124"/>
   <tile/>
   <tile/>
   <tile gid="102"/>
   <tile/>
   <tile/>
   <tile/>
   <tile/>
   <tile/>
   <tile/>
   <tile/>
   <tile/>
   <tile/>
   <tile/>
   <tile/>
   <tile/>
   <tile/>
   <tile/>
   <tile/>
   <tile/>
   <tile/>
   <tile/>
   <tile/>
   <tile/>
   <tile/>
   <tile/>
   <tile/>
   <tile/>
   <tile/>
   <tile/>
   <tile/>
   <tile gid="1610612831"/>
   <tile gid="106"/>
   <tile gid="106"/>
   <tile gid="106"/>
   <tile gid="106"/>
   <tile gid="114"/>
   <tile gid="106"/>
   <tile gid="113"/>
   <tile gid="103"/>
   <tile gid="106"/>
   <tile gid="114"/>
   <tile gid="103"/>
   <tile gid="103"/>
   <tile gid="105"/>
   <tile gid="114"/>
   <tile gid="114"/>
   <tile gid="114"/>
   <tile gid="106"/>
   <tile gid="106"/>
   <tile gid="114"/>
   <tile gid="103"/>
   <tile gid="103"/>
   <tile gid="114"/>
   <tile gid="113"/>
   <tile gid="103"/>
   <tile gid="103"/>
   <tile gid="106"/>
   <tile gid="106"/>
   <tile gid="114"/>
   <tile gid="103"/>
   <tile gid="106"/>
   <tile gid="103"/>
   <tile gid="2147483776"/>
   <tile gid="2147483770"/>
   <tile gid="2147483768"/>
   <tile/>
   <tile/>
   <tile/>
   <tile/>
   <tile/>
   <tile/>
   <tile/>
   <tile/>
   <tile/>
   <tile/>
   <tile/>
   <tile/>
   <tile/>
   <tile/>
   <tile/>
   <tile/>
   <tile gid="94"/>
   <tile gid="98"/>
   <tile gid="114"/>
   <tile gid="113"/>
   <tile gid="113"/>
   <tile gid="113"/>
   <tile gid="106"/>
   <tile gid="106"/>
   <tile gid="103"/>
   <tile gid="105"/>
   <tile gid="113"/>
   <tile gid="103"/>
   <tile gid="103"/>
   <tile gid="113"/>
   <tile gid="113"/>
   <tile gid="103"/>
   <tile gid="103"/>
   <tile gid="103"/>
   <tile gid="103"/>
   <tile gid="103"/>
   <tile gid="103"/>
   <tile gid="103"/>
   <tile gid="103"/>
   <tile gid="103"/>
   <tile gid="103"/>
   <tile gid="112"/>
   <tile/>
   <tile/>
   <tile/>
   <tile/>
   <tile/>
   <tile/>
   <tile/>
   <tile/>
   <tile/>
   <tile/>
   <tile/>
   <tile/>
   <tile/>
   <tile/>
   <tile/>
   <tile/>
   <tile/>
   <tile/>
   <tile/>
   <tile/>
   <tile/>
   <tile/>
   <tile/>
   <tile/>
   <tile/>
   <tile/>
   <tile/>
   <tile/>
   <tile/>
   <tile/>
   <tile/>
   <tile/>
   <tile/>
   <tile/>
   <tile/>
   <tile/>
   <tile/>
   <tile/>
   <tile/>
   <tile/>
   <tile/>
   <tile/>
   <tile/>
   <tile/>
   <tile/>
   <tile gid="94"/>
   <tile gid="95"/>
   <tile gid="95"/>
   <tile gid="95"/>
   <tile gid="95"/>
   <tile gid="96"/>
   <tile/>
   <tile/>
   <tile/>
   <tile/>
   <tile/>
   <tile/>
   <tile/>
   <tile/>
   <tile/>
   <tile/>
   <tile gid="102"/>
   <tile gid="104"/>
   <tile/>
   <tile/>
   <tile/>
   <tile/>
   <tile/>
   <tile/>
   <tile/>
   <tile/>
   <tile/>
   <tile/>
   <tile/>
   <tile/>
   <tile gid="102"/>
   <tile/>
   <tile/>
   <tile/>
   <tile/>
   <tile/>
   <tile/>
   <tile/>
   <tile/>
   <tile/>
   <tile/>
   <tile/>
   <tile/>
   <tile/>
   <tile/>
   <tile/>
   <tile/>
   <tile/>
   <tile/>
   <tile/>
   <tile/>
   <tile/>
   <tile/>
   <tile/>
   <tile/>
   <tile/>
   <tile/>
   <tile/>
   <tile gid="1610612833"/>
   <tile gid="105"/>
   <tile gid="106"/>
   <tile gid="105"/>
   <tile gid="114"/>
   <tile gid="113"/>
   <tile gid="103"/>
   <tile gid="106"/>
   <tile gid="105"/>
   <tile gid="113"/>
   <tile gid="106"/>
   <tile gid="106"/>
   <tile gid="113"/>
   <tile gid="114"/>
   <tile gid="113"/>
   <tile gid="103"/>
   <tile gid="105"/>
   <tile gid="105"/>
   <tile gid="105"/>
   <tile gid="105"/>
   <tile gid="103"/>
   <tile gid="106"/>
   <tile gid="105"/>
   <tile gid="106"/>
   <tile gid="103"/>
   <tile gid="103"/>
   <tile gid="105"/>
   <tile gid="114"/>
   <tile gid="106"/>
   <tile gid="106"/>
   <tile gid="114"/>
   <tile gid="103"/>
   <tile gid="97"/>
   <tile gid="97"/>
   <tile gid="98"/>
   <tile gid="97"/>
   <tile gid="95"/>
   <tile gid="97"/>
   <tile gid="95"/>
   <tile gid="98"/>
   <tile gid="95"/>
   <tile gid="95"/>
   <tile gid="98"/>
   <tile gid="95"/>
   <tile gid="98"/>
   <tile gid="97"/>
   <tile gid="98"/>
   <tile gid="97"/>
   <tile gid="98"/>
   <tile gid="95"/>
   <tile gid="98"/>
   <tile gid="106"/>
   <tile gid="105"/>
   <tile gid="106"/>
   <tile gid="111"/>
   <tile gid="111"/>
   <tile gid="111"/>
   <tile gid="111"/>
   <tile gid="111"/>
   <tile gid="111"/>
   <tile gid="111"/>
   <tile gid="111"/>
   <tile gid="111"/>
   <tile gid="111"/>
   <tile gid="111"/>
   <tile gid="111"/>
   <tile gid="111"/>
   <tile gid="111"/>
   <tile gid="111"/>
   <tile gid="111"/>
   <tile gid="111"/>
   <tile gid="111"/>
   <tile gid="111"/>
   <tile gid="111"/>
   <tile gid="111"/>
   <tile gid="112"/>
   <tile/>
   <tile/>
   <tile/>
   <tile/>
   <tile/>
   <tile/>
   <tile/>
   <tile/>
   <tile/>
   <tile/>
   <tile/>
   <tile/>
   <tile/>
   <tile/>
   <tile/>
   <tile/>
   <tile/>
   <tile/>
   <tile/>
   <tile/>
   <tile/>
   <tile/>
   <tile/>
   <tile/>
   <tile/>
   <tile/>
   <tile/>
   <tile/>
   <tile/>
   <tile/>
   <tile/>
   <tile/>
   <tile/>
   <tile/>
   <tile/>
   <tile/>
   <tile/>
   <tile/>
   <tile gid="94"/>
   <tile gid="95"/>
   <tile gid="96"/>
   <tile/>
   <tile/>
   <tile/>
   <tile/>
   <tile/>
   <tile gid="102"/>
   <tile gid="106"/>
   <tile gid="114"/>
   <tile gid="114"/>
   <tile gid="111"/>
   <tile gid="112"/>
   <tile/>
   <tile/>
   <tile/>
   <tile/>
   <tile/>
   <tile/>
   <tile/>
   <tile/>
   <tile/>
   <tile/>
   <tile gid="102"/>
   <tile gid="2147483750"/>
   <tile/>
   <tile/>
   <tile/>
   <tile/>
   <tile/>
   <tile/>
   <tile/>
   <tile/>
   <tile/>
   <tile/>
   <tile/>
   <tile/>
   <tile gid="102"/>
   <tile/>
   <tile/>
   <tile/>
   <tile/>
   <tile/>
   <tile/>
   <tile/>
   <tile/>
   <tile/>
   <tile/>
   <tile/>
   <tile/>
   <tile/>
   <tile/>
   <tile/>
   <tile/>
   <tile/>
   <tile/>
   <tile/>
   <tile/>
   <tile/>
   <tile/>
   <tile/>
   <tile/>
   <tile/>
   <tile/>
   <tile gid="73"/>
   <tile gid="81"/>
   <tile gid="114"/>
   <tile gid="113"/>
   <tile gid="114"/>
   <tile gid="103"/>
   <tile gid="103"/>
   <tile gid="106"/>
   <tile gid="105"/>
   <tile gid="106"/>
   <tile gid="106"/>
   <tile gid="105"/>
   <tile gid="103"/>
   <tile gid="114"/>
   <tile gid="106"/>
   <tile gid="106"/>
   <tile gid="106"/>
   <tile gid="114"/>
   <tile gid="114"/>
   <tile gid="103"/>
   <tile gid="114"/>
   <tile gid="114"/>
   <tile gid="114"/>
   <tile gid="105"/>
   <tile gid="114"/>
   <tile gid="103"/>
   <tile gid="114"/>
   <tile gid="113"/>
   <tile gid="105"/>
   <tile gid="113"/>
   <tile gid="105"/>
   <tile gid="106"/>
   <tile gid="106"/>
   <tile gid="103"/>
   <tile gid="103"/>
   <tile gid="113"/>
   <tile gid="113"/>
   <tile gid="105"/>
   <tile gid="113"/>
   <tile gid="105"/>
   <tile gid="103"/>
   <tile gid="105"/>
   <tile gid="114"/>
   <tile gid="114"/>
   <tile gid="106"/>
   <tile gid="111"/>
   <tile gid="111"/>
   <tile gid="111"/>
   <tile gid="111"/>
   <tile gid="111"/>
   <tile gid="111"/>
   <tile gid="111"/>
   <tile gid="111"/>
   <tile gid="111"/>
   <tile gid="112"/>
   <tile/>
   <tile/>
   <tile/>
   <tile/>
   <tile/>
   <tile/>
   <tile/>
   <tile/>
   <tile/>
   <tile/>
   <tile/>
   <tile/>
   <tile/>
   <tile/>
   <tile/>
   <tile/>
   <tile/>
   <tile/>
   <tile/>
   <tile/>
   <tile/>
   <tile/>
   <tile/>
   <tile/>
   <tile/>
   <tile/>
   <tile/>
   <tile/>
   <tile/>
   <tile/>
   <tile/>
   <tile/>
   <tile/>
   <tile/>
   <tile/>
   <tile/>
   <tile/>
   <tile/>
   <tile/>
   <tile/>
   <tile/>
   <tile/>
   <tile/>
   <tile/>
   <tile/>
   <tile/>
   <tile/>
   <tile/>
   <tile/>
   <tile/>
   <tile/>
   <tile/>
   <tile/>
   <tile/>
   <tile/>
   <tile/>
   <tile/>
   <tile/>
   <tile/>
   <tile/>
   <tile/>
   <tile/>
   <tile/>
   <tile/>
   <tile/>
   <tile/>
   <tile/>
   <tile/>
   <tile gid="102"/>
   <tile gid="114"/>
   <tile gid="114"/>
   <tile gid="104"/>
   <tile/>
   <tile/>
   <tile/>
   <tile/>
   <tile/>
   <tile/>
   <tile/>
   <tile/>
   <tile/>
   <tile/>
   <tile/>
   <tile/>
   <tile gid="102"/>
   <tile gid="104"/>
   <tile/>
   <tile/>
   <tile/>
   <tile gid="124"/>
   <tile/>
   <tile/>
   <tile/>
   <tile/>
   <tile/>
   <tile/>
   <tile/>
   <tile/>
   <tile gid="102"/>
   <tile/>
   <tile/>
   <tile/>
   <tile/>
   <tile/>
   <tile/>
   <tile/>
   <tile/>
   <tile/>
   <tile/>
   <tile/>
   <tile/>
   <tile/>
   <tile/>
   <tile/>
   <tile/>
   <tile/>
   <tile/>
   <tile/>
   <tile/>
   <tile/>
   <tile/>
   <tile/>
   <tile/>
   <tile/>
   <tile/>
   <tile gid="1610612834"/>
   <tile gid="106"/>
   <tile gid="106"/>
   <tile gid="113"/>
   <tile gid="106"/>
   <tile gid="103"/>
   <tile gid="103"/>
   <tile gid="103"/>
   <tile gid="113"/>
   <tile gid="106"/>
   <tile gid="113"/>
   <tile gid="114"/>
   <tile gid="106"/>
   <tile gid="106"/>
   <tile gid="106"/>
   <tile gid="114"/>
   <tile gid="103"/>
   <tile gid="105"/>
   <tile gid="105"/>
   <tile gid="114"/>
   <tile gid="106"/>
   <tile gid="106"/>
   <tile gid="113"/>
   <tile gid="106"/>
   <tile gid="114"/>
   <tile gid="105"/>
   <tile gid="106"/>
   <tile gid="105"/>
   <tile gid="114"/>
   <tile gid="106"/>
   <tile gid="103"/>
   <tile gid="106"/>
   <tile gid="103"/>
   <tile gid="105"/>
   <tile gid="106"/>
   <tile gid="113"/>
   <tile gid="105"/>
   <tile gid="113"/>
   <tile gid="103"/>
   <tile gid="103"/>
   <tile gid="106"/>
   <tile gid="114"/>
   <tile gid="114"/>
   <tile gid="103"/>
   <tile gid="112"/>
   <tile/>
   <tile/>
   <tile/>
   <tile/>
   <tile/>
   <tile/>
   <tile/>
   <tile/>
   <tile/>
   <tile/>
   <tile/>
   <tile/>
   <tile/>
   <tile/>
   <tile/>
   <tile/>
   <tile/>
   <tile/>
   <tile/>
   <tile/>
   <tile/>
   <tile/>
   <tile/>
   <tile/>
   <tile/>
   <tile/>
   <tile/>
   <tile/>
   <tile/>
   <tile/>
   <tile/>
   <tile/>
   <tile/>
   <tile/>
   <tile/>
   <tile/>
   <tile/>
   <tile/>
   <tile/>
   <tile/>
   <tile/>
   <tile/>
   <tile/>
   <tile/>
   <tile/>
   <tile/>
   <tile/>
   <tile/>
   <tile/>
   <tile/>
   <tile/>
   <tile/>
   <tile/>
   <tile/>
   <tile/>
   <tile/>
   <tile/>
   <tile/>
   <tile/>
   <tile/>
   <tile/>
   <tile/>
   <tile/>
   <tile/>
   <tile/>
   <tile/>
   <tile/>
   <tile/>
   <tile/>
   <tile/>
   <tile/>
   <tile/>
   <tile/>
   <tile/>
   <tile/>
   <tile/>
   <tile/>
   <tile/>
   <tile gid="102"/>
   <tile gid="114"/>
   <tile gid="103"/>
   <tile gid="112"/>
   <tile/>
   <tile/>
   <tile/>
   <tile/>
   <tile/>
   <tile/>
   <tile gid="86"/>
   <tile gid="87"/>
   <tile gid="88"/>
   <tile/>
   <tile/>
   <tile/>
   <tile gid="110"/>
   <tile gid="111"/>
   <tile/>
   <tile/>
   <tile/>
   <tile/>
   <tile/>
   <tile/>
   <tile/>
   <tile/>
   <tile/>
   <tile/>
   <tile/>
   <tile/>
   <tile gid="102"/>
   <tile/>
   <tile/>
   <tile/>
   <tile/>
   <tile/>
   <tile/>
   <tile/>
   <tile/>
   <tile/>
   <tile/>
   <tile/>
   <tile/>
   <tile/>
   <tile/>
   <tile/>
   <tile/>
   <tile/>
   <tile/>
   <tile/>
   <tile/>
   <tile/>
   <tile/>
   <tile/>
   <tile/>
   <tile/>
   <tile gid="73"/>
   <tile gid="81"/>
   <tile gid="105"/>
   <tile gid="105"/>
   <tile gid="106"/>
   <tile gid="106"/>
   <tile gid="114"/>
   <tile gid="114"/>
   <tile gid="106"/>
   <tile gid="106"/>
   <tile gid="106"/>
   <tile gid="113"/>
   <tile gid="103"/>
   <tile gid="114"/>
   <tile gid="113"/>
   <tile gid="106"/>
   <tile gid="103"/>
   <tile gid="106"/>
   <tile gid="114"/>
   <tile gid="103"/>
   <tile gid="114"/>
   <tile gid="106"/>
   <tile gid="105"/>
   <tile gid="105"/>
   <tile gid="114"/>
   <tile gid="105"/>
   <tile gid="114"/>
   <tile gid="105"/>
   <tile gid="114"/>
   <tile gid="103"/>
   <tile gid="114"/>
   <tile gid="103"/>
   <tile gid="103"/>
   <tile gid="105"/>
   <tile gid="114"/>
   <tile gid="105"/>
   <tile gid="106"/>
   <tile gid="113"/>
   <tile gid="113"/>
   <tile gid="114"/>
   <tile gid="114"/>
   <tile gid="106"/>
   <tile gid="103"/>
   <tile gid="114"/>
   <tile gid="112"/>
   <tile/>
   <tile/>
   <tile/>
   <tile/>
   <tile/>
   <tile/>
   <tile/>
   <tile/>
   <tile/>
   <tile/>
   <tile/>
   <tile/>
   <tile/>
   <tile/>
   <tile/>
   <tile/>
   <tile/>
   <tile/>
   <tile/>
   <tile/>
   <tile/>
   <tile/>
   <tile/>
   <tile/>
   <tile/>
   <tile/>
   <tile/>
   <tile/>
   <tile/>
   <tile/>
   <tile/>
   <tile/>
   <tile/>
   <tile/>
   <tile/>
   <tile/>
   <tile/>
   <tile/>
   <tile/>
   <tile/>
   <tile/>
   <tile/>
   <tile/>
   <tile/>
   <tile/>
   <tile/>
   <tile/>
   <tile/>
   <tile/>
   <tile/>
   <tile/>
   <tile/>
   <tile/>
   <tile/>
   <tile/>
   <tile/>
   <tile/>
   <tile/>
   <tile/>
   <tile/>
   <tile/>
   <tile/>
   <tile/>
   <tile/>
   <tile/>
   <tile/>
   <tile/>
   <tile/>
   <tile/>
   <tile/>
   <tile/>
   <tile/>
   <tile/>
   <tile/>
   <tile/>
   <tile/>
   <tile/>
   <tile/>
   <tile/>
   <tile gid="102"/>
   <tile gid="103"/>
   <tile gid="112"/>
   <tile/>
   <tile/>
   <tile/>
   <tile/>
   <tile/>
   <tile/>
   <tile/>
   <tile/>
   <tile/>
   <tile/>
   <tile/>
   <tile/>
   <tile/>
   <tile/>
   <tile/>
   <tile/>
   <tile/>
   <tile/>
   <tile/>
   <tile/>
   <tile/>
   <tile/>
   <tile/>
   <tile/>
   <tile/>
   <tile/>
   <tile/>
   <tile gid="102"/>
   <tile/>
   <tile/>
   <tile/>
   <tile/>
   <tile/>
   <tile/>
   <tile/>
   <tile/>
   <tile/>
   <tile/>
   <tile/>
   <tile/>
   <tile/>
   <tile/>
   <tile/>
   <tile/>
   <tile/>
   <tile/>
   <tile/>
   <tile/>
   <tile/>
   <tile/>
   <tile/>
   <tile/>
   <tile gid="73"/>
   <tile gid="81"/>
   <tile gid="103"/>
   <tile gid="106"/>
   <tile gid="103"/>
   <tile gid="106"/>
   <tile gid="113"/>
   <tile gid="103"/>
   <tile gid="103"/>
   <tile gid="114"/>
   <tile gid="103"/>
   <tile gid="105"/>
   <tile gid="103"/>
   <tile gid="113"/>
   <tile gid="113"/>
   <tile gid="113"/>
   <tile gid="105"/>
   <tile gid="113"/>
   <tile gid="106"/>
   <tile gid="113"/>
   <tile gid="113"/>
   <tile gid="103"/>
   <tile gid="113"/>
   <tile gid="114"/>
   <tile gid="114"/>
   <tile gid="105"/>
   <tile gid="105"/>
   <tile gid="113"/>
   <tile gid="105"/>
   <tile gid="106"/>
   <tile gid="106"/>
   <tile gid="106"/>
   <tile gid="106"/>
   <tile gid="103"/>
   <tile gid="103"/>
   <tile gid="106"/>
   <tile gid="106"/>
   <tile gid="113"/>
   <tile gid="113"/>
   <tile gid="105"/>
   <tile gid="113"/>
   <tile gid="106"/>
   <tile gid="113"/>
   <tile gid="106"/>
   <tile gid="112"/>
   <tile/>
   <tile/>
   <tile/>
   <tile/>
   <tile/>
   <tile/>
   <tile/>
   <tile/>
   <tile/>
   <tile/>
   <tile/>
   <tile/>
   <tile/>
   <tile/>
   <tile/>
   <tile/>
   <tile/>
   <tile/>
   <tile/>
   <tile/>
   <tile/>
   <tile/>
   <tile/>
   <tile/>
   <tile/>
   <tile/>
   <tile/>
   <tile/>
   <tile/>
   <tile/>
   <tile/>
   <tile/>
   <tile/>
   <tile/>
   <tile/>
   <tile/>
   <tile/>
   <tile/>
   <tile/>
   <tile/>
   <tile/>
   <tile gid="94"/>
   <tile gid="95"/>
   <tile gid="98"/>
   <tile gid="97"/>
   <tile gid="98"/>
   <tile gid="95"/>
   <tile gid="97"/>
   <tile gid="95"/>
   <tile gid="98"/>
   <tile gid="97"/>
   <tile gid="97"/>
   <tile gid="97"/>
   <tile gid="96"/>
   <tile/>
   <tile/>
   <tile/>
   <tile/>
   <tile/>
   <tile/>
   <tile/>
   <tile/>
   <tile/>
   <tile/>
   <tile/>
   <tile gid="94"/>
   <tile gid="97"/>
   <tile gid="98"/>
   <tile gid="97"/>
   <tile gid="97"/>
   <tile gid="97"/>
   <tile gid="98"/>
   <tile gid="97"/>
   <tile gid="95"/>
   <tile gid="97"/>
   <tile gid="98"/>
   <tile gid="98"/>
   <tile gid="98"/>
   <tile gid="95"/>
   <tile gid="98"/>
   <tile gid="103"/>
   <tile gid="104"/>
   <tile/>
   <tile/>
   <tile/>
   <tile gid="86"/>
   <tile gid="87"/>
   <tile gid="88"/>
   <tile/>
   <tile/>
   <tile/>
   <tile/>
   <tile/>
   <tile/>
   <tile/>
   <tile/>
   <tile/>
   <tile/>
   <tile/>
   <tile/>
   <tile/>
   <tile/>
   <tile/>
   <tile/>
   <tile/>
   <tile/>
   <tile/>
   <tile gid="124"/>
   <tile/>
   <tile/>
   <tile gid="102"/>
   <tile/>
   <tile/>
   <tile/>
   <tile/>
   <tile/>
   <tile/>
   <tile/>
   <tile/>
   <tile/>
   <tile/>
   <tile/>
   <tile/>
   <tile/>
   <tile/>
   <tile/>
   <tile/>
   <tile/>
   <tile/>
   <tile/>
   <tile/>
   <tile/>
   <tile/>
   <tile/>
   <tile gid="73"/>
   <tile gid="81"/>
   <tile gid="103"/>
   <tile gid="105"/>
   <tile gid="106"/>
   <tile gid="113"/>
   <tile gid="103"/>
   <tile gid="105"/>
   <tile gid="106"/>
   <tile gid="113"/>
   <tile gid="103"/>
   <tile gid="105"/>
   <tile gid="105"/>
   <tile gid="105"/>
   <tile gid="105"/>
   <tile gid="105"/>
   <tile gid="113"/>
   <tile gid="103"/>
   <tile gid="113"/>
   <tile gid="105"/>
   <tile gid="114"/>
   <tile gid="105"/>
   <tile gid="106"/>
   <tile gid="106"/>
   <tile gid="113"/>
   <tile gid="106"/>
   <tile gid="113"/>
   <tile gid="114"/>
   <tile gid="106"/>
   <tile gid="103"/>
   <tile gid="105"/>
   <tile gid="114"/>
   <tile gid="103"/>
   <tile gid="106"/>
   <tile gid="106"/>
   <tile gid="114"/>
   <tile gid="113"/>
   <tile gid="103"/>
   <tile gid="103"/>
   <tile gid="113"/>
   <tile gid="106"/>
   <tile gid="114"/>
   <tile gid="106"/>
   <tile gid="106"/>
   <tile gid="104"/>
   <tile/>
   <tile/>
   <tile/>
   <tile/>
   <tile/>
   <tile/>
   <tile/>
   <tile/>
   <tile/>
   <tile/>
   <tile/>
   <tile/>
   <tile/>
   <tile/>
   <tile/>
   <tile/>
   <tile/>
   <tile/>
   <tile/>
   <tile/>
   <tile/>
   <tile/>
   <tile/>
   <tile/>
   <tile/>
   <tile/>
   <tile/>
   <tile/>
   <tile/>
   <tile/>
   <tile/>
   <tile/>
   <tile/>
   <tile/>
   <tile/>
   <tile/>
   <tile/>
   <tile/>
   <tile/>
   <tile/>
   <tile gid="94"/>
   <tile gid="98"/>
   <tile gid="105"/>
   <tile gid="103"/>
   <tile gid="106"/>
   <tile gid="114"/>
   <tile gid="103"/>
   <tile gid="105"/>
   <tile gid="113"/>
   <tile gid="106"/>
   <tile gid="114"/>
   <tile gid="106"/>
   <tile gid="114"/>
   <tile gid="113"/>
   <tile gid="103"/>
   <tile gid="95"/>
   <tile gid="97"/>
   <tile gid="95"/>
   <tile gid="98"/>
   <tile gid="95"/>
   <tile gid="97"/>
   <tile gid="98"/>
   <tile gid="97"/>
   <tile gid="95"/>
   <tile gid="97"/>
   <tile gid="97"/>
   <tile gid="114"/>
   <tile gid="114"/>
   <tile gid="106"/>
   <tile gid="114"/>
   <tile gid="103"/>
   <tile gid="114"/>
   <tile gid="103"/>
   <tile gid="105"/>
   <tile gid="105"/>
   <tile gid="114"/>
   <tile gid="114"/>
   <tile gid="105"/>
   <tile gid="114"/>
   <tile gid="103"/>
   <tile gid="103"/>
   <tile gid="103"/>
   <tile gid="112"/>
   <tile/>
   <tile/>
   <tile/>
   <tile/>
   <tile/>
   <tile/>
   <tile/>
   <tile/>
   <tile/>
   <tile/>
   <tile/>
   <tile/>
   <tile/>
   <tile/>
   <tile/>
   <tile/>
   <tile/>
   <tile/>
   <tile/>
   <tile/>
   <tile/>
   <tile/>
   <tile/>
   <tile/>
   <tile/>
   <tile/>
   <tile/>
   <tile/>
   <tile gid="102"/>
   <tile/>
   <tile/>
   <tile/>
   <tile/>
   <tile/>
   <tile/>
   <tile/>
   <tile/>
   <tile/>
   <tile/>
   <tile/>
   <tile/>
   <tile/>
   <tile/>
   <tile/>
   <tile/>
   <tile/>
   <tile/>
   <tile/>
   <tile/>
   <tile/>
   <tile/>
   <tile/>
   <tile gid="1610612831"/>
   <tile gid="114"/>
   <tile gid="114"/>
   <tile gid="106"/>
   <tile gid="105"/>
   <tile gid="106"/>
   <tile gid="103"/>
   <tile gid="105"/>
   <tile gid="106"/>
   <tile gid="114"/>
   <tile gid="103"/>
   <tile gid="114"/>
   <tile gid="113"/>
   <tile gid="103"/>
   <tile gid="114"/>
   <tile gid="103"/>
   <tile gid="103"/>
   <tile gid="105"/>
   <tile gid="105"/>
   <tile gid="114"/>
   <tile gid="113"/>
   <tile gid="113"/>
   <tile gid="106"/>
   <tile gid="113"/>
   <tile gid="106"/>
   <tile gid="103"/>
   <tile gid="105"/>
   <tile gid="103"/>
   <tile gid="103"/>
   <tile gid="113"/>
   <tile gid="114"/>
   <tile gid="103"/>
   <tile gid="103"/>
   <tile gid="114"/>
   <tile gid="114"/>
   <tile gid="113"/>
   <tile gid="103"/>
   <tile gid="105"/>
   <tile gid="113"/>
   <tile gid="114"/>
   <tile gid="105"/>
   <tile gid="113"/>
   <tile gid="113"/>
   <tile gid="106"/>
   <tile gid="104"/>
   <tile/>
   <tile/>
   <tile/>
   <tile/>
   <tile/>
   <tile/>
   <tile/>
   <tile/>
   <tile/>
   <tile/>
   <tile/>
   <tile/>
   <tile gid="124"/>
   <tile/>
   <tile/>
   <tile/>
   <tile/>
   <tile/>
   <tile/>
   <tile gid="124"/>
   <tile/>
   <tile/>
   <tile/>
   <tile/>
   <tile/>
   <tile/>
   <tile/>
   <tile gid="124"/>
   <tile/>
   <tile/>
   <tile/>
   <tile/>
   <tile/>
   <tile/>
   <tile/>
   <tile/>
   <tile gid="94"/>
   <tile gid="95"/>
   <tile gid="95"/>
   <tile gid="95"/>
   <tile gid="103"/>
   <tile gid="106"/>
   <tile gid="114"/>
   <tile gid="106"/>
   <tile gid="106"/>
   <tile gid="113"/>
   <tile gid="114"/>
   <tile gid="106"/>
   <tile gid="103"/>
   <tile gid="106"/>
   <tile gid="105"/>
   <tile gid="114"/>
   <tile gid="103"/>
   <tile gid="114"/>
   <tile gid="103"/>
   <tile gid="106"/>
   <tile gid="113"/>
   <tile gid="105"/>
   <tile gid="114"/>
   <tile gid="114"/>
   <tile gid="106"/>
   <tile gid="114"/>
   <tile gid="114"/>
   <tile gid="114"/>
   <tile gid="105"/>
   <tile gid="114"/>
   <tile gid="113"/>
   <tile gid="114"/>
   <tile gid="106"/>
   <tile gid="105"/>
   <tile gid="105"/>
   <tile gid="113"/>
   <tile gid="105"/>
   <tile gid="113"/>
   <tile gid="103"/>
   <tile gid="103"/>
   <tile gid="106"/>
   <tile gid="105"/>
   <tile gid="103"/>
   <tile gid="114"/>
   <tile gid="103"/>
   <tile gid="104"/>
   <tile/>
   <tile/>
   <tile/>
   <tile/>
   <tile/>
   <tile/>
   <tile/>
   <tile/>
   <tile/>
   <tile/>
   <tile/>
   <tile/>
   <tile/>
   <tile/>
   <tile/>
   <tile/>
   <tile/>
   <tile/>
   <tile/>
   <tile/>
   <tile/>
   <tile/>
   <tile/>
   <tile/>
   <tile/>
   <tile/>
   <tile/>
   <tile/>
   <tile/>
   <tile gid="102"/>
   <tile gid="97"/>
   <tile gid="97"/>
   <tile gid="97"/>
   <tile gid="98"/>
   <tile gid="97"/>
   <tile gid="97"/>
   <tile gid="98"/>
   <tile gid="95"/>
   <tile gid="97"/>
   <tile gid="98"/>
   <tile gid="97"/>
   <tile gid="97"/>
   <tile gid="95"/>
   <tile gid="97"/>
   <tile gid="98"/>
   <tile gid="97"/>
   <tile gid="98"/>
   <tile gid="95"/>
   <tile gid="98"/>
   <tile gid="98"/>
   <tile gid="97"/>
   <tile gid="98"/>
   <tile gid="98"/>
   <tile gid="81"/>
   <tile gid="105"/>
   <tile gid="106"/>
   <tile gid="105"/>
   <tile gid="106"/>
   <tile gid="105"/>
   <tile gid="114"/>
   <tile gid="105"/>
   <tile gid="106"/>
   <tile gid="103"/>
   <tile gid="105"/>
   <tile gid="113"/>
   <tile gid="113"/>
   <tile gid="103"/>
   <tile gid="103"/>
   <tile gid="113"/>
   <tile gid="103"/>
   <tile gid="103"/>
   <tile gid="105"/>
   <tile gid="106"/>
   <tile gid="106"/>
   <tile gid="103"/>
   <tile gid="113"/>
   <tile gid="106"/>
   <tile gid="105"/>
   <tile gid="105"/>
   <tile gid="103"/>
   <tile gid="105"/>
   <tile gid="113"/>
   <tile gid="113"/>
   <tile gid="103"/>
   <tile gid="103"/>
   <tile gid="114"/>
   <tile gid="106"/>
   <tile gid="105"/>
   <tile gid="106"/>
   <tile gid="113"/>
   <tile gid="105"/>
   <tile gid="114"/>
   <tile gid="114"/>
   <tile gid="106"/>
   <tile gid="106"/>
   <tile gid="106"/>
   <tile gid="106"/>
   <tile gid="104"/>
   <tile/>
   <tile/>
   <tile/>
   <tile/>
   <tile/>
   <tile/>
   <tile gid="94"/>
   <tile gid="96"/>
   <tile gid="25"/>
   <tile gid="26"/>
   <tile gid="27"/>
   <tile gid="27"/>
   <tile gid="27"/>
   <tile gid="27"/>
   <tile gid="27"/>
   <tile gid="27"/>
   <tile gid="27"/>
   <tile gid="27"/>
   <tile gid="27"/>
   <tile gid="27"/>
   <tile gid="27"/>
   <tile gid="27"/>
   <tile gid="27"/>
   <tile gid="27"/>
   <tile gid="27"/>
   <tile gid="27"/>
   <tile gid="27"/>
   <tile gid="27"/>
   <tile gid="27"/>
   <tile gid="27"/>
   <tile gid="28"/>
   <tile gid="29"/>
   <tile gid="94"/>
   <tile gid="95"/>
   <tile gid="97"/>
   <tile gid="95"/>
   <tile gid="106"/>
   <tile gid="103"/>
   <tile gid="103"/>
   <tile gid="103"/>
   <tile gid="103"/>
   <tile gid="103"/>
   <tile gid="113"/>
   <tile gid="106"/>
   <tile gid="103"/>
   <tile gid="113"/>
   <tile gid="103"/>
   <tile gid="113"/>
   <tile gid="105"/>
   <tile gid="106"/>
   <tile gid="103"/>
   <tile gid="105"/>
   <tile gid="106"/>
   <tile gid="105"/>
   <tile gid="113"/>
   <tile gid="114"/>
   <tile gid="106"/>
   <tile gid="105"/>
   <tile gid="114"/>
   <tile gid="114"/>
   <tile gid="113"/>
   <tile gid="114"/>
   <tile gid="103"/>
   <tile gid="103"/>
   <tile gid="106"/>
   <tile gid="103"/>
   <tile gid="103"/>
   <tile gid="103"/>
   <tile gid="113"/>
   <tile gid="113"/>
   <tile gid="113"/>
   <tile gid="106"/>
   <tile gid="106"/>
   <tile gid="103"/>
   <tile gid="103"/>
   <tile gid="114"/>
   <tile gid="106"/>
   <tile gid="106"/>
   <tile gid="103"/>
   <tile gid="106"/>
   <tile gid="103"/>
   <tile gid="104"/>
   <tile gid="19"/>
   <tile gid="21"/>
   <tile gid="94"/>
   <tile gid="95"/>
   <tile gid="96"/>
   <tile gid="25"/>
   <tile gid="26"/>
   <tile gid="27"/>
   <tile gid="28"/>
   <tile gid="29"/>
   <tile gid="94"/>
   <tile gid="95"/>
   <tile gid="96"/>
   <tile gid="25"/>
   <tile gid="26"/>
   <tile gid="27"/>
   <tile gid="27"/>
   <tile gid="28"/>
   <tile gid="29"/>
   <tile gid="94"/>
   <tile gid="95"/>
   <tile gid="96"/>
   <tile gid="25"/>
   <tile gid="26"/>
   <tile gid="27"/>
   <tile gid="27"/>
   <tile gid="27"/>
   <tile gid="28"/>
   <tile gid="29"/>
   <tile gid="102"/>
   <tile gid="110"/>
   <tile gid="111"/>
   <tile gid="111"/>
   <tile gid="99"/>
   <tile gid="107"/>
   <tile gid="111"/>
   <tile gid="111"/>
   <tile gid="99"/>
   <tile gid="99"/>
   <tile gid="111"/>
   <tile gid="111"/>
   <tile gid="107"/>
   <tile gid="111"/>
   <tile gid="107"/>
   <tile gid="111"/>
   <tile gid="111"/>
   <tile gid="107"/>
   <tile gid="111"/>
   <tile gid="111"/>
   <tile gid="107"/>
   <tile gid="111"/>
   <tile gid="111"/>
   <tile gid="99"/>
   <tile gid="111"/>
   <tile gid="111"/>
   <tile gid="111"/>
   <tile gid="111"/>
   <tile gid="111"/>
   <tile gid="111"/>
   <tile gid="111"/>
   <tile gid="111"/>
   <tile gid="111"/>
   <tile gid="111"/>
   <tile gid="111"/>
   <tile gid="111"/>
   <tile gid="111"/>
   <tile gid="111"/>
   <tile gid="111"/>
   <tile gid="111"/>
   <tile gid="111"/>
   <tile gid="111"/>
   <tile gid="111"/>
   <tile gid="111"/>
   <tile gid="111"/>
   <tile gid="111"/>
   <tile gid="111"/>
   <tile gid="111"/>
   <tile gid="111"/>
   <tile gid="111"/>
   <tile gid="111"/>
   <tile gid="111"/>
   <tile gid="111"/>
   <tile gid="111"/>
   <tile gid="111"/>
   <tile gid="111"/>
   <tile gid="111"/>
   <tile gid="111"/>
   <tile gid="111"/>
   <tile gid="111"/>
   <tile gid="111"/>
   <tile gid="111"/>
   <tile gid="111"/>
   <tile gid="111"/>
   <tile gid="111"/>
   <tile gid="111"/>
   <tile gid="111"/>
   <tile gid="111"/>
   <tile gid="112"/>
   <tile/>
   <tile/>
   <tile/>
   <tile/>
   <tile/>
   <tile/>
   <tile gid="102"/>
   <tile gid="103"/>
   <tile gid="95"/>
   <tile gid="95"/>
   <tile gid="98"/>
   <tile gid="97"/>
   <tile gid="95"/>
   <tile gid="95"/>
   <tile gid="95"/>
   <tile gid="97"/>
   <tile gid="97"/>
   <tile gid="97"/>
   <tile gid="95"/>
   <tile gid="95"/>
   <tile gid="98"/>
   <tile gid="98"/>
   <tile gid="95"/>
   <tile gid="95"/>
   <tile gid="97"/>
   <tile gid="95"/>
   <tile gid="98"/>
   <tile gid="95"/>
   <tile gid="98"/>
   <tile gid="98"/>
   <tile gid="98"/>
   <tile gid="95"/>
   <tile gid="113"/>
   <tile gid="106"/>
   <tile gid="105"/>
   <tile gid="103"/>
   <tile gid="106"/>
   <tile gid="105"/>
   <tile gid="106"/>
   <tile gid="106"/>
   <tile gid="105"/>
   <tile gid="103"/>
   <tile gid="106"/>
   <tile gid="113"/>
   <tile gid="113"/>
   <tile gid="106"/>
   <tile gid="105"/>
   <tile gid="105"/>
   <tile gid="114"/>
   <tile gid="105"/>
   <tile gid="105"/>
   <tile gid="113"/>
   <tile gid="106"/>
   <tile gid="113"/>
   <tile gid="105"/>
   <tile gid="106"/>
   <tile gid="103"/>
   <tile gid="106"/>
   <tile gid="103"/>
   <tile gid="103"/>
   <tile gid="105"/>
   <tile gid="114"/>
   <tile gid="106"/>
   <tile gid="103"/>
   <tile gid="114"/>
   <tile gid="113"/>
   <tile gid="103"/>
   <tile gid="106"/>
   <tile gid="114"/>
   <tile gid="106"/>
   <tile gid="113"/>
   <tile gid="114"/>
   <tile gid="113"/>
   <tile gid="114"/>
   <tile gid="106"/>
   <tile gid="103"/>
   <tile gid="113"/>
   <tile gid="106"/>
   <tile gid="103"/>
   <tile gid="103"/>
   <tile gid="103"/>
   <tile gid="103"/>
   <tile gid="95"/>
   <tile gid="95"/>
   <tile gid="105"/>
   <tile gid="113"/>
   <tile gid="106"/>
   <tile gid="95"/>
   <tile gid="95"/>
   <tile gid="98"/>
   <tile gid="98"/>
   <tile gid="98"/>
   <tile gid="103"/>
   <tile gid="113"/>
   <tile gid="103"/>
   <tile gid="98"/>
   <tile gid="98"/>
   <tile gid="97"/>
   <tile gid="95"/>
   <tile gid="97"/>
   <tile gid="98"/>
   <tile gid="103"/>
   <tile gid="113"/>
   <tile gid="103"/>
   <tile gid="95"/>
   <tile gid="95"/>
   <tile gid="98"/>
   <tile gid="97"/>
   <tile gid="98"/>
   <tile gid="98"/>
   <tile gid="95"/>
   <tile gid="103"/>
  </data>
 </layer>
 <objectgroup id="37" name="Fondo4-F1">
  <properties>
   <property name="BG" type="bool" value="true"/>
   <property name="Draw" type="bool" value="true"/>
   <property name="Front" type="bool" value="true"/>
  </properties>
  <object id="832" gid="164" x="789.818" y="10200.9" width="384" height="307"/>
  <object id="833" gid="164" x="-110.182" y="10146.4" width="384" height="307"/>
  <object id="834" gid="164" x="14.0606" y="10149.4" width="384" height="307"/>
  <object id="835" gid="164" x="1023.15" y="10197.9" width="384" height="307"/>
  <object id="836" gid="171" x="1277.7" y="10173.6" width="384" height="307"/>
  <object id="837" gid="171" x="1720.12" y="10158.5" width="384" height="307"/>
  <object id="842" gid="170" x="283.758" y="10070.6" width="384" height="307"/>
  <object id="846" gid="170" x="2280.73" y="10225.2" width="384" height="307"/>
  <object id="848" gid="163" x="2474.67" y="10197.9" width="384" height="307"/>
  <object id="849" gid="163" x="2735.27" y="10113" width="384" height="307"/>
  <object id="902" gid="165" x="2438.3" y="10258.5" width="384" height="307"/>
  <object id="903" gid="165" x="629.212" y="10188.8" width="384" height="307"/>
  <object id="904" gid="165" x="306" y="10138" width="384" height="307"/>
  <object id="905" gid="165" x="-106" y="10268" width="384" height="307"/>
  <object id="907" gid="172" x="1942" y="10188" width="384" height="307"/>
  <object id="909" gid="172" x="2600" y="10216" width="384" height="307"/>
  <object id="910" gid="172" x="2032" y="10174" width="384" height="307"/>
  <object id="1083" gid="164" x="3368" y="8548" width="384" height="307"/>
  <object id="1089" gid="171" x="3159.52" y="8602.48" width="384" height="307"/>
  <object id="1090" gid="152" x="3665.58" y="8626.73" width="384" height="307"/>
  <object id="1091" gid="152" x="3092.85" y="8866.12" width="384" height="307"/>
  <object id="1097" gid="152" x="3274.67" y="9369.15" width="384" height="307"/>
  <object id="1106" gid="153" x="3198.36" y="8771.17" width="384" height="307"/>
  <object id="1107" gid="1073741977" x="3197.39" y="9072.01" width="384" height="307"/>
  <object id="1133" gid="1073741966" x="2688" y="9984" width="384" height="307"/>
 </objectgroup>
 <objectgroup id="36" name="Fondo4-F2">
  <properties>
   <property name="BG" type="bool" value="true"/>
   <property name="Draw" type="bool" value="true"/>
   <property name="Front" type="bool" value="true"/>
  </properties>
  <object id="820" gid="178" x="-241.29" y="10485.5" width="2225.17" height="741"/>
  <object id="821" gid="2147483825" x="1378.71" y="10325.5" width="1806.58" height="601.606"/>
  <object id="1005" gid="2147483827" x="7861" y="9306.5" width="1024" height="341"/>
  <object id="1006" gid="178" x="8701" y="9322.5" width="1024" height="341"/>
  <object id="1007" gid="177" x="10299" y="8632.5" width="1024" height="341"/>
  <object id="1008" gid="2147483827" x="11165" y="8658.5" width="1024" height="341"/>
  <object id="1009" gid="178" x="12005" y="8674.5" width="1024" height="341"/>
  <object id="1057" gid="164" x="4406.91" y="8484.79" width="384" height="307"/>
  <object id="1061" gid="3221225615" x="4736" y="8448" width="499.075" height="399"/>
  <object id="1073" gid="166" x="2880" y="8814" width="384" height="307"/>
  <object id="1078" gid="169" x="2982.42" y="8611.09" width="641.744" height="513.061"/>
  <object id="1079" gid="162" x="3318.91" y="8512.36" width="691.018" height="552.455"/>
  <object id="1081" gid="1073741986" x="3033.28" y="9126.8" width="691.018" height="552.455"/>
  <object id="1082" gid="1073741986" x="3316.31" y="9039.53" width="691.018" height="552.455"/>
  <object id="1116" gid="1073741997" x="3028" y="9456" width="384" height="307"/>
  <object id="1118" gid="3221225645" x="3400" y="9442" width="384" height="307"/>
  <object id="1119" gid="152" x="3164" y="9530" width="384" height="307"/>
  <object id="1125" gid="160" x="2868" y="9754" width="384" height="307"/>
  <object id="1126" gid="1073741984" x="2874" y="10054" width="384" height="307"/>
  <object id="1128" gid="152" x="3020" y="9750" width="384" height="307"/>
  <object id="1154" gid="163" x="5068.61" y="8484.3" width="384" height="307"/>
  <object id="1161" gid="2147483802" x="9216" y="9168" width="1634.81" height="1307"/>
  <object id="1162" gid="178" x="9528" y="9325.5" width="1024" height="341"/>
  <object id="1163" gid="1073742002" x="8872" y="9647.96" width="1708" height="564.789"/>
 </objectgroup>
 <objectgroup id="46" name="M-FrontBack">
  <properties>
   <property name="BG" type="bool" value="true"/>
   <property name="Draw" type="bool" value="true"/>
   <property name="Front" type="bool" value="true"/>
   <property name="ParalaxX" type="float" value="1.1"/>
  </properties>
  <object id="1031" gid="3221225653" x="3968" y="11040" width="2467.46" height="2402"/>
  <object id="1167" gid="2147483829" x="6656" y="10112" width="2226.42" height="1152"/>
 </objectgroup>
 <objectgroup id="45" name="Fondo- Rocas Front">
  <properties>
   <property name="BG" type="bool" value="true"/>
   <property name="Draw" type="bool" value="true"/>
   <property name="Front" type="bool" value="true"/>
  </properties>
  <object id="1146" gid="153" x="4143.39" y="8631.35" width="696" height="556.438"/>
  <object id="1147" gid="155" x="4699.39" y="8631.35" width="1052" height="841.052"/>
  <object id="1148" gid="148" x="4595.39" y="8615.35" width="620" height="495.677"/>
  <object id="1149" gid="1073741970" x="4396" y="8923.47" width="384" height="307"/>
  <object id="1150" gid="1073741970" x="4767.39" y="8891.35" width="384" height="307"/>
  <object id="1151" gid="3221225625" x="5095.39" y="8919.35" width="424.026" height="339"/>
  <object id="1152" gid="1073741978" x="4479.39" y="8899.35" width="384" height="307"/>
  <object id="1169" gid="1073741970" x="5831.85" y="10193" width="1368.29" height="1093.92"/>
  <object id="1171" gid="2147483794" x="5835.86" y="9157.04" width="1368.29" height="1093.92"/>
  <object id="1173" gid="155" x="6878.67" y="8856.24" width="641.744" height="513.061"/>
  <object id="1174" gid="3221225627" x="6942.3" y="9365.21" width="641.744" height="513.061"/>
 </objectgroup>
 <objectgroup id="43" name="M-Front">
  <properties>
   <property name="BG" type="bool" value="true"/>
   <property name="Draw" type="bool" value="true"/>
   <property name="Front" type="bool" value="true"/>
   <property name="ParalaxX" type="float" value="1.1"/>
  </properties>
  <object id="1023" gid="181" x="2752" y="10240" width="2880" height="2126.95"/>
  <object id="1024" gid="2147483829" x="4784" y="10240" width="3136" height="2126.95"/>
  <object id="1164" gid="181" x="7424" y="10240" width="1977.08" height="1340.93"/>
 </objectgroup>
 <objectgroup id="35" name="NuvesFront" visible="0">
  <properties>
   <property name="BG" type="bool" value="true"/>
   <property name="Draw" type="bool" value="true"/>
   <property name="Front" type="bool" value="true"/>
  </properties>
  <object id="809" gid="138" x="1707.39" y="9611.03" width="1833.82" height="611.273"/>
  <object id="812" gid="138" x="1097.27" y="9176.61" width="1536" height="512"/>
  <object id="813" gid="2147483786" x="-304.364" y="9307.64" width="1536" height="512"/>
  <object id="814" gid="140" x="535.091" y="8836.42" width="1070.18" height="356.727"/>
  <object id="816" gid="2147483788" x="1990.85" y="8768.38" width="1512.61" height="504.202"/>
 </objectgroup>
 <objectgroup id="22" name="Fondo_05" visible="0">
  <properties>
   <property name="Draw" type="bool" value="true"/>
   <property name="Front" type="bool" value="true"/>
  </properties>
 </objectgroup>
 <objectgroup color="#aa0000" id="21" name="Spikes" visible="0">
  <properties>
   <property name="Danger" type="bool" value="true"/>
   <property name="Square" type="bool" value="true"/>
  </properties>
  <object id="393" x="9728" y="10035.5" width="3072" height="76.4848"/>
  <object id="396" x="19200" y="10026" width="256" height="86"/>
  <object id="397" x="19840" y="10024" width="640" height="88"/>
  <object id="398" x="20864" y="10024" width="768" height="88"/>
  <object id="399" x="22016" y="10028" width="896" height="84"/>
  <object id="401" x="16384" y="6060" width="4608" height="84"/>
  <object id="411" x="971.88" y="9746" width="972.121" height="110"/>
 </objectgroup>
 <objectgroup id="13" name="Path" visible="0">
  <properties>
   <property name="Path" type="bool" value="true"/>
   <property name="Sensor" type="bool" value="true"/>
   <property name="Square" type="bool" value="true"/>
  </properties>
  <object id="440" x="12160" y="-256" width="1536" height="128">
   <properties>
    <property name="TeleportTo" type="file" value="Mountain_02.tmx"/>
   </properties>
  </object>
  <object id="464" x="-256" y="9472" width="128" height="512">
   <properties>
    <property name="TeleportTo" type="file" value="Nexo.tmx"/>
   </properties>
  </object>
  <object id="465" x="8704" y="10368" width="768" height="128">
   <properties>
    <property name="TeleportTo" type="file" value="Catacombs_01_M.tmx"/>
   </properties>
  </object>
 </objectgroup>
 <objectgroup id="28" name="Rampa" visible="0">
  <properties>
   <property name="Polygon" type="bool" value="true"/>
  </properties>
  <object id="660" x="8960" y="6912">
   <polygon points="0,0 256,-128 256,0"/>
  </object>
  <object id="661" x="9216" y="6912">
   <polygon points="0,0 0,-128 128,-128 384,0"/>
  </object>
  <object id="686" x="9344" y="3200">
   <polygon points="0,0 128,128 128,0"/>
  </object>
  <object id="688" x="20352" y="4480">
   <polygon points="0,0 128,-128 0,-128 0,0"/>
  </object>
  <object id="689" x="18560" y="4480">
   <polygon points="0,0 0,-128 -128,-128"/>
  </object>
  <object id="690" x="18048" y="3968">
   <polygon points="0,0 -128,-128 0,-128"/>
  </object>
  <object id="691" x="18048" y="4224">
   <polygon points="0,0 128,0 128,128"/>
  </object>
  <object id="697" x="10112" y="4352">
   <polygon points="0,0 128,-128 0,-128"/>
  </object>
  <object id="703" x="3200" y="8704">
   <polygon points="0,0 128,0 128,128"/>
  </object>
  <object id="752" x="3145.33" y="8576">
   <polygon points="0,0 310.667,-128 310.667,0"/>
  </object>
  <object id="801" x="2304" y="9296">
   <polygon points="0,0 332,-84 628,32"/>
  </object>
  <object id="802" x="1548" y="8956">
   <polygon points="0,0 296,-136 596,-12"/>
  </object>
  <object id="803" x="2416" y="8572">
   <polygon points="0,0 417.073,-112 720,12"/>
  </object>
  <object id="806" x="136" y="9056">
   <polygon points="0,0 376,-96 632,32"/>
  </object>
  <object id="807" x="904" y="8696">
   <polygon points="0,0 200,-76 352,4"/>
  </object>
  <object id="1172" x="6656" y="8448">
   <polygon points="0,0 0,640 1280,640"/>
  </object>
 </objectgroup>
 <objectgroup color="#000000" id="20" name="Map" visible="0">
  <properties>
   <property name="Map" type="bool" value="true"/>
   <property name="Square" type="bool" value="true"/>
  </properties>
  <object id="171" x="-256" y="9984" width="3200" height="128"/>
  <object id="173" x="2944" y="9728" width="128" height="256"/>
  <object id="175" x="3072" y="9600" width="128" height="128"/>
  <object id="176" x="3200" y="9472" width="128" height="128"/>
  <object id="177" x="3328" y="9216" width="128" height="256"/>
  <object id="180" x="3456" y="8832" width="128" height="384"/>
  <object id="181" x="3200" y="8576" width="256" height="128"/>
  <object id="182" x="3456" y="8448" width="3200" height="128"/>
  <object id="186" x="7808" y="9088" width="2176" height="128"/>
  <object id="187" x="9984" y="8960" width="384" height="256"/>
  <object id="188" x="10240" y="8704" width="128" height="256"/>
  <object id="189" x="10368" y="8576" width="128" height="128"/>
  <object id="190" x="10496" y="8448" width="2304" height="128"/>
  <object id="191" x="12672" y="8576" width="512" height="128"/>
  <object id="192" x="13184" y="8704" width="128" height="384"/>
  <object id="193" x="10368" y="9088" width="2816" height="128"/>
  <object id="194" x="9088" y="9216" width="1280" height="128"/>
  <object id="195" x="8960" y="9344" width="128" height="128"/>
  <object id="196" x="8832" y="9472" width="128" height="128"/>
  <object id="197" x="8704" y="9600" width="128" height="128"/>
  <object id="198" x="8576" y="9728" width="128" height="768"/>
  <object id="199" x="9472" y="9984" width="256" height="512"/>
  <object id="200" x="9728" y="10112" width="13312" height="128"/>
  <object id="201" x="12800" y="9984" width="1024" height="128"/>
  <object id="202" x="10240" y="9856" width="128" height="128"/>
  <object id="203" x="11136" y="9856" width="128" height="128"/>
  <object id="204" x="12160" y="9856" width="128" height="128"/>
  <object id="205" x="13312" y="9856" width="512" height="128"/>
  <object id="206" x="13824" y="9728" width="5376" height="384"/>
  <object id="207" x="14080" y="9600" width="1664" height="128"/>
  <object id="209" x="17152" y="9600" width="1920" height="128"/>
  <object id="210" x="19072" y="8960" width="128" height="768"/>
  <object id="211" x="18048" y="9088" width="384" height="128"/>
  <object id="212" x="19200" y="8960" width="640" height="256"/>
  <object id="213" x="20352" y="9384" width="384" height="52"/>
  <object id="214" x="19456" y="9984" width="384" height="128"/>
  <object id="215" x="20480" y="9984" width="384" height="128"/>
  <object id="216" x="21632" y="9984" width="384" height="128"/>
  <object id="217" x="22528" y="9600" width="128" height="128"/>
  <object id="218" x="21760" y="9216" width="128" height="128"/>
  <object id="219" x="22528" y="8832" width="128" height="128"/>
  <object id="220" x="21888" y="8576" width="128" height="128"/>
  <object id="221" x="21120" y="7808" width="256" height="1664"/>
  <object id="222" x="19072" y="7936" width="2048" height="256"/>
  <object id="223" x="21376" y="8320" width="384" height="128"/>
  <object id="226" x="22912" y="1792" width="128" height="8320"/>
  <object id="227" x="15616" y="7680" width="7296" height="128"/>
  <object id="228" x="15616" y="7808" width="3584" height="128"/>
  <object id="229" x="14208" y="6656" width="256" height="2304"/>
  <object id="230" x="14464" y="6784" width="256" height="128"/>
  <object id="231" x="13952" y="7040" width="256" height="128"/>
  <object id="232" x="14464" y="7680" width="256" height="128"/>
  <object id="233" x="14848" y="7296" width="256" height="128"/>
  <object id="234" x="14848" y="8192" width="256" height="128"/>
  <object id="235" x="13568" y="7552" width="256" height="128"/>
  <object id="236" x="13952" y="8192" width="256" height="128"/>
  <object id="237" x="14464" y="8704" width="256" height="128"/>
  <object id="238" x="7040" y="8102" width="256" height="50"/>
  <object id="239" x="7554" y="7728" width="256" height="40"/>
  <object id="240" x="8192" y="7168" width="256" height="1152"/>
  <object id="241" x="8704" y="6912" width="3968" height="384"/>
  <object id="243" x="11648" y="6784" width="256" height="128"/>
  <object id="244" x="10752" y="6528" width="256" height="384"/>
  <object id="245" x="9984" y="6656" width="256" height="256"/>
  <object id="246" x="17280" y="7040" width="256" height="640"/>
  <object id="247" x="18560" y="7040" width="256" height="640"/>
  <object id="248" x="17536" y="7296" width="128" height="128"/>
  <object id="249" x="17152" y="7296" width="128" height="128"/>
  <object id="250" x="18432" y="7296" width="128" height="128"/>
  <object id="251" x="18816" y="7296" width="128" height="128"/>
  <object id="252" x="17920" y="6400" width="256" height="768"/>
  <object id="253" x="19840" y="6912" width="2304" height="256"/>
  <object id="254" x="22144" y="7040" width="256" height="128"/>
  <object id="255" x="19584" y="7040" width="256" height="128"/>
  <object id="256" x="22656" y="7296" width="256" height="128"/>
  <object id="257" x="22272" y="6528" width="256" height="128"/>
  <object id="258" x="21632" y="6144" width="256" height="128"/>
  <object id="259" x="20992" y="6016" width="256" height="128"/>
  <object id="260" x="16128" y="6016" width="256" height="128"/>
  <object id="261" x="16000" y="6144" width="5376" height="256"/>
  <object id="262" x="20992" y="5376" width="384" height="128"/>
  <object id="263" x="21632" y="4992" width="384" height="128"/>
  <object id="264" x="22144" y="4608" width="512" height="128"/>
  <object id="265" x="22784" y="4096" width="128" height="128"/>
  <object id="266" x="22144" y="2944" width="256" height="128"/>
  <object id="267" x="21248" y="2688" width="128" height="128"/>
  <object id="268" x="21376" y="3712" width="768" height="128"/>
  <object id="269" x="18176" y="3840" width="2688" height="512"/>
  <object id="270" x="20608" y="3584" width="384" height="256"/>
  <object id="271" x="17920" y="3584" width="384" height="256"/>
  <object id="272" x="20608" y="2688" width="256" height="384"/>
  <object id="273" x="18304" y="2432" width="2560" height="256"/>
  <object id="274" x="18048" y="1792" width="256" height="1280"/>
  <object id="275" x="17280" y="2944" width="384" height="128"/>
  <object id="276" x="15872" y="3072" width="384" height="128"/>
  <object id="277" x="14720" y="2816" width="384" height="128"/>
  <object id="278" x="13440" y="2560" width="384" height="128"/>
  <object id="279" x="12672" y="2048" width="512" height="128"/>
  <object id="280" x="12416" y="3840" width="512" height="128"/>
  <object id="281" x="11776" y="4352" width="384" height="128"/>
  <object id="282" x="10624" y="3968" width="384" height="128"/>
  <object id="283" x="16512" y="5760" width="4352" height="128"/>
  <object id="284" x="15360" y="5504" width="512" height="128"/>
  <object id="285" x="14464" y="5120" width="512" height="128"/>
  <object id="286" x="10880" y="4864" width="2816" height="256"/>
  <object id="287" x="8704" y="3072" width="384" height="128"/>
  <object id="289" x="9472" y="2816" width="2944" height="512"/>
  <object id="290" x="4864" y="1408" width="2432" height="256"/>
  <object id="291" x="12032" y="-128" width="384" height="2944"/>
  <object id="341" x="4736" y="1664" width="2432" height="128"/>
  <object id="342" x="4608" y="1792" width="2432" height="128"/>
  <object id="343" x="4480" y="1920" width="2560" height="128"/>
  <object id="344" x="4352" y="2048" width="2560" height="128"/>
  <object id="345" x="4224" y="2176" width="2560" height="128"/>
  <object id="346" x="4096" y="2560" width="2432" height="128"/>
  <object id="347" x="4864" y="2688" width="1536" height="128"/>
  <object id="348" x="5120" y="2816" width="1152" height="128"/>
  <object id="349" x="5760" y="2944" width="384" height="128"/>
  <object id="350" x="4224" y="2304" width="2432" height="128"/>
  <object id="351" x="4096" y="2432" width="2432" height="128"/>
  <object id="363" x="5760" y="3584" width="3840" height="256"/>
  <object id="364" x="5504" y="3840" width="3840" height="128"/>
  <object id="365" x="5504" y="3968" width="3200" height="128"/>
  <object id="366" x="5376" y="4096" width="2432" height="128"/>
  <object id="367" x="5376" y="4224" width="2176" height="128"/>
  <object id="368" x="5248" y="4352" width="2048" height="128"/>
  <object id="369" x="5120" y="4480" width="1920" height="128"/>
  <object id="370" x="5120" y="4608" width="1664" height="128"/>
  <object id="371" x="4992" y="4736" width="1408" height="128"/>
  <object id="372" x="4864" y="4864" width="1152" height="128"/>
  <object id="373" x="4736" y="4992" width="1024" height="128"/>
  <object id="374" x="4608" y="5120" width="896" height="128"/>
  <object id="375" x="4608" y="5248" width="640" height="128"/>
  <object id="376" x="4480" y="5376" width="640" height="128"/>
  <object id="377" x="4480" y="5504" width="512" height="128"/>
  <object id="378" x="4352" y="5632" width="512" height="128"/>
  <object id="379" x="4224" y="5760" width="512" height="128"/>
  <object id="380" x="4224" y="5888" width="256" height="128"/>
  <object id="381" x="4096" y="6016" width="256" height="128"/>
  <object id="382" x="3968" y="6144" width="256" height="128"/>
  <object id="383" x="3840" y="6272" width="256" height="128"/>
  <object id="384" x="3712" y="6528" width="256" height="256"/>
  <object id="386" x="3584" y="6784" width="384" height="256"/>
  <object id="387" x="3840" y="6400" width="128" height="128"/>
  <object id="388" x="3456" y="7040" width="1280" height="128"/>
  <object id="389" x="3456" y="7168" width="1280" height="128"/>
  <object id="390" x="3456" y="7296" width="1024" height="128"/>
  <object id="391" x="3456" y="7424" width="768" height="128"/>
  <object id="413" x="1024" y="9913.6" width="1152" height="70.4242"/>
  <object id="414" x="1049.09" y="9856" width="1079.15" height="73.4545"/>
  <object id="415" x="-256" y="0" width="256" height="9472"/>
  <object id="437" x="5632" y="3712" width="128" height="128"/>
  <object id="439" x="13440" y="-128" width="9600" height="1920"/>
  <object id="444" x="7296" y="1408" width="256" height="128"/>
  <object id="454" x="11648" y="1408" width="384" height="128"/>
  <object id="455" x="4992" y="1280" width="7040" height="128"/>
  <object id="456" x="5120" y="1024" width="6912" height="256"/>
  <object id="457" x="5248" y="896" width="6784" height="128"/>
  <object id="458" x="5376" y="768" width="6656" height="128"/>
  <object id="459" x="5504" y="512" width="6528" height="256"/>
  <object id="460" x="5632" y="384" width="6400" height="128"/>
  <object id="461" x="5760" y="256" width="6272" height="128"/>
  <object id="462" x="5888" y="128" width="6144" height="128"/>
  <object id="463" x="0" y="0" width="12032" height="128"/>
  <object id="467" x="19708" y="9638" width="384" height="52"/>
  <object id="468" x="8064" y="7424" width="128" height="128"/>
  <object id="469" x="22656" y="4224" width="256" height="128"/>
  <object id="470" x="12544" y="4736" width="256" height="128"/>
  <object id="471" x="17664" y="3328" width="128" height="128"/>
  <object id="644" x="8576" y="6916" width="128" height="252"/>
  <object id="675" x="9600" y="4096" width="512" height="256"/>
  <object id="676" x="9216" y="3968" width="768" height="128"/>
  <object id="677" x="9344" y="3840" width="512" height="128"/>
  <object id="678" x="9600" y="3712" width="128" height="128"/>
  <object id="680" x="19200" y="9216" width="384" height="256"/>
  <object id="681" x="19200" y="9472" width="256" height="128"/>
  <object id="682" x="19200" y="9600" width="128" height="256"/>
  <object id="683" x="18944" y="7936" width="128" height="128"/>
  <object id="684" x="9472" y="4096" width="128" height="128"/>
  <object id="685" x="9344" y="2816" width="128" height="384"/>
  <object id="687" x="18560" y="4352" width="1792" height="128"/>
  <object id="692" x="18048" y="3840" width="128" height="384"/>
  <object id="693" x="3328" y="8704" width="128" height="128"/>
  <object id="695" x="10112" y="4096" width="128" height="128"/>
 </objectgroup>
 <layer id="10" name="GroundNavLayer" width="180" height="80" visible="0">
  <properties>
   <property name="Ground" type="bool" value="true"/>
   <property name="Navigation" type="bool" value="true"/>
  </properties>
  <data>
   <tile/>
   <tile/>
   <tile/>
   <tile/>
   <tile/>
   <tile/>
   <tile/>
   <tile/>
   <tile/>
   <tile/>
   <tile/>
   <tile/>
   <tile/>
   <tile/>
   <tile/>
   <tile/>
   <tile/>
   <tile/>
   <tile/>
   <tile/>
   <tile/>
   <tile/>
   <tile/>
   <tile/>
   <tile/>
   <tile/>
   <tile/>
   <tile/>
   <tile/>
   <tile/>
   <tile/>
   <tile/>
   <tile/>
   <tile/>
   <tile/>
   <tile/>
   <tile/>
   <tile/>
   <tile/>
   <tile/>
   <tile/>
   <tile/>
   <tile/>
   <tile/>
   <tile/>
   <tile/>
   <tile/>
   <tile gid="65"/>
   <tile gid="65"/>
   <tile gid="65"/>
   <tile gid="65"/>
   <tile gid="65"/>
   <tile gid="65"/>
   <tile gid="65"/>
   <tile gid="65"/>
   <tile gid="65"/>
   <tile gid="65"/>
   <tile gid="65"/>
   <tile gid="65"/>
   <tile gid="65"/>
   <tile gid="65"/>
   <tile gid="65"/>
   <tile gid="65"/>
   <tile gid="65"/>
   <tile gid="65"/>
   <tile gid="65"/>
   <tile gid="65"/>
   <tile gid="65"/>
   <tile gid="65"/>
   <tile gid="65"/>
   <tile gid="65"/>
   <tile gid="65"/>
   <tile gid="65"/>
   <tile gid="65"/>
   <tile gid="65"/>
   <tile gid="65"/>
   <tile gid="65"/>
   <tile gid="65"/>
   <tile gid="65"/>
   <tile gid="65"/>
   <tile gid="65"/>
   <tile gid="65"/>
   <tile gid="65"/>
   <tile gid="65"/>
   <tile gid="65"/>
   <tile gid="65"/>
   <tile gid="65"/>
   <tile gid="65"/>
   <tile gid="65"/>
   <tile gid="65"/>
   <tile gid="65"/>
   <tile gid="65"/>
   <tile gid="65"/>
   <tile gid="65"/>
   <tile gid="65"/>
   <tile gid="65"/>
   <tile gid="65"/>
   <tile/>
   <tile/>
   <tile/>
   <tile/>
   <tile/>
   <tile/>
   <tile/>
   <tile/>
   <tile gid="65"/>
   <tile gid="65"/>
   <tile gid="65"/>
   <tile gid="65"/>
   <tile gid="65"/>
   <tile gid="65"/>
   <tile gid="65"/>
   <tile gid="65"/>
   <tile gid="65"/>
   <tile gid="65"/>
   <tile gid="65"/>
   <tile gid="65"/>
   <tile gid="65"/>
   <tile gid="65"/>
   <tile gid="65"/>
   <tile gid="65"/>
   <tile gid="65"/>
   <tile gid="65"/>
   <tile gid="65"/>
   <tile gid="65"/>
   <tile gid="65"/>
   <tile gid="65"/>
   <tile gid="65"/>
   <tile gid="65"/>
   <tile gid="65"/>
   <tile gid="65"/>
   <tile gid="65"/>
   <tile gid="65"/>
   <tile gid="65"/>
   <tile gid="65"/>
   <tile gid="65"/>
   <tile gid="65"/>
   <tile gid="65"/>
   <tile gid="65"/>
   <tile gid="65"/>
   <tile gid="65"/>
   <tile gid="65"/>
   <tile gid="65"/>
   <tile gid="65"/>
   <tile gid="65"/>
   <tile gid="65"/>
   <tile gid="65"/>
   <tile gid="65"/>
   <tile gid="65"/>
   <tile gid="65"/>
   <tile gid="65"/>
   <tile gid="65"/>
   <tile gid="65"/>
   <tile gid="65"/>
   <tile gid="65"/>
   <tile gid="65"/>
   <tile gid="65"/>
   <tile gid="65"/>
   <tile gid="65"/>
   <tile gid="65"/>
   <tile gid="65"/>
   <tile gid="65"/>
   <tile gid="65"/>
   <tile gid="65"/>
   <tile gid="65"/>
   <tile gid="65"/>
   <tile gid="65"/>
   <tile gid="65"/>
   <tile gid="65"/>
   <tile gid="65"/>
   <tile gid="65"/>
   <tile gid="65"/>
   <tile gid="65"/>
   <tile gid="65"/>
   <tile gid="65"/>
   <tile gid="65"/>
   <tile gid="65"/>
   <tile gid="65"/>
   <tile gid="65"/>
   <tile gid="65"/>
   <tile/>
   <tile/>
   <tile/>
   <tile/>
   <tile/>
   <tile/>
   <tile/>
   <tile/>
   <tile/>
   <tile/>
   <tile/>
   <tile/>
   <tile/>
   <tile/>
   <tile/>
   <tile/>
   <tile/>
   <tile/>
   <tile/>
   <tile/>
   <tile/>
   <tile/>
   <tile/>
   <tile/>
   <tile/>
   <tile/>
   <tile/>
   <tile/>
   <tile/>
   <tile/>
   <tile/>
   <tile/>
   <tile/>
   <tile/>
   <tile/>
   <tile/>
   <tile/>
   <tile/>
   <tile/>
   <tile/>
   <tile/>
   <tile/>
   <tile/>
   <tile/>
   <tile/>
   <tile/>
   <tile gid="65"/>
   <tile gid="65"/>
   <tile gid="65"/>
   <tile gid="65"/>
   <tile gid="65"/>
   <tile gid="65"/>
   <tile gid="65"/>
   <tile gid="65"/>
   <tile gid="65"/>
   <tile gid="65"/>
   <tile gid="65"/>
   <tile gid="65"/>
   <tile gid="65"/>
   <tile gid="65"/>
   <tile gid="65"/>
   <tile gid="65"/>
   <tile gid="65"/>
   <tile gid="65"/>
   <tile gid="65"/>
   <tile gid="65"/>
   <tile gid="65"/>
   <tile gid="65"/>
   <tile gid="65"/>
   <tile gid="65"/>
   <tile gid="65"/>
   <tile gid="65"/>
   <tile gid="65"/>
   <tile gid="65"/>
   <tile gid="65"/>
   <tile gid="65"/>
   <tile gid="65"/>
   <tile gid="65"/>
   <tile gid="65"/>
   <tile gid="65"/>
   <tile gid="65"/>
   <tile gid="65"/>
   <tile gid="65"/>
   <tile gid="65"/>
   <tile gid="65"/>
   <tile gid="65"/>
   <tile gid="65"/>
   <tile gid="65"/>
   <tile gid="65"/>
   <tile gid="65"/>
   <tile gid="65"/>
   <tile gid="65"/>
   <tile gid="65"/>
   <tile gid="65"/>
   <tile gid="65"/>
   <tile gid="65"/>
   <tile gid="65"/>
   <tile/>
   <tile/>
   <tile/>
   <tile/>
   <tile/>
   <tile/>
   <tile/>
   <tile/>
   <tile gid="65"/>
   <tile gid="65"/>
   <tile gid="65"/>
   <tile gid="65"/>
   <tile gid="65"/>
   <tile gid="65"/>
   <tile gid="65"/>
   <tile gid="65"/>
   <tile gid="65"/>
   <tile gid="65"/>
   <tile gid="65"/>
   <tile gid="65"/>
   <tile gid="65"/>
   <tile gid="65"/>
   <tile gid="65"/>
   <tile gid="65"/>
   <tile gid="65"/>
   <tile gid="65"/>
   <tile gid="65"/>
   <tile gid="65"/>
   <tile gid="65"/>
   <tile gid="65"/>
   <tile gid="65"/>
   <tile gid="65"/>
   <tile gid="65"/>
   <tile gid="65"/>
   <tile gid="65"/>
   <tile gid="65"/>
   <tile gid="65"/>
   <tile gid="65"/>
   <tile gid="65"/>
   <tile gid="65"/>
   <tile gid="65"/>
   <tile gid="65"/>
   <tile gid="65"/>
   <tile gid="65"/>
   <tile gid="65"/>
   <tile gid="65"/>
   <tile gid="65"/>
   <tile gid="65"/>
   <tile gid="65"/>
   <tile gid="65"/>
   <tile gid="65"/>
   <tile gid="65"/>
   <tile gid="65"/>
   <tile gid="65"/>
   <tile gid="65"/>
   <tile gid="65"/>
   <tile gid="65"/>
   <tile gid="65"/>
   <tile gid="65"/>
   <tile gid="65"/>
   <tile gid="65"/>
   <tile gid="65"/>
   <tile gid="65"/>
   <tile gid="65"/>
   <tile gid="65"/>
   <tile gid="65"/>
   <tile gid="65"/>
   <tile gid="65"/>
   <tile gid="65"/>
   <tile gid="65"/>
   <tile gid="65"/>
   <tile gid="65"/>
   <tile gid="65"/>
   <tile gid="65"/>
   <tile gid="65"/>
   <tile gid="65"/>
   <tile gid="65"/>
   <tile gid="65"/>
   <tile gid="65"/>
   <tile gid="65"/>
   <tile gid="65"/>
   <tile gid="65"/>
   <tile gid="65"/>
   <tile/>
   <tile/>
   <tile/>
   <tile/>
   <tile/>
   <tile/>
   <tile/>
   <tile/>
   <tile/>
   <tile/>
   <tile/>
   <tile/>
   <tile/>
   <tile/>
   <tile/>
   <tile/>
   <tile/>
   <tile/>
   <tile/>
   <tile/>
   <tile/>
   <tile/>
   <tile/>
   <tile/>
   <tile/>
   <tile/>
   <tile/>
   <tile/>
   <tile/>
   <tile/>
   <tile/>
   <tile/>
   <tile/>
   <tile/>
   <tile/>
   <tile/>
   <tile/>
   <tile/>
   <tile/>
   <tile/>
   <tile/>
   <tile/>
   <tile/>
   <tile/>
   <tile/>
   <tile gid="65"/>
   <tile gid="65"/>
   <tile gid="65"/>
   <tile gid="65"/>
   <tile gid="65"/>
   <tile gid="65"/>
   <tile gid="65"/>
   <tile gid="65"/>
   <tile gid="65"/>
   <tile gid="65"/>
   <tile gid="65"/>
   <tile gid="65"/>
   <tile gid="65"/>
   <tile gid="65"/>
   <tile gid="65"/>
   <tile gid="65"/>
   <tile gid="65"/>
   <tile gid="65"/>
   <tile gid="65"/>
   <tile gid="65"/>
   <tile gid="65"/>
   <tile gid="65"/>
   <tile gid="65"/>
   <tile gid="65"/>
   <tile gid="65"/>
   <tile gid="65"/>
   <tile gid="65"/>
   <tile gid="65"/>
   <tile gid="65"/>
   <tile gid="65"/>
   <tile gid="65"/>
   <tile gid="65"/>
   <tile gid="65"/>
   <tile gid="65"/>
   <tile gid="65"/>
   <tile gid="65"/>
   <tile gid="65"/>
   <tile gid="65"/>
   <tile gid="65"/>
   <tile gid="65"/>
   <tile gid="65"/>
   <tile gid="65"/>
   <tile gid="65"/>
   <tile gid="65"/>
   <tile gid="65"/>
   <tile gid="65"/>
   <tile gid="65"/>
   <tile gid="65"/>
   <tile gid="65"/>
   <tile gid="65"/>
   <tile gid="65"/>
   <tile gid="65"/>
   <tile/>
   <tile/>
   <tile/>
   <tile/>
   <tile/>
   <tile/>
   <tile/>
   <tile/>
   <tile gid="65"/>
   <tile gid="65"/>
   <tile gid="65"/>
   <tile gid="65"/>
   <tile gid="65"/>
   <tile gid="65"/>
   <tile gid="65"/>
   <tile gid="65"/>
   <tile gid="65"/>
   <tile gid="65"/>
   <tile gid="65"/>
   <tile gid="65"/>
   <tile gid="65"/>
   <tile gid="65"/>
   <tile gid="65"/>
   <tile gid="65"/>
   <tile gid="65"/>
   <tile gid="65"/>
   <tile gid="65"/>
   <tile gid="65"/>
   <tile gid="65"/>
   <tile gid="65"/>
   <tile gid="65"/>
   <tile gid="65"/>
   <tile gid="65"/>
   <tile gid="65"/>
   <tile gid="65"/>
   <tile gid="65"/>
   <tile gid="65"/>
   <tile gid="65"/>
   <tile gid="65"/>
   <tile gid="65"/>
   <tile gid="65"/>
   <tile gid="65"/>
   <tile gid="65"/>
   <tile gid="65"/>
   <tile gid="65"/>
   <tile gid="65"/>
   <tile gid="65"/>
   <tile gid="65"/>
   <tile gid="65"/>
   <tile gid="65"/>
   <tile gid="65"/>
   <tile gid="65"/>
   <tile gid="65"/>
   <tile gid="65"/>
   <tile gid="65"/>
   <tile gid="65"/>
   <tile gid="65"/>
   <tile gid="65"/>
   <tile gid="65"/>
   <tile gid="65"/>
   <tile gid="65"/>
   <tile gid="65"/>
   <tile gid="65"/>
   <tile gid="65"/>
   <tile gid="65"/>
   <tile gid="65"/>
   <tile gid="65"/>
   <tile gid="65"/>
   <tile gid="65"/>
   <tile gid="65"/>
   <tile gid="65"/>
   <tile gid="65"/>
   <tile gid="65"/>
   <tile gid="65"/>
   <tile gid="65"/>
   <tile gid="65"/>
   <tile gid="65"/>
   <tile gid="65"/>
   <tile gid="65"/>
   <tile gid="65"/>
   <tile gid="65"/>
   <tile gid="65"/>
   <tile gid="65"/>
   <tile/>
   <tile/>
   <tile/>
   <tile/>
   <tile/>
   <tile/>
   <tile/>
   <tile/>
   <tile/>
   <tile/>
   <tile/>
   <tile/>
   <tile/>
   <tile/>
   <tile/>
   <tile/>
   <tile/>
   <tile/>
   <tile/>
   <tile/>
   <tile/>
   <tile/>
   <tile/>
   <tile/>
   <tile/>
   <tile/>
   <tile/>
   <tile/>
   <tile/>
   <tile/>
   <tile/>
   <tile/>
   <tile/>
   <tile/>
   <tile/>
   <tile/>
   <tile/>
   <tile/>
   <tile/>
   <tile/>
   <tile/>
   <tile/>
   <tile/>
   <tile/>
   <tile gid="65"/>
   <tile gid="65"/>
   <tile gid="65"/>
   <tile gid="65"/>
   <tile gid="65"/>
   <tile gid="65"/>
   <tile gid="65"/>
   <tile gid="65"/>
   <tile gid="65"/>
   <tile gid="65"/>
   <tile gid="65"/>
   <tile gid="65"/>
   <tile gid="65"/>
   <tile gid="65"/>
   <tile gid="65"/>
   <tile gid="65"/>
   <tile gid="65"/>
   <tile gid="65"/>
   <tile gid="65"/>
   <tile gid="65"/>
   <tile gid="65"/>
   <tile gid="65"/>
   <tile gid="65"/>
   <tile gid="65"/>
   <tile gid="65"/>
   <tile gid="65"/>
   <tile gid="65"/>
   <tile gid="65"/>
   <tile gid="65"/>
   <tile gid="65"/>
   <tile gid="65"/>
   <tile gid="65"/>
   <tile gid="65"/>
   <tile gid="65"/>
   <tile gid="65"/>
   <tile gid="65"/>
   <tile gid="65"/>
   <tile gid="65"/>
   <tile gid="65"/>
   <tile gid="65"/>
   <tile gid="65"/>
   <tile gid="65"/>
   <tile gid="65"/>
   <tile gid="65"/>
   <tile gid="65"/>
   <tile gid="65"/>
   <tile gid="65"/>
   <tile gid="65"/>
   <tile gid="65"/>
   <tile gid="65"/>
   <tile gid="65"/>
   <tile gid="65"/>
   <tile gid="65"/>
   <tile/>
   <tile/>
   <tile/>
   <tile/>
   <tile/>
   <tile/>
   <tile/>
   <tile/>
   <tile gid="65"/>
   <tile gid="65"/>
   <tile gid="65"/>
   <tile gid="65"/>
   <tile gid="65"/>
   <tile gid="65"/>
   <tile gid="65"/>
   <tile gid="65"/>
   <tile gid="65"/>
   <tile gid="65"/>
   <tile gid="65"/>
   <tile gid="65"/>
   <tile gid="65"/>
   <tile gid="65"/>
   <tile gid="65"/>
   <tile gid="65"/>
   <tile gid="65"/>
   <tile gid="65"/>
   <tile gid="65"/>
   <tile gid="65"/>
   <tile gid="65"/>
   <tile gid="65"/>
   <tile gid="65"/>
   <tile gid="65"/>
   <tile gid="65"/>
   <tile gid="65"/>
   <tile gid="65"/>
   <tile gid="65"/>
   <tile gid="65"/>
   <tile gid="65"/>
   <tile gid="65"/>
   <tile gid="65"/>
   <tile gid="65"/>
   <tile gid="65"/>
   <tile gid="65"/>
   <tile gid="65"/>
   <tile gid="65"/>
   <tile gid="65"/>
   <tile gid="65"/>
   <tile gid="65"/>
   <tile gid="65"/>
   <tile gid="65"/>
   <tile gid="65"/>
   <tile gid="65"/>
   <tile gid="65"/>
   <tile gid="65"/>
   <tile gid="65"/>
   <tile gid="65"/>
   <tile gid="65"/>
   <tile gid="65"/>
   <tile gid="65"/>
   <tile gid="65"/>
   <tile gid="65"/>
   <tile gid="65"/>
   <tile gid="65"/>
   <tile gid="65"/>
   <tile gid="65"/>
   <tile gid="65"/>
   <tile gid="65"/>
   <tile gid="65"/>
   <tile gid="65"/>
   <tile gid="65"/>
   <tile gid="65"/>
   <tile gid="65"/>
   <tile gid="65"/>
   <tile gid="65"/>
   <tile gid="65"/>
   <tile gid="65"/>
   <tile gid="65"/>
   <tile gid="65"/>
   <tile gid="65"/>
   <tile gid="65"/>
   <tile gid="65"/>
   <tile gid="65"/>
   <tile gid="65"/>
   <tile/>
   <tile/>
   <tile/>
   <tile/>
   <tile/>
   <tile/>
   <tile/>
   <tile/>
   <tile/>
   <tile/>
   <tile/>
   <tile/>
   <tile/>
   <tile/>
   <tile/>
   <tile/>
   <tile/>
   <tile/>
   <tile/>
   <tile/>
   <tile/>
   <tile/>
   <tile/>
   <tile/>
   <tile/>
   <tile/>
   <tile/>
   <tile/>
   <tile/>
   <tile/>
   <tile/>
   <tile/>
   <tile/>
   <tile/>
   <tile/>
   <tile/>
   <tile/>
   <tile/>
   <tile/>
   <tile/>
   <tile/>
   <tile/>
   <tile/>
   <tile gid="65"/>
   <tile gid="65"/>
   <tile gid="65"/>
   <tile gid="65"/>
   <tile gid="65"/>
   <tile gid="65"/>
   <tile gid="65"/>
   <tile gid="65"/>
   <tile gid="65"/>
   <tile gid="65"/>
   <tile gid="65"/>
   <tile gid="65"/>
   <tile gid="65"/>
   <tile gid="65"/>
   <tile gid="65"/>
   <tile gid="65"/>
   <tile gid="65"/>
   <tile gid="65"/>
   <tile gid="65"/>
   <tile gid="65"/>
   <tile gid="65"/>
   <tile gid="65"/>
   <tile gid="65"/>
   <tile gid="65"/>
   <tile gid="65"/>
   <tile gid="65"/>
   <tile gid="65"/>
   <tile gid="65"/>
   <tile gid="65"/>
   <tile gid="65"/>
   <tile gid="65"/>
   <tile gid="65"/>
   <tile gid="65"/>
   <tile gid="65"/>
   <tile gid="65"/>
   <tile gid="65"/>
   <tile gid="65"/>
   <tile gid="65"/>
   <tile gid="65"/>
   <tile gid="65"/>
   <tile gid="65"/>
   <tile gid="65"/>
   <tile gid="65"/>
   <tile gid="65"/>
   <tile gid="65"/>
   <tile gid="65"/>
   <tile gid="65"/>
   <tile gid="65"/>
   <tile gid="65"/>
   <tile gid="65"/>
   <tile gid="65"/>
   <tile gid="65"/>
   <tile gid="65"/>
   <tile gid="65"/>
   <tile/>
   <tile/>
   <tile/>
   <tile/>
   <tile/>
   <tile/>
   <tile/>
   <tile/>
   <tile gid="65"/>
   <tile gid="65"/>
   <tile gid="65"/>
   <tile gid="65"/>
   <tile gid="65"/>
   <tile gid="65"/>
   <tile gid="65"/>
   <tile gid="65"/>
   <tile gid="65"/>
   <tile gid="65"/>
   <tile gid="65"/>
   <tile gid="65"/>
   <tile gid="65"/>
   <tile gid="65"/>
   <tile gid="65"/>
   <tile gid="65"/>
   <tile gid="65"/>
   <tile gid="65"/>
   <tile gid="65"/>
   <tile gid="65"/>
   <tile gid="65"/>
   <tile gid="65"/>
   <tile gid="65"/>
   <tile gid="65"/>
   <tile gid="65"/>
   <tile gid="65"/>
   <tile gid="65"/>
   <tile gid="65"/>
   <tile gid="65"/>
   <tile gid="65"/>
   <tile gid="65"/>
   <tile gid="65"/>
   <tile gid="65"/>
   <tile gid="65"/>
   <tile gid="65"/>
   <tile gid="65"/>
   <tile gid="65"/>
   <tile gid="65"/>
   <tile gid="65"/>
   <tile gid="65"/>
   <tile gid="65"/>
   <tile gid="65"/>
   <tile gid="65"/>
   <tile gid="65"/>
   <tile gid="65"/>
   <tile gid="65"/>
   <tile gid="65"/>
   <tile gid="65"/>
   <tile gid="65"/>
   <tile gid="65"/>
   <tile gid="65"/>
   <tile gid="65"/>
   <tile gid="65"/>
   <tile gid="65"/>
   <tile gid="65"/>
   <tile gid="65"/>
   <tile gid="65"/>
   <tile gid="65"/>
   <tile gid="65"/>
   <tile gid="65"/>
   <tile gid="65"/>
   <tile gid="65"/>
   <tile gid="65"/>
   <tile gid="65"/>
   <tile gid="65"/>
   <tile gid="65"/>
   <tile gid="65"/>
   <tile gid="65"/>
   <tile gid="65"/>
   <tile gid="65"/>
   <tile gid="65"/>
   <tile gid="65"/>
   <tile gid="65"/>
   <tile gid="65"/>
   <tile gid="65"/>
   <tile/>
   <tile/>
   <tile/>
   <tile/>
   <tile/>
   <tile/>
   <tile/>
   <tile/>
   <tile/>
   <tile/>
   <tile/>
   <tile/>
   <tile/>
   <tile/>
   <tile/>
   <tile/>
   <tile/>
   <tile/>
   <tile/>
   <tile/>
   <tile/>
   <tile/>
   <tile/>
   <tile/>
   <tile/>
   <tile/>
   <tile/>
   <tile/>
   <tile/>
   <tile/>
   <tile/>
   <tile/>
   <tile/>
   <tile/>
   <tile/>
   <tile/>
   <tile/>
   <tile/>
   <tile/>
   <tile/>
   <tile/>
   <tile/>
   <tile/>
   <tile gid="65"/>
   <tile gid="65"/>
   <tile gid="65"/>
   <tile gid="65"/>
   <tile gid="65"/>
   <tile gid="65"/>
   <tile gid="65"/>
   <tile gid="65"/>
   <tile gid="65"/>
   <tile gid="65"/>
   <tile gid="65"/>
   <tile gid="65"/>
   <tile gid="65"/>
   <tile gid="65"/>
   <tile gid="65"/>
   <tile gid="65"/>
   <tile gid="65"/>
   <tile gid="65"/>
   <tile gid="65"/>
   <tile gid="65"/>
   <tile gid="65"/>
   <tile gid="65"/>
   <tile gid="65"/>
   <tile gid="65"/>
   <tile gid="65"/>
   <tile gid="65"/>
   <tile gid="65"/>
   <tile gid="65"/>
   <tile gid="65"/>
   <tile gid="65"/>
   <tile gid="65"/>
   <tile gid="65"/>
   <tile gid="65"/>
   <tile gid="65"/>
   <tile gid="65"/>
   <tile gid="65"/>
   <tile gid="65"/>
   <tile gid="65"/>
   <tile gid="65"/>
   <tile gid="65"/>
   <tile gid="65"/>
   <tile gid="65"/>
   <tile gid="65"/>
   <tile gid="65"/>
   <tile gid="65"/>
   <tile gid="65"/>
   <tile gid="65"/>
   <tile gid="65"/>
   <tile gid="65"/>
   <tile gid="65"/>
   <tile gid="65"/>
   <tile gid="65"/>
   <tile gid="65"/>
   <tile gid="65"/>
   <tile/>
   <tile/>
   <tile/>
   <tile/>
   <tile/>
   <tile/>
   <tile/>
   <tile/>
   <tile gid="65"/>
   <tile gid="65"/>
   <tile gid="65"/>
   <tile gid="65"/>
   <tile gid="65"/>
   <tile gid="65"/>
   <tile gid="65"/>
   <tile gid="65"/>
   <tile gid="65"/>
   <tile gid="65"/>
   <tile gid="65"/>
   <tile gid="65"/>
   <tile gid="65"/>
   <tile gid="65"/>
   <tile gid="65"/>
   <tile gid="65"/>
   <tile gid="65"/>
   <tile gid="65"/>
   <tile gid="65"/>
   <tile gid="65"/>
   <tile gid="65"/>
   <tile gid="65"/>
   <tile gid="65"/>
   <tile gid="65"/>
   <tile gid="65"/>
   <tile gid="65"/>
   <tile gid="65"/>
   <tile gid="65"/>
   <tile gid="65"/>
   <tile gid="65"/>
   <tile gid="65"/>
   <tile gid="65"/>
   <tile gid="65"/>
   <tile gid="65"/>
   <tile gid="65"/>
   <tile gid="65"/>
   <tile gid="65"/>
   <tile gid="65"/>
   <tile gid="65"/>
   <tile gid="65"/>
   <tile gid="65"/>
   <tile gid="65"/>
   <tile gid="65"/>
   <tile gid="65"/>
   <tile gid="65"/>
   <tile gid="65"/>
   <tile gid="65"/>
   <tile gid="65"/>
   <tile gid="65"/>
   <tile gid="65"/>
   <tile gid="65"/>
   <tile gid="65"/>
   <tile gid="65"/>
   <tile gid="65"/>
   <tile gid="65"/>
   <tile gid="65"/>
   <tile gid="65"/>
   <tile gid="65"/>
   <tile gid="65"/>
   <tile gid="65"/>
   <tile gid="65"/>
   <tile gid="65"/>
   <tile gid="65"/>
   <tile gid="65"/>
   <tile gid="65"/>
   <tile gid="65"/>
   <tile gid="65"/>
   <tile gid="65"/>
   <tile gid="65"/>
   <tile gid="65"/>
   <tile gid="65"/>
   <tile gid="65"/>
   <tile gid="65"/>
   <tile gid="65"/>
   <tile gid="65"/>
   <tile/>
   <tile/>
   <tile/>
   <tile/>
   <tile/>
   <tile/>
   <tile/>
   <tile/>
   <tile/>
   <tile/>
   <tile/>
   <tile/>
   <tile/>
   <tile/>
   <tile/>
   <tile/>
   <tile/>
   <tile/>
   <tile/>
   <tile/>
   <tile/>
   <tile/>
   <tile/>
   <tile/>
   <tile/>
   <tile/>
   <tile/>
   <tile/>
   <tile/>
   <tile/>
   <tile/>
   <tile/>
   <tile/>
   <tile/>
   <tile/>
   <tile/>
   <tile/>
   <tile/>
   <tile/>
   <tile/>
   <tile/>
   <tile/>
   <tile gid="65"/>
   <tile gid="65"/>
   <tile gid="65"/>
   <tile gid="65"/>
   <tile gid="65"/>
   <tile gid="65"/>
   <tile gid="65"/>
   <tile gid="65"/>
   <tile gid="65"/>
   <tile gid="65"/>
   <tile gid="65"/>
   <tile gid="65"/>
   <tile gid="65"/>
   <tile gid="65"/>
   <tile gid="65"/>
   <tile gid="65"/>
   <tile gid="65"/>
   <tile gid="65"/>
   <tile gid="65"/>
   <tile gid="65"/>
   <tile gid="65"/>
   <tile gid="65"/>
   <tile gid="65"/>
   <tile gid="65"/>
   <tile gid="65"/>
   <tile gid="65"/>
   <tile gid="65"/>
   <tile gid="65"/>
   <tile gid="65"/>
   <tile gid="65"/>
   <tile gid="65"/>
   <tile gid="65"/>
   <tile gid="65"/>
   <tile gid="65"/>
   <tile gid="65"/>
   <tile gid="65"/>
   <tile gid="65"/>
   <tile gid="65"/>
   <tile gid="65"/>
   <tile gid="65"/>
   <tile gid="65"/>
   <tile gid="65"/>
   <tile gid="65"/>
   <tile gid="65"/>
   <tile gid="65"/>
   <tile gid="65"/>
   <tile gid="65"/>
   <tile gid="65"/>
   <tile gid="65"/>
   <tile gid="65"/>
   <tile gid="65"/>
   <tile gid="65"/>
   <tile gid="65"/>
   <tile gid="65"/>
   <tile gid="65"/>
   <tile/>
   <tile/>
   <tile/>
   <tile/>
   <tile/>
   <tile/>
   <tile/>
   <tile/>
   <tile gid="65"/>
   <tile gid="65"/>
   <tile gid="65"/>
   <tile gid="65"/>
   <tile gid="65"/>
   <tile gid="65"/>
   <tile gid="65"/>
   <tile gid="65"/>
   <tile gid="65"/>
   <tile gid="65"/>
   <tile gid="65"/>
   <tile gid="65"/>
   <tile gid="65"/>
   <tile gid="65"/>
   <tile gid="65"/>
   <tile gid="65"/>
   <tile gid="65"/>
   <tile gid="65"/>
   <tile gid="65"/>
   <tile gid="65"/>
   <tile gid="65"/>
   <tile gid="65"/>
   <tile gid="65"/>
   <tile gid="65"/>
   <tile gid="65"/>
   <tile gid="65"/>
   <tile gid="65"/>
   <tile gid="65"/>
   <tile gid="65"/>
   <tile gid="65"/>
   <tile gid="65"/>
   <tile gid="65"/>
   <tile gid="65"/>
   <tile gid="65"/>
   <tile gid="65"/>
   <tile gid="65"/>
   <tile gid="65"/>
   <tile gid="65"/>
   <tile gid="65"/>
   <tile gid="65"/>
   <tile gid="65"/>
   <tile gid="65"/>
   <tile gid="65"/>
   <tile gid="65"/>
   <tile gid="65"/>
   <tile gid="65"/>
   <tile gid="65"/>
   <tile gid="65"/>
   <tile gid="65"/>
   <tile gid="65"/>
   <tile gid="65"/>
   <tile gid="65"/>
   <tile gid="65"/>
   <tile gid="65"/>
   <tile gid="65"/>
   <tile gid="65"/>
   <tile gid="65"/>
   <tile gid="65"/>
   <tile gid="65"/>
   <tile gid="65"/>
   <tile gid="65"/>
   <tile gid="65"/>
   <tile gid="65"/>
   <tile gid="65"/>
   <tile gid="65"/>
   <tile gid="65"/>
   <tile gid="65"/>
   <tile gid="65"/>
   <tile gid="65"/>
   <tile gid="65"/>
   <tile gid="65"/>
   <tile gid="65"/>
   <tile gid="65"/>
   <tile gid="65"/>
   <tile gid="65"/>
   <tile/>
   <tile/>
   <tile/>
   <tile/>
   <tile/>
   <tile/>
   <tile/>
   <tile/>
   <tile/>
   <tile/>
   <tile/>
   <tile/>
   <tile/>
   <tile/>
   <tile/>
   <tile/>
   <tile/>
   <tile/>
   <tile/>
   <tile/>
   <tile/>
   <tile/>
   <tile/>
   <tile/>
   <tile/>
   <tile/>
   <tile/>
   <tile/>
   <tile/>
   <tile/>
   <tile/>
   <tile/>
   <tile/>
   <tile/>
   <tile/>
   <tile/>
   <tile/>
   <tile/>
   <tile/>
   <tile/>
   <tile/>
   <tile gid="65"/>
   <tile gid="65"/>
   <tile gid="65"/>
   <tile gid="65"/>
   <tile gid="65"/>
   <tile gid="65"/>
   <tile gid="65"/>
   <tile gid="65"/>
   <tile gid="65"/>
   <tile gid="65"/>
   <tile gid="65"/>
   <tile gid="65"/>
   <tile gid="65"/>
   <tile gid="65"/>
   <tile gid="65"/>
   <tile gid="65"/>
   <tile gid="65"/>
   <tile gid="65"/>
   <tile gid="65"/>
   <tile gid="65"/>
   <tile gid="65"/>
   <tile gid="65"/>
   <tile gid="65"/>
   <tile gid="65"/>
   <tile gid="65"/>
   <tile gid="65"/>
   <tile gid="65"/>
   <tile gid="65"/>
   <tile gid="65"/>
   <tile gid="65"/>
   <tile gid="65"/>
   <tile gid="65"/>
   <tile gid="65"/>
   <tile gid="65"/>
   <tile gid="65"/>
   <tile gid="65"/>
   <tile gid="65"/>
   <tile gid="65"/>
   <tile gid="65"/>
   <tile gid="65"/>
   <tile gid="65"/>
   <tile gid="65"/>
   <tile gid="65"/>
   <tile gid="65"/>
   <tile gid="65"/>
   <tile gid="65"/>
   <tile gid="65"/>
   <tile gid="65"/>
   <tile gid="65"/>
   <tile gid="65"/>
   <tile gid="65"/>
   <tile gid="65"/>
   <tile gid="65"/>
   <tile gid="65"/>
   <tile gid="65"/>
   <tile gid="65"/>
   <tile/>
   <tile/>
   <tile/>
   <tile/>
   <tile/>
   <tile/>
   <tile/>
   <tile/>
   <tile gid="65"/>
   <tile gid="65"/>
   <tile gid="65"/>
   <tile gid="65"/>
   <tile gid="65"/>
   <tile gid="65"/>
   <tile gid="65"/>
   <tile gid="65"/>
   <tile gid="65"/>
   <tile gid="65"/>
   <tile gid="65"/>
   <tile gid="65"/>
   <tile gid="65"/>
   <tile gid="65"/>
   <tile gid="65"/>
   <tile gid="65"/>
   <tile gid="65"/>
   <tile gid="65"/>
   <tile gid="65"/>
   <tile gid="65"/>
   <tile gid="65"/>
   <tile gid="65"/>
   <tile gid="65"/>
   <tile gid="65"/>
   <tile gid="65"/>
   <tile gid="65"/>
   <tile gid="65"/>
   <tile gid="65"/>
   <tile gid="65"/>
   <tile gid="65"/>
   <tile gid="65"/>
   <tile gid="65"/>
   <tile gid="65"/>
   <tile gid="65"/>
   <tile gid="65"/>
   <tile gid="65"/>
   <tile gid="65"/>
   <tile gid="65"/>
   <tile gid="65"/>
   <tile gid="65"/>
   <tile gid="65"/>
   <tile gid="65"/>
   <tile gid="65"/>
   <tile gid="65"/>
   <tile gid="65"/>
   <tile gid="65"/>
   <tile gid="65"/>
   <tile gid="65"/>
   <tile gid="65"/>
   <tile gid="65"/>
   <tile gid="65"/>
   <tile gid="65"/>
   <tile gid="65"/>
   <tile gid="65"/>
   <tile gid="65"/>
   <tile gid="65"/>
   <tile gid="65"/>
   <tile gid="65"/>
   <tile gid="65"/>
   <tile gid="65"/>
   <tile gid="65"/>
   <tile gid="65"/>
   <tile gid="65"/>
   <tile gid="65"/>
   <tile gid="65"/>
   <tile gid="65"/>
   <tile gid="65"/>
   <tile gid="65"/>
   <tile gid="65"/>
   <tile gid="65"/>
   <tile gid="65"/>
   <tile gid="65"/>
   <tile gid="65"/>
   <tile gid="65"/>
   <tile gid="65"/>
   <tile/>
   <tile/>
   <tile/>
   <tile/>
   <tile/>
   <tile/>
   <tile/>
   <tile/>
   <tile/>
   <tile/>
   <tile/>
   <tile/>
   <tile/>
   <tile/>
   <tile/>
   <tile/>
   <tile/>
   <tile/>
   <tile/>
   <tile/>
   <tile/>
   <tile/>
   <tile/>
   <tile/>
   <tile/>
   <tile/>
   <tile/>
   <tile/>
   <tile/>
   <tile/>
   <tile/>
   <tile/>
   <tile/>
   <tile/>
   <tile/>
   <tile/>
   <tile/>
   <tile/>
   <tile/>
   <tile/>
   <tile gid="65"/>
   <tile gid="65"/>
   <tile gid="65"/>
   <tile gid="65"/>
   <tile gid="65"/>
   <tile gid="65"/>
   <tile gid="65"/>
   <tile gid="65"/>
   <tile gid="65"/>
   <tile gid="65"/>
   <tile gid="65"/>
   <tile gid="65"/>
   <tile gid="65"/>
   <tile gid="65"/>
   <tile gid="65"/>
   <tile gid="65"/>
   <tile gid="65"/>
   <tile gid="65"/>
   <tile gid="65"/>
   <tile gid="65"/>
   <tile gid="65"/>
   <tile gid="65"/>
   <tile gid="65"/>
   <tile gid="65"/>
   <tile gid="65"/>
   <tile gid="65"/>
   <tile gid="65"/>
   <tile gid="65"/>
   <tile gid="65"/>
   <tile gid="65"/>
   <tile gid="65"/>
   <tile gid="65"/>
   <tile gid="65"/>
   <tile gid="65"/>
   <tile gid="65"/>
   <tile gid="65"/>
   <tile gid="65"/>
   <tile gid="65"/>
   <tile gid="65"/>
   <tile gid="65"/>
   <tile gid="65"/>
   <tile gid="65"/>
   <tile gid="65"/>
   <tile gid="65"/>
   <tile gid="65"/>
   <tile gid="65"/>
   <tile gid="65"/>
   <tile gid="65"/>
   <tile gid="65"/>
   <tile gid="65"/>
   <tile gid="65"/>
   <tile gid="65"/>
   <tile gid="65"/>
   <tile gid="65"/>
   <tile gid="65"/>
   <tile gid="65"/>
   <tile gid="65"/>
   <tile/>
   <tile/>
   <tile/>
   <tile/>
   <tile/>
   <tile/>
   <tile/>
   <tile/>
   <tile gid="65"/>
   <tile gid="65"/>
   <tile gid="65"/>
   <tile gid="65"/>
   <tile gid="65"/>
   <tile gid="65"/>
   <tile gid="65"/>
   <tile gid="65"/>
   <tile gid="65"/>
   <tile gid="65"/>
   <tile gid="65"/>
   <tile gid="65"/>
   <tile gid="65"/>
   <tile gid="65"/>
   <tile gid="65"/>
   <tile gid="65"/>
   <tile gid="65"/>
   <tile gid="65"/>
   <tile gid="65"/>
   <tile gid="65"/>
   <tile gid="65"/>
   <tile gid="65"/>
   <tile gid="65"/>
   <tile gid="65"/>
   <tile gid="65"/>
   <tile gid="65"/>
   <tile gid="65"/>
   <tile gid="65"/>
   <tile gid="65"/>
   <tile gid="65"/>
   <tile gid="65"/>
   <tile gid="65"/>
   <tile gid="65"/>
   <tile gid="65"/>
   <tile gid="65"/>
   <tile gid="65"/>
   <tile gid="65"/>
   <tile gid="65"/>
   <tile gid="65"/>
   <tile gid="65"/>
   <tile gid="65"/>
   <tile gid="65"/>
   <tile gid="65"/>
   <tile gid="65"/>
   <tile gid="65"/>
   <tile gid="65"/>
   <tile gid="65"/>
   <tile gid="65"/>
   <tile gid="65"/>
   <tile gid="65"/>
   <tile gid="65"/>
   <tile gid="65"/>
   <tile gid="65"/>
   <tile gid="65"/>
   <tile gid="65"/>
   <tile gid="65"/>
   <tile gid="65"/>
   <tile gid="65"/>
   <tile gid="65"/>
   <tile gid="65"/>
   <tile gid="65"/>
   <tile gid="65"/>
   <tile gid="65"/>
   <tile gid="65"/>
   <tile gid="65"/>
   <tile gid="65"/>
   <tile gid="65"/>
   <tile gid="65"/>
   <tile gid="65"/>
   <tile gid="65"/>
   <tile gid="65"/>
   <tile gid="65"/>
   <tile gid="65"/>
   <tile gid="65"/>
   <tile gid="65"/>
   <tile/>
   <tile/>
   <tile/>
   <tile/>
   <tile/>
   <tile/>
   <tile/>
   <tile/>
   <tile/>
   <tile/>
   <tile/>
   <tile/>
   <tile/>
   <tile/>
   <tile/>
   <tile/>
   <tile/>
   <tile/>
   <tile/>
   <tile/>
   <tile/>
   <tile/>
   <tile/>
   <tile/>
   <tile/>
   <tile/>
   <tile/>
   <tile/>
   <tile/>
   <tile/>
   <tile/>
   <tile/>
   <tile/>
   <tile/>
   <tile/>
   <tile/>
   <tile/>
   <tile/>
   <tile/>
   <tile/>
   <tile gid="65"/>
   <tile gid="65"/>
   <tile gid="65"/>
   <tile gid="65"/>
   <tile gid="65"/>
   <tile gid="65"/>
   <tile gid="65"/>
   <tile gid="65"/>
   <tile gid="65"/>
   <tile gid="65"/>
   <tile gid="65"/>
   <tile gid="65"/>
   <tile gid="65"/>
   <tile gid="65"/>
   <tile gid="65"/>
   <tile gid="65"/>
   <tile gid="65"/>
   <tile gid="65"/>
   <tile gid="65"/>
   <tile gid="65"/>
   <tile gid="65"/>
   <tile gid="65"/>
   <tile gid="65"/>
   <tile gid="65"/>
   <tile gid="65"/>
   <tile gid="65"/>
   <tile gid="65"/>
   <tile gid="65"/>
   <tile gid="65"/>
   <tile gid="65"/>
   <tile gid="65"/>
   <tile gid="65"/>
   <tile gid="65"/>
   <tile gid="65"/>
   <tile gid="65"/>
   <tile gid="65"/>
   <tile gid="65"/>
   <tile gid="65"/>
   <tile gid="65"/>
   <tile gid="65"/>
   <tile gid="65"/>
   <tile gid="65"/>
   <tile gid="65"/>
   <tile gid="65"/>
   <tile gid="65"/>
   <tile gid="65"/>
   <tile gid="65"/>
   <tile gid="65"/>
   <tile gid="65"/>
   <tile gid="65"/>
   <tile gid="65"/>
   <tile gid="65"/>
   <tile gid="65"/>
   <tile gid="65"/>
   <tile gid="65"/>
   <tile gid="65"/>
   <tile gid="65"/>
   <tile/>
   <tile/>
   <tile/>
   <tile/>
   <tile/>
   <tile/>
   <tile/>
   <tile/>
   <tile gid="65"/>
   <tile gid="65"/>
   <tile gid="65"/>
   <tile gid="65"/>
   <tile gid="65"/>
   <tile gid="65"/>
   <tile gid="65"/>
   <tile gid="65"/>
   <tile gid="65"/>
   <tile gid="65"/>
   <tile gid="65"/>
   <tile gid="65"/>
   <tile gid="65"/>
   <tile gid="65"/>
   <tile gid="65"/>
   <tile gid="65"/>
   <tile gid="65"/>
   <tile gid="65"/>
   <tile gid="65"/>
   <tile gid="65"/>
   <tile gid="65"/>
   <tile gid="65"/>
   <tile gid="65"/>
   <tile gid="65"/>
   <tile gid="65"/>
   <tile gid="65"/>
   <tile gid="65"/>
   <tile gid="65"/>
   <tile gid="65"/>
   <tile gid="65"/>
   <tile gid="65"/>
   <tile gid="65"/>
   <tile gid="65"/>
   <tile gid="65"/>
   <tile gid="65"/>
   <tile gid="65"/>
   <tile gid="65"/>
   <tile gid="65"/>
   <tile gid="65"/>
   <tile gid="65"/>
   <tile gid="65"/>
   <tile gid="65"/>
   <tile gid="65"/>
   <tile gid="65"/>
   <tile gid="65"/>
   <tile gid="65"/>
   <tile gid="65"/>
   <tile gid="65"/>
   <tile gid="65"/>
   <tile gid="65"/>
   <tile gid="65"/>
   <tile gid="65"/>
   <tile gid="65"/>
   <tile gid="65"/>
   <tile gid="65"/>
   <tile gid="65"/>
   <tile gid="65"/>
   <tile gid="65"/>
   <tile gid="65"/>
   <tile gid="65"/>
   <tile gid="65"/>
   <tile gid="65"/>
   <tile gid="65"/>
   <tile gid="65"/>
   <tile gid="65"/>
   <tile gid="65"/>
   <tile gid="65"/>
   <tile gid="65"/>
   <tile gid="65"/>
   <tile gid="65"/>
   <tile gid="65"/>
   <tile gid="65"/>
   <tile gid="65"/>
   <tile gid="65"/>
   <tile gid="65"/>
   <tile/>
   <tile/>
   <tile/>
   <tile/>
   <tile/>
   <tile/>
   <tile/>
   <tile/>
   <tile/>
   <tile/>
   <tile/>
   <tile/>
   <tile/>
   <tile/>
   <tile/>
   <tile/>
   <tile/>
   <tile/>
   <tile/>
   <tile/>
   <tile/>
   <tile/>
   <tile/>
   <tile/>
   <tile/>
   <tile/>
   <tile/>
   <tile/>
   <tile/>
   <tile/>
   <tile/>
   <tile/>
   <tile/>
   <tile/>
   <tile/>
   <tile/>
   <tile/>
   <tile/>
   <tile/>
   <tile gid="65"/>
   <tile gid="65"/>
   <tile gid="65"/>
   <tile gid="65"/>
   <tile gid="65"/>
   <tile gid="65"/>
   <tile gid="65"/>
   <tile gid="65"/>
   <tile gid="65"/>
   <tile gid="65"/>
   <tile gid="65"/>
   <tile gid="65"/>
   <tile gid="65"/>
   <tile gid="65"/>
   <tile gid="65"/>
   <tile gid="65"/>
   <tile gid="65"/>
   <tile gid="65"/>
   <tile gid="65"/>
   <tile gid="65"/>
   <tile gid="65"/>
   <tile gid="65"/>
   <tile gid="65"/>
   <tile gid="65"/>
   <tile gid="65"/>
   <tile gid="65"/>
   <tile gid="65"/>
   <tile gid="65"/>
   <tile gid="65"/>
   <tile gid="65"/>
   <tile gid="65"/>
   <tile gid="65"/>
   <tile gid="65"/>
   <tile gid="65"/>
   <tile gid="65"/>
   <tile gid="65"/>
   <tile gid="65"/>
   <tile gid="65"/>
   <tile gid="65"/>
   <tile gid="65"/>
   <tile gid="65"/>
   <tile gid="65"/>
   <tile gid="65"/>
   <tile gid="65"/>
   <tile gid="65"/>
   <tile gid="65"/>
   <tile gid="65"/>
   <tile gid="65"/>
   <tile gid="65"/>
   <tile gid="65"/>
   <tile gid="65"/>
   <tile gid="65"/>
   <tile gid="65"/>
   <tile gid="65"/>
   <tile gid="65"/>
   <tile gid="65"/>
   <tile gid="65"/>
   <tile gid="65"/>
   <tile/>
   <tile/>
   <tile/>
   <tile/>
   <tile/>
   <tile/>
   <tile/>
   <tile/>
   <tile gid="65"/>
   <tile gid="65"/>
   <tile gid="65"/>
   <tile gid="65"/>
   <tile gid="65"/>
   <tile gid="65"/>
   <tile gid="65"/>
   <tile gid="65"/>
   <tile gid="65"/>
   <tile gid="65"/>
   <tile gid="65"/>
   <tile gid="65"/>
   <tile gid="65"/>
   <tile gid="65"/>
   <tile gid="65"/>
   <tile gid="65"/>
   <tile gid="65"/>
   <tile gid="65"/>
   <tile gid="65"/>
   <tile gid="65"/>
   <tile gid="65"/>
   <tile gid="65"/>
   <tile gid="65"/>
   <tile gid="65"/>
   <tile gid="65"/>
   <tile gid="65"/>
   <tile gid="65"/>
   <tile gid="65"/>
   <tile gid="65"/>
   <tile gid="65"/>
   <tile gid="65"/>
   <tile gid="65"/>
   <tile gid="65"/>
   <tile gid="65"/>
   <tile gid="65"/>
   <tile gid="65"/>
   <tile gid="65"/>
   <tile gid="65"/>
   <tile gid="65"/>
   <tile gid="65"/>
   <tile gid="65"/>
   <tile gid="65"/>
   <tile gid="65"/>
   <tile gid="65"/>
   <tile gid="65"/>
   <tile gid="65"/>
   <tile gid="65"/>
   <tile gid="65"/>
   <tile gid="65"/>
   <tile gid="65"/>
   <tile gid="65"/>
   <tile gid="65"/>
   <tile gid="65"/>
   <tile gid="65"/>
   <tile gid="65"/>
   <tile gid="65"/>
   <tile gid="65"/>
   <tile gid="65"/>
   <tile gid="65"/>
   <tile gid="65"/>
   <tile gid="65"/>
   <tile gid="65"/>
   <tile gid="65"/>
   <tile gid="65"/>
   <tile gid="65"/>
   <tile gid="65"/>
   <tile gid="65"/>
   <tile gid="65"/>
   <tile gid="65"/>
   <tile gid="65"/>
   <tile gid="65"/>
   <tile gid="65"/>
   <tile gid="65"/>
   <tile gid="65"/>
   <tile gid="65"/>
   <tile/>
   <tile/>
   <tile/>
   <tile/>
   <tile/>
   <tile/>
   <tile/>
   <tile/>
   <tile/>
   <tile/>
   <tile/>
   <tile/>
   <tile/>
   <tile/>
   <tile/>
   <tile/>
   <tile/>
   <tile/>
   <tile/>
   <tile/>
   <tile/>
   <tile/>
   <tile/>
   <tile/>
   <tile/>
   <tile/>
   <tile/>
   <tile/>
   <tile/>
   <tile/>
   <tile/>
   <tile/>
   <tile/>
   <tile/>
   <tile/>
   <tile/>
   <tile/>
   <tile/>
   <tile gid="65"/>
   <tile gid="65"/>
   <tile gid="65"/>
   <tile gid="65"/>
   <tile gid="65"/>
   <tile gid="65"/>
   <tile gid="65"/>
   <tile gid="65"/>
   <tile gid="65"/>
   <tile gid="65"/>
   <tile gid="65"/>
   <tile gid="65"/>
   <tile gid="65"/>
   <tile gid="65"/>
   <tile gid="65"/>
   <tile gid="65"/>
   <tile gid="65"/>
   <tile gid="65"/>
   <tile gid="65"/>
   <tile gid="65"/>
   <tile gid="65"/>
   <tile/>
   <tile/>
   <tile/>
   <tile/>
   <tile/>
   <tile/>
   <tile/>
   <tile/>
   <tile/>
   <tile/>
   <tile/>
   <tile/>
   <tile/>
   <tile/>
   <tile/>
   <tile/>
   <tile/>
   <tile/>
   <tile/>
   <tile/>
   <tile/>
   <tile/>
   <tile/>
   <tile/>
   <tile/>
   <tile/>
   <tile/>
   <tile/>
   <tile/>
   <tile/>
   <tile/>
   <tile/>
   <tile gid="65"/>
   <tile gid="65"/>
   <tile gid="65"/>
   <tile gid="65"/>
   <tile gid="65"/>
   <tile gid="65"/>
   <tile/>
   <tile/>
   <tile/>
   <tile/>
   <tile/>
   <tile/>
   <tile/>
   <tile/>
   <tile gid="65"/>
   <tile gid="65"/>
   <tile gid="65"/>
   <tile gid="65"/>
   <tile gid="65"/>
   <tile gid="65"/>
   <tile gid="65"/>
   <tile gid="65"/>
   <tile gid="65"/>
   <tile gid="65"/>
   <tile gid="65"/>
   <tile gid="65"/>
   <tile gid="65"/>
   <tile gid="65"/>
   <tile gid="65"/>
   <tile gid="65"/>
   <tile gid="65"/>
   <tile gid="65"/>
   <tile gid="65"/>
   <tile gid="65"/>
   <tile gid="65"/>
   <tile gid="65"/>
   <tile gid="65"/>
   <tile gid="65"/>
   <tile gid="65"/>
   <tile gid="65"/>
   <tile gid="65"/>
   <tile gid="65"/>
   <tile gid="65"/>
   <tile gid="65"/>
   <tile gid="65"/>
   <tile gid="65"/>
   <tile gid="65"/>
   <tile gid="65"/>
   <tile gid="65"/>
   <tile gid="65"/>
   <tile gid="65"/>
   <tile gid="65"/>
   <tile gid="65"/>
   <tile gid="65"/>
   <tile gid="65"/>
   <tile gid="65"/>
   <tile gid="65"/>
   <tile gid="65"/>
   <tile gid="65"/>
   <tile gid="65"/>
   <tile gid="65"/>
   <tile gid="65"/>
   <tile gid="65"/>
   <tile gid="65"/>
   <tile gid="65"/>
   <tile gid="65"/>
   <tile gid="65"/>
   <tile gid="65"/>
   <tile gid="65"/>
   <tile gid="65"/>
   <tile gid="65"/>
   <tile gid="65"/>
   <tile gid="65"/>
   <tile gid="65"/>
   <tile gid="65"/>
   <tile gid="65"/>
   <tile gid="65"/>
   <tile gid="65"/>
   <tile gid="65"/>
   <tile gid="65"/>
   <tile gid="65"/>
   <tile gid="65"/>
   <tile gid="65"/>
   <tile gid="65"/>
   <tile gid="65"/>
   <tile gid="65"/>
   <tile gid="65"/>
   <tile gid="65"/>
   <tile gid="65"/>
   <tile/>
   <tile/>
   <tile/>
   <tile/>
   <tile/>
   <tile/>
   <tile/>
   <tile/>
   <tile/>
   <tile/>
   <tile/>
   <tile/>
   <tile/>
   <tile/>
   <tile/>
   <tile/>
   <tile/>
   <tile/>
   <tile/>
   <tile/>
   <tile/>
   <tile/>
   <tile/>
   <tile/>
   <tile/>
   <tile/>
   <tile/>
   <tile/>
   <tile/>
   <tile/>
   <tile/>
   <tile/>
   <tile/>
   <tile/>
   <tile/>
   <tile/>
   <tile/>
   <tile/>
   <tile gid="65"/>
   <tile gid="65"/>
   <tile gid="65"/>
   <tile gid="65"/>
   <tile gid="65"/>
   <tile gid="65"/>
   <tile gid="65"/>
   <tile gid="65"/>
   <tile gid="65"/>
   <tile gid="65"/>
   <tile gid="65"/>
   <tile gid="65"/>
   <tile gid="65"/>
   <tile gid="65"/>
   <tile gid="65"/>
   <tile gid="65"/>
   <tile gid="65"/>
   <tile gid="65"/>
   <tile gid="65"/>
   <tile/>
   <tile/>
   <tile/>
   <tile/>
   <tile/>
   <tile/>
   <tile/>
   <tile/>
   <tile/>
   <tile/>
   <tile/>
   <tile/>
   <tile/>
   <tile/>
   <tile/>
   <tile/>
   <tile/>
   <tile/>
   <tile/>
   <tile/>
   <tile/>
   <tile/>
   <tile/>
   <tile/>
   <tile/>
   <tile/>
   <tile/>
   <tile/>
   <tile/>
   <tile/>
   <tile/>
   <tile/>
   <tile/>
   <tile/>
   <tile/>
   <tile/>
   <tile/>
   <tile gid="65"/>
   <tile gid="65"/>
   <tile gid="65"/>
   <tile/>
   <tile/>
   <tile/>
   <tile/>
   <tile/>
   <tile/>
   <tile/>
   <tile/>
   <tile gid="65"/>
   <tile gid="65"/>
   <tile gid="65"/>
   <tile gid="65"/>
   <tile gid="65"/>
   <tile gid="65"/>
   <tile gid="65"/>
   <tile gid="65"/>
   <tile gid="65"/>
   <tile gid="65"/>
   <tile gid="65"/>
   <tile gid="65"/>
   <tile gid="65"/>
   <tile gid="65"/>
   <tile gid="65"/>
   <tile gid="65"/>
   <tile gid="65"/>
   <tile gid="65"/>
   <tile gid="65"/>
   <tile gid="65"/>
   <tile gid="65"/>
   <tile gid="65"/>
   <tile gid="65"/>
   <tile gid="65"/>
   <tile gid="65"/>
   <tile gid="65"/>
   <tile gid="65"/>
   <tile gid="65"/>
   <tile gid="65"/>
   <tile gid="65"/>
   <tile gid="65"/>
   <tile gid="65"/>
   <tile gid="65"/>
   <tile gid="65"/>
   <tile gid="65"/>
   <tile gid="65"/>
   <tile gid="65"/>
   <tile gid="65"/>
   <tile gid="65"/>
   <tile gid="65"/>
   <tile gid="65"/>
   <tile gid="65"/>
   <tile gid="65"/>
   <tile gid="65"/>
   <tile gid="65"/>
   <tile gid="65"/>
   <tile gid="65"/>
   <tile gid="65"/>
   <tile gid="65"/>
   <tile gid="65"/>
   <tile gid="65"/>
   <tile gid="65"/>
   <tile gid="65"/>
   <tile gid="65"/>
   <tile gid="65"/>
   <tile gid="65"/>
   <tile gid="65"/>
   <tile gid="65"/>
   <tile gid="65"/>
   <tile gid="65"/>
   <tile gid="65"/>
   <tile gid="65"/>
   <tile gid="65"/>
   <tile gid="65"/>
   <tile gid="65"/>
   <tile gid="65"/>
   <tile gid="65"/>
   <tile gid="65"/>
   <tile gid="65"/>
   <tile gid="65"/>
   <tile gid="65"/>
   <tile gid="65"/>
   <tile gid="65"/>
   <tile gid="65"/>
   <tile gid="65"/>
   <tile/>
   <tile/>
   <tile/>
   <tile/>
   <tile/>
   <tile/>
   <tile/>
   <tile/>
   <tile/>
   <tile/>
   <tile/>
   <tile/>
   <tile/>
   <tile/>
   <tile/>
   <tile/>
   <tile/>
   <tile/>
   <tile/>
   <tile/>
   <tile/>
   <tile/>
   <tile/>
   <tile/>
   <tile/>
   <tile/>
   <tile/>
   <tile/>
   <tile/>
   <tile/>
   <tile/>
   <tile/>
   <tile/>
   <tile/>
   <tile/>
   <tile/>
   <tile/>
   <tile gid="65"/>
   <tile gid="65"/>
   <tile gid="65"/>
   <tile gid="65"/>
   <tile gid="65"/>
   <tile gid="65"/>
   <tile gid="65"/>
   <tile gid="65"/>
   <tile gid="65"/>
   <tile gid="65"/>
   <tile gid="65"/>
   <tile gid="65"/>
   <tile gid="65"/>
   <tile gid="65"/>
   <tile gid="65"/>
   <tile gid="65"/>
   <tile gid="65"/>
   <tile gid="65"/>
   <tile gid="65"/>
   <tile/>
   <tile/>
   <tile/>
   <tile/>
   <tile/>
   <tile/>
   <tile/>
   <tile/>
   <tile/>
   <tile/>
   <tile/>
   <tile/>
   <tile/>
   <tile/>
   <tile/>
   <tile/>
   <tile/>
   <tile/>
   <tile/>
   <tile/>
   <tile/>
   <tile/>
   <tile/>
   <tile/>
   <tile/>
   <tile/>
   <tile/>
   <tile/>
   <tile/>
   <tile/>
   <tile/>
   <tile/>
   <tile/>
   <tile/>
   <tile/>
   <tile/>
   <tile/>
   <tile/>
   <tile gid="65"/>
   <tile gid="65"/>
   <tile gid="65"/>
   <tile/>
   <tile/>
   <tile/>
   <tile/>
   <tile/>
   <tile/>
   <tile/>
   <tile/>
   <tile gid="65"/>
   <tile gid="65"/>
   <tile gid="65"/>
   <tile gid="65"/>
   <tile gid="65"/>
   <tile gid="65"/>
   <tile gid="65"/>
   <tile gid="65"/>
   <tile gid="65"/>
   <tile gid="65"/>
   <tile gid="65"/>
   <tile gid="65"/>
   <tile gid="65"/>
   <tile gid="65"/>
   <tile gid="65"/>
   <tile gid="65"/>
   <tile gid="65"/>
   <tile gid="65"/>
   <tile gid="65"/>
   <tile gid="65"/>
   <tile gid="65"/>
   <tile gid="65"/>
   <tile gid="65"/>
   <tile gid="65"/>
   <tile gid="65"/>
   <tile gid="65"/>
   <tile gid="65"/>
   <tile gid="65"/>
   <tile gid="65"/>
   <tile gid="65"/>
   <tile gid="65"/>
   <tile gid="65"/>
   <tile gid="65"/>
   <tile gid="65"/>
   <tile gid="65"/>
   <tile gid="65"/>
   <tile gid="65"/>
   <tile gid="65"/>
   <tile gid="65"/>
   <tile gid="65"/>
   <tile gid="65"/>
   <tile gid="65"/>
   <tile gid="65"/>
   <tile gid="65"/>
   <tile gid="65"/>
   <tile gid="65"/>
   <tile gid="65"/>
   <tile gid="65"/>
   <tile gid="65"/>
   <tile gid="65"/>
   <tile gid="65"/>
   <tile gid="65"/>
   <tile gid="65"/>
   <tile gid="65"/>
   <tile gid="65"/>
   <tile gid="65"/>
   <tile gid="65"/>
   <tile gid="65"/>
   <tile gid="65"/>
   <tile gid="65"/>
   <tile gid="65"/>
   <tile gid="65"/>
   <tile gid="65"/>
   <tile gid="65"/>
   <tile gid="65"/>
   <tile gid="65"/>
   <tile gid="65"/>
   <tile gid="65"/>
   <tile gid="65"/>
   <tile gid="65"/>
   <tile gid="65"/>
   <tile gid="65"/>
   <tile gid="65"/>
   <tile gid="65"/>
   <tile gid="65"/>
   <tile/>
   <tile/>
   <tile/>
   <tile/>
   <tile/>
   <tile/>
   <tile/>
   <tile/>
   <tile/>
   <tile/>
   <tile/>
   <tile/>
   <tile/>
   <tile/>
   <tile/>
   <tile/>
   <tile/>
   <tile/>
   <tile/>
   <tile/>
   <tile/>
   <tile/>
   <tile/>
   <tile/>
   <tile/>
   <tile/>
   <tile/>
   <tile/>
   <tile/>
   <tile/>
   <tile/>
   <tile/>
   <tile/>
   <tile/>
   <tile/>
   <tile/>
   <tile gid="65"/>
   <tile gid="65"/>
   <tile gid="65"/>
   <tile gid="65"/>
   <tile gid="65"/>
   <tile gid="65"/>
   <tile gid="65"/>
   <tile gid="65"/>
   <tile gid="65"/>
   <tile gid="65"/>
   <tile gid="65"/>
   <tile gid="65"/>
   <tile gid="65"/>
   <tile gid="65"/>
   <tile gid="65"/>
   <tile gid="65"/>
   <tile gid="65"/>
   <tile gid="65"/>
   <tile gid="65"/>
   <tile/>
   <tile/>
   <tile/>
   <tile/>
   <tile/>
   <tile/>
   <tile/>
   <tile/>
   <tile/>
   <tile/>
   <tile/>
   <tile/>
   <tile/>
   <tile/>
   <tile/>
   <tile/>
   <tile/>
   <tile/>
   <tile/>
   <tile/>
   <tile/>
   <tile/>
   <tile/>
   <tile/>
   <tile/>
   <tile/>
   <tile/>
   <tile/>
   <tile/>
   <tile/>
   <tile/>
   <tile/>
   <tile/>
   <tile/>
   <tile/>
   <tile/>
   <tile/>
   <tile/>
   <tile/>
   <tile gid="65"/>
   <tile gid="65"/>
   <tile gid="65"/>
   <tile/>
   <tile/>
   <tile/>
   <tile/>
   <tile/>
   <tile/>
   <tile/>
   <tile/>
   <tile/>
   <tile/>
   <tile/>
   <tile/>
   <tile/>
   <tile/>
   <tile/>
   <tile/>
   <tile/>
   <tile/>
   <tile/>
   <tile/>
   <tile/>
   <tile/>
   <tile/>
   <tile/>
   <tile/>
   <tile/>
   <tile/>
   <tile/>
   <tile/>
   <tile/>
   <tile/>
   <tile/>
   <tile/>
   <tile/>
   <tile/>
   <tile/>
   <tile/>
   <tile/>
   <tile/>
   <tile/>
   <tile/>
   <tile/>
   <tile/>
   <tile/>
   <tile gid="65"/>
   <tile gid="65"/>
   <tile/>
   <tile/>
   <tile/>
   <tile/>
   <tile/>
   <tile/>
   <tile/>
   <tile/>
   <tile/>
   <tile/>
   <tile/>
   <tile/>
   <tile/>
   <tile/>
   <tile/>
   <tile/>
   <tile/>
   <tile/>
   <tile/>
   <tile/>
   <tile/>
   <tile/>
   <tile/>
   <tile/>
   <tile/>
   <tile/>
   <tile/>
   <tile/>
   <tile/>
   <tile/>
   <tile/>
   <tile/>
   <tile/>
   <tile/>
   <tile/>
   <tile/>
   <tile gid="65"/>
   <tile/>
   <tile/>
   <tile/>
   <tile/>
   <tile/>
   <tile/>
   <tile/>
   <tile/>
   <tile/>
   <tile/>
   <tile/>
   <tile/>
   <tile/>
   <tile/>
   <tile/>
   <tile/>
   <tile/>
   <tile/>
   <tile/>
   <tile/>
   <tile/>
   <tile/>
   <tile/>
   <tile/>
   <tile/>
   <tile/>
   <tile/>
   <tile/>
   <tile/>
   <tile/>
   <tile/>
   <tile/>
   <tile/>
   <tile/>
   <tile/>
   <tile gid="65"/>
   <tile gid="65"/>
   <tile gid="65"/>
   <tile gid="65"/>
   <tile gid="65"/>
   <tile gid="65"/>
   <tile gid="65"/>
   <tile gid="65"/>
   <tile gid="65"/>
   <tile gid="65"/>
   <tile gid="65"/>
   <tile gid="65"/>
   <tile gid="65"/>
   <tile gid="65"/>
   <tile gid="65"/>
   <tile gid="65"/>
   <tile gid="65"/>
   <tile gid="65"/>
   <tile gid="65"/>
   <tile gid="65"/>
   <tile/>
   <tile/>
   <tile/>
   <tile/>
   <tile/>
   <tile/>
   <tile/>
   <tile/>
   <tile/>
   <tile/>
   <tile/>
   <tile/>
   <tile/>
   <tile/>
   <tile/>
   <tile/>
   <tile/>
   <tile/>
   <tile/>
   <tile/>
   <tile/>
   <tile/>
   <tile/>
   <tile/>
   <tile/>
   <tile/>
   <tile/>
   <tile/>
   <tile/>
   <tile/>
   <tile/>
   <tile/>
   <tile/>
   <tile/>
   <tile/>
   <tile/>
   <tile/>
   <tile/>
   <tile/>
   <tile gid="65"/>
   <tile gid="65"/>
   <tile gid="65"/>
   <tile/>
   <tile/>
   <tile/>
   <tile/>
   <tile/>
   <tile/>
   <tile/>
   <tile/>
   <tile/>
   <tile/>
   <tile/>
   <tile/>
   <tile/>
   <tile/>
   <tile/>
   <tile/>
   <tile/>
   <tile/>
   <tile/>
   <tile/>
   <tile/>
   <tile/>
   <tile/>
   <tile/>
   <tile/>
   <tile/>
   <tile/>
   <tile/>
   <tile/>
   <tile/>
   <tile/>
   <tile/>
   <tile/>
   <tile/>
   <tile/>
   <tile/>
   <tile/>
   <tile/>
   <tile/>
   <tile/>
   <tile/>
   <tile/>
   <tile/>
   <tile/>
   <tile gid="65"/>
   <tile gid="65"/>
   <tile/>
   <tile/>
   <tile/>
   <tile/>
   <tile/>
   <tile/>
   <tile/>
   <tile/>
   <tile/>
   <tile/>
   <tile/>
   <tile/>
   <tile/>
   <tile/>
   <tile/>
   <tile/>
   <tile/>
   <tile/>
   <tile/>
   <tile/>
   <tile/>
   <tile/>
   <tile/>
   <tile/>
   <tile/>
   <tile/>
   <tile/>
   <tile/>
   <tile/>
   <tile/>
   <tile/>
   <tile/>
   <tile/>
   <tile/>
   <tile/>
   <tile/>
   <tile gid="65"/>
   <tile/>
   <tile/>
   <tile/>
   <tile/>
   <tile/>
   <tile/>
   <tile/>
   <tile/>
   <tile/>
   <tile/>
   <tile/>
   <tile/>
   <tile/>
   <tile/>
   <tile/>
   <tile/>
   <tile/>
   <tile/>
   <tile/>
   <tile/>
   <tile/>
   <tile/>
   <tile/>
   <tile/>
   <tile/>
   <tile/>
   <tile/>
   <tile/>
   <tile/>
   <tile/>
   <tile/>
   <tile/>
   <tile/>
   <tile/>
   <tile gid="65"/>
   <tile gid="65"/>
   <tile gid="65"/>
   <tile gid="65"/>
   <tile gid="65"/>
   <tile gid="65"/>
   <tile gid="65"/>
   <tile gid="65"/>
   <tile gid="65"/>
   <tile gid="65"/>
   <tile gid="65"/>
   <tile gid="65"/>
   <tile gid="65"/>
   <tile gid="65"/>
   <tile gid="65"/>
   <tile gid="65"/>
   <tile gid="65"/>
   <tile gid="65"/>
   <tile gid="65"/>
   <tile gid="65"/>
   <tile/>
   <tile/>
   <tile/>
   <tile/>
   <tile/>
   <tile/>
   <tile/>
   <tile/>
   <tile/>
   <tile/>
   <tile/>
   <tile/>
   <tile/>
   <tile/>
   <tile/>
   <tile/>
   <tile/>
   <tile/>
   <tile/>
   <tile/>
   <tile/>
   <tile/>
   <tile/>
   <tile/>
   <tile/>
   <tile/>
   <tile/>
   <tile/>
   <tile/>
   <tile/>
   <tile/>
   <tile/>
   <tile/>
   <tile/>
   <tile/>
   <tile/>
   <tile/>
   <tile/>
   <tile/>
   <tile/>
   <tile gid="65"/>
   <tile gid="65"/>
   <tile gid="65"/>
   <tile/>
   <tile/>
   <tile gid="65"/>
   <tile gid="65"/>
   <tile gid="65"/>
   <tile gid="65"/>
   <tile/>
   <tile/>
   <tile/>
   <tile/>
   <tile/>
   <tile/>
   <tile/>
   <tile/>
   <tile/>
   <tile/>
   <tile/>
   <tile/>
   <tile/>
   <tile/>
   <tile/>
   <tile/>
   <tile/>
   <tile/>
   <tile/>
   <tile/>
   <tile/>
   <tile/>
   <tile/>
   <tile/>
   <tile/>
   <tile/>
   <tile/>
   <tile/>
   <tile/>
   <tile/>
   <tile/>
   <tile/>
   <tile/>
   <tile/>
   <tile/>
   <tile/>
   <tile/>
   <tile/>
   <tile gid="65"/>
   <tile gid="65"/>
   <tile/>
   <tile/>
   <tile/>
   <tile/>
   <tile/>
   <tile/>
   <tile/>
   <tile/>
   <tile/>
   <tile/>
   <tile/>
   <tile/>
   <tile/>
   <tile/>
   <tile/>
   <tile/>
   <tile/>
   <tile/>
   <tile/>
   <tile/>
   <tile/>
   <tile/>
   <tile/>
   <tile/>
   <tile/>
   <tile/>
   <tile/>
   <tile/>
   <tile/>
   <tile/>
   <tile/>
   <tile/>
   <tile/>
   <tile/>
   <tile/>
   <tile/>
   <tile gid="65"/>
   <tile/>
   <tile/>
   <tile/>
   <tile/>
   <tile/>
   <tile/>
   <tile/>
   <tile/>
   <tile/>
   <tile/>
   <tile/>
   <tile/>
   <tile/>
   <tile/>
   <tile/>
   <tile/>
   <tile/>
   <tile/>
   <tile/>
   <tile/>
   <tile/>
   <tile/>
   <tile/>
   <tile/>
   <tile/>
   <tile/>
   <tile/>
   <tile/>
   <tile/>
   <tile/>
   <tile/>
   <tile/>
   <tile/>
   <tile gid="65"/>
   <tile gid="65"/>
   <tile gid="65"/>
   <tile gid="65"/>
   <tile gid="65"/>
   <tile gid="65"/>
   <tile gid="65"/>
   <tile gid="65"/>
   <tile gid="65"/>
   <tile gid="65"/>
   <tile gid="65"/>
   <tile gid="65"/>
   <tile gid="65"/>
   <tile gid="65"/>
   <tile gid="65"/>
   <tile gid="65"/>
   <tile gid="65"/>
   <tile gid="65"/>
   <tile gid="65"/>
   <tile gid="65"/>
   <tile/>
   <tile/>
   <tile/>
   <tile/>
   <tile/>
   <tile/>
   <tile/>
   <tile/>
   <tile/>
   <tile/>
   <tile/>
   <tile/>
   <tile/>
   <tile/>
   <tile/>
   <tile/>
   <tile/>
   <tile/>
   <tile/>
   <tile/>
   <tile/>
   <tile/>
   <tile/>
   <tile/>
   <tile/>
   <tile/>
   <tile/>
   <tile/>
   <tile/>
   <tile/>
   <tile/>
   <tile/>
   <tile/>
   <tile/>
   <tile/>
   <tile/>
   <tile/>
   <tile/>
   <tile/>
   <tile/>
   <tile/>
   <tile gid="65"/>
   <tile gid="65"/>
   <tile gid="65"/>
   <tile/>
   <tile/>
   <tile/>
   <tile/>
   <tile/>
   <tile/>
   <tile/>
   <tile/>
   <tile/>
   <tile/>
   <tile/>
   <tile/>
   <tile/>
   <tile/>
   <tile/>
   <tile/>
   <tile/>
   <tile/>
   <tile/>
   <tile/>
   <tile/>
   <tile/>
   <tile/>
   <tile/>
   <tile/>
   <tile/>
   <tile/>
   <tile/>
   <tile/>
   <tile/>
   <tile/>
   <tile/>
   <tile/>
   <tile/>
   <tile/>
   <tile/>
   <tile/>
   <tile/>
   <tile/>
   <tile/>
   <tile/>
   <tile/>
   <tile/>
   <tile/>
   <tile gid="65"/>
   <tile gid="65"/>
   <tile/>
   <tile/>
   <tile/>
   <tile/>
   <tile/>
   <tile/>
   <tile/>
   <tile/>
   <tile/>
   <tile/>
   <tile/>
   <tile/>
   <tile/>
   <tile/>
   <tile/>
   <tile/>
   <tile/>
   <tile/>
   <tile/>
   <tile/>
   <tile/>
   <tile/>
   <tile/>
   <tile/>
   <tile/>
   <tile/>
   <tile/>
   <tile/>
   <tile/>
   <tile/>
   <tile/>
   <tile/>
   <tile/>
   <tile/>
   <tile/>
   <tile/>
   <tile gid="65"/>
   <tile/>
   <tile/>
   <tile/>
   <tile/>
   <tile/>
   <tile/>
   <tile/>
   <tile/>
   <tile/>
   <tile/>
   <tile/>
   <tile/>
   <tile/>
   <tile/>
   <tile/>
   <tile/>
   <tile/>
   <tile/>
   <tile/>
   <tile/>
   <tile/>
   <tile/>
   <tile/>
   <tile/>
   <tile/>
   <tile/>
   <tile/>
   <tile/>
   <tile/>
   <tile/>
   <tile/>
   <tile/>
   <tile/>
   <tile gid="65"/>
   <tile gid="65"/>
   <tile gid="65"/>
   <tile gid="65"/>
   <tile gid="65"/>
   <tile gid="65"/>
   <tile gid="65"/>
   <tile gid="65"/>
   <tile gid="65"/>
   <tile gid="65"/>
   <tile gid="65"/>
   <tile gid="65"/>
   <tile gid="65"/>
   <tile gid="65"/>
   <tile gid="65"/>
   <tile gid="65"/>
   <tile gid="65"/>
   <tile gid="65"/>
   <tile gid="65"/>
   <tile/>
   <tile/>
   <tile/>
   <tile/>
   <tile/>
   <tile/>
   <tile/>
   <tile/>
   <tile/>
   <tile/>
   <tile/>
   <tile/>
   <tile/>
   <tile/>
   <tile/>
   <tile/>
   <tile/>
   <tile/>
   <tile/>
   <tile/>
   <tile/>
   <tile/>
   <tile/>
   <tile/>
   <tile/>
   <tile/>
   <tile/>
   <tile/>
   <tile/>
   <tile/>
   <tile/>
   <tile/>
   <tile/>
   <tile/>
   <tile/>
   <tile/>
   <tile/>
   <tile/>
   <tile/>
   <tile/>
   <tile/>
   <tile/>
   <tile gid="65"/>
   <tile gid="65"/>
   <tile gid="65"/>
   <tile/>
   <tile/>
   <tile/>
   <tile/>
   <tile/>
   <tile/>
   <tile/>
   <tile/>
   <tile/>
   <tile/>
   <tile/>
   <tile/>
   <tile/>
   <tile/>
   <tile/>
   <tile/>
   <tile/>
   <tile/>
   <tile/>
   <tile/>
   <tile/>
   <tile/>
   <tile/>
   <tile/>
   <tile/>
   <tile/>
   <tile/>
   <tile/>
   <tile/>
   <tile/>
   <tile/>
   <tile/>
   <tile/>
   <tile/>
   <tile/>
   <tile/>
   <tile/>
   <tile/>
   <tile/>
   <tile/>
   <tile/>
   <tile/>
   <tile/>
   <tile/>
   <tile gid="65"/>
   <tile gid="65"/>
   <tile/>
   <tile/>
   <tile/>
   <tile/>
   <tile/>
   <tile/>
   <tile/>
   <tile/>
   <tile/>
   <tile/>
   <tile/>
   <tile/>
   <tile/>
   <tile/>
   <tile/>
   <tile/>
   <tile/>
   <tile/>
   <tile/>
   <tile/>
   <tile/>
   <tile/>
   <tile/>
   <tile/>
   <tile/>
   <tile/>
   <tile/>
   <tile/>
   <tile/>
   <tile/>
   <tile/>
   <tile/>
   <tile/>
   <tile/>
   <tile/>
   <tile/>
   <tile gid="65"/>
   <tile/>
   <tile/>
   <tile/>
   <tile/>
   <tile/>
   <tile/>
   <tile/>
   <tile/>
   <tile/>
   <tile/>
   <tile/>
   <tile/>
   <tile/>
   <tile/>
   <tile/>
   <tile/>
   <tile/>
   <tile/>
   <tile/>
   <tile/>
   <tile/>
   <tile/>
   <tile/>
   <tile/>
   <tile/>
   <tile/>
   <tile/>
   <tile/>
   <tile/>
   <tile/>
   <tile/>
   <tile/>
   <tile gid="65"/>
   <tile gid="65"/>
   <tile gid="65"/>
   <tile gid="65"/>
   <tile gid="65"/>
   <tile gid="65"/>
   <tile gid="65"/>
   <tile gid="65"/>
   <tile gid="65"/>
   <tile gid="65"/>
   <tile gid="65"/>
   <tile gid="65"/>
   <tile gid="65"/>
   <tile gid="65"/>
   <tile gid="65"/>
   <tile gid="65"/>
   <tile gid="65"/>
   <tile gid="65"/>
   <tile gid="65"/>
   <tile/>
   <tile/>
   <tile/>
   <tile/>
   <tile/>
   <tile/>
   <tile/>
   <tile/>
   <tile/>
   <tile/>
   <tile/>
   <tile/>
   <tile/>
   <tile/>
   <tile/>
   <tile/>
   <tile/>
   <tile/>
   <tile/>
   <tile/>
   <tile/>
   <tile/>
   <tile/>
   <tile/>
   <tile/>
   <tile/>
   <tile/>
   <tile/>
   <tile/>
   <tile/>
   <tile/>
   <tile/>
   <tile/>
   <tile/>
   <tile/>
   <tile/>
   <tile/>
   <tile/>
   <tile/>
   <tile/>
   <tile/>
   <tile/>
   <tile/>
   <tile gid="65"/>
   <tile gid="65"/>
   <tile gid="65"/>
   <tile/>
   <tile/>
   <tile/>
   <tile/>
   <tile/>
   <tile/>
   <tile/>
   <tile/>
   <tile/>
   <tile/>
   <tile/>
   <tile/>
   <tile/>
   <tile/>
   <tile/>
   <tile/>
   <tile/>
   <tile/>
   <tile/>
   <tile/>
   <tile/>
   <tile/>
   <tile/>
   <tile/>
   <tile/>
   <tile/>
   <tile/>
   <tile/>
   <tile/>
   <tile/>
   <tile/>
   <tile/>
   <tile/>
   <tile/>
   <tile/>
   <tile/>
   <tile/>
   <tile/>
   <tile/>
   <tile/>
   <tile/>
   <tile/>
   <tile/>
   <tile/>
   <tile gid="65"/>
   <tile gid="65"/>
   <tile gid="65"/>
   <tile gid="65"/>
   <tile gid="65"/>
   <tile gid="65"/>
   <tile gid="65"/>
   <tile gid="65"/>
   <tile gid="65"/>
   <tile gid="65"/>
   <tile gid="65"/>
   <tile gid="65"/>
   <tile gid="65"/>
   <tile gid="65"/>
   <tile gid="65"/>
   <tile gid="65"/>
   <tile gid="65"/>
   <tile gid="65"/>
   <tile gid="65"/>
   <tile gid="65"/>
   <tile gid="65"/>
   <tile gid="65"/>
   <tile/>
   <tile/>
   <tile/>
   <tile/>
   <tile/>
   <tile/>
   <tile/>
   <tile/>
   <tile/>
   <tile/>
   <tile/>
   <tile/>
   <tile/>
   <tile/>
   <tile/>
   <tile/>
   <tile gid="65"/>
   <tile/>
   <tile/>
   <tile/>
   <tile/>
   <tile/>
   <tile/>
   <tile/>
   <tile/>
   <tile/>
   <tile/>
   <tile/>
   <tile/>
   <tile/>
   <tile/>
   <tile/>
   <tile/>
   <tile/>
   <tile/>
   <tile/>
   <tile/>
   <tile/>
   <tile/>
   <tile/>
   <tile/>
   <tile/>
   <tile/>
   <tile/>
   <tile/>
   <tile/>
   <tile/>
   <tile/>
   <tile/>
   <tile gid="65"/>
   <tile gid="65"/>
   <tile gid="65"/>
   <tile gid="65"/>
   <tile gid="65"/>
   <tile gid="65"/>
   <tile gid="65"/>
   <tile gid="65"/>
   <tile gid="65"/>
   <tile gid="65"/>
   <tile gid="65"/>
   <tile gid="65"/>
   <tile gid="65"/>
   <tile gid="65"/>
   <tile gid="65"/>
   <tile gid="65"/>
   <tile gid="65"/>
   <tile gid="65"/>
   <tile gid="65"/>
   <tile/>
   <tile/>
   <tile/>
   <tile/>
   <tile/>
   <tile/>
   <tile/>
   <tile/>
   <tile/>
   <tile/>
   <tile/>
   <tile/>
   <tile/>
   <tile/>
   <tile/>
   <tile/>
   <tile/>
   <tile/>
   <tile/>
   <tile/>
   <tile/>
   <tile/>
   <tile/>
   <tile/>
   <tile/>
   <tile/>
   <tile/>
   <tile/>
   <tile/>
   <tile/>
   <tile/>
   <tile/>
   <tile/>
   <tile/>
   <tile/>
   <tile/>
   <tile/>
   <tile/>
   <tile/>
   <tile/>
   <tile/>
   <tile/>
   <tile/>
   <tile gid="65"/>
   <tile gid="65"/>
   <tile gid="65"/>
   <tile/>
   <tile/>
   <tile/>
   <tile/>
   <tile/>
   <tile/>
   <tile/>
   <tile/>
   <tile gid="65"/>
   <tile gid="65"/>
   <tile gid="65"/>
   <tile/>
   <tile/>
   <tile/>
   <tile/>
   <tile/>
   <tile/>
   <tile/>
   <tile/>
   <tile/>
   <tile/>
   <tile/>
   <tile/>
   <tile/>
   <tile/>
   <tile/>
   <tile/>
   <tile/>
   <tile/>
   <tile/>
   <tile/>
   <tile/>
   <tile/>
   <tile/>
   <tile/>
   <tile/>
   <tile/>
   <tile/>
   <tile/>
   <tile/>
   <tile/>
   <tile/>
   <tile/>
   <tile/>
   <tile gid="65"/>
   <tile gid="65"/>
   <tile gid="65"/>
   <tile gid="65"/>
   <tile gid="65"/>
   <tile gid="65"/>
   <tile gid="65"/>
   <tile gid="65"/>
   <tile gid="65"/>
   <tile gid="65"/>
   <tile gid="65"/>
   <tile gid="65"/>
   <tile gid="65"/>
   <tile gid="65"/>
   <tile gid="65"/>
   <tile gid="65"/>
   <tile gid="65"/>
   <tile gid="65"/>
   <tile gid="65"/>
   <tile gid="65"/>
   <tile gid="65"/>
   <tile gid="65"/>
   <tile/>
   <tile/>
   <tile/>
   <tile/>
   <tile/>
   <tile/>
   <tile/>
   <tile/>
   <tile/>
   <tile/>
   <tile/>
   <tile/>
   <tile/>
   <tile/>
   <tile/>
   <tile/>
   <tile gid="65"/>
   <tile/>
   <tile/>
   <tile/>
   <tile/>
   <tile/>
   <tile/>
   <tile/>
   <tile/>
   <tile/>
   <tile/>
   <tile/>
   <tile/>
   <tile/>
   <tile/>
   <tile/>
   <tile/>
   <tile/>
   <tile/>
   <tile/>
   <tile/>
   <tile/>
   <tile/>
   <tile/>
   <tile/>
   <tile/>
   <tile/>
   <tile/>
   <tile/>
   <tile/>
   <tile/>
   <tile/>
   <tile/>
   <tile/>
   <tile/>
   <tile/>
   <tile/>
   <tile/>
   <tile/>
   <tile gid="65"/>
   <tile gid="65"/>
   <tile gid="65"/>
   <tile gid="65"/>
   <tile gid="65"/>
   <tile gid="65"/>
   <tile gid="65"/>
   <tile gid="65"/>
   <tile gid="65"/>
   <tile gid="65"/>
   <tile gid="65"/>
   <tile gid="65"/>
   <tile/>
   <tile/>
   <tile/>
   <tile/>
   <tile/>
   <tile/>
   <tile/>
   <tile/>
   <tile/>
   <tile/>
   <tile/>
   <tile/>
   <tile/>
   <tile/>
   <tile/>
   <tile/>
   <tile/>
   <tile/>
   <tile/>
   <tile/>
   <tile/>
   <tile/>
   <tile/>
   <tile/>
   <tile/>
   <tile/>
   <tile/>
   <tile/>
   <tile/>
   <tile/>
   <tile/>
   <tile/>
   <tile/>
   <tile/>
   <tile/>
   <tile/>
   <tile/>
   <tile/>
   <tile/>
   <tile/>
   <tile/>
   <tile/>
   <tile/>
   <tile/>
   <tile gid="65"/>
   <tile gid="65"/>
   <tile gid="65"/>
   <tile/>
   <tile/>
   <tile/>
   <tile/>
   <tile/>
   <tile/>
   <tile/>
   <tile/>
   <tile/>
   <tile/>
   <tile/>
   <tile/>
   <tile/>
   <tile/>
   <tile/>
   <tile/>
   <tile/>
   <tile/>
   <tile/>
   <tile/>
   <tile/>
   <tile/>
   <tile/>
   <tile/>
   <tile/>
   <tile/>
   <tile/>
   <tile/>
   <tile/>
   <tile/>
   <tile/>
   <tile/>
   <tile/>
   <tile/>
   <tile/>
   <tile/>
   <tile/>
   <tile/>
   <tile/>
   <tile/>
   <tile/>
   <tile/>
   <tile/>
   <tile/>
   <tile gid="65"/>
   <tile gid="65"/>
   <tile/>
   <tile/>
   <tile/>
   <tile/>
   <tile/>
   <tile/>
   <tile/>
   <tile/>
   <tile/>
   <tile/>
   <tile/>
   <tile/>
   <tile/>
   <tile/>
   <tile/>
   <tile/>
   <tile/>
   <tile/>
   <tile gid="65"/>
   <tile gid="65"/>
   <tile/>
   <tile/>
   <tile/>
   <tile gid="65"/>
   <tile/>
   <tile/>
   <tile/>
   <tile/>
   <tile/>
   <tile/>
   <tile/>
   <tile/>
   <tile/>
   <tile/>
   <tile/>
   <tile/>
   <tile gid="65"/>
   <tile/>
   <tile/>
   <tile/>
   <tile/>
   <tile/>
   <tile/>
   <tile/>
   <tile/>
   <tile/>
   <tile/>
   <tile/>
   <tile/>
   <tile/>
   <tile/>
   <tile/>
   <tile/>
   <tile/>
   <tile/>
   <tile/>
   <tile/>
   <tile/>
   <tile/>
   <tile/>
   <tile/>
   <tile/>
   <tile/>
   <tile/>
   <tile/>
   <tile/>
   <tile/>
   <tile/>
   <tile/>
   <tile/>
   <tile/>
   <tile/>
   <tile/>
   <tile/>
   <tile/>
   <tile/>
   <tile/>
   <tile gid="65"/>
   <tile gid="65"/>
   <tile gid="65"/>
   <tile gid="65"/>
   <tile gid="65"/>
   <tile gid="65"/>
   <tile gid="65"/>
   <tile gid="65"/>
   <tile gid="65"/>
   <tile/>
   <tile/>
   <tile/>
   <tile/>
   <tile/>
   <tile/>
   <tile/>
   <tile/>
   <tile/>
   <tile/>
   <tile/>
   <tile/>
   <tile/>
   <tile/>
   <tile/>
   <tile/>
   <tile/>
   <tile/>
   <tile/>
   <tile/>
   <tile/>
   <tile/>
   <tile/>
   <tile/>
   <tile gid="65"/>
   <tile gid="65"/>
   <tile gid="65"/>
   <tile gid="65"/>
   <tile gid="65"/>
   <tile gid="65"/>
   <tile gid="65"/>
   <tile gid="65"/>
   <tile gid="65"/>
   <tile gid="65"/>
   <tile gid="65"/>
   <tile gid="65"/>
   <tile gid="65"/>
   <tile gid="65"/>
   <tile gid="65"/>
   <tile gid="65"/>
   <tile gid="65"/>
   <tile gid="65"/>
   <tile gid="65"/>
   <tile gid="65"/>
   <tile gid="65"/>
   <tile gid="65"/>
   <tile gid="65"/>
   <tile gid="65"/>
   <tile/>
   <tile/>
   <tile/>
   <tile/>
   <tile/>
   <tile/>
   <tile/>
   <tile/>
   <tile/>
   <tile/>
   <tile/>
   <tile/>
   <tile/>
   <tile/>
   <tile/>
   <tile/>
   <tile/>
   <tile/>
   <tile gid="65"/>
   <tile gid="65"/>
   <tile gid="65"/>
   <tile/>
   <tile/>
   <tile/>
   <tile/>
   <tile/>
   <tile/>
   <tile/>
   <tile/>
   <tile/>
   <tile/>
   <tile/>
   <tile/>
   <tile/>
   <tile/>
   <tile/>
   <tile/>
   <tile/>
   <tile/>
   <tile/>
   <tile/>
   <tile/>
   <tile/>
   <tile/>
   <tile gid="65"/>
   <tile gid="65"/>
   <tile/>
   <tile/>
   <tile/>
   <tile/>
   <tile/>
   <tile/>
   <tile/>
   <tile/>
   <tile/>
   <tile/>
   <tile/>
   <tile/>
   <tile/>
   <tile/>
   <tile/>
   <tile/>
   <tile/>
   <tile/>
   <tile gid="65"/>
   <tile gid="65"/>
   <tile/>
   <tile/>
   <tile/>
   <tile/>
   <tile/>
   <tile/>
   <tile/>
   <tile/>
   <tile/>
   <tile/>
   <tile/>
   <tile/>
   <tile/>
   <tile/>
   <tile/>
   <tile/>
   <tile gid="65"/>
   <tile/>
   <tile/>
   <tile/>
   <tile/>
   <tile/>
   <tile/>
   <tile/>
   <tile/>
   <tile/>
   <tile/>
   <tile/>
   <tile/>
   <tile/>
   <tile/>
   <tile/>
   <tile/>
   <tile/>
   <tile/>
   <tile/>
   <tile/>
   <tile/>
   <tile/>
   <tile/>
   <tile/>
   <tile/>
   <tile/>
   <tile/>
   <tile/>
   <tile/>
   <tile/>
   <tile/>
   <tile/>
   <tile/>
   <tile/>
   <tile/>
   <tile/>
   <tile/>
   <tile/>
   <tile/>
   <tile/>
   <tile/>
   <tile/>
   <tile/>
   <tile/>
   <tile/>
   <tile gid="65"/>
   <tile gid="65"/>
   <tile gid="65"/>
   <tile/>
   <tile/>
   <tile/>
   <tile/>
   <tile/>
   <tile/>
   <tile/>
   <tile/>
   <tile/>
   <tile/>
   <tile/>
   <tile/>
   <tile/>
   <tile/>
   <tile/>
   <tile/>
   <tile/>
   <tile/>
   <tile/>
   <tile/>
   <tile/>
   <tile/>
   <tile/>
   <tile/>
   <tile/>
   <tile gid="65"/>
   <tile gid="65"/>
   <tile gid="65"/>
   <tile gid="65"/>
   <tile gid="65"/>
   <tile gid="65"/>
   <tile gid="65"/>
   <tile gid="65"/>
   <tile gid="65"/>
   <tile gid="65"/>
   <tile gid="65"/>
   <tile gid="65"/>
   <tile gid="65"/>
   <tile gid="65"/>
   <tile gid="65"/>
   <tile gid="65"/>
   <tile gid="65"/>
   <tile gid="65"/>
   <tile gid="65"/>
   <tile gid="65"/>
   <tile gid="65"/>
   <tile gid="65"/>
   <tile gid="65"/>
   <tile gid="65"/>
   <tile/>
   <tile/>
   <tile/>
   <tile/>
   <tile/>
   <tile/>
   <tile/>
   <tile/>
   <tile/>
   <tile/>
   <tile/>
   <tile/>
   <tile/>
   <tile/>
   <tile/>
   <tile/>
   <tile/>
   <tile/>
   <tile/>
   <tile/>
   <tile/>
   <tile/>
   <tile/>
   <tile/>
   <tile/>
   <tile/>
   <tile/>
   <tile/>
   <tile/>
   <tile/>
   <tile/>
   <tile/>
   <tile/>
   <tile/>
   <tile/>
   <tile/>
   <tile/>
   <tile/>
   <tile gid="65"/>
   <tile gid="65"/>
   <tile gid="65"/>
   <tile/>
   <tile/>
   <tile/>
   <tile gid="65"/>
   <tile gid="65"/>
   <tile/>
   <tile/>
   <tile/>
   <tile/>
   <tile/>
   <tile/>
   <tile/>
   <tile/>
   <tile/>
   <tile/>
   <tile/>
   <tile/>
   <tile/>
   <tile/>
   <tile/>
   <tile/>
   <tile/>
   <tile/>
   <tile gid="65"/>
   <tile gid="65"/>
   <tile/>
   <tile/>
   <tile/>
   <tile/>
   <tile/>
   <tile/>
   <tile/>
   <tile/>
   <tile/>
   <tile/>
   <tile gid="65"/>
   <tile gid="65"/>
   <tile/>
   <tile/>
   <tile/>
   <tile/>
   <tile gid="65"/>
   <tile/>
   <tile/>
   <tile/>
   <tile/>
   <tile/>
   <tile/>
   <tile/>
   <tile/>
   <tile/>
   <tile/>
   <tile/>
   <tile/>
   <tile/>
   <tile/>
   <tile/>
   <tile/>
   <tile/>
   <tile/>
   <tile/>
   <tile/>
   <tile/>
   <tile/>
   <tile/>
   <tile/>
   <tile/>
   <tile/>
   <tile/>
   <tile/>
   <tile/>
   <tile/>
   <tile/>
   <tile/>
   <tile/>
   <tile/>
   <tile/>
   <tile/>
   <tile/>
   <tile/>
   <tile/>
   <tile/>
   <tile/>
   <tile/>
   <tile/>
   <tile/>
   <tile/>
   <tile/>
   <tile/>
   <tile/>
   <tile/>
   <tile/>
   <tile/>
   <tile/>
   <tile/>
   <tile/>
   <tile/>
   <tile/>
   <tile/>
   <tile/>
   <tile/>
   <tile/>
   <tile/>
   <tile/>
   <tile/>
   <tile/>
   <tile/>
   <tile/>
   <tile/>
   <tile/>
   <tile gid="65"/>
   <tile gid="65"/>
   <tile gid="65"/>
   <tile/>
   <tile/>
   <tile gid="65"/>
   <tile gid="65"/>
   <tile gid="65"/>
   <tile gid="65"/>
   <tile gid="65"/>
   <tile gid="65"/>
   <tile gid="65"/>
   <tile gid="65"/>
   <tile gid="65"/>
   <tile gid="65"/>
   <tile gid="65"/>
   <tile gid="65"/>
   <tile gid="65"/>
   <tile gid="65"/>
   <tile gid="65"/>
   <tile gid="65"/>
   <tile gid="65"/>
   <tile gid="65"/>
   <tile gid="65"/>
   <tile gid="65"/>
   <tile gid="65"/>
   <tile gid="65"/>
   <tile gid="65"/>
   <tile gid="65"/>
   <tile/>
   <tile/>
   <tile/>
   <tile/>
   <tile/>
   <tile/>
   <tile/>
   <tile/>
   <tile/>
   <tile/>
   <tile/>
   <tile/>
   <tile/>
   <tile/>
   <tile/>
   <tile/>
   <tile/>
   <tile/>
   <tile/>
   <tile/>
   <tile/>
   <tile/>
   <tile/>
   <tile/>
   <tile/>
   <tile/>
   <tile/>
   <tile gid="65"/>
   <tile gid="65"/>
   <tile gid="65"/>
   <tile/>
   <tile/>
   <tile/>
   <tile/>
   <tile/>
   <tile/>
   <tile/>
   <tile/>
   <tile/>
   <tile/>
   <tile/>
   <tile/>
   <tile/>
   <tile/>
   <tile/>
   <tile/>
   <tile/>
   <tile/>
   <tile/>
   <tile/>
   <tile/>
   <tile/>
   <tile/>
   <tile/>
   <tile/>
   <tile/>
   <tile/>
   <tile/>
   <tile/>
   <tile/>
   <tile/>
   <tile/>
   <tile/>
   <tile/>
   <tile/>
   <tile/>
   <tile/>
   <tile/>
   <tile/>
   <tile/>
   <tile/>
   <tile/>
   <tile/>
   <tile/>
   <tile/>
   <tile/>
   <tile/>
   <tile/>
   <tile/>
   <tile/>
   <tile/>
   <tile/>
   <tile gid="65"/>
   <tile/>
   <tile/>
   <tile/>
   <tile/>
   <tile/>
   <tile/>
   <tile/>
   <tile/>
   <tile/>
   <tile/>
   <tile/>
   <tile/>
   <tile/>
   <tile/>
   <tile/>
   <tile/>
   <tile/>
   <tile/>
   <tile/>
   <tile/>
   <tile/>
   <tile/>
   <tile/>
   <tile/>
   <tile/>
   <tile/>
   <tile/>
   <tile/>
   <tile/>
   <tile/>
   <tile/>
   <tile/>
   <tile/>
   <tile/>
   <tile/>
   <tile/>
   <tile/>
   <tile/>
   <tile/>
   <tile/>
   <tile/>
   <tile/>
   <tile/>
   <tile/>
   <tile/>
   <tile/>
   <tile/>
   <tile/>
   <tile/>
   <tile/>
   <tile/>
   <tile/>
   <tile/>
   <tile/>
   <tile/>
   <tile/>
   <tile/>
   <tile/>
   <tile/>
   <tile/>
   <tile/>
   <tile/>
   <tile/>
   <tile/>
   <tile/>
   <tile/>
   <tile/>
   <tile/>
   <tile/>
   <tile/>
   <tile/>
   <tile/>
   <tile/>
   <tile gid="65"/>
   <tile gid="65"/>
   <tile gid="65"/>
   <tile gid="65"/>
   <tile gid="65"/>
   <tile gid="65"/>
   <tile gid="65"/>
   <tile gid="65"/>
   <tile gid="65"/>
   <tile gid="65"/>
   <tile gid="65"/>
   <tile gid="65"/>
   <tile gid="65"/>
   <tile gid="65"/>
   <tile gid="65"/>
   <tile gid="65"/>
   <tile gid="65"/>
   <tile gid="65"/>
   <tile gid="65"/>
   <tile gid="65"/>
   <tile gid="65"/>
   <tile gid="65"/>
   <tile gid="65"/>
   <tile gid="65"/>
   <tile/>
   <tile/>
   <tile/>
   <tile/>
   <tile/>
   <tile/>
   <tile/>
   <tile/>
   <tile/>
   <tile/>
   <tile/>
   <tile/>
   <tile/>
   <tile/>
   <tile/>
   <tile/>
   <tile/>
   <tile/>
   <tile/>
   <tile/>
   <tile/>
   <tile/>
   <tile/>
   <tile/>
   <tile/>
   <tile/>
   <tile/>
   <tile/>
   <tile/>
   <tile/>
   <tile/>
   <tile/>
   <tile/>
   <tile/>
   <tile/>
   <tile/>
   <tile/>
   <tile/>
   <tile/>
   <tile/>
   <tile/>
   <tile/>
   <tile/>
   <tile/>
   <tile/>
   <tile/>
   <tile/>
   <tile/>
   <tile/>
   <tile/>
   <tile/>
   <tile/>
   <tile/>
   <tile/>
   <tile/>
   <tile/>
   <tile/>
   <tile/>
   <tile/>
   <tile/>
   <tile/>
   <tile/>
   <tile/>
   <tile/>
   <tile/>
   <tile/>
   <tile/>
   <tile/>
   <tile/>
   <tile/>
   <tile/>
   <tile/>
   <tile/>
   <tile/>
   <tile/>
   <tile/>
   <tile/>
   <tile/>
   <tile/>
   <tile/>
   <tile/>
   <tile/>
   <tile gid="65"/>
   <tile/>
   <tile/>
   <tile/>
   <tile/>
   <tile/>
   <tile/>
   <tile/>
   <tile/>
   <tile/>
   <tile/>
   <tile/>
   <tile/>
   <tile/>
   <tile/>
   <tile/>
   <tile/>
   <tile/>
   <tile/>
   <tile/>
   <tile/>
   <tile/>
   <tile/>
   <tile/>
   <tile/>
   <tile/>
   <tile/>
   <tile/>
   <tile/>
   <tile/>
   <tile/>
   <tile/>
   <tile/>
   <tile/>
   <tile/>
   <tile/>
   <tile/>
   <tile/>
   <tile/>
   <tile/>
   <tile/>
   <tile/>
   <tile/>
   <tile/>
   <tile/>
   <tile/>
   <tile/>
   <tile/>
   <tile/>
   <tile/>
   <tile/>
   <tile/>
   <tile/>
   <tile/>
   <tile/>
   <tile/>
   <tile/>
   <tile/>
   <tile/>
   <tile/>
   <tile/>
   <tile/>
   <tile/>
   <tile/>
   <tile/>
   <tile/>
   <tile/>
   <tile/>
   <tile/>
   <tile/>
   <tile/>
   <tile/>
   <tile/>
   <tile/>
   <tile/>
   <tile/>
   <tile/>
   <tile/>
   <tile/>
   <tile/>
   <tile/>
   <tile/>
   <tile/>
   <tile/>
   <tile/>
   <tile/>
   <tile/>
   <tile/>
   <tile/>
   <tile/>
   <tile/>
   <tile/>
   <tile/>
   <tile/>
   <tile/>
   <tile/>
   <tile/>
   <tile/>
   <tile/>
   <tile/>
   <tile/>
   <tile/>
   <tile/>
   <tile/>
   <tile/>
   <tile/>
   <tile/>
   <tile/>
   <tile/>
   <tile/>
   <tile/>
   <tile/>
   <tile/>
   <tile/>
   <tile/>
   <tile/>
   <tile/>
   <tile/>
   <tile/>
   <tile/>
   <tile/>
   <tile/>
   <tile/>
   <tile/>
   <tile/>
   <tile/>
   <tile/>
   <tile/>
   <tile/>
   <tile/>
   <tile/>
   <tile/>
   <tile/>
   <tile/>
   <tile/>
   <tile/>
   <tile/>
   <tile/>
   <tile/>
   <tile gid="65"/>
   <tile/>
   <tile/>
   <tile/>
   <tile/>
   <tile/>
   <tile/>
   <tile/>
   <tile/>
   <tile/>
   <tile/>
   <tile/>
   <tile/>
   <tile/>
   <tile/>
   <tile/>
   <tile/>
   <tile/>
   <tile/>
   <tile/>
   <tile/>
   <tile/>
   <tile/>
   <tile/>
   <tile/>
   <tile/>
   <tile/>
   <tile/>
   <tile/>
   <tile/>
   <tile/>
   <tile/>
   <tile/>
   <tile/>
   <tile/>
   <tile/>
   <tile/>
   <tile/>
   <tile/>
   <tile/>
   <tile/>
   <tile gid="65"/>
   <tile/>
   <tile/>
   <tile/>
   <tile/>
   <tile/>
   <tile/>
   <tile/>
   <tile/>
   <tile/>
   <tile/>
   <tile/>
   <tile/>
   <tile/>
   <tile/>
   <tile/>
   <tile/>
   <tile/>
   <tile/>
   <tile/>
   <tile/>
   <tile/>
   <tile/>
   <tile/>
   <tile/>
   <tile/>
   <tile/>
   <tile/>
   <tile/>
   <tile/>
   <tile/>
   <tile/>
   <tile/>
   <tile/>
   <tile/>
   <tile/>
   <tile/>
   <tile/>
   <tile/>
   <tile/>
   <tile/>
   <tile/>
   <tile/>
   <tile/>
   <tile/>
   <tile/>
   <tile/>
   <tile/>
   <tile/>
   <tile/>
   <tile/>
   <tile/>
   <tile/>
   <tile/>
   <tile/>
   <tile/>
   <tile/>
   <tile/>
   <tile/>
   <tile/>
   <tile/>
   <tile/>
   <tile/>
   <tile/>
   <tile/>
   <tile/>
   <tile/>
   <tile/>
   <tile/>
   <tile/>
   <tile/>
   <tile/>
   <tile/>
   <tile/>
   <tile/>
   <tile/>
   <tile/>
   <tile/>
   <tile/>
   <tile/>
   <tile/>
   <tile/>
   <tile/>
   <tile/>
   <tile/>
   <tile/>
   <tile/>
   <tile/>
   <tile/>
   <tile/>
   <tile/>
   <tile/>
   <tile/>
   <tile/>
   <tile/>
   <tile/>
   <tile/>
   <tile/>
   <tile/>
   <tile/>
   <tile/>
   <tile/>
   <tile/>
   <tile/>
   <tile/>
   <tile/>
   <tile/>
   <tile/>
   <tile/>
   <tile/>
   <tile/>
   <tile/>
   <tile/>
   <tile/>
   <tile/>
   <tile/>
   <tile/>
   <tile/>
   <tile/>
   <tile/>
   <tile/>
   <tile/>
   <tile/>
   <tile/>
   <tile/>
   <tile/>
   <tile/>
   <tile/>
   <tile/>
   <tile/>
   <tile/>
   <tile/>
   <tile/>
   <tile/>
   <tile/>
   <tile/>
   <tile/>
   <tile/>
   <tile/>
   <tile/>
   <tile/>
   <tile/>
   <tile/>
   <tile/>
   <tile/>
   <tile/>
   <tile/>
   <tile/>
   <tile/>
   <tile/>
   <tile/>
   <tile/>
   <tile/>
   <tile/>
   <tile/>
   <tile/>
   <tile/>
   <tile/>
   <tile/>
   <tile/>
   <tile/>
   <tile/>
   <tile/>
   <tile/>
   <tile/>
   <tile/>
   <tile/>
   <tile/>
   <tile/>
   <tile/>
   <tile/>
   <tile/>
   <tile/>
   <tile/>
   <tile/>
   <tile/>
   <tile/>
   <tile/>
   <tile/>
   <tile/>
   <tile gid="65"/>
   <tile/>
   <tile/>
   <tile/>
   <tile/>
   <tile/>
   <tile/>
   <tile/>
   <tile/>
   <tile/>
   <tile/>
   <tile/>
   <tile/>
   <tile/>
   <tile/>
   <tile/>
   <tile/>
   <tile/>
   <tile/>
   <tile/>
   <tile/>
   <tile/>
   <tile/>
   <tile/>
   <tile/>
   <tile/>
   <tile/>
   <tile/>
   <tile/>
   <tile/>
   <tile/>
   <tile/>
   <tile/>
   <tile/>
   <tile/>
   <tile/>
   <tile/>
   <tile/>
   <tile/>
   <tile/>
   <tile/>
   <tile/>
   <tile/>
   <tile/>
   <tile/>
   <tile/>
   <tile gid="65"/>
   <tile gid="65"/>
   <tile gid="65"/>
   <tile gid="65"/>
   <tile gid="65"/>
   <tile gid="65"/>
   <tile gid="65"/>
   <tile gid="65"/>
   <tile gid="65"/>
   <tile gid="65"/>
   <tile gid="65"/>
   <tile gid="65"/>
   <tile gid="65"/>
   <tile gid="65"/>
   <tile gid="65"/>
   <tile gid="65"/>
   <tile gid="65"/>
   <tile gid="65"/>
   <tile gid="65"/>
   <tile gid="65"/>
   <tile gid="65"/>
   <tile gid="65"/>
   <tile gid="65"/>
   <tile gid="65"/>
   <tile gid="65"/>
   <tile gid="65"/>
   <tile gid="65"/>
   <tile gid="65"/>
   <tile gid="65"/>
   <tile gid="65"/>
   <tile/>
   <tile/>
   <tile/>
   <tile/>
   <tile/>
   <tile/>
   <tile/>
   <tile/>
   <tile/>
   <tile/>
   <tile/>
   <tile/>
   <tile/>
   <tile/>
   <tile/>
   <tile/>
   <tile/>
   <tile/>
   <tile/>
   <tile/>
   <tile/>
   <tile/>
   <tile/>
   <tile/>
   <tile/>
   <tile/>
   <tile/>
   <tile/>
   <tile/>
   <tile/>
   <tile/>
   <tile/>
   <tile/>
   <tile/>
   <tile/>
   <tile/>
   <tile/>
   <tile/>
   <tile/>
   <tile/>
   <tile/>
   <tile/>
   <tile/>
   <tile/>
   <tile/>
   <tile/>
   <tile/>
   <tile/>
   <tile/>
   <tile/>
   <tile/>
   <tile/>
   <tile/>
   <tile/>
   <tile/>
   <tile/>
   <tile/>
   <tile/>
   <tile/>
   <tile/>
   <tile/>
   <tile/>
   <tile/>
   <tile/>
   <tile/>
   <tile gid="65"/>
   <tile gid="65"/>
   <tile gid="65"/>
   <tile/>
   <tile/>
   <tile/>
   <tile/>
   <tile/>
   <tile/>
   <tile/>
   <tile/>
   <tile/>
   <tile/>
   <tile/>
   <tile/>
   <tile/>
   <tile/>
   <tile/>
   <tile/>
   <tile/>
   <tile/>
   <tile gid="65"/>
   <tile gid="65"/>
   <tile gid="65"/>
   <tile/>
   <tile/>
   <tile/>
   <tile/>
   <tile/>
   <tile/>
   <tile/>
   <tile/>
   <tile/>
   <tile/>
   <tile/>
   <tile/>
   <tile/>
   <tile/>
   <tile/>
   <tile gid="65"/>
   <tile/>
   <tile/>
   <tile/>
   <tile/>
   <tile/>
   <tile/>
   <tile/>
   <tile/>
   <tile/>
   <tile/>
   <tile/>
   <tile/>
   <tile/>
   <tile/>
   <tile/>
   <tile/>
   <tile/>
   <tile/>
   <tile/>
   <tile/>
   <tile/>
   <tile/>
   <tile/>
   <tile/>
   <tile/>
   <tile/>
   <tile/>
   <tile/>
   <tile/>
   <tile/>
   <tile/>
   <tile/>
   <tile/>
   <tile/>
   <tile/>
   <tile/>
   <tile/>
   <tile/>
   <tile/>
   <tile/>
   <tile/>
   <tile/>
   <tile/>
   <tile/>
   <tile gid="65"/>
   <tile gid="65"/>
   <tile gid="65"/>
   <tile gid="65"/>
   <tile gid="65"/>
   <tile gid="65"/>
   <tile gid="65"/>
   <tile gid="65"/>
   <tile gid="65"/>
   <tile gid="65"/>
   <tile gid="65"/>
   <tile gid="65"/>
   <tile gid="65"/>
   <tile gid="65"/>
   <tile gid="65"/>
   <tile gid="65"/>
   <tile gid="65"/>
   <tile gid="65"/>
   <tile gid="65"/>
   <tile gid="65"/>
   <tile gid="65"/>
   <tile gid="65"/>
   <tile gid="65"/>
   <tile gid="65"/>
   <tile gid="65"/>
   <tile gid="65"/>
   <tile gid="65"/>
   <tile gid="65"/>
   <tile gid="65"/>
   <tile gid="65"/>
   <tile gid="65"/>
   <tile gid="65"/>
   <tile/>
   <tile/>
   <tile/>
   <tile/>
   <tile/>
   <tile/>
   <tile/>
   <tile/>
   <tile/>
   <tile/>
   <tile/>
   <tile/>
   <tile/>
   <tile/>
   <tile/>
   <tile/>
   <tile/>
   <tile/>
   <tile/>
   <tile/>
   <tile/>
   <tile/>
   <tile/>
   <tile/>
   <tile/>
   <tile/>
   <tile/>
   <tile/>
   <tile/>
   <tile/>
   <tile/>
   <tile/>
   <tile/>
   <tile/>
   <tile/>
   <tile/>
   <tile/>
   <tile/>
   <tile/>
   <tile/>
   <tile/>
   <tile/>
   <tile/>
   <tile/>
   <tile/>
   <tile/>
   <tile/>
   <tile/>
   <tile/>
   <tile/>
   <tile/>
   <tile/>
   <tile/>
   <tile/>
   <tile/>
   <tile/>
   <tile/>
   <tile/>
   <tile/>
   <tile/>
   <tile/>
   <tile/>
   <tile/>
   <tile/>
   <tile gid="65"/>
   <tile gid="65"/>
   <tile gid="65"/>
   <tile/>
   <tile/>
   <tile/>
   <tile/>
   <tile/>
   <tile/>
   <tile/>
   <tile/>
   <tile/>
   <tile/>
   <tile/>
   <tile/>
   <tile/>
   <tile/>
   <tile/>
   <tile/>
   <tile/>
   <tile/>
   <tile gid="65"/>
   <tile gid="65"/>
   <tile gid="65"/>
   <tile/>
   <tile/>
   <tile/>
   <tile gid="65"/>
   <tile gid="65"/>
   <tile gid="65"/>
   <tile gid="65"/>
   <tile gid="65"/>
   <tile gid="65"/>
   <tile/>
   <tile/>
   <tile/>
   <tile/>
   <tile/>
   <tile/>
   <tile gid="65"/>
   <tile/>
   <tile/>
   <tile/>
   <tile/>
   <tile/>
   <tile/>
   <tile/>
   <tile/>
   <tile/>
   <tile/>
   <tile/>
   <tile/>
   <tile/>
   <tile/>
   <tile/>
   <tile/>
   <tile/>
   <tile/>
   <tile/>
   <tile/>
   <tile/>
   <tile/>
   <tile/>
   <tile/>
   <tile/>
   <tile/>
   <tile/>
   <tile/>
   <tile/>
   <tile/>
   <tile/>
   <tile/>
   <tile/>
   <tile/>
   <tile/>
   <tile/>
   <tile/>
   <tile/>
   <tile/>
   <tile/>
   <tile/>
   <tile/>
   <tile/>
   <tile gid="65"/>
   <tile gid="65"/>
   <tile gid="65"/>
   <tile gid="65"/>
   <tile gid="65"/>
   <tile gid="65"/>
   <tile gid="65"/>
   <tile gid="65"/>
   <tile gid="65"/>
   <tile gid="65"/>
   <tile gid="65"/>
   <tile gid="65"/>
   <tile gid="65"/>
   <tile gid="65"/>
   <tile gid="65"/>
   <tile gid="65"/>
   <tile gid="65"/>
   <tile gid="65"/>
   <tile gid="65"/>
   <tile gid="65"/>
   <tile gid="65"/>
   <tile gid="65"/>
   <tile gid="65"/>
   <tile gid="65"/>
   <tile gid="65"/>
   <tile gid="65"/>
   <tile gid="65"/>
   <tile gid="65"/>
   <tile gid="65"/>
   <tile gid="65"/>
   <tile gid="65"/>
   <tile gid="65"/>
   <tile gid="65"/>
   <tile gid="65"/>
   <tile/>
   <tile/>
   <tile/>
   <tile/>
   <tile/>
   <tile/>
   <tile/>
   <tile/>
   <tile/>
   <tile/>
   <tile/>
   <tile/>
   <tile/>
   <tile/>
   <tile/>
   <tile/>
   <tile/>
   <tile/>
   <tile/>
   <tile/>
   <tile gid="65"/>
   <tile gid="65"/>
   <tile gid="65"/>
   <tile gid="65"/>
   <tile/>
   <tile/>
   <tile/>
   <tile/>
   <tile/>
   <tile/>
   <tile/>
   <tile/>
   <tile/>
   <tile/>
   <tile/>
   <tile/>
   <tile/>
   <tile/>
   <tile/>
   <tile/>
   <tile/>
   <tile/>
   <tile/>
   <tile/>
   <tile/>
   <tile/>
   <tile/>
   <tile/>
   <tile/>
   <tile/>
   <tile/>
   <tile/>
   <tile/>
   <tile/>
   <tile/>
   <tile/>
   <tile/>
   <tile/>
   <tile/>
   <tile/>
   <tile/>
   <tile/>
   <tile/>
   <tile gid="65"/>
   <tile gid="65"/>
   <tile gid="65"/>
   <tile gid="65"/>
   <tile gid="65"/>
   <tile gid="65"/>
   <tile gid="65"/>
   <tile gid="65"/>
   <tile gid="65"/>
   <tile gid="65"/>
   <tile gid="65"/>
   <tile gid="65"/>
   <tile gid="65"/>
   <tile gid="65"/>
   <tile gid="65"/>
   <tile gid="65"/>
   <tile gid="65"/>
   <tile gid="65"/>
   <tile gid="65"/>
   <tile gid="65"/>
   <tile gid="65"/>
   <tile gid="65"/>
   <tile gid="65"/>
   <tile/>
   <tile/>
   <tile/>
   <tile/>
   <tile/>
   <tile/>
   <tile/>
   <tile/>
   <tile/>
   <tile/>
   <tile/>
   <tile/>
   <tile/>
   <tile/>
   <tile/>
   <tile/>
   <tile gid="65"/>
   <tile/>
   <tile/>
   <tile/>
   <tile/>
   <tile/>
   <tile/>
   <tile/>
   <tile/>
   <tile/>
   <tile/>
   <tile/>
   <tile/>
   <tile/>
   <tile/>
   <tile/>
   <tile/>
   <tile/>
   <tile/>
   <tile/>
   <tile/>
   <tile/>
   <tile/>
   <tile/>
   <tile/>
   <tile/>
   <tile/>
   <tile/>
   <tile/>
   <tile/>
   <tile/>
   <tile/>
   <tile/>
   <tile/>
   <tile/>
   <tile/>
   <tile/>
   <tile/>
   <tile/>
   <tile/>
   <tile/>
   <tile/>
   <tile/>
   <tile/>
   <tile gid="65"/>
   <tile gid="65"/>
   <tile gid="65"/>
   <tile gid="65"/>
   <tile gid="65"/>
   <tile gid="65"/>
   <tile gid="65"/>
   <tile gid="65"/>
   <tile gid="65"/>
   <tile gid="65"/>
   <tile gid="65"/>
   <tile gid="65"/>
   <tile gid="65"/>
   <tile gid="65"/>
   <tile gid="65"/>
   <tile gid="65"/>
   <tile gid="65"/>
   <tile gid="65"/>
   <tile gid="65"/>
   <tile gid="65"/>
   <tile gid="65"/>
   <tile gid="65"/>
   <tile gid="65"/>
   <tile gid="65"/>
   <tile gid="65"/>
   <tile/>
   <tile/>
   <tile/>
   <tile/>
   <tile gid="65"/>
   <tile gid="65"/>
   <tile gid="65"/>
   <tile gid="65"/>
   <tile gid="65"/>
   <tile gid="65"/>
   <tile/>
   <tile/>
   <tile/>
   <tile/>
   <tile/>
   <tile gid="65"/>
   <tile gid="65"/>
   <tile gid="65"/>
   <tile/>
   <tile/>
   <tile/>
   <tile/>
   <tile/>
   <tile/>
   <tile/>
   <tile/>
   <tile/>
   <tile/>
   <tile/>
   <tile/>
   <tile/>
   <tile/>
   <tile/>
   <tile/>
   <tile/>
   <tile/>
   <tile/>
   <tile/>
   <tile/>
   <tile/>
   <tile/>
   <tile/>
   <tile/>
   <tile/>
   <tile/>
   <tile/>
   <tile/>
   <tile/>
   <tile/>
   <tile/>
   <tile/>
   <tile/>
   <tile/>
   <tile/>
   <tile/>
   <tile/>
   <tile/>
   <tile/>
   <tile/>
   <tile/>
   <tile/>
   <tile/>
   <tile/>
   <tile/>
   <tile/>
   <tile/>
   <tile/>
   <tile/>
   <tile/>
   <tile/>
   <tile/>
   <tile/>
   <tile/>
   <tile gid="65"/>
   <tile gid="65"/>
   <tile gid="65"/>
   <tile gid="65"/>
   <tile gid="65"/>
   <tile gid="65"/>
   <tile gid="65"/>
   <tile gid="65"/>
   <tile gid="65"/>
   <tile gid="65"/>
   <tile gid="65"/>
   <tile gid="65"/>
   <tile gid="65"/>
   <tile gid="65"/>
   <tile gid="65"/>
   <tile gid="65"/>
   <tile gid="65"/>
   <tile gid="65"/>
   <tile gid="65"/>
   <tile gid="65"/>
   <tile gid="65"/>
   <tile gid="65"/>
   <tile/>
   <tile/>
   <tile/>
   <tile/>
   <tile/>
   <tile/>
   <tile/>
   <tile/>
   <tile/>
   <tile/>
   <tile/>
   <tile/>
   <tile/>
   <tile/>
   <tile/>
   <tile/>
   <tile gid="65"/>
   <tile/>
   <tile/>
   <tile/>
   <tile/>
   <tile/>
   <tile/>
   <tile/>
   <tile/>
   <tile/>
   <tile/>
   <tile/>
   <tile/>
   <tile/>
   <tile/>
   <tile/>
   <tile/>
   <tile/>
   <tile/>
   <tile/>
   <tile/>
   <tile/>
   <tile/>
   <tile/>
   <tile/>
   <tile/>
   <tile/>
   <tile/>
   <tile/>
   <tile/>
   <tile/>
   <tile/>
   <tile/>
   <tile/>
   <tile/>
   <tile/>
   <tile/>
   <tile/>
   <tile/>
   <tile/>
   <tile/>
   <tile/>
   <tile/>
   <tile gid="65"/>
   <tile gid="65"/>
   <tile gid="65"/>
   <tile gid="65"/>
   <tile gid="65"/>
   <tile gid="65"/>
   <tile gid="65"/>
   <tile gid="65"/>
   <tile gid="65"/>
   <tile gid="65"/>
   <tile gid="65"/>
   <tile gid="65"/>
   <tile gid="65"/>
   <tile gid="65"/>
   <tile gid="65"/>
   <tile gid="65"/>
   <tile gid="65"/>
   <tile gid="65"/>
   <tile gid="65"/>
   <tile/>
   <tile/>
   <tile/>
   <tile/>
   <tile/>
   <tile/>
   <tile/>
   <tile/>
   <tile/>
   <tile/>
   <tile/>
   <tile/>
   <tile/>
   <tile gid="65"/>
   <tile gid="65"/>
   <tile gid="65"/>
   <tile gid="65"/>
   <tile gid="65"/>
   <tile gid="65"/>
   <tile/>
   <tile/>
   <tile/>
   <tile/>
   <tile/>
   <tile/>
   <tile/>
   <tile/>
   <tile/>
   <tile/>
   <tile/>
   <tile/>
   <tile/>
   <tile/>
   <tile/>
   <tile/>
   <tile/>
   <tile/>
   <tile/>
   <tile/>
   <tile/>
   <tile/>
   <tile/>
   <tile/>
   <tile/>
   <tile/>
   <tile/>
   <tile/>
   <tile/>
   <tile/>
   <tile/>
   <tile/>
   <tile/>
   <tile/>
   <tile/>
   <tile/>
   <tile/>
   <tile/>
   <tile/>
   <tile/>
   <tile/>
   <tile/>
   <tile/>
   <tile/>
   <tile/>
   <tile/>
   <tile/>
   <tile/>
   <tile/>
   <tile/>
   <tile/>
   <tile/>
   <tile/>
   <tile/>
   <tile/>
   <tile/>
   <tile/>
   <tile/>
   <tile/>
   <tile/>
   <tile/>
   <tile gid="65"/>
   <tile gid="65"/>
   <tile gid="65"/>
   <tile gid="65"/>
   <tile gid="65"/>
   <tile gid="65"/>
   <tile gid="65"/>
   <tile gid="65"/>
   <tile gid="65"/>
   <tile gid="65"/>
   <tile gid="65"/>
   <tile gid="65"/>
   <tile gid="65"/>
   <tile gid="65"/>
   <tile gid="65"/>
   <tile gid="65"/>
   <tile gid="65"/>
   <tile gid="65"/>
   <tile gid="65"/>
   <tile gid="65"/>
   <tile gid="65"/>
   <tile gid="65"/>
   <tile/>
   <tile/>
   <tile/>
   <tile/>
   <tile/>
   <tile/>
   <tile/>
   <tile/>
   <tile/>
   <tile/>
   <tile/>
   <tile/>
   <tile/>
   <tile/>
   <tile/>
   <tile gid="65"/>
   <tile gid="65"/>
   <tile/>
   <tile/>
   <tile/>
   <tile/>
   <tile/>
   <tile/>
   <tile/>
   <tile/>
   <tile/>
   <tile/>
   <tile/>
   <tile/>
   <tile/>
   <tile/>
   <tile/>
   <tile/>
   <tile/>
   <tile/>
   <tile/>
   <tile/>
   <tile/>
   <tile/>
   <tile/>
   <tile/>
   <tile/>
   <tile/>
   <tile/>
   <tile/>
   <tile/>
   <tile/>
   <tile/>
   <tile/>
   <tile/>
   <tile/>
   <tile/>
   <tile/>
   <tile/>
   <tile/>
   <tile/>
   <tile/>
   <tile/>
   <tile/>
   <tile gid="65"/>
   <tile gid="65"/>
   <tile gid="65"/>
   <tile gid="65"/>
   <tile gid="65"/>
   <tile gid="65"/>
   <tile gid="65"/>
   <tile gid="65"/>
   <tile gid="65"/>
   <tile gid="65"/>
   <tile gid="65"/>
   <tile gid="65"/>
   <tile gid="65"/>
   <tile gid="65"/>
   <tile gid="65"/>
   <tile gid="65"/>
   <tile gid="65"/>
   <tile/>
   <tile/>
   <tile/>
   <tile/>
   <tile/>
   <tile/>
   <tile/>
   <tile/>
   <tile/>
   <tile/>
   <tile/>
   <tile/>
   <tile/>
   <tile/>
   <tile/>
   <tile gid="65"/>
   <tile gid="65"/>
   <tile gid="65"/>
   <tile gid="65"/>
   <tile gid="65"/>
   <tile gid="65"/>
   <tile/>
   <tile/>
   <tile/>
   <tile/>
   <tile/>
   <tile/>
   <tile/>
   <tile/>
   <tile/>
   <tile/>
   <tile/>
   <tile/>
   <tile/>
   <tile/>
   <tile/>
   <tile/>
   <tile/>
   <tile/>
   <tile/>
   <tile/>
   <tile/>
   <tile/>
   <tile/>
   <tile/>
   <tile/>
   <tile/>
   <tile/>
   <tile/>
   <tile/>
   <tile/>
   <tile/>
   <tile/>
   <tile/>
   <tile/>
   <tile/>
   <tile/>
   <tile/>
   <tile/>
   <tile/>
   <tile/>
   <tile/>
   <tile/>
   <tile/>
   <tile/>
   <tile/>
   <tile/>
   <tile/>
   <tile/>
   <tile/>
   <tile/>
   <tile/>
   <tile/>
   <tile/>
   <tile/>
   <tile/>
   <tile/>
   <tile/>
   <tile/>
   <tile/>
   <tile/>
   <tile/>
   <tile gid="65"/>
   <tile gid="65"/>
   <tile gid="65"/>
   <tile gid="65"/>
   <tile gid="65"/>
   <tile gid="65"/>
   <tile gid="65"/>
   <tile gid="65"/>
   <tile gid="65"/>
   <tile gid="65"/>
   <tile gid="65"/>
   <tile gid="65"/>
   <tile gid="65"/>
   <tile gid="65"/>
   <tile gid="65"/>
   <tile gid="65"/>
   <tile gid="65"/>
   <tile gid="65"/>
   <tile gid="65"/>
   <tile gid="65"/>
   <tile gid="65"/>
   <tile gid="65"/>
   <tile/>
   <tile/>
   <tile/>
   <tile/>
   <tile/>
   <tile/>
   <tile/>
   <tile/>
   <tile/>
   <tile/>
   <tile/>
   <tile/>
   <tile/>
   <tile/>
   <tile gid="65"/>
   <tile gid="65"/>
   <tile gid="65"/>
   <tile/>
   <tile/>
   <tile/>
   <tile/>
   <tile/>
   <tile/>
   <tile/>
   <tile/>
   <tile/>
   <tile/>
   <tile/>
   <tile/>
   <tile/>
   <tile/>
   <tile/>
   <tile/>
   <tile/>
   <tile/>
   <tile/>
   <tile/>
   <tile/>
   <tile/>
   <tile/>
   <tile/>
   <tile/>
   <tile/>
   <tile/>
   <tile/>
   <tile/>
   <tile/>
   <tile/>
   <tile/>
   <tile/>
   <tile/>
   <tile/>
   <tile/>
   <tile/>
   <tile/>
   <tile/>
   <tile/>
   <tile/>
   <tile gid="65"/>
   <tile gid="65"/>
   <tile gid="65"/>
   <tile gid="65"/>
   <tile gid="65"/>
   <tile gid="65"/>
   <tile gid="65"/>
   <tile gid="65"/>
   <tile gid="65"/>
   <tile gid="65"/>
   <tile gid="65"/>
   <tile gid="65"/>
   <tile gid="65"/>
   <tile gid="65"/>
   <tile gid="65"/>
   <tile gid="65"/>
   <tile/>
   <tile/>
   <tile/>
   <tile/>
   <tile/>
   <tile/>
   <tile/>
   <tile/>
   <tile/>
   <tile/>
   <tile/>
   <tile/>
   <tile/>
   <tile/>
   <tile/>
   <tile/>
   <tile/>
   <tile/>
   <tile/>
   <tile/>
   <tile/>
   <tile/>
   <tile/>
   <tile/>
   <tile/>
   <tile/>
   <tile/>
   <tile/>
   <tile/>
   <tile/>
   <tile/>
   <tile/>
   <tile/>
   <tile/>
   <tile/>
   <tile gid="65"/>
   <tile gid="65"/>
   <tile gid="65"/>
   <tile/>
   <tile/>
   <tile/>
   <tile/>
   <tile/>
   <tile/>
   <tile/>
   <tile/>
   <tile/>
   <tile/>
   <tile/>
   <tile/>
   <tile/>
   <tile/>
   <tile/>
   <tile/>
   <tile/>
   <tile/>
   <tile/>
   <tile/>
   <tile/>
   <tile/>
   <tile/>
   <tile/>
   <tile/>
   <tile/>
   <tile/>
   <tile/>
   <tile/>
   <tile/>
   <tile/>
   <tile/>
   <tile/>
   <tile/>
   <tile/>
   <tile/>
   <tile/>
   <tile/>
   <tile/>
   <tile/>
   <tile/>
   <tile/>
   <tile/>
   <tile/>
   <tile/>
   <tile/>
   <tile/>
   <tile/>
   <tile/>
   <tile gid="65"/>
   <tile gid="65"/>
   <tile gid="65"/>
   <tile gid="65"/>
   <tile gid="65"/>
   <tile gid="65"/>
   <tile gid="65"/>
   <tile gid="65"/>
   <tile gid="65"/>
   <tile gid="65"/>
   <tile gid="65"/>
   <tile gid="65"/>
   <tile gid="65"/>
   <tile gid="65"/>
   <tile gid="65"/>
   <tile gid="65"/>
   <tile/>
   <tile/>
   <tile/>
   <tile/>
   <tile/>
   <tile/>
   <tile/>
   <tile/>
   <tile/>
   <tile/>
   <tile/>
   <tile/>
   <tile/>
   <tile/>
   <tile/>
   <tile/>
   <tile/>
   <tile/>
   <tile/>
   <tile gid="65"/>
   <tile/>
   <tile/>
   <tile/>
   <tile/>
   <tile/>
   <tile/>
   <tile/>
   <tile/>
   <tile/>
   <tile/>
   <tile/>
   <tile/>
   <tile/>
   <tile/>
   <tile/>
   <tile/>
   <tile/>
   <tile/>
   <tile/>
   <tile/>
   <tile/>
   <tile/>
   <tile/>
   <tile/>
   <tile/>
   <tile/>
   <tile/>
   <tile/>
   <tile/>
   <tile/>
   <tile/>
   <tile/>
   <tile/>
   <tile/>
   <tile/>
   <tile/>
   <tile/>
   <tile/>
   <tile/>
   <tile/>
   <tile gid="65"/>
   <tile gid="65"/>
   <tile gid="65"/>
   <tile gid="65"/>
   <tile gid="65"/>
   <tile gid="65"/>
   <tile gid="65"/>
   <tile gid="65"/>
   <tile gid="65"/>
   <tile gid="65"/>
   <tile gid="65"/>
   <tile gid="65"/>
   <tile gid="65"/>
   <tile gid="65"/>
   <tile gid="65"/>
   <tile/>
   <tile/>
   <tile/>
   <tile/>
   <tile/>
   <tile/>
   <tile/>
   <tile/>
   <tile/>
   <tile/>
   <tile/>
   <tile/>
   <tile/>
   <tile/>
   <tile/>
   <tile/>
   <tile/>
   <tile/>
   <tile/>
   <tile/>
   <tile/>
   <tile/>
   <tile/>
   <tile/>
   <tile/>
   <tile/>
   <tile/>
   <tile/>
   <tile/>
   <tile/>
   <tile/>
   <tile/>
   <tile/>
   <tile/>
   <tile/>
   <tile/>
   <tile/>
   <tile/>
   <tile/>
   <tile/>
   <tile/>
   <tile/>
   <tile/>
   <tile/>
   <tile/>
   <tile/>
   <tile/>
   <tile/>
   <tile/>
   <tile/>
   <tile/>
   <tile/>
   <tile/>
   <tile/>
   <tile/>
   <tile/>
   <tile/>
   <tile/>
   <tile/>
   <tile/>
   <tile/>
   <tile/>
   <tile/>
   <tile/>
   <tile/>
   <tile/>
   <tile/>
   <tile/>
   <tile/>
   <tile/>
   <tile/>
   <tile/>
   <tile/>
   <tile/>
   <tile/>
   <tile/>
   <tile/>
   <tile/>
   <tile/>
   <tile/>
   <tile/>
   <tile/>
   <tile/>
   <tile/>
   <tile/>
   <tile/>
   <tile/>
   <tile/>
   <tile/>
   <tile/>
   <tile/>
   <tile/>
   <tile/>
   <tile/>
   <tile/>
   <tile/>
   <tile/>
   <tile/>
   <tile/>
   <tile/>
   <tile/>
   <tile/>
   <tile/>
   <tile/>
   <tile/>
   <tile/>
   <tile/>
   <tile/>
   <tile/>
   <tile/>
   <tile/>
   <tile/>
   <tile/>
   <tile/>
   <tile/>
   <tile/>
   <tile/>
   <tile/>
   <tile/>
   <tile/>
   <tile/>
   <tile/>
   <tile/>
   <tile/>
   <tile gid="65"/>
   <tile/>
   <tile/>
   <tile/>
   <tile/>
   <tile/>
   <tile/>
   <tile/>
   <tile/>
   <tile/>
   <tile/>
   <tile/>
   <tile/>
   <tile/>
   <tile/>
   <tile/>
   <tile/>
   <tile/>
   <tile/>
   <tile/>
   <tile/>
   <tile/>
   <tile/>
   <tile/>
   <tile/>
   <tile/>
   <tile/>
   <tile/>
   <tile/>
   <tile/>
   <tile/>
   <tile/>
   <tile/>
   <tile/>
   <tile/>
   <tile/>
   <tile/>
   <tile/>
   <tile/>
   <tile/>
   <tile/>
   <tile gid="65"/>
   <tile gid="65"/>
   <tile gid="65"/>
   <tile gid="65"/>
   <tile gid="65"/>
   <tile gid="65"/>
   <tile gid="65"/>
   <tile gid="65"/>
   <tile gid="65"/>
   <tile gid="65"/>
   <tile gid="65"/>
   <tile gid="65"/>
   <tile gid="65"/>
   <tile/>
   <tile/>
   <tile/>
   <tile/>
   <tile/>
   <tile/>
   <tile/>
   <tile/>
   <tile/>
   <tile/>
   <tile/>
   <tile/>
   <tile/>
   <tile/>
   <tile/>
   <tile/>
   <tile/>
   <tile/>
   <tile/>
   <tile/>
   <tile/>
   <tile/>
   <tile/>
   <tile/>
   <tile/>
   <tile/>
   <tile/>
   <tile/>
   <tile/>
   <tile/>
   <tile/>
   <tile/>
   <tile/>
   <tile/>
   <tile/>
   <tile/>
   <tile/>
   <tile/>
   <tile/>
   <tile/>
   <tile/>
   <tile/>
   <tile/>
   <tile/>
   <tile/>
   <tile/>
   <tile/>
   <tile/>
   <tile/>
   <tile/>
   <tile/>
   <tile/>
   <tile/>
   <tile/>
   <tile/>
   <tile/>
   <tile/>
   <tile/>
   <tile/>
   <tile/>
   <tile/>
   <tile/>
   <tile/>
   <tile/>
   <tile/>
   <tile/>
   <tile/>
   <tile/>
   <tile/>
   <tile/>
   <tile/>
   <tile/>
   <tile/>
   <tile/>
   <tile/>
   <tile/>
   <tile/>
   <tile/>
   <tile/>
   <tile/>
   <tile/>
   <tile/>
   <tile/>
   <tile/>
   <tile/>
   <tile/>
   <tile/>
   <tile/>
   <tile/>
   <tile/>
   <tile/>
   <tile/>
   <tile/>
   <tile/>
   <tile/>
   <tile/>
   <tile/>
   <tile/>
   <tile/>
   <tile/>
   <tile/>
   <tile/>
   <tile/>
   <tile/>
   <tile/>
   <tile/>
   <tile/>
   <tile/>
   <tile/>
   <tile/>
   <tile/>
   <tile/>
   <tile/>
   <tile/>
   <tile/>
   <tile/>
   <tile/>
   <tile/>
   <tile/>
   <tile/>
   <tile gid="65"/>
   <tile gid="65"/>
   <tile gid="65"/>
   <tile gid="65"/>
   <tile/>
   <tile/>
   <tile gid="65"/>
   <tile/>
   <tile/>
   <tile/>
   <tile/>
   <tile/>
   <tile/>
   <tile/>
   <tile/>
   <tile/>
   <tile/>
   <tile/>
   <tile/>
   <tile/>
   <tile/>
   <tile/>
   <tile/>
   <tile/>
   <tile/>
   <tile/>
   <tile/>
   <tile/>
   <tile/>
   <tile/>
   <tile/>
   <tile/>
   <tile/>
   <tile/>
   <tile/>
   <tile/>
   <tile/>
   <tile/>
   <tile/>
   <tile/>
   <tile/>
   <tile/>
   <tile/>
   <tile/>
   <tile/>
   <tile/>
   <tile gid="65"/>
   <tile gid="65"/>
   <tile gid="65"/>
   <tile gid="65"/>
   <tile gid="65"/>
   <tile gid="65"/>
   <tile gid="65"/>
   <tile gid="65"/>
   <tile gid="65"/>
   <tile gid="65"/>
   <tile gid="65"/>
   <tile/>
   <tile/>
   <tile/>
   <tile/>
   <tile/>
   <tile/>
   <tile/>
   <tile/>
   <tile/>
   <tile/>
   <tile/>
   <tile/>
   <tile/>
   <tile/>
   <tile/>
   <tile/>
   <tile/>
   <tile/>
   <tile/>
   <tile/>
   <tile/>
   <tile/>
   <tile/>
   <tile/>
   <tile/>
   <tile/>
   <tile/>
   <tile/>
   <tile/>
   <tile/>
   <tile/>
   <tile/>
   <tile/>
   <tile/>
   <tile/>
   <tile/>
   <tile/>
   <tile/>
   <tile/>
   <tile/>
   <tile/>
   <tile/>
   <tile/>
   <tile/>
   <tile/>
   <tile/>
   <tile/>
   <tile/>
   <tile gid="65"/>
   <tile gid="65"/>
   <tile/>
   <tile/>
   <tile/>
   <tile/>
   <tile/>
   <tile/>
   <tile/>
   <tile/>
   <tile/>
   <tile/>
   <tile/>
   <tile/>
   <tile/>
   <tile/>
   <tile/>
   <tile/>
   <tile/>
   <tile/>
   <tile/>
   <tile/>
   <tile/>
   <tile/>
   <tile/>
   <tile/>
   <tile/>
   <tile/>
   <tile/>
   <tile/>
   <tile/>
   <tile/>
   <tile/>
   <tile/>
   <tile/>
   <tile/>
   <tile/>
   <tile/>
   <tile/>
   <tile/>
   <tile/>
   <tile/>
   <tile/>
   <tile/>
   <tile/>
   <tile/>
   <tile/>
   <tile/>
   <tile/>
   <tile/>
   <tile/>
   <tile/>
   <tile/>
   <tile/>
   <tile/>
   <tile/>
   <tile/>
   <tile/>
   <tile/>
   <tile/>
   <tile/>
   <tile/>
   <tile/>
   <tile/>
   <tile/>
   <tile/>
   <tile/>
   <tile/>
   <tile/>
   <tile/>
   <tile/>
   <tile/>
   <tile/>
   <tile/>
   <tile/>
   <tile/>
   <tile/>
   <tile/>
   <tile/>
   <tile/>
   <tile/>
   <tile gid="65"/>
   <tile/>
   <tile/>
   <tile/>
   <tile/>
   <tile/>
   <tile/>
   <tile/>
   <tile/>
   <tile/>
   <tile/>
   <tile/>
   <tile/>
   <tile/>
   <tile/>
   <tile/>
   <tile/>
   <tile/>
   <tile/>
   <tile/>
   <tile/>
   <tile/>
   <tile/>
   <tile/>
   <tile/>
   <tile/>
   <tile/>
   <tile/>
   <tile/>
   <tile/>
   <tile/>
   <tile/>
   <tile/>
   <tile/>
   <tile/>
   <tile/>
   <tile/>
   <tile/>
   <tile/>
   <tile gid="65"/>
   <tile gid="65"/>
   <tile gid="65"/>
   <tile gid="65"/>
   <tile gid="65"/>
   <tile gid="65"/>
   <tile gid="65"/>
   <tile gid="65"/>
   <tile gid="65"/>
   <tile/>
   <tile/>
   <tile/>
   <tile/>
   <tile/>
   <tile/>
   <tile/>
   <tile/>
   <tile/>
   <tile/>
   <tile/>
   <tile/>
   <tile/>
   <tile/>
   <tile/>
   <tile/>
   <tile/>
   <tile/>
   <tile/>
   <tile/>
   <tile/>
   <tile/>
   <tile/>
   <tile/>
   <tile/>
   <tile/>
   <tile/>
   <tile/>
   <tile/>
   <tile/>
   <tile/>
   <tile/>
   <tile/>
   <tile/>
   <tile/>
   <tile/>
   <tile/>
   <tile/>
   <tile gid="65"/>
   <tile gid="65"/>
   <tile gid="65"/>
   <tile gid="65"/>
   <tile gid="65"/>
   <tile gid="65"/>
   <tile gid="65"/>
   <tile gid="65"/>
   <tile gid="65"/>
   <tile gid="65"/>
   <tile gid="65"/>
   <tile gid="65"/>
   <tile gid="65"/>
   <tile gid="65"/>
   <tile gid="65"/>
   <tile gid="65"/>
   <tile gid="65"/>
   <tile gid="65"/>
   <tile gid="65"/>
   <tile gid="65"/>
   <tile gid="65"/>
   <tile gid="65"/>
   <tile/>
   <tile/>
   <tile/>
   <tile/>
   <tile/>
   <tile/>
   <tile/>
   <tile/>
   <tile/>
   <tile/>
   <tile/>
   <tile/>
   <tile/>
   <tile/>
   <tile/>
   <tile/>
   <tile/>
   <tile/>
   <tile/>
   <tile/>
   <tile/>
   <tile/>
   <tile/>
   <tile/>
   <tile/>
   <tile/>
   <tile/>
   <tile/>
   <tile/>
   <tile/>
   <tile/>
   <tile/>
   <tile/>
   <tile/>
   <tile/>
   <tile/>
   <tile/>
   <tile/>
   <tile/>
   <tile/>
   <tile/>
   <tile/>
   <tile/>
   <tile/>
   <tile/>
   <tile/>
   <tile/>
   <tile/>
   <tile/>
   <tile/>
   <tile/>
   <tile/>
   <tile/>
   <tile/>
   <tile/>
   <tile/>
   <tile/>
   <tile/>
   <tile/>
   <tile/>
   <tile/>
   <tile/>
   <tile/>
   <tile/>
   <tile/>
   <tile/>
   <tile/>
   <tile/>
   <tile/>
   <tile/>
   <tile/>
   <tile/>
   <tile gid="65"/>
   <tile/>
   <tile/>
   <tile/>
   <tile/>
   <tile/>
   <tile/>
   <tile/>
   <tile/>
   <tile/>
   <tile/>
   <tile/>
   <tile/>
   <tile/>
   <tile/>
   <tile/>
   <tile/>
   <tile/>
   <tile/>
   <tile/>
   <tile/>
   <tile/>
   <tile/>
   <tile/>
   <tile/>
   <tile/>
   <tile/>
   <tile/>
   <tile/>
   <tile/>
   <tile/>
   <tile/>
   <tile/>
   <tile/>
   <tile/>
   <tile/>
   <tile/>
   <tile/>
   <tile gid="65"/>
   <tile gid="65"/>
   <tile gid="65"/>
   <tile gid="65"/>
   <tile gid="65"/>
   <tile gid="65"/>
   <tile gid="65"/>
   <tile gid="65"/>
   <tile/>
   <tile/>
   <tile/>
   <tile/>
   <tile/>
   <tile/>
   <tile/>
   <tile/>
   <tile/>
   <tile/>
   <tile/>
   <tile/>
   <tile/>
   <tile/>
   <tile/>
   <tile/>
   <tile/>
   <tile/>
   <tile/>
   <tile/>
   <tile/>
   <tile/>
   <tile/>
   <tile/>
   <tile/>
   <tile/>
   <tile/>
   <tile/>
   <tile/>
   <tile/>
   <tile/>
   <tile/>
   <tile/>
   <tile/>
   <tile/>
   <tile/>
   <tile/>
   <tile/>
   <tile/>
   <tile/>
   <tile gid="65"/>
   <tile gid="65"/>
   <tile gid="65"/>
   <tile gid="65"/>
   <tile gid="65"/>
   <tile gid="65"/>
   <tile gid="65"/>
   <tile gid="65"/>
   <tile gid="65"/>
   <tile gid="65"/>
   <tile gid="65"/>
   <tile gid="65"/>
   <tile gid="65"/>
   <tile gid="65"/>
   <tile gid="65"/>
   <tile gid="65"/>
   <tile gid="65"/>
   <tile gid="65"/>
   <tile gid="65"/>
   <tile gid="65"/>
   <tile gid="65"/>
   <tile gid="65"/>
   <tile/>
   <tile/>
   <tile/>
   <tile/>
   <tile/>
   <tile/>
   <tile/>
   <tile/>
   <tile/>
   <tile/>
   <tile/>
   <tile/>
   <tile/>
   <tile/>
   <tile/>
   <tile/>
   <tile/>
   <tile/>
   <tile/>
   <tile/>
   <tile/>
   <tile/>
   <tile/>
   <tile/>
   <tile/>
   <tile/>
   <tile/>
   <tile/>
   <tile/>
   <tile/>
   <tile/>
   <tile/>
   <tile/>
   <tile/>
   <tile/>
   <tile/>
   <tile/>
   <tile/>
   <tile/>
   <tile/>
   <tile/>
   <tile/>
   <tile/>
   <tile/>
   <tile/>
   <tile/>
   <tile/>
   <tile/>
   <tile/>
   <tile/>
   <tile/>
   <tile/>
   <tile/>
   <tile/>
   <tile/>
   <tile/>
   <tile/>
   <tile/>
   <tile/>
   <tile/>
   <tile/>
   <tile/>
   <tile gid="65"/>
   <tile gid="65"/>
   <tile gid="65"/>
   <tile/>
   <tile/>
   <tile/>
   <tile/>
   <tile/>
   <tile/>
   <tile/>
   <tile gid="65"/>
   <tile/>
   <tile/>
   <tile/>
   <tile/>
   <tile/>
   <tile/>
   <tile/>
   <tile/>
   <tile/>
   <tile/>
   <tile/>
   <tile/>
   <tile/>
   <tile/>
   <tile/>
   <tile/>
   <tile/>
   <tile/>
   <tile/>
   <tile/>
   <tile/>
   <tile/>
   <tile/>
   <tile/>
   <tile/>
   <tile/>
   <tile/>
   <tile/>
   <tile/>
   <tile/>
   <tile/>
   <tile/>
   <tile/>
   <tile/>
   <tile/>
   <tile/>
   <tile gid="65"/>
   <tile gid="65"/>
   <tile gid="65"/>
   <tile gid="65"/>
   <tile gid="65"/>
   <tile gid="65"/>
   <tile gid="65"/>
   <tile/>
   <tile/>
   <tile/>
   <tile/>
   <tile/>
   <tile/>
   <tile/>
   <tile/>
   <tile/>
   <tile/>
   <tile/>
   <tile/>
   <tile/>
   <tile/>
   <tile/>
   <tile/>
   <tile/>
   <tile/>
   <tile/>
   <tile/>
   <tile/>
   <tile/>
   <tile/>
   <tile/>
   <tile/>
   <tile/>
   <tile/>
   <tile/>
   <tile/>
   <tile/>
   <tile/>
   <tile/>
   <tile/>
   <tile/>
   <tile/>
   <tile/>
   <tile/>
   <tile/>
   <tile/>
   <tile/>
   <tile/>
   <tile/>
   <tile/>
   <tile/>
   <tile/>
   <tile/>
   <tile/>
   <tile/>
   <tile/>
   <tile/>
   <tile/>
   <tile/>
   <tile/>
   <tile/>
   <tile/>
   <tile/>
   <tile/>
   <tile/>
   <tile/>
   <tile/>
   <tile/>
   <tile/>
   <tile/>
   <tile/>
   <tile/>
   <tile/>
   <tile/>
   <tile/>
   <tile/>
   <tile/>
   <tile gid="65"/>
   <tile gid="65"/>
   <tile gid="65"/>
   <tile gid="65"/>
   <tile/>
   <tile/>
   <tile/>
   <tile/>
   <tile/>
   <tile/>
   <tile/>
   <tile/>
   <tile/>
   <tile/>
   <tile/>
   <tile/>
   <tile/>
   <tile/>
   <tile/>
   <tile/>
   <tile/>
   <tile/>
   <tile/>
   <tile/>
   <tile/>
   <tile/>
   <tile/>
   <tile/>
   <tile/>
   <tile/>
   <tile/>
   <tile/>
   <tile/>
   <tile/>
   <tile/>
   <tile/>
   <tile/>
   <tile/>
   <tile/>
   <tile/>
   <tile/>
   <tile/>
   <tile/>
   <tile/>
   <tile/>
   <tile/>
   <tile/>
   <tile/>
   <tile/>
   <tile/>
   <tile/>
   <tile/>
   <tile/>
   <tile/>
   <tile/>
   <tile/>
   <tile/>
   <tile/>
   <tile/>
   <tile/>
   <tile/>
   <tile/>
   <tile/>
   <tile/>
   <tile/>
   <tile/>
   <tile gid="65"/>
   <tile/>
   <tile/>
   <tile/>
   <tile/>
   <tile/>
   <tile/>
   <tile/>
   <tile/>
   <tile/>
   <tile/>
   <tile/>
   <tile/>
   <tile/>
   <tile/>
   <tile/>
   <tile/>
   <tile/>
   <tile/>
   <tile/>
   <tile/>
   <tile/>
   <tile/>
   <tile/>
   <tile/>
   <tile/>
   <tile/>
   <tile/>
   <tile/>
   <tile/>
   <tile/>
   <tile/>
   <tile/>
   <tile/>
   <tile/>
   <tile/>
   <tile/>
   <tile gid="65"/>
   <tile gid="65"/>
   <tile gid="65"/>
   <tile gid="65"/>
   <tile gid="65"/>
   <tile/>
   <tile/>
   <tile/>
   <tile/>
   <tile/>
   <tile/>
   <tile/>
   <tile/>
   <tile/>
   <tile/>
   <tile/>
   <tile/>
   <tile/>
   <tile/>
   <tile/>
   <tile/>
   <tile/>
   <tile/>
   <tile/>
   <tile/>
   <tile/>
   <tile/>
   <tile/>
   <tile/>
   <tile/>
   <tile/>
   <tile/>
   <tile/>
   <tile/>
   <tile/>
   <tile/>
   <tile/>
   <tile/>
   <tile/>
   <tile/>
   <tile/>
   <tile/>
   <tile/>
   <tile/>
   <tile/>
   <tile/>
   <tile/>
   <tile/>
   <tile/>
   <tile/>
   <tile/>
   <tile/>
   <tile/>
   <tile/>
   <tile/>
   <tile/>
   <tile/>
   <tile/>
   <tile/>
   <tile/>
   <tile/>
   <tile/>
   <tile/>
   <tile/>
   <tile/>
   <tile/>
   <tile/>
   <tile/>
   <tile/>
   <tile/>
   <tile/>
   <tile/>
   <tile/>
   <tile/>
   <tile/>
   <tile/>
   <tile/>
   <tile/>
   <tile/>
   <tile/>
   <tile/>
   <tile/>
   <tile/>
   <tile/>
   <tile/>
   <tile/>
   <tile/>
   <tile/>
   <tile/>
   <tile/>
   <tile/>
   <tile/>
   <tile/>
   <tile/>
   <tile/>
   <tile/>
   <tile/>
   <tile/>
   <tile/>
   <tile/>
   <tile/>
   <tile/>
   <tile/>
   <tile/>
   <tile/>
   <tile/>
   <tile/>
   <tile/>
   <tile/>
   <tile/>
   <tile/>
   <tile/>
   <tile/>
   <tile/>
   <tile/>
   <tile/>
   <tile/>
   <tile/>
   <tile/>
   <tile/>
   <tile/>
   <tile/>
   <tile/>
   <tile/>
   <tile/>
   <tile/>
   <tile/>
   <tile/>
   <tile/>
   <tile/>
   <tile/>
   <tile/>
   <tile/>
   <tile/>
   <tile/>
   <tile/>
   <tile/>
   <tile/>
   <tile/>
   <tile/>
   <tile/>
   <tile/>
   <tile/>
   <tile gid="65"/>
   <tile/>
   <tile/>
   <tile/>
   <tile/>
   <tile/>
   <tile/>
   <tile/>
   <tile/>
   <tile/>
   <tile/>
   <tile/>
   <tile/>
   <tile/>
   <tile/>
   <tile/>
   <tile/>
   <tile/>
   <tile/>
   <tile/>
   <tile/>
   <tile/>
   <tile/>
   <tile/>
   <tile/>
   <tile/>
   <tile/>
   <tile/>
   <tile/>
   <tile/>
   <tile/>
   <tile/>
   <tile/>
   <tile/>
   <tile/>
   <tile/>
   <tile gid="65"/>
   <tile gid="65"/>
   <tile gid="65"/>
   <tile gid="65"/>
   <tile gid="65"/>
   <tile/>
   <tile/>
   <tile/>
   <tile/>
   <tile/>
   <tile/>
   <tile/>
   <tile/>
   <tile/>
   <tile/>
   <tile/>
   <tile/>
   <tile/>
   <tile/>
   <tile/>
   <tile/>
   <tile/>
   <tile/>
   <tile/>
   <tile/>
   <tile/>
   <tile/>
   <tile/>
   <tile/>
   <tile/>
   <tile/>
   <tile/>
   <tile/>
   <tile/>
   <tile/>
   <tile/>
   <tile/>
   <tile/>
   <tile/>
   <tile/>
   <tile/>
   <tile/>
   <tile/>
   <tile/>
   <tile/>
   <tile/>
   <tile/>
   <tile/>
   <tile/>
   <tile/>
   <tile/>
   <tile/>
   <tile/>
   <tile/>
   <tile/>
   <tile/>
   <tile/>
   <tile/>
   <tile/>
   <tile/>
   <tile/>
   <tile/>
   <tile/>
   <tile/>
   <tile/>
   <tile/>
   <tile/>
   <tile/>
   <tile/>
   <tile/>
   <tile/>
   <tile/>
   <tile/>
   <tile/>
   <tile/>
   <tile/>
   <tile/>
   <tile/>
   <tile/>
   <tile/>
   <tile/>
   <tile/>
   <tile/>
   <tile/>
   <tile/>
   <tile/>
   <tile/>
   <tile/>
   <tile/>
   <tile/>
   <tile/>
   <tile/>
   <tile/>
   <tile/>
   <tile/>
   <tile/>
   <tile/>
   <tile/>
   <tile/>
   <tile/>
   <tile/>
   <tile/>
   <tile/>
   <tile/>
   <tile/>
   <tile/>
   <tile/>
   <tile/>
   <tile/>
   <tile/>
   <tile/>
   <tile/>
   <tile/>
   <tile/>
   <tile/>
   <tile/>
   <tile/>
   <tile/>
   <tile/>
   <tile/>
   <tile/>
   <tile/>
   <tile/>
   <tile/>
   <tile/>
   <tile/>
   <tile/>
   <tile/>
   <tile/>
   <tile gid="65"/>
   <tile gid="65"/>
   <tile gid="65"/>
   <tile/>
   <tile/>
   <tile/>
   <tile/>
   <tile/>
   <tile/>
   <tile/>
   <tile/>
   <tile/>
   <tile/>
   <tile/>
   <tile/>
   <tile gid="65"/>
   <tile/>
   <tile/>
   <tile/>
   <tile/>
   <tile/>
   <tile/>
   <tile/>
   <tile/>
   <tile/>
   <tile/>
   <tile/>
   <tile/>
   <tile/>
   <tile/>
   <tile/>
   <tile/>
   <tile/>
   <tile/>
   <tile/>
   <tile/>
   <tile/>
   <tile/>
   <tile/>
   <tile/>
   <tile/>
   <tile/>
   <tile/>
   <tile/>
   <tile/>
   <tile/>
   <tile/>
   <tile/>
   <tile/>
   <tile/>
   <tile/>
   <tile gid="65"/>
   <tile gid="65"/>
   <tile gid="65"/>
   <tile gid="65"/>
   <tile/>
   <tile/>
   <tile/>
   <tile/>
   <tile/>
   <tile/>
   <tile/>
   <tile/>
   <tile/>
   <tile/>
   <tile/>
   <tile/>
   <tile/>
   <tile/>
   <tile/>
   <tile/>
   <tile/>
   <tile/>
   <tile/>
   <tile/>
   <tile/>
   <tile/>
   <tile/>
   <tile/>
   <tile/>
   <tile/>
   <tile/>
   <tile/>
   <tile/>
   <tile/>
   <tile/>
   <tile/>
   <tile/>
   <tile/>
   <tile/>
   <tile/>
   <tile/>
   <tile/>
   <tile/>
   <tile/>
   <tile/>
   <tile/>
   <tile/>
   <tile/>
   <tile/>
   <tile/>
   <tile/>
   <tile/>
   <tile/>
   <tile/>
   <tile/>
   <tile/>
   <tile/>
   <tile/>
   <tile/>
   <tile/>
   <tile/>
   <tile/>
   <tile/>
   <tile/>
   <tile/>
   <tile/>
   <tile/>
   <tile/>
   <tile/>
   <tile/>
   <tile/>
   <tile/>
   <tile/>
   <tile/>
   <tile/>
   <tile/>
   <tile/>
   <tile/>
   <tile/>
   <tile/>
   <tile/>
   <tile/>
   <tile/>
   <tile/>
   <tile/>
   <tile gid="65"/>
   <tile gid="65"/>
   <tile gid="65"/>
   <tile gid="65"/>
   <tile/>
   <tile/>
   <tile/>
   <tile/>
   <tile/>
   <tile/>
   <tile/>
   <tile/>
   <tile/>
   <tile/>
   <tile/>
   <tile/>
   <tile/>
   <tile/>
   <tile/>
   <tile/>
   <tile/>
   <tile/>
   <tile/>
   <tile/>
   <tile/>
   <tile/>
   <tile/>
   <tile/>
   <tile/>
   <tile/>
   <tile/>
   <tile/>
   <tile/>
   <tile/>
   <tile/>
   <tile/>
   <tile/>
   <tile/>
   <tile/>
   <tile/>
   <tile/>
   <tile/>
   <tile/>
   <tile/>
   <tile/>
   <tile/>
   <tile/>
   <tile/>
   <tile/>
   <tile/>
   <tile/>
   <tile/>
   <tile/>
   <tile/>
   <tile/>
   <tile/>
   <tile/>
   <tile/>
   <tile/>
   <tile gid="65"/>
   <tile/>
   <tile/>
   <tile/>
   <tile/>
   <tile/>
   <tile/>
   <tile/>
   <tile/>
   <tile/>
   <tile/>
   <tile/>
   <tile/>
   <tile/>
   <tile/>
   <tile/>
   <tile/>
   <tile/>
   <tile/>
   <tile/>
   <tile/>
   <tile/>
   <tile/>
   <tile/>
   <tile/>
   <tile/>
   <tile/>
   <tile/>
   <tile/>
   <tile/>
   <tile/>
   <tile/>
   <tile/>
   <tile/>
   <tile/>
   <tile gid="65"/>
   <tile gid="65"/>
   <tile gid="65"/>
   <tile gid="65"/>
   <tile/>
   <tile/>
   <tile/>
   <tile/>
   <tile/>
   <tile/>
   <tile/>
   <tile/>
   <tile/>
   <tile/>
   <tile/>
   <tile/>
   <tile/>
   <tile/>
   <tile/>
   <tile/>
   <tile/>
   <tile/>
   <tile/>
   <tile/>
   <tile/>
   <tile/>
   <tile/>
   <tile/>
   <tile/>
   <tile/>
   <tile/>
   <tile/>
   <tile/>
   <tile/>
   <tile/>
   <tile/>
   <tile/>
   <tile/>
   <tile/>
   <tile/>
   <tile/>
   <tile/>
   <tile/>
   <tile/>
   <tile/>
   <tile/>
   <tile/>
   <tile/>
   <tile/>
   <tile/>
   <tile/>
   <tile/>
   <tile/>
   <tile/>
   <tile/>
   <tile/>
   <tile/>
   <tile/>
   <tile/>
   <tile/>
   <tile/>
   <tile/>
   <tile/>
   <tile/>
   <tile/>
   <tile/>
   <tile/>
   <tile/>
   <tile/>
   <tile/>
   <tile/>
   <tile/>
   <tile/>
   <tile/>
   <tile/>
   <tile/>
   <tile/>
   <tile/>
   <tile/>
   <tile/>
   <tile/>
   <tile/>
   <tile/>
   <tile/>
   <tile/>
   <tile/>
   <tile/>
   <tile/>
   <tile/>
   <tile/>
   <tile/>
   <tile/>
   <tile/>
   <tile/>
   <tile/>
   <tile/>
   <tile/>
   <tile/>
   <tile/>
   <tile/>
   <tile/>
   <tile/>
   <tile/>
   <tile/>
   <tile/>
   <tile/>
   <tile/>
   <tile/>
   <tile/>
   <tile/>
   <tile/>
   <tile/>
   <tile/>
   <tile/>
   <tile/>
   <tile/>
   <tile/>
   <tile/>
   <tile/>
   <tile/>
   <tile/>
   <tile/>
   <tile/>
   <tile/>
   <tile/>
   <tile/>
   <tile/>
   <tile/>
   <tile/>
   <tile/>
   <tile/>
   <tile/>
   <tile/>
   <tile/>
   <tile/>
   <tile/>
   <tile/>
   <tile/>
   <tile/>
   <tile/>
   <tile/>
   <tile/>
   <tile/>
   <tile/>
   <tile/>
   <tile gid="65"/>
   <tile/>
   <tile/>
   <tile/>
   <tile/>
   <tile/>
   <tile/>
   <tile/>
   <tile/>
   <tile/>
   <tile/>
   <tile/>
   <tile/>
   <tile/>
   <tile/>
   <tile/>
   <tile/>
   <tile/>
   <tile/>
   <tile/>
   <tile/>
   <tile/>
   <tile/>
   <tile/>
   <tile/>
   <tile/>
   <tile/>
   <tile/>
   <tile/>
   <tile/>
   <tile/>
   <tile/>
   <tile/>
   <tile/>
   <tile gid="65"/>
   <tile gid="65"/>
   <tile gid="65"/>
   <tile gid="65"/>
   <tile/>
   <tile/>
   <tile/>
   <tile/>
   <tile/>
   <tile/>
   <tile/>
   <tile/>
   <tile/>
   <tile/>
   <tile/>
   <tile/>
   <tile/>
   <tile/>
   <tile/>
   <tile/>
   <tile/>
   <tile/>
   <tile/>
   <tile/>
   <tile/>
   <tile/>
   <tile/>
   <tile/>
   <tile/>
   <tile/>
   <tile/>
   <tile/>
   <tile/>
   <tile/>
   <tile/>
   <tile/>
   <tile/>
   <tile/>
   <tile/>
   <tile/>
   <tile/>
   <tile/>
   <tile/>
   <tile/>
   <tile/>
   <tile/>
   <tile/>
   <tile/>
   <tile/>
   <tile/>
   <tile/>
   <tile/>
   <tile/>
   <tile/>
   <tile/>
   <tile/>
   <tile/>
   <tile/>
   <tile/>
   <tile/>
   <tile/>
   <tile/>
   <tile/>
   <tile/>
   <tile/>
   <tile/>
   <tile/>
   <tile/>
   <tile/>
   <tile/>
   <tile/>
   <tile/>
   <tile/>
   <tile/>
   <tile/>
   <tile/>
   <tile/>
   <tile/>
   <tile/>
   <tile/>
   <tile/>
   <tile/>
   <tile/>
   <tile/>
   <tile/>
   <tile/>
   <tile/>
   <tile/>
   <tile/>
   <tile/>
   <tile/>
   <tile/>
   <tile/>
   <tile/>
   <tile/>
   <tile/>
   <tile gid="65"/>
   <tile gid="65"/>
   <tile gid="65"/>
   <tile gid="65"/>
   <tile gid="65"/>
   <tile gid="65"/>
   <tile gid="65"/>
   <tile gid="65"/>
   <tile gid="65"/>
   <tile gid="65"/>
   <tile gid="65"/>
   <tile gid="65"/>
   <tile gid="65"/>
   <tile gid="65"/>
   <tile gid="65"/>
   <tile gid="65"/>
   <tile gid="65"/>
   <tile gid="65"/>
   <tile gid="65"/>
   <tile gid="65"/>
   <tile gid="65"/>
   <tile gid="65"/>
   <tile gid="65"/>
   <tile gid="65"/>
   <tile gid="65"/>
   <tile gid="65"/>
   <tile gid="65"/>
   <tile gid="65"/>
   <tile gid="65"/>
   <tile gid="65"/>
   <tile gid="65"/>
   <tile gid="65"/>
   <tile gid="65"/>
   <tile gid="65"/>
   <tile/>
   <tile/>
   <tile/>
   <tile/>
   <tile/>
   <tile/>
   <tile/>
   <tile/>
   <tile/>
   <tile/>
   <tile/>
   <tile/>
   <tile/>
   <tile/>
   <tile/>
   <tile/>
   <tile gid="65"/>
   <tile/>
   <tile/>
   <tile/>
   <tile/>
   <tile/>
   <tile/>
   <tile/>
   <tile/>
   <tile/>
   <tile/>
   <tile/>
   <tile/>
   <tile/>
   <tile/>
   <tile/>
   <tile/>
   <tile/>
   <tile/>
   <tile/>
   <tile/>
   <tile/>
   <tile/>
   <tile/>
   <tile/>
   <tile/>
   <tile/>
   <tile/>
   <tile/>
   <tile/>
   <tile/>
   <tile/>
   <tile/>
   <tile/>
   <tile gid="65"/>
   <tile gid="65"/>
   <tile/>
   <tile/>
   <tile/>
   <tile/>
   <tile/>
   <tile/>
   <tile/>
   <tile/>
   <tile/>
   <tile/>
   <tile/>
   <tile/>
   <tile/>
   <tile/>
   <tile/>
   <tile/>
   <tile/>
   <tile/>
   <tile/>
   <tile/>
   <tile/>
   <tile/>
   <tile/>
   <tile/>
   <tile/>
   <tile/>
   <tile/>
   <tile/>
   <tile/>
   <tile/>
   <tile/>
   <tile/>
   <tile/>
   <tile/>
   <tile/>
   <tile/>
   <tile/>
   <tile/>
   <tile/>
   <tile/>
   <tile/>
   <tile/>
   <tile/>
   <tile/>
   <tile/>
   <tile/>
   <tile/>
   <tile/>
   <tile/>
   <tile/>
   <tile/>
   <tile/>
   <tile/>
   <tile/>
   <tile/>
   <tile/>
   <tile/>
   <tile/>
   <tile/>
   <tile/>
   <tile/>
   <tile/>
   <tile/>
   <tile/>
   <tile/>
   <tile/>
   <tile/>
   <tile/>
   <tile/>
   <tile/>
   <tile/>
   <tile/>
   <tile/>
   <tile/>
   <tile/>
   <tile/>
   <tile/>
   <tile/>
   <tile/>
   <tile/>
   <tile/>
   <tile/>
   <tile/>
   <tile/>
   <tile/>
   <tile/>
   <tile/>
   <tile/>
   <tile/>
   <tile/>
   <tile/>
   <tile/>
   <tile/>
   <tile/>
   <tile/>
   <tile/>
   <tile/>
   <tile/>
   <tile/>
   <tile/>
   <tile/>
   <tile/>
   <tile/>
   <tile/>
   <tile/>
   <tile/>
   <tile/>
   <tile/>
   <tile/>
   <tile/>
   <tile/>
   <tile/>
   <tile/>
   <tile/>
   <tile/>
   <tile/>
   <tile/>
   <tile/>
   <tile/>
   <tile/>
   <tile/>
   <tile/>
   <tile/>
   <tile/>
   <tile/>
   <tile/>
   <tile/>
   <tile/>
   <tile/>
   <tile/>
   <tile/>
   <tile/>
   <tile/>
   <tile/>
   <tile/>
   <tile/>
   <tile/>
   <tile/>
   <tile/>
   <tile/>
   <tile/>
   <tile/>
   <tile/>
   <tile/>
   <tile gid="65"/>
   <tile/>
   <tile/>
   <tile/>
   <tile/>
   <tile/>
   <tile/>
   <tile/>
   <tile/>
   <tile/>
   <tile/>
   <tile/>
   <tile/>
   <tile/>
   <tile/>
   <tile/>
   <tile/>
   <tile/>
   <tile/>
   <tile/>
   <tile/>
   <tile/>
   <tile/>
   <tile/>
   <tile/>
   <tile/>
   <tile/>
   <tile/>
   <tile/>
   <tile/>
   <tile/>
   <tile/>
   <tile/>
   <tile gid="65"/>
   <tile gid="65"/>
   <tile/>
   <tile/>
   <tile/>
   <tile/>
   <tile/>
   <tile/>
   <tile/>
   <tile/>
   <tile/>
   <tile/>
   <tile/>
   <tile/>
   <tile/>
   <tile/>
   <tile/>
   <tile/>
   <tile/>
   <tile/>
   <tile/>
   <tile/>
   <tile/>
   <tile/>
   <tile/>
   <tile/>
   <tile/>
   <tile/>
   <tile/>
   <tile/>
   <tile/>
   <tile/>
   <tile/>
   <tile/>
   <tile/>
   <tile/>
   <tile/>
   <tile/>
   <tile/>
   <tile/>
   <tile/>
   <tile/>
   <tile/>
   <tile/>
   <tile/>
   <tile/>
   <tile/>
   <tile/>
   <tile/>
   <tile/>
   <tile/>
   <tile/>
   <tile/>
   <tile/>
   <tile/>
   <tile/>
   <tile/>
   <tile/>
   <tile/>
   <tile/>
   <tile/>
   <tile/>
   <tile/>
   <tile/>
   <tile/>
   <tile/>
   <tile/>
   <tile/>
   <tile/>
   <tile/>
   <tile/>
   <tile/>
   <tile/>
   <tile/>
   <tile/>
   <tile/>
   <tile/>
   <tile/>
   <tile/>
   <tile/>
   <tile/>
   <tile/>
   <tile/>
   <tile/>
   <tile/>
   <tile/>
   <tile/>
   <tile/>
   <tile/>
   <tile/>
   <tile/>
   <tile/>
   <tile/>
   <tile/>
   <tile gid="65"/>
   <tile gid="65"/>
   <tile gid="65"/>
   <tile gid="65"/>
   <tile gid="65"/>
   <tile gid="65"/>
   <tile gid="65"/>
   <tile gid="65"/>
   <tile gid="65"/>
   <tile gid="65"/>
   <tile gid="65"/>
   <tile gid="65"/>
   <tile gid="65"/>
   <tile gid="65"/>
   <tile gid="65"/>
   <tile gid="65"/>
   <tile gid="65"/>
   <tile gid="65"/>
   <tile gid="65"/>
   <tile gid="65"/>
   <tile gid="65"/>
   <tile gid="65"/>
   <tile gid="65"/>
   <tile gid="65"/>
   <tile gid="65"/>
   <tile gid="65"/>
   <tile gid="65"/>
   <tile gid="65"/>
   <tile gid="65"/>
   <tile gid="65"/>
   <tile gid="65"/>
   <tile gid="65"/>
   <tile gid="65"/>
   <tile gid="65"/>
   <tile gid="65"/>
   <tile gid="65"/>
   <tile gid="65"/>
   <tile gid="65"/>
   <tile gid="65"/>
   <tile gid="65"/>
   <tile/>
   <tile/>
   <tile/>
   <tile/>
   <tile/>
   <tile/>
   <tile/>
   <tile/>
   <tile/>
   <tile/>
   <tile/>
   <tile/>
   <tile/>
   <tile gid="65"/>
   <tile/>
   <tile/>
   <tile/>
   <tile/>
   <tile/>
   <tile/>
   <tile/>
   <tile/>
   <tile/>
   <tile/>
   <tile/>
   <tile/>
   <tile/>
   <tile/>
   <tile/>
   <tile/>
   <tile/>
   <tile/>
   <tile/>
   <tile/>
   <tile/>
   <tile/>
   <tile/>
   <tile/>
   <tile/>
   <tile/>
   <tile/>
   <tile/>
   <tile/>
   <tile/>
   <tile/>
   <tile gid="65"/>
   <tile gid="65"/>
   <tile/>
   <tile/>
   <tile/>
   <tile/>
   <tile/>
   <tile/>
   <tile/>
   <tile/>
   <tile/>
   <tile/>
   <tile/>
   <tile/>
   <tile/>
   <tile/>
   <tile/>
   <tile/>
   <tile/>
   <tile/>
   <tile/>
   <tile/>
   <tile/>
   <tile/>
   <tile/>
   <tile/>
   <tile/>
   <tile/>
   <tile/>
   <tile/>
   <tile/>
   <tile/>
   <tile/>
   <tile/>
   <tile/>
   <tile/>
   <tile/>
   <tile/>
   <tile/>
   <tile/>
   <tile/>
   <tile/>
   <tile/>
   <tile/>
   <tile/>
   <tile/>
   <tile/>
   <tile/>
   <tile/>
   <tile/>
   <tile/>
   <tile/>
   <tile/>
   <tile/>
   <tile/>
   <tile/>
   <tile/>
   <tile/>
   <tile/>
   <tile/>
   <tile/>
   <tile/>
   <tile/>
   <tile/>
   <tile/>
   <tile/>
   <tile/>
   <tile/>
   <tile/>
   <tile/>
   <tile/>
   <tile/>
   <tile/>
   <tile/>
   <tile/>
   <tile/>
   <tile/>
   <tile/>
   <tile/>
   <tile/>
   <tile/>
   <tile/>
   <tile/>
   <tile/>
   <tile/>
   <tile/>
   <tile/>
   <tile/>
   <tile/>
   <tile/>
   <tile/>
   <tile/>
   <tile/>
   <tile/>
   <tile gid="65"/>
   <tile gid="65"/>
   <tile gid="65"/>
   <tile gid="65"/>
   <tile gid="65"/>
   <tile gid="65"/>
   <tile gid="65"/>
   <tile gid="65"/>
   <tile gid="65"/>
   <tile gid="65"/>
   <tile gid="65"/>
   <tile gid="65"/>
   <tile gid="65"/>
   <tile gid="65"/>
   <tile gid="65"/>
   <tile gid="65"/>
   <tile gid="65"/>
   <tile gid="65"/>
   <tile gid="65"/>
   <tile gid="65"/>
   <tile gid="65"/>
   <tile gid="65"/>
   <tile gid="65"/>
   <tile gid="65"/>
   <tile gid="65"/>
   <tile gid="65"/>
   <tile gid="65"/>
   <tile gid="65"/>
   <tile gid="65"/>
   <tile gid="65"/>
   <tile gid="65"/>
   <tile gid="65"/>
   <tile gid="65"/>
   <tile gid="65"/>
   <tile gid="65"/>
   <tile gid="65"/>
   <tile gid="65"/>
   <tile gid="65"/>
   <tile gid="65"/>
   <tile gid="65"/>
   <tile gid="65"/>
   <tile gid="65"/>
   <tile/>
   <tile/>
   <tile gid="65"/>
   <tile gid="65"/>
   <tile/>
   <tile/>
   <tile/>
   <tile/>
   <tile/>
   <tile/>
   <tile/>
   <tile/>
   <tile gid="65"/>
   <tile/>
   <tile/>
   <tile/>
   <tile/>
   <tile/>
   <tile/>
   <tile/>
   <tile/>
   <tile/>
   <tile/>
   <tile/>
   <tile/>
   <tile/>
   <tile/>
   <tile/>
   <tile/>
   <tile/>
   <tile/>
   <tile/>
   <tile/>
   <tile/>
   <tile/>
   <tile/>
   <tile/>
   <tile/>
   <tile/>
   <tile/>
   <tile/>
   <tile/>
   <tile/>
   <tile gid="65"/>
   <tile gid="65"/>
   <tile/>
   <tile/>
   <tile/>
   <tile/>
   <tile/>
   <tile/>
   <tile/>
   <tile/>
   <tile/>
   <tile/>
   <tile/>
   <tile/>
   <tile/>
   <tile/>
   <tile/>
   <tile/>
   <tile/>
   <tile/>
   <tile/>
   <tile/>
   <tile/>
   <tile/>
   <tile/>
   <tile/>
   <tile/>
   <tile/>
   <tile/>
   <tile/>
   <tile/>
   <tile/>
   <tile/>
   <tile/>
   <tile/>
   <tile/>
   <tile/>
   <tile/>
   <tile/>
   <tile/>
   <tile/>
   <tile/>
   <tile/>
   <tile/>
   <tile/>
   <tile/>
   <tile/>
   <tile/>
   <tile/>
   <tile/>
   <tile/>
   <tile/>
   <tile/>
   <tile/>
   <tile/>
   <tile/>
   <tile/>
   <tile/>
   <tile/>
   <tile/>
   <tile/>
   <tile/>
   <tile/>
   <tile/>
   <tile/>
   <tile/>
   <tile/>
   <tile/>
   <tile/>
   <tile/>
   <tile/>
   <tile/>
   <tile/>
   <tile/>
   <tile/>
   <tile/>
   <tile/>
   <tile/>
   <tile/>
   <tile/>
   <tile/>
   <tile/>
   <tile/>
   <tile/>
   <tile/>
   <tile/>
   <tile/>
   <tile/>
   <tile/>
   <tile/>
   <tile/>
   <tile/>
   <tile/>
   <tile/>
   <tile/>
   <tile gid="65"/>
   <tile gid="65"/>
   <tile gid="65"/>
   <tile gid="65"/>
   <tile gid="65"/>
   <tile gid="65"/>
   <tile gid="65"/>
   <tile gid="65"/>
   <tile gid="65"/>
   <tile gid="65"/>
   <tile gid="65"/>
   <tile gid="65"/>
   <tile gid="65"/>
   <tile gid="65"/>
   <tile gid="65"/>
   <tile gid="65"/>
   <tile gid="65"/>
   <tile gid="65"/>
   <tile gid="65"/>
   <tile gid="65"/>
   <tile gid="65"/>
   <tile gid="65"/>
   <tile gid="65"/>
   <tile gid="65"/>
   <tile gid="65"/>
   <tile gid="65"/>
   <tile gid="65"/>
   <tile gid="65"/>
   <tile gid="65"/>
   <tile gid="65"/>
   <tile gid="65"/>
   <tile gid="65"/>
   <tile gid="65"/>
   <tile gid="65"/>
   <tile gid="65"/>
   <tile gid="65"/>
   <tile gid="65"/>
   <tile gid="65"/>
   <tile gid="65"/>
   <tile gid="65"/>
   <tile gid="65"/>
   <tile gid="65"/>
   <tile/>
   <tile/>
   <tile/>
   <tile/>
   <tile/>
   <tile/>
   <tile/>
   <tile/>
   <tile/>
   <tile/>
   <tile/>
   <tile/>
   <tile gid="65"/>
   <tile/>
   <tile/>
   <tile/>
   <tile/>
   <tile/>
   <tile/>
   <tile/>
   <tile/>
   <tile/>
   <tile/>
   <tile/>
   <tile/>
   <tile/>
   <tile/>
   <tile/>
   <tile/>
   <tile/>
   <tile/>
   <tile/>
   <tile/>
   <tile/>
   <tile/>
   <tile/>
   <tile/>
   <tile/>
   <tile/>
   <tile/>
   <tile/>
   <tile/>
   <tile/>
   <tile gid="65"/>
   <tile/>
   <tile/>
   <tile/>
   <tile/>
   <tile/>
   <tile/>
   <tile/>
   <tile/>
   <tile/>
   <tile/>
   <tile/>
   <tile/>
   <tile/>
   <tile/>
   <tile/>
   <tile/>
   <tile/>
   <tile/>
   <tile/>
   <tile/>
   <tile/>
   <tile/>
   <tile/>
   <tile/>
   <tile/>
   <tile/>
   <tile/>
   <tile/>
   <tile/>
   <tile/>
   <tile/>
   <tile/>
   <tile/>
   <tile/>
   <tile/>
   <tile/>
   <tile/>
   <tile/>
   <tile/>
   <tile/>
   <tile/>
   <tile/>
   <tile/>
   <tile/>
   <tile/>
   <tile/>
   <tile/>
   <tile/>
   <tile/>
   <tile/>
   <tile/>
   <tile/>
   <tile/>
   <tile/>
   <tile/>
   <tile/>
   <tile/>
   <tile/>
   <tile/>
   <tile/>
   <tile/>
   <tile/>
   <tile/>
   <tile/>
   <tile/>
   <tile/>
   <tile/>
   <tile/>
   <tile/>
   <tile/>
   <tile/>
   <tile/>
   <tile/>
   <tile/>
   <tile/>
   <tile/>
   <tile/>
   <tile/>
   <tile/>
   <tile/>
   <tile/>
   <tile/>
   <tile/>
   <tile/>
   <tile/>
   <tile/>
   <tile/>
   <tile/>
   <tile/>
   <tile/>
   <tile/>
   <tile/>
   <tile/>
   <tile/>
   <tile/>
   <tile/>
   <tile/>
   <tile/>
   <tile/>
   <tile/>
   <tile/>
   <tile/>
   <tile/>
   <tile/>
   <tile/>
   <tile/>
   <tile/>
   <tile/>
   <tile/>
   <tile gid="65"/>
   <tile gid="65"/>
   <tile/>
   <tile/>
   <tile/>
   <tile/>
   <tile/>
   <tile/>
   <tile/>
   <tile/>
   <tile/>
   <tile/>
   <tile/>
   <tile/>
   <tile/>
   <tile/>
   <tile/>
   <tile/>
   <tile/>
   <tile/>
   <tile/>
   <tile/>
   <tile/>
   <tile/>
   <tile/>
   <tile/>
   <tile/>
   <tile/>
   <tile/>
   <tile/>
   <tile/>
   <tile/>
   <tile/>
   <tile/>
   <tile/>
   <tile/>
   <tile/>
   <tile/>
   <tile/>
   <tile gid="65"/>
   <tile/>
   <tile/>
   <tile/>
   <tile/>
   <tile/>
   <tile/>
   <tile/>
   <tile/>
   <tile/>
   <tile/>
   <tile/>
   <tile/>
   <tile/>
   <tile/>
   <tile/>
   <tile/>
   <tile/>
   <tile/>
   <tile/>
   <tile/>
   <tile/>
   <tile/>
   <tile/>
   <tile/>
   <tile/>
   <tile/>
   <tile/>
   <tile/>
   <tile/>
   <tile gid="65"/>
   <tile gid="65"/>
   <tile/>
   <tile/>
   <tile/>
   <tile/>
   <tile/>
   <tile/>
   <tile/>
   <tile/>
   <tile/>
   <tile/>
   <tile/>
   <tile/>
   <tile/>
   <tile/>
   <tile/>
   <tile/>
   <tile/>
   <tile/>
   <tile/>
   <tile/>
   <tile/>
   <tile/>
   <tile/>
   <tile/>
   <tile/>
   <tile/>
   <tile/>
   <tile/>
   <tile/>
   <tile/>
   <tile/>
   <tile/>
   <tile/>
   <tile/>
   <tile/>
   <tile/>
   <tile/>
   <tile/>
   <tile/>
   <tile/>
   <tile/>
   <tile/>
   <tile/>
   <tile/>
   <tile/>
   <tile/>
   <tile/>
   <tile/>
   <tile/>
   <tile/>
   <tile/>
   <tile/>
   <tile/>
   <tile gid="65"/>
   <tile gid="65"/>
   <tile/>
   <tile/>
   <tile/>
   <tile/>
   <tile/>
   <tile/>
   <tile/>
   <tile/>
   <tile/>
   <tile/>
   <tile/>
   <tile/>
   <tile/>
   <tile/>
   <tile/>
   <tile/>
   <tile/>
   <tile/>
   <tile/>
   <tile/>
   <tile/>
   <tile/>
   <tile/>
   <tile/>
   <tile/>
   <tile/>
   <tile/>
   <tile/>
   <tile/>
   <tile/>
   <tile/>
   <tile/>
   <tile/>
   <tile/>
   <tile/>
   <tile/>
   <tile/>
   <tile/>
   <tile/>
   <tile/>
   <tile/>
   <tile/>
   <tile/>
   <tile/>
   <tile/>
   <tile/>
   <tile/>
   <tile/>
   <tile/>
   <tile/>
   <tile/>
   <tile/>
   <tile/>
   <tile/>
   <tile gid="65"/>
   <tile gid="65"/>
   <tile/>
   <tile/>
   <tile/>
   <tile/>
   <tile/>
   <tile/>
   <tile/>
   <tile/>
   <tile/>
   <tile/>
   <tile/>
   <tile/>
   <tile/>
   <tile/>
   <tile/>
   <tile/>
   <tile/>
   <tile/>
   <tile/>
   <tile/>
   <tile/>
   <tile/>
   <tile/>
   <tile/>
   <tile/>
   <tile/>
   <tile/>
   <tile/>
   <tile/>
   <tile/>
   <tile/>
   <tile/>
   <tile gid="65"/>
   <tile gid="65"/>
   <tile/>
   <tile/>
   <tile/>
   <tile gid="65"/>
   <tile/>
   <tile/>
   <tile/>
   <tile/>
   <tile/>
   <tile/>
   <tile/>
   <tile/>
   <tile/>
   <tile/>
   <tile/>
   <tile/>
   <tile/>
   <tile/>
   <tile/>
   <tile/>
   <tile/>
   <tile/>
   <tile/>
   <tile/>
   <tile/>
   <tile/>
   <tile/>
   <tile/>
   <tile/>
   <tile/>
   <tile/>
   <tile/>
   <tile/>
   <tile gid="65"/>
   <tile gid="65"/>
   <tile/>
   <tile/>
   <tile/>
   <tile/>
   <tile/>
   <tile/>
   <tile/>
   <tile/>
   <tile/>
   <tile/>
   <tile/>
   <tile/>
   <tile/>
   <tile/>
   <tile/>
   <tile/>
   <tile/>
   <tile/>
   <tile/>
   <tile/>
   <tile/>
   <tile/>
   <tile/>
   <tile/>
   <tile/>
   <tile/>
   <tile/>
   <tile/>
   <tile/>
   <tile/>
   <tile/>
   <tile/>
   <tile/>
   <tile/>
   <tile/>
   <tile/>
   <tile/>
   <tile/>
   <tile/>
   <tile/>
   <tile/>
   <tile/>
   <tile/>
   <tile/>
   <tile/>
   <tile/>
   <tile/>
   <tile gid="65"/>
   <tile gid="65"/>
   <tile/>
   <tile/>
   <tile/>
   <tile/>
   <tile gid="65"/>
   <tile gid="65"/>
   <tile/>
   <tile/>
   <tile/>
   <tile/>
   <tile/>
   <tile/>
   <tile/>
   <tile/>
   <tile/>
   <tile/>
   <tile/>
   <tile/>
   <tile/>
   <tile/>
   <tile/>
   <tile/>
   <tile/>
   <tile/>
   <tile/>
   <tile/>
   <tile/>
   <tile/>
   <tile/>
   <tile/>
   <tile/>
   <tile gid="65"/>
   <tile gid="65"/>
   <tile/>
   <tile/>
   <tile/>
   <tile/>
   <tile/>
   <tile/>
   <tile/>
   <tile/>
   <tile/>
   <tile/>
   <tile/>
   <tile/>
   <tile/>
   <tile/>
   <tile/>
   <tile/>
   <tile/>
   <tile/>
   <tile/>
   <tile/>
   <tile/>
   <tile/>
   <tile/>
   <tile/>
   <tile/>
   <tile/>
   <tile/>
   <tile gid="65"/>
   <tile gid="65"/>
   <tile/>
   <tile/>
   <tile/>
   <tile/>
   <tile/>
   <tile/>
   <tile/>
   <tile/>
   <tile/>
   <tile/>
   <tile/>
   <tile/>
   <tile/>
   <tile/>
   <tile/>
   <tile/>
   <tile/>
   <tile/>
   <tile/>
   <tile/>
   <tile/>
   <tile/>
   <tile/>
   <tile/>
   <tile/>
   <tile/>
   <tile/>
   <tile/>
   <tile/>
   <tile/>
   <tile/>
   <tile/>
   <tile/>
   <tile/>
   <tile/>
   <tile/>
   <tile/>
   <tile gid="65"/>
   <tile/>
   <tile/>
   <tile/>
   <tile/>
   <tile/>
   <tile/>
   <tile/>
   <tile/>
   <tile/>
   <tile/>
   <tile/>
   <tile/>
   <tile/>
   <tile/>
   <tile/>
   <tile/>
   <tile/>
   <tile/>
   <tile/>
   <tile/>
   <tile/>
   <tile/>
   <tile/>
   <tile/>
   <tile/>
   <tile/>
   <tile/>
   <tile/>
   <tile gid="65"/>
   <tile gid="65"/>
   <tile gid="65"/>
   <tile/>
   <tile/>
   <tile/>
   <tile/>
   <tile/>
   <tile/>
   <tile/>
   <tile/>
   <tile/>
   <tile/>
   <tile/>
   <tile/>
   <tile/>
   <tile/>
   <tile/>
   <tile/>
   <tile/>
   <tile/>
   <tile/>
   <tile/>
   <tile/>
   <tile/>
   <tile/>
   <tile/>
   <tile/>
   <tile/>
   <tile/>
   <tile/>
   <tile/>
   <tile/>
   <tile/>
   <tile/>
   <tile/>
   <tile/>
   <tile/>
   <tile/>
   <tile/>
   <tile/>
   <tile/>
   <tile/>
   <tile/>
   <tile/>
   <tile/>
   <tile/>
   <tile/>
   <tile/>
   <tile/>
   <tile gid="65"/>
   <tile gid="65"/>
   <tile/>
   <tile/>
   <tile/>
   <tile/>
   <tile gid="65"/>
   <tile gid="65"/>
   <tile/>
   <tile/>
   <tile/>
   <tile/>
   <tile/>
   <tile gid="65"/>
   <tile gid="65"/>
   <tile/>
   <tile/>
   <tile/>
   <tile/>
   <tile/>
   <tile/>
   <tile/>
   <tile/>
   <tile/>
   <tile/>
   <tile/>
   <tile/>
   <tile/>
   <tile/>
   <tile/>
   <tile/>
   <tile/>
   <tile/>
   <tile gid="65"/>
   <tile gid="65"/>
   <tile gid="65"/>
   <tile gid="65"/>
   <tile/>
   <tile/>
   <tile/>
   <tile/>
   <tile/>
   <tile/>
   <tile/>
   <tile/>
   <tile/>
   <tile/>
   <tile/>
   <tile/>
   <tile/>
   <tile/>
   <tile/>
   <tile/>
   <tile/>
   <tile/>
   <tile/>
   <tile/>
   <tile/>
   <tile/>
   <tile/>
   <tile/>
   <tile/>
   <tile gid="65"/>
   <tile gid="65"/>
   <tile/>
   <tile/>
   <tile/>
   <tile/>
   <tile/>
   <tile/>
   <tile/>
   <tile/>
   <tile/>
   <tile/>
   <tile/>
   <tile/>
   <tile/>
   <tile/>
   <tile/>
   <tile/>
   <tile/>
   <tile/>
   <tile/>
   <tile/>
   <tile/>
   <tile/>
   <tile/>
   <tile/>
   <tile/>
   <tile/>
   <tile/>
   <tile/>
   <tile/>
   <tile/>
   <tile/>
   <tile/>
   <tile/>
   <tile/>
   <tile/>
   <tile/>
   <tile/>
   <tile gid="65"/>
   <tile/>
   <tile/>
   <tile/>
   <tile/>
   <tile/>
   <tile/>
   <tile/>
   <tile/>
   <tile/>
   <tile/>
   <tile/>
   <tile/>
   <tile/>
   <tile/>
   <tile/>
   <tile/>
   <tile/>
   <tile/>
   <tile/>
   <tile/>
   <tile/>
   <tile/>
   <tile/>
   <tile/>
   <tile/>
   <tile/>
   <tile/>
   <tile/>
   <tile gid="65"/>
   <tile gid="65"/>
   <tile gid="65"/>
   <tile/>
   <tile/>
   <tile/>
   <tile/>
   <tile/>
   <tile/>
   <tile/>
   <tile/>
   <tile/>
   <tile/>
   <tile/>
   <tile/>
   <tile/>
   <tile/>
   <tile/>
   <tile/>
   <tile/>
   <tile/>
   <tile/>
   <tile/>
   <tile/>
   <tile/>
   <tile/>
   <tile/>
   <tile/>
   <tile/>
   <tile/>
   <tile/>
   <tile/>
   <tile/>
   <tile/>
   <tile/>
   <tile/>
   <tile/>
   <tile/>
   <tile/>
   <tile gid="65"/>
   <tile gid="65"/>
   <tile gid="65"/>
   <tile gid="65"/>
   <tile gid="65"/>
   <tile gid="65"/>
   <tile gid="65"/>
   <tile gid="65"/>
   <tile gid="65"/>
   <tile gid="65"/>
   <tile gid="65"/>
   <tile gid="65"/>
   <tile gid="65"/>
   <tile gid="65"/>
   <tile gid="65"/>
   <tile gid="65"/>
   <tile gid="65"/>
   <tile gid="65"/>
   <tile gid="65"/>
   <tile gid="65"/>
   <tile gid="65"/>
   <tile gid="65"/>
   <tile gid="65"/>
   <tile gid="65"/>
   <tile gid="65"/>
   <tile gid="65"/>
   <tile gid="65"/>
   <tile gid="65"/>
   <tile gid="65"/>
   <tile gid="65"/>
   <tile gid="65"/>
   <tile gid="65"/>
   <tile/>
   <tile/>
   <tile/>
   <tile/>
   <tile/>
   <tile/>
   <tile/>
   <tile/>
   <tile/>
   <tile/>
   <tile/>
   <tile/>
   <tile gid="65"/>
   <tile gid="65"/>
   <tile/>
   <tile/>
   <tile/>
   <tile/>
   <tile/>
   <tile/>
   <tile/>
   <tile/>
   <tile/>
   <tile/>
   <tile/>
   <tile/>
   <tile/>
   <tile/>
   <tile/>
   <tile/>
   <tile/>
   <tile/>
   <tile/>
   <tile/>
   <tile/>
   <tile/>
   <tile/>
   <tile/>
   <tile/>
   <tile/>
   <tile/>
   <tile gid="65"/>
   <tile gid="65"/>
   <tile/>
   <tile/>
   <tile/>
   <tile/>
   <tile/>
   <tile/>
   <tile/>
   <tile/>
   <tile/>
   <tile/>
   <tile/>
   <tile/>
   <tile/>
   <tile gid="65"/>
   <tile gid="65"/>
   <tile gid="65"/>
   <tile gid="65"/>
   <tile gid="65"/>
   <tile gid="65"/>
   <tile gid="65"/>
   <tile gid="65"/>
   <tile gid="65"/>
   <tile gid="65"/>
   <tile gid="65"/>
   <tile gid="65"/>
   <tile gid="65"/>
   <tile gid="65"/>
   <tile gid="65"/>
   <tile gid="65"/>
   <tile gid="65"/>
   <tile gid="65"/>
   <tile/>
   <tile/>
   <tile/>
   <tile/>
   <tile/>
   <tile/>
   <tile gid="65"/>
   <tile/>
   <tile/>
   <tile/>
   <tile/>
   <tile/>
   <tile/>
   <tile/>
   <tile/>
   <tile/>
   <tile/>
   <tile/>
   <tile/>
   <tile/>
   <tile/>
   <tile/>
   <tile/>
   <tile/>
   <tile/>
   <tile/>
   <tile/>
   <tile/>
   <tile/>
   <tile/>
   <tile/>
   <tile/>
   <tile/>
   <tile/>
   <tile gid="65"/>
   <tile gid="65"/>
   <tile gid="65"/>
   <tile gid="65"/>
   <tile gid="65"/>
   <tile gid="65"/>
   <tile gid="65"/>
   <tile gid="65"/>
   <tile gid="65"/>
   <tile gid="65"/>
   <tile/>
   <tile/>
   <tile/>
   <tile/>
   <tile/>
   <tile/>
   <tile/>
   <tile/>
   <tile/>
   <tile/>
   <tile/>
   <tile/>
   <tile/>
   <tile/>
   <tile/>
   <tile/>
   <tile/>
   <tile/>
   <tile/>
   <tile/>
   <tile/>
   <tile/>
   <tile/>
   <tile/>
   <tile/>
   <tile/>
   <tile/>
   <tile/>
   <tile/>
   <tile/>
   <tile gid="65"/>
   <tile gid="65"/>
   <tile gid="65"/>
   <tile gid="65"/>
   <tile gid="65"/>
   <tile gid="65"/>
   <tile gid="65"/>
   <tile gid="65"/>
   <tile gid="65"/>
   <tile gid="65"/>
   <tile gid="65"/>
   <tile gid="65"/>
   <tile gid="65"/>
   <tile gid="65"/>
   <tile gid="65"/>
   <tile gid="65"/>
   <tile gid="65"/>
   <tile gid="65"/>
   <tile gid="65"/>
   <tile gid="65"/>
   <tile gid="65"/>
   <tile gid="65"/>
   <tile gid="65"/>
   <tile gid="65"/>
   <tile gid="65"/>
   <tile gid="65"/>
   <tile gid="65"/>
   <tile gid="65"/>
   <tile gid="65"/>
   <tile gid="65"/>
   <tile gid="65"/>
   <tile gid="65"/>
   <tile/>
   <tile/>
   <tile/>
   <tile/>
   <tile/>
   <tile/>
   <tile/>
   <tile/>
   <tile/>
   <tile/>
   <tile gid="65"/>
   <tile gid="65"/>
   <tile gid="65"/>
   <tile gid="65"/>
   <tile/>
   <tile/>
   <tile/>
   <tile/>
   <tile/>
   <tile/>
   <tile/>
   <tile/>
   <tile/>
   <tile/>
   <tile/>
   <tile/>
   <tile/>
   <tile/>
   <tile/>
   <tile/>
   <tile/>
   <tile/>
   <tile/>
   <tile/>
   <tile/>
   <tile/>
   <tile gid="65"/>
   <tile gid="65"/>
   <tile/>
   <tile/>
   <tile/>
   <tile gid="65"/>
   <tile gid="65"/>
   <tile/>
   <tile/>
   <tile/>
   <tile gid="65"/>
   <tile gid="65"/>
   <tile/>
   <tile/>
   <tile/>
   <tile/>
   <tile/>
   <tile/>
   <tile gid="65"/>
   <tile gid="65"/>
   <tile gid="65"/>
   <tile gid="65"/>
   <tile gid="65"/>
   <tile gid="65"/>
   <tile gid="65"/>
   <tile gid="65"/>
   <tile gid="65"/>
   <tile gid="65"/>
   <tile gid="65"/>
   <tile gid="65"/>
   <tile gid="65"/>
   <tile gid="65"/>
   <tile gid="65"/>
   <tile gid="65"/>
   <tile gid="65"/>
   <tile gid="65"/>
   <tile gid="65"/>
   <tile gid="65"/>
   <tile gid="65"/>
   <tile gid="65"/>
   <tile/>
   <tile/>
   <tile/>
   <tile/>
   <tile gid="65"/>
   <tile/>
   <tile/>
   <tile/>
   <tile/>
   <tile/>
   <tile/>
   <tile/>
   <tile/>
   <tile/>
   <tile/>
   <tile/>
   <tile/>
   <tile/>
   <tile/>
   <tile/>
   <tile/>
   <tile/>
   <tile/>
   <tile/>
   <tile/>
   <tile/>
   <tile/>
   <tile/>
   <tile/>
   <tile/>
   <tile/>
   <tile/>
   <tile gid="65"/>
   <tile gid="65"/>
   <tile gid="65"/>
   <tile gid="65"/>
   <tile gid="65"/>
   <tile gid="65"/>
   <tile gid="65"/>
   <tile gid="65"/>
   <tile gid="65"/>
   <tile gid="65"/>
   <tile/>
   <tile/>
   <tile/>
   <tile/>
   <tile/>
   <tile/>
   <tile/>
   <tile/>
   <tile/>
   <tile/>
   <tile/>
   <tile/>
   <tile/>
   <tile/>
   <tile/>
   <tile/>
   <tile/>
   <tile/>
   <tile/>
   <tile/>
   <tile/>
   <tile/>
   <tile/>
   <tile/>
   <tile/>
   <tile/>
   <tile/>
   <tile gid="65"/>
   <tile gid="65"/>
   <tile/>
   <tile/>
   <tile gid="65"/>
   <tile gid="65"/>
   <tile gid="65"/>
   <tile gid="65"/>
   <tile gid="65"/>
   <tile gid="65"/>
   <tile gid="65"/>
   <tile gid="65"/>
   <tile gid="65"/>
   <tile gid="65"/>
   <tile gid="65"/>
   <tile gid="65"/>
   <tile gid="65"/>
   <tile gid="65"/>
   <tile gid="65"/>
   <tile gid="65"/>
   <tile gid="65"/>
   <tile gid="65"/>
   <tile gid="65"/>
   <tile gid="65"/>
   <tile gid="65"/>
   <tile gid="65"/>
   <tile gid="65"/>
   <tile gid="65"/>
   <tile gid="65"/>
   <tile gid="65"/>
   <tile gid="65"/>
   <tile gid="65"/>
   <tile gid="65"/>
   <tile gid="65"/>
   <tile gid="65"/>
   <tile/>
   <tile/>
   <tile/>
   <tile/>
   <tile/>
   <tile/>
   <tile/>
   <tile/>
   <tile/>
   <tile/>
   <tile/>
   <tile/>
   <tile gid="65"/>
   <tile gid="65"/>
   <tile/>
   <tile/>
   <tile/>
   <tile/>
   <tile/>
   <tile/>
   <tile/>
   <tile/>
   <tile/>
   <tile/>
   <tile/>
   <tile/>
   <tile/>
   <tile/>
   <tile/>
   <tile/>
   <tile/>
   <tile/>
   <tile/>
   <tile/>
   <tile/>
   <tile/>
   <tile gid="65"/>
   <tile gid="65"/>
   <tile/>
   <tile/>
   <tile/>
   <tile/>
   <tile/>
   <tile/>
   <tile/>
   <tile/>
   <tile gid="65"/>
   <tile gid="65"/>
   <tile/>
   <tile/>
   <tile/>
   <tile/>
   <tile/>
   <tile/>
   <tile/>
   <tile/>
   <tile/>
   <tile/>
   <tile/>
   <tile/>
   <tile/>
   <tile/>
   <tile/>
   <tile/>
   <tile/>
   <tile/>
   <tile/>
   <tile/>
   <tile/>
   <tile/>
   <tile/>
   <tile/>
   <tile/>
   <tile/>
   <tile/>
   <tile/>
   <tile/>
   <tile/>
   <tile/>
   <tile/>
   <tile gid="65"/>
   <tile/>
   <tile/>
   <tile/>
   <tile/>
   <tile/>
   <tile/>
   <tile/>
   <tile/>
   <tile/>
   <tile/>
   <tile/>
   <tile/>
   <tile/>
   <tile/>
   <tile/>
   <tile/>
   <tile/>
   <tile/>
   <tile/>
   <tile/>
   <tile/>
   <tile/>
   <tile/>
   <tile/>
   <tile/>
   <tile/>
   <tile/>
   <tile gid="65"/>
   <tile gid="65"/>
   <tile gid="65"/>
   <tile gid="65"/>
   <tile gid="65"/>
   <tile gid="65"/>
   <tile gid="65"/>
   <tile gid="65"/>
   <tile/>
   <tile/>
   <tile/>
   <tile/>
   <tile/>
   <tile/>
   <tile/>
   <tile/>
   <tile/>
   <tile/>
   <tile/>
   <tile/>
   <tile/>
   <tile/>
   <tile/>
   <tile/>
   <tile/>
   <tile/>
   <tile/>
   <tile/>
   <tile/>
   <tile/>
   <tile/>
   <tile/>
   <tile/>
   <tile/>
   <tile/>
   <tile/>
   <tile/>
   <tile gid="65"/>
   <tile gid="65"/>
   <tile/>
   <tile/>
   <tile/>
   <tile/>
   <tile/>
   <tile/>
   <tile/>
   <tile/>
   <tile/>
   <tile/>
   <tile/>
   <tile/>
   <tile/>
   <tile/>
   <tile/>
   <tile/>
   <tile/>
   <tile/>
   <tile/>
   <tile/>
   <tile/>
   <tile/>
   <tile/>
   <tile/>
   <tile/>
   <tile/>
   <tile/>
   <tile/>
   <tile/>
   <tile/>
   <tile/>
   <tile/>
   <tile/>
   <tile/>
   <tile/>
   <tile/>
   <tile/>
   <tile/>
   <tile/>
   <tile/>
   <tile/>
   <tile/>
   <tile/>
   <tile/>
   <tile/>
   <tile gid="65"/>
   <tile gid="65"/>
   <tile/>
   <tile/>
   <tile/>
   <tile gid="65"/>
   <tile gid="65"/>
   <tile/>
   <tile/>
   <tile/>
   <tile/>
   <tile/>
   <tile/>
   <tile/>
   <tile/>
   <tile/>
   <tile/>
   <tile/>
   <tile/>
   <tile/>
   <tile/>
   <tile/>
   <tile/>
   <tile gid="65"/>
   <tile gid="65"/>
   <tile gid="65"/>
   <tile gid="65"/>
   <tile/>
   <tile/>
   <tile/>
   <tile/>
   <tile/>
   <tile/>
   <tile gid="65"/>
   <tile gid="65"/>
   <tile gid="65"/>
   <tile gid="65"/>
   <tile/>
   <tile/>
   <tile/>
   <tile/>
   <tile/>
   <tile/>
   <tile/>
   <tile/>
   <tile/>
   <tile/>
   <tile/>
   <tile/>
   <tile/>
   <tile/>
   <tile/>
   <tile/>
   <tile/>
   <tile/>
   <tile/>
   <tile/>
   <tile/>
   <tile/>
   <tile/>
   <tile/>
   <tile/>
   <tile/>
   <tile/>
   <tile/>
   <tile/>
   <tile gid="65"/>
   <tile gid="65"/>
   <tile gid="65"/>
   <tile/>
   <tile/>
   <tile/>
   <tile/>
   <tile/>
   <tile/>
   <tile/>
   <tile/>
   <tile/>
   <tile/>
   <tile/>
   <tile/>
   <tile/>
   <tile/>
   <tile/>
   <tile/>
   <tile/>
   <tile/>
   <tile/>
   <tile/>
   <tile/>
   <tile/>
   <tile/>
   <tile/>
   <tile/>
   <tile/>
   <tile/>
   <tile gid="65"/>
   <tile gid="65"/>
   <tile gid="65"/>
   <tile gid="65"/>
   <tile gid="65"/>
   <tile gid="65"/>
   <tile/>
   <tile/>
   <tile/>
   <tile/>
   <tile/>
   <tile/>
   <tile/>
   <tile/>
   <tile/>
   <tile/>
   <tile/>
   <tile/>
   <tile/>
   <tile/>
   <tile/>
   <tile/>
   <tile/>
   <tile/>
   <tile/>
   <tile/>
   <tile/>
   <tile/>
   <tile/>
   <tile/>
   <tile/>
   <tile/>
   <tile/>
   <tile/>
   <tile/>
   <tile/>
   <tile gid="65"/>
   <tile gid="65"/>
   <tile gid="65"/>
   <tile/>
   <tile/>
   <tile/>
   <tile/>
   <tile/>
   <tile/>
   <tile/>
   <tile/>
   <tile/>
   <tile/>
   <tile/>
   <tile/>
   <tile/>
   <tile/>
   <tile/>
   <tile/>
   <tile/>
   <tile/>
   <tile/>
   <tile/>
   <tile/>
   <tile/>
   <tile/>
   <tile/>
   <tile/>
   <tile/>
   <tile/>
   <tile/>
   <tile/>
   <tile/>
   <tile/>
   <tile/>
   <tile/>
   <tile/>
   <tile/>
   <tile/>
   <tile/>
   <tile/>
   <tile/>
   <tile/>
   <tile/>
   <tile/>
   <tile/>
   <tile/>
   <tile/>
   <tile gid="65"/>
   <tile gid="65"/>
   <tile/>
   <tile/>
   <tile/>
   <tile/>
   <tile/>
   <tile/>
   <tile/>
   <tile/>
   <tile/>
   <tile/>
   <tile/>
   <tile/>
   <tile/>
   <tile/>
   <tile/>
   <tile/>
   <tile/>
   <tile/>
   <tile/>
   <tile/>
   <tile/>
   <tile/>
   <tile gid="65"/>
   <tile gid="65"/>
   <tile/>
   <tile/>
   <tile/>
   <tile/>
   <tile/>
   <tile/>
   <tile/>
   <tile/>
   <tile gid="65"/>
   <tile gid="65"/>
   <tile/>
   <tile/>
   <tile/>
   <tile/>
   <tile/>
   <tile/>
   <tile/>
   <tile/>
   <tile/>
   <tile/>
   <tile/>
   <tile/>
   <tile/>
   <tile/>
   <tile/>
   <tile/>
   <tile/>
   <tile/>
   <tile/>
   <tile/>
   <tile/>
   <tile/>
   <tile/>
   <tile/>
   <tile/>
   <tile/>
   <tile/>
   <tile/>
   <tile/>
   <tile/>
   <tile/>
   <tile/>
   <tile gid="65"/>
   <tile/>
   <tile/>
   <tile/>
   <tile/>
   <tile/>
   <tile/>
   <tile/>
   <tile/>
   <tile/>
   <tile/>
   <tile/>
   <tile/>
   <tile/>
   <tile/>
   <tile/>
   <tile/>
   <tile/>
   <tile/>
   <tile/>
   <tile/>
   <tile/>
   <tile/>
   <tile/>
   <tile/>
   <tile/>
   <tile/>
   <tile/>
   <tile/>
   <tile/>
   <tile/>
   <tile/>
   <tile/>
   <tile/>
   <tile/>
   <tile/>
   <tile/>
   <tile/>
   <tile/>
   <tile/>
   <tile/>
   <tile/>
   <tile/>
   <tile/>
   <tile/>
   <tile/>
   <tile/>
   <tile/>
   <tile/>
   <tile/>
   <tile/>
   <tile/>
   <tile/>
   <tile/>
   <tile/>
   <tile/>
   <tile/>
   <tile/>
   <tile/>
   <tile/>
   <tile/>
   <tile/>
   <tile/>
   <tile/>
   <tile/>
   <tile gid="65"/>
   <tile gid="65"/>
   <tile/>
   <tile/>
   <tile/>
   <tile/>
   <tile/>
   <tile/>
   <tile/>
   <tile/>
   <tile/>
   <tile/>
   <tile/>
   <tile/>
   <tile/>
   <tile/>
   <tile/>
   <tile/>
   <tile/>
   <tile/>
   <tile/>
   <tile/>
   <tile/>
   <tile/>
   <tile/>
   <tile/>
   <tile/>
   <tile/>
   <tile/>
   <tile/>
   <tile/>
   <tile/>
   <tile/>
   <tile/>
   <tile/>
   <tile/>
   <tile/>
   <tile/>
   <tile/>
   <tile/>
   <tile/>
   <tile/>
   <tile gid="65"/>
   <tile gid="65"/>
   <tile/>
   <tile/>
   <tile/>
   <tile gid="65"/>
   <tile gid="65"/>
   <tile/>
   <tile/>
   <tile/>
   <tile/>
   <tile/>
   <tile/>
   <tile/>
   <tile/>
   <tile/>
   <tile/>
   <tile/>
   <tile/>
   <tile/>
   <tile/>
   <tile/>
   <tile/>
   <tile/>
   <tile/>
   <tile/>
   <tile/>
   <tile/>
   <tile/>
   <tile gid="65"/>
   <tile gid="65"/>
   <tile/>
   <tile/>
   <tile/>
   <tile/>
   <tile/>
   <tile/>
   <tile/>
   <tile/>
   <tile gid="65"/>
   <tile gid="65"/>
   <tile/>
   <tile/>
   <tile/>
   <tile/>
   <tile/>
   <tile/>
   <tile/>
   <tile/>
   <tile/>
   <tile/>
   <tile/>
   <tile/>
   <tile/>
   <tile/>
   <tile/>
   <tile/>
   <tile/>
   <tile/>
   <tile/>
   <tile/>
   <tile/>
   <tile/>
   <tile/>
   <tile/>
   <tile/>
   <tile/>
   <tile/>
   <tile/>
   <tile/>
   <tile/>
   <tile/>
   <tile/>
   <tile gid="65"/>
   <tile/>
   <tile/>
   <tile/>
   <tile/>
   <tile/>
   <tile/>
   <tile/>
   <tile/>
   <tile/>
   <tile/>
   <tile/>
   <tile/>
   <tile/>
   <tile/>
   <tile/>
   <tile/>
   <tile/>
   <tile/>
   <tile/>
   <tile/>
   <tile/>
   <tile/>
   <tile/>
   <tile/>
   <tile/>
   <tile/>
   <tile/>
   <tile/>
   <tile/>
   <tile/>
   <tile/>
   <tile/>
   <tile/>
   <tile/>
   <tile/>
   <tile/>
   <tile/>
   <tile/>
   <tile/>
   <tile/>
   <tile/>
   <tile/>
   <tile/>
   <tile/>
   <tile/>
   <tile/>
   <tile/>
   <tile/>
   <tile/>
   <tile/>
   <tile/>
   <tile/>
   <tile/>
   <tile/>
   <tile/>
   <tile/>
   <tile/>
   <tile/>
   <tile/>
   <tile gid="65"/>
   <tile gid="65"/>
   <tile/>
   <tile/>
   <tile/>
   <tile gid="65"/>
   <tile gid="65"/>
   <tile/>
   <tile/>
   <tile/>
   <tile/>
   <tile/>
   <tile/>
   <tile/>
   <tile/>
   <tile/>
   <tile/>
   <tile/>
   <tile/>
   <tile/>
   <tile/>
   <tile/>
   <tile/>
   <tile/>
   <tile/>
   <tile/>
   <tile/>
   <tile/>
   <tile/>
   <tile/>
   <tile/>
   <tile/>
   <tile/>
   <tile/>
   <tile/>
   <tile/>
   <tile/>
   <tile/>
   <tile/>
   <tile/>
   <tile/>
   <tile/>
   <tile/>
   <tile/>
   <tile/>
   <tile/>
   <tile/>
   <tile/>
   <tile/>
   <tile/>
   <tile/>
   <tile/>
   <tile gid="65"/>
   <tile gid="65"/>
   <tile gid="65"/>
   <tile gid="65"/>
   <tile/>
   <tile/>
   <tile/>
   <tile/>
   <tile/>
   <tile/>
   <tile/>
   <tile gid="65"/>
   <tile gid="65"/>
   <tile gid="65"/>
   <tile gid="65"/>
   <tile gid="65"/>
   <tile gid="65"/>
   <tile gid="65"/>
   <tile gid="65"/>
   <tile gid="65"/>
   <tile gid="65"/>
   <tile gid="65"/>
   <tile gid="65"/>
   <tile gid="65"/>
   <tile gid="65"/>
   <tile gid="65"/>
   <tile gid="65"/>
   <tile gid="65"/>
   <tile gid="65"/>
   <tile gid="65"/>
   <tile gid="65"/>
   <tile gid="65"/>
   <tile gid="65"/>
   <tile gid="65"/>
   <tile gid="65"/>
   <tile gid="65"/>
   <tile gid="65"/>
   <tile gid="65"/>
   <tile gid="65"/>
   <tile gid="65"/>
   <tile gid="65"/>
   <tile gid="65"/>
   <tile gid="65"/>
   <tile gid="65"/>
   <tile gid="65"/>
   <tile gid="65"/>
   <tile gid="65"/>
   <tile gid="65"/>
   <tile gid="65"/>
   <tile gid="65"/>
   <tile gid="65"/>
   <tile gid="65"/>
   <tile gid="65"/>
   <tile gid="65"/>
   <tile gid="65"/>
   <tile gid="65"/>
   <tile gid="65"/>
   <tile gid="65"/>
   <tile gid="65"/>
   <tile gid="65"/>
   <tile gid="65"/>
   <tile gid="65"/>
   <tile gid="65"/>
   <tile gid="65"/>
   <tile gid="65"/>
   <tile gid="65"/>
   <tile gid="65"/>
   <tile gid="65"/>
   <tile gid="65"/>
   <tile/>
   <tile/>
   <tile/>
   <tile/>
   <tile/>
   <tile/>
   <tile/>
   <tile/>
   <tile/>
   <tile/>
   <tile/>
   <tile/>
   <tile/>
   <tile/>
   <tile/>
   <tile/>
   <tile/>
   <tile/>
   <tile/>
   <tile/>
   <tile/>
   <tile/>
   <tile/>
   <tile/>
   <tile/>
   <tile/>
   <tile/>
   <tile/>
   <tile/>
   <tile/>
   <tile/>
   <tile/>
   <tile/>
   <tile/>
   <tile/>
   <tile/>
   <tile/>
   <tile/>
   <tile/>
   <tile/>
   <tile/>
   <tile/>
   <tile/>
   <tile/>
   <tile/>
   <tile/>
   <tile/>
   <tile/>
   <tile/>
   <tile/>
   <tile/>
   <tile/>
   <tile/>
   <tile/>
   <tile/>
   <tile/>
   <tile/>
   <tile/>
   <tile/>
   <tile/>
   <tile/>
   <tile/>
   <tile/>
   <tile/>
   <tile gid="65"/>
   <tile gid="65"/>
   <tile/>
   <tile/>
   <tile/>
   <tile/>
   <tile/>
   <tile/>
   <tile/>
   <tile/>
   <tile/>
   <tile/>
   <tile/>
   <tile/>
   <tile/>
   <tile/>
   <tile/>
   <tile/>
   <tile/>
   <tile/>
   <tile/>
   <tile/>
   <tile/>
   <tile/>
   <tile/>
   <tile/>
   <tile/>
   <tile/>
   <tile/>
   <tile/>
   <tile/>
   <tile/>
   <tile/>
   <tile/>
   <tile/>
   <tile/>
   <tile/>
   <tile/>
   <tile/>
   <tile/>
   <tile/>
   <tile/>
   <tile/>
   <tile/>
   <tile/>
   <tile/>
   <tile/>
   <tile gid="65"/>
   <tile gid="65"/>
   <tile/>
   <tile/>
   <tile/>
   <tile/>
   <tile/>
   <tile/>
   <tile/>
   <tile/>
   <tile/>
   <tile gid="65"/>
   <tile gid="65"/>
   <tile gid="65"/>
   <tile gid="65"/>
   <tile gid="65"/>
   <tile gid="65"/>
   <tile gid="65"/>
   <tile gid="65"/>
   <tile gid="65"/>
   <tile gid="65"/>
   <tile gid="65"/>
   <tile gid="65"/>
   <tile gid="65"/>
   <tile gid="65"/>
   <tile gid="65"/>
   <tile gid="65"/>
   <tile gid="65"/>
   <tile gid="65"/>
   <tile gid="65"/>
   <tile gid="65"/>
   <tile gid="65"/>
   <tile gid="65"/>
   <tile gid="65"/>
   <tile gid="65"/>
   <tile gid="65"/>
   <tile gid="65"/>
   <tile gid="65"/>
   <tile gid="65"/>
   <tile gid="65"/>
   <tile gid="65"/>
   <tile gid="65"/>
   <tile gid="65"/>
   <tile gid="65"/>
   <tile gid="65"/>
   <tile gid="65"/>
   <tile gid="65"/>
   <tile gid="65"/>
   <tile gid="65"/>
   <tile gid="65"/>
   <tile gid="65"/>
   <tile gid="65"/>
   <tile gid="65"/>
   <tile gid="65"/>
   <tile gid="65"/>
   <tile gid="65"/>
   <tile/>
   <tile/>
   <tile/>
   <tile/>
   <tile/>
   <tile/>
   <tile/>
   <tile/>
   <tile/>
   <tile/>
   <tile/>
   <tile/>
   <tile gid="65"/>
   <tile/>
   <tile/>
   <tile/>
   <tile/>
   <tile/>
   <tile/>
   <tile/>
   <tile/>
   <tile/>
   <tile/>
   <tile/>
   <tile/>
   <tile/>
   <tile/>
   <tile/>
   <tile/>
   <tile/>
   <tile/>
   <tile/>
   <tile/>
   <tile/>
   <tile/>
   <tile/>
   <tile/>
   <tile/>
   <tile/>
   <tile/>
   <tile/>
   <tile/>
   <tile/>
   <tile/>
   <tile/>
   <tile/>
   <tile/>
   <tile/>
   <tile/>
   <tile/>
   <tile/>
   <tile/>
   <tile/>
   <tile/>
   <tile/>
   <tile/>
   <tile/>
   <tile/>
   <tile/>
   <tile/>
   <tile/>
   <tile/>
   <tile/>
   <tile/>
   <tile/>
   <tile/>
   <tile/>
   <tile/>
   <tile/>
   <tile/>
   <tile/>
   <tile/>
   <tile/>
   <tile/>
   <tile/>
   <tile/>
   <tile/>
   <tile gid="65"/>
   <tile gid="65"/>
   <tile/>
   <tile/>
   <tile/>
   <tile/>
   <tile/>
   <tile/>
   <tile/>
   <tile/>
   <tile/>
   <tile/>
   <tile/>
   <tile/>
   <tile/>
   <tile/>
   <tile/>
   <tile/>
   <tile/>
   <tile/>
   <tile/>
   <tile/>
   <tile/>
   <tile/>
   <tile/>
   <tile/>
   <tile/>
   <tile/>
   <tile/>
   <tile/>
   <tile/>
   <tile/>
   <tile/>
   <tile/>
   <tile/>
   <tile/>
   <tile/>
   <tile/>
   <tile/>
   <tile/>
   <tile/>
   <tile/>
   <tile/>
   <tile/>
   <tile/>
   <tile/>
   <tile/>
   <tile gid="65"/>
   <tile gid="65"/>
   <tile/>
   <tile/>
   <tile/>
   <tile/>
   <tile/>
   <tile/>
   <tile/>
   <tile/>
   <tile/>
   <tile/>
   <tile/>
   <tile/>
   <tile/>
   <tile/>
   <tile/>
   <tile/>
   <tile/>
   <tile/>
   <tile/>
   <tile/>
   <tile/>
   <tile/>
   <tile/>
   <tile/>
   <tile/>
   <tile/>
   <tile/>
   <tile/>
   <tile/>
   <tile/>
   <tile/>
   <tile/>
   <tile/>
   <tile/>
   <tile/>
   <tile gid="65"/>
   <tile gid="65"/>
   <tile gid="65"/>
   <tile gid="65"/>
   <tile gid="65"/>
   <tile gid="65"/>
   <tile gid="65"/>
   <tile gid="65"/>
   <tile gid="65"/>
   <tile gid="65"/>
   <tile gid="65"/>
   <tile gid="65"/>
   <tile gid="65"/>
   <tile gid="65"/>
   <tile gid="65"/>
   <tile gid="65"/>
   <tile gid="65"/>
   <tile gid="65"/>
   <tile gid="65"/>
   <tile/>
   <tile/>
   <tile/>
   <tile/>
   <tile/>
   <tile/>
   <tile/>
   <tile/>
   <tile/>
   <tile/>
   <tile/>
   <tile/>
   <tile gid="65"/>
   <tile/>
   <tile/>
   <tile/>
   <tile/>
   <tile/>
   <tile/>
   <tile/>
   <tile/>
   <tile/>
   <tile/>
   <tile/>
   <tile/>
   <tile/>
   <tile/>
   <tile/>
   <tile/>
   <tile/>
   <tile/>
   <tile/>
   <tile/>
   <tile/>
   <tile/>
   <tile/>
   <tile/>
   <tile/>
   <tile/>
   <tile/>
   <tile/>
   <tile/>
   <tile/>
   <tile/>
   <tile/>
   <tile/>
   <tile/>
   <tile/>
   <tile/>
   <tile/>
   <tile/>
   <tile/>
   <tile/>
   <tile/>
   <tile/>
   <tile/>
   <tile/>
   <tile/>
   <tile/>
   <tile/>
   <tile/>
   <tile/>
   <tile/>
   <tile/>
   <tile/>
   <tile/>
   <tile/>
   <tile/>
   <tile gid="65"/>
   <tile gid="65"/>
   <tile/>
   <tile/>
   <tile/>
   <tile/>
   <tile/>
   <tile/>
   <tile/>
   <tile gid="65"/>
   <tile gid="65"/>
   <tile/>
   <tile/>
   <tile/>
   <tile/>
   <tile/>
   <tile/>
   <tile/>
   <tile/>
   <tile/>
   <tile/>
   <tile/>
   <tile/>
   <tile/>
   <tile/>
   <tile/>
   <tile/>
   <tile/>
   <tile/>
   <tile/>
   <tile/>
   <tile/>
   <tile/>
   <tile/>
   <tile/>
   <tile/>
   <tile/>
   <tile/>
   <tile/>
   <tile/>
   <tile/>
   <tile/>
   <tile/>
   <tile/>
   <tile/>
   <tile/>
   <tile/>
   <tile/>
   <tile/>
   <tile/>
   <tile/>
   <tile/>
   <tile/>
   <tile/>
   <tile/>
   <tile/>
   <tile gid="65"/>
   <tile gid="65"/>
   <tile/>
   <tile/>
   <tile/>
   <tile/>
   <tile/>
   <tile/>
   <tile/>
   <tile/>
   <tile/>
   <tile/>
   <tile/>
   <tile/>
   <tile/>
   <tile/>
   <tile/>
   <tile/>
   <tile/>
   <tile/>
   <tile/>
   <tile/>
   <tile/>
   <tile/>
   <tile/>
   <tile/>
   <tile/>
   <tile/>
   <tile/>
   <tile/>
   <tile/>
   <tile/>
   <tile/>
   <tile/>
   <tile/>
   <tile/>
   <tile/>
   <tile/>
   <tile gid="65"/>
   <tile gid="65"/>
   <tile gid="65"/>
   <tile gid="65"/>
   <tile gid="65"/>
   <tile gid="65"/>
   <tile gid="65"/>
   <tile gid="65"/>
   <tile gid="65"/>
   <tile gid="65"/>
   <tile gid="65"/>
   <tile gid="65"/>
   <tile gid="65"/>
   <tile gid="65"/>
   <tile gid="65"/>
   <tile gid="65"/>
   <tile gid="65"/>
   <tile gid="65"/>
   <tile/>
   <tile/>
   <tile/>
   <tile/>
   <tile/>
   <tile/>
   <tile/>
   <tile/>
   <tile/>
   <tile/>
   <tile/>
   <tile/>
   <tile gid="65"/>
   <tile/>
   <tile/>
   <tile/>
   <tile/>
   <tile/>
   <tile/>
   <tile/>
   <tile/>
   <tile/>
   <tile/>
   <tile/>
   <tile/>
   <tile/>
   <tile/>
   <tile/>
   <tile/>
   <tile/>
   <tile/>
   <tile/>
   <tile/>
   <tile/>
   <tile/>
   <tile/>
   <tile/>
   <tile/>
   <tile/>
   <tile/>
   <tile/>
   <tile/>
   <tile/>
   <tile/>
   <tile/>
   <tile/>
   <tile/>
   <tile/>
   <tile/>
   <tile/>
   <tile/>
   <tile/>
   <tile/>
   <tile/>
   <tile/>
   <tile/>
   <tile/>
   <tile/>
   <tile/>
   <tile/>
   <tile/>
   <tile/>
   <tile/>
   <tile/>
   <tile/>
   <tile/>
   <tile/>
   <tile/>
   <tile/>
   <tile/>
   <tile/>
   <tile/>
   <tile/>
   <tile/>
   <tile/>
   <tile/>
   <tile/>
   <tile gid="65"/>
   <tile gid="65"/>
   <tile/>
   <tile/>
   <tile/>
   <tile/>
   <tile/>
   <tile/>
   <tile/>
   <tile/>
   <tile/>
   <tile/>
   <tile/>
   <tile/>
   <tile/>
   <tile/>
   <tile/>
   <tile/>
   <tile/>
   <tile/>
   <tile/>
   <tile/>
   <tile/>
   <tile/>
   <tile/>
   <tile/>
   <tile/>
   <tile/>
   <tile/>
   <tile/>
   <tile/>
   <tile/>
   <tile/>
   <tile/>
   <tile/>
   <tile/>
   <tile/>
   <tile/>
   <tile/>
   <tile/>
   <tile/>
   <tile/>
   <tile/>
   <tile/>
   <tile/>
   <tile gid="65"/>
   <tile gid="65"/>
   <tile gid="65"/>
   <tile gid="65"/>
   <tile/>
   <tile/>
   <tile/>
   <tile gid="65"/>
   <tile gid="65"/>
   <tile/>
   <tile/>
   <tile/>
   <tile/>
   <tile/>
   <tile/>
   <tile/>
   <tile/>
   <tile/>
   <tile/>
   <tile/>
   <tile/>
   <tile/>
   <tile/>
   <tile/>
   <tile/>
   <tile/>
   <tile/>
   <tile/>
   <tile/>
   <tile/>
   <tile/>
   <tile/>
   <tile/>
   <tile/>
   <tile/>
   <tile/>
   <tile/>
   <tile/>
   <tile/>
   <tile/>
   <tile/>
   <tile/>
   <tile/>
   <tile/>
   <tile/>
   <tile/>
   <tile/>
   <tile/>
   <tile/>
   <tile/>
   <tile/>
   <tile/>
   <tile/>
   <tile/>
   <tile/>
   <tile/>
   <tile gid="65"/>
   <tile gid="65"/>
   <tile/>
   <tile/>
   <tile/>
   <tile/>
   <tile/>
   <tile/>
   <tile/>
   <tile/>
   <tile/>
   <tile/>
   <tile/>
   <tile/>
   <tile gid="65"/>
   <tile/>
   <tile/>
   <tile/>
   <tile/>
   <tile/>
   <tile/>
   <tile/>
   <tile/>
   <tile/>
   <tile/>
   <tile/>
   <tile/>
   <tile/>
   <tile/>
   <tile/>
   <tile/>
   <tile/>
   <tile/>
   <tile/>
   <tile/>
   <tile/>
   <tile/>
   <tile/>
   <tile/>
   <tile/>
   <tile/>
   <tile/>
   <tile/>
   <tile/>
   <tile/>
   <tile/>
   <tile/>
   <tile/>
   <tile/>
   <tile/>
   <tile/>
   <tile/>
   <tile/>
   <tile/>
   <tile/>
   <tile/>
   <tile/>
   <tile/>
   <tile/>
   <tile/>
   <tile/>
   <tile/>
   <tile/>
   <tile/>
   <tile/>
   <tile/>
   <tile/>
   <tile/>
   <tile/>
   <tile/>
   <tile/>
   <tile/>
   <tile/>
   <tile/>
   <tile/>
   <tile/>
   <tile/>
   <tile/>
   <tile/>
   <tile/>
   <tile/>
   <tile/>
   <tile/>
   <tile/>
   <tile/>
   <tile/>
   <tile/>
   <tile/>
   <tile/>
   <tile/>
   <tile/>
   <tile/>
   <tile/>
   <tile/>
   <tile/>
   <tile/>
   <tile/>
   <tile/>
   <tile/>
   <tile/>
   <tile/>
   <tile/>
   <tile/>
   <tile/>
   <tile/>
   <tile/>
   <tile/>
   <tile/>
   <tile/>
   <tile/>
   <tile/>
   <tile/>
   <tile/>
   <tile/>
   <tile/>
   <tile/>
   <tile/>
   <tile/>
   <tile/>
   <tile/>
   <tile/>
   <tile/>
   <tile/>
   <tile/>
   <tile/>
   <tile/>
   <tile gid="65"/>
   <tile gid="65"/>
   <tile/>
   <tile/>
   <tile/>
   <tile/>
   <tile/>
   <tile/>
   <tile/>
   <tile/>
   <tile/>
   <tile/>
   <tile/>
   <tile/>
   <tile/>
   <tile/>
   <tile/>
   <tile/>
   <tile/>
   <tile/>
   <tile/>
   <tile/>
   <tile/>
   <tile/>
   <tile/>
   <tile/>
   <tile/>
   <tile/>
   <tile/>
   <tile/>
   <tile/>
   <tile/>
   <tile/>
   <tile/>
   <tile/>
   <tile/>
   <tile/>
   <tile/>
   <tile/>
   <tile/>
   <tile/>
   <tile/>
   <tile/>
   <tile/>
   <tile/>
   <tile/>
   <tile/>
   <tile/>
   <tile/>
   <tile/>
   <tile/>
   <tile/>
   <tile/>
   <tile/>
   <tile gid="65"/>
   <tile gid="65"/>
   <tile gid="65"/>
   <tile gid="65"/>
   <tile gid="65"/>
   <tile/>
   <tile/>
   <tile/>
   <tile/>
   <tile/>
   <tile/>
   <tile/>
   <tile/>
   <tile/>
   <tile gid="65"/>
   <tile/>
   <tile/>
   <tile/>
   <tile/>
   <tile/>
   <tile/>
   <tile/>
   <tile/>
   <tile/>
   <tile/>
   <tile/>
   <tile/>
   <tile/>
   <tile/>
   <tile/>
   <tile/>
   <tile/>
   <tile/>
   <tile/>
   <tile/>
   <tile/>
   <tile/>
   <tile/>
   <tile/>
   <tile/>
   <tile/>
   <tile/>
   <tile gid="65"/>
   <tile gid="65"/>
   <tile gid="65"/>
   <tile gid="65"/>
   <tile gid="65"/>
   <tile gid="65"/>
   <tile gid="65"/>
   <tile gid="65"/>
   <tile gid="65"/>
   <tile gid="65"/>
   <tile gid="65"/>
   <tile gid="65"/>
   <tile gid="65"/>
   <tile gid="65"/>
   <tile gid="65"/>
   <tile gid="65"/>
   <tile gid="65"/>
   <tile gid="65"/>
   <tile gid="65"/>
   <tile gid="65"/>
   <tile gid="65"/>
   <tile gid="65"/>
   <tile gid="65"/>
   <tile gid="65"/>
   <tile gid="65"/>
   <tile/>
   <tile/>
   <tile/>
   <tile/>
   <tile/>
   <tile/>
   <tile/>
   <tile/>
   <tile/>
   <tile/>
   <tile/>
   <tile/>
   <tile/>
   <tile/>
   <tile/>
   <tile/>
   <tile/>
   <tile/>
   <tile/>
   <tile/>
   <tile/>
   <tile/>
   <tile/>
   <tile/>
   <tile/>
   <tile/>
   <tile/>
   <tile/>
   <tile/>
   <tile/>
   <tile gid="65"/>
   <tile gid="65"/>
   <tile gid="65"/>
   <tile gid="65"/>
   <tile gid="65"/>
   <tile gid="65"/>
   <tile gid="65"/>
   <tile gid="65"/>
   <tile gid="65"/>
   <tile gid="65"/>
   <tile gid="65"/>
   <tile gid="65"/>
   <tile gid="65"/>
   <tile gid="65"/>
   <tile gid="65"/>
   <tile gid="65"/>
   <tile gid="65"/>
   <tile gid="65"/>
   <tile/>
   <tile/>
   <tile/>
   <tile/>
   <tile/>
   <tile/>
   <tile/>
   <tile/>
   <tile/>
   <tile/>
   <tile/>
   <tile gid="65"/>
   <tile gid="65"/>
   <tile/>
   <tile/>
   <tile/>
   <tile/>
   <tile/>
   <tile/>
   <tile/>
   <tile/>
   <tile/>
   <tile/>
   <tile/>
   <tile/>
   <tile/>
   <tile/>
   <tile/>
   <tile/>
   <tile/>
   <tile/>
   <tile/>
   <tile/>
   <tile/>
   <tile/>
   <tile/>
   <tile/>
   <tile/>
   <tile/>
   <tile/>
   <tile/>
   <tile/>
   <tile/>
   <tile/>
   <tile/>
   <tile/>
   <tile/>
   <tile/>
   <tile/>
   <tile/>
   <tile/>
   <tile/>
   <tile/>
   <tile/>
   <tile/>
   <tile/>
   <tile/>
   <tile/>
   <tile/>
   <tile/>
   <tile/>
   <tile/>
   <tile/>
   <tile/>
   <tile/>
   <tile gid="65"/>
   <tile gid="65"/>
   <tile/>
   <tile/>
   <tile/>
   <tile/>
   <tile/>
   <tile/>
   <tile/>
   <tile/>
   <tile/>
   <tile/>
   <tile/>
   <tile/>
   <tile gid="65"/>
   <tile/>
   <tile/>
   <tile/>
   <tile/>
   <tile/>
   <tile/>
   <tile/>
   <tile/>
   <tile/>
   <tile/>
   <tile/>
   <tile/>
   <tile/>
   <tile/>
   <tile/>
   <tile/>
   <tile/>
   <tile/>
   <tile/>
   <tile/>
   <tile/>
   <tile/>
   <tile/>
   <tile/>
   <tile/>
   <tile gid="65"/>
   <tile gid="65"/>
   <tile gid="65"/>
   <tile gid="65"/>
   <tile gid="65"/>
   <tile gid="65"/>
   <tile gid="65"/>
   <tile gid="65"/>
   <tile gid="65"/>
   <tile gid="65"/>
   <tile gid="65"/>
   <tile gid="65"/>
   <tile gid="65"/>
   <tile gid="65"/>
   <tile gid="65"/>
   <tile gid="65"/>
   <tile gid="65"/>
   <tile gid="65"/>
   <tile gid="65"/>
   <tile gid="65"/>
   <tile gid="65"/>
   <tile gid="65"/>
   <tile gid="65"/>
   <tile gid="65"/>
   <tile gid="65"/>
   <tile gid="65"/>
   <tile gid="65"/>
   <tile/>
   <tile/>
   <tile/>
   <tile/>
   <tile/>
   <tile/>
   <tile/>
   <tile/>
   <tile/>
   <tile/>
   <tile/>
   <tile/>
   <tile/>
   <tile/>
   <tile/>
   <tile/>
   <tile/>
   <tile/>
   <tile/>
   <tile/>
   <tile/>
   <tile/>
   <tile/>
   <tile/>
   <tile/>
   <tile/>
   <tile/>
   <tile/>
   <tile/>
   <tile gid="65"/>
   <tile gid="65"/>
   <tile gid="65"/>
   <tile gid="65"/>
   <tile gid="65"/>
   <tile gid="65"/>
   <tile gid="65"/>
   <tile gid="65"/>
   <tile gid="65"/>
   <tile gid="65"/>
   <tile gid="65"/>
   <tile gid="65"/>
   <tile gid="65"/>
   <tile gid="65"/>
   <tile gid="65"/>
   <tile gid="65"/>
   <tile gid="65"/>
   <tile gid="65"/>
   <tile gid="65"/>
   <tile gid="65"/>
   <tile gid="65"/>
   <tile gid="65"/>
   <tile/>
   <tile/>
   <tile/>
   <tile/>
   <tile/>
   <tile/>
   <tile/>
   <tile/>
   <tile gid="65"/>
   <tile gid="65"/>
   <tile/>
   <tile/>
   <tile/>
   <tile/>
   <tile/>
   <tile/>
   <tile/>
   <tile/>
   <tile/>
   <tile/>
   <tile/>
   <tile/>
   <tile/>
   <tile/>
   <tile/>
   <tile/>
   <tile/>
   <tile/>
   <tile/>
   <tile/>
   <tile/>
   <tile/>
   <tile/>
   <tile/>
   <tile/>
   <tile/>
   <tile/>
   <tile/>
   <tile/>
   <tile/>
   <tile/>
   <tile/>
   <tile/>
   <tile/>
   <tile/>
   <tile/>
   <tile/>
   <tile/>
   <tile/>
   <tile/>
   <tile/>
   <tile/>
   <tile/>
   <tile/>
   <tile/>
   <tile/>
   <tile/>
   <tile/>
   <tile/>
   <tile/>
   <tile/>
   <tile/>
   <tile gid="65"/>
   <tile gid="65"/>
   <tile/>
   <tile/>
   <tile/>
   <tile/>
   <tile gid="65"/>
   <tile/>
   <tile/>
   <tile/>
   <tile/>
   <tile/>
   <tile/>
   <tile/>
   <tile gid="65"/>
   <tile/>
   <tile/>
   <tile/>
   <tile/>
   <tile/>
   <tile/>
   <tile/>
   <tile/>
   <tile/>
   <tile/>
   <tile/>
   <tile/>
   <tile/>
   <tile/>
   <tile/>
   <tile/>
   <tile/>
   <tile/>
   <tile/>
   <tile/>
   <tile/>
   <tile/>
   <tile/>
   <tile/>
   <tile/>
   <tile gid="65"/>
   <tile gid="65"/>
   <tile gid="65"/>
   <tile gid="65"/>
   <tile gid="65"/>
   <tile gid="65"/>
   <tile gid="65"/>
   <tile gid="65"/>
   <tile gid="65"/>
   <tile gid="65"/>
   <tile gid="65"/>
   <tile gid="65"/>
   <tile gid="65"/>
   <tile gid="65"/>
   <tile gid="65"/>
   <tile gid="65"/>
   <tile gid="65"/>
   <tile gid="65"/>
   <tile gid="65"/>
   <tile gid="65"/>
   <tile gid="65"/>
   <tile gid="65"/>
   <tile gid="65"/>
   <tile gid="65"/>
   <tile gid="65"/>
   <tile gid="65"/>
   <tile gid="65"/>
   <tile gid="65"/>
   <tile/>
   <tile/>
   <tile/>
   <tile/>
   <tile/>
   <tile/>
   <tile/>
   <tile/>
   <tile/>
   <tile/>
   <tile/>
   <tile/>
   <tile/>
   <tile/>
   <tile/>
   <tile/>
   <tile/>
   <tile/>
   <tile/>
   <tile/>
   <tile/>
   <tile/>
   <tile/>
   <tile/>
   <tile/>
   <tile/>
   <tile/>
   <tile gid="65"/>
   <tile gid="65"/>
   <tile gid="65"/>
   <tile gid="65"/>
   <tile gid="65"/>
   <tile gid="65"/>
   <tile gid="65"/>
   <tile gid="65"/>
   <tile gid="65"/>
   <tile gid="65"/>
   <tile gid="65"/>
   <tile gid="65"/>
   <tile gid="65"/>
   <tile gid="65"/>
   <tile gid="65"/>
   <tile gid="65"/>
   <tile gid="65"/>
   <tile gid="65"/>
   <tile gid="65"/>
   <tile gid="65"/>
   <tile gid="65"/>
   <tile gid="65"/>
   <tile gid="65"/>
   <tile gid="65"/>
   <tile/>
   <tile/>
   <tile/>
   <tile/>
   <tile/>
   <tile/>
   <tile/>
   <tile gid="65"/>
   <tile gid="65"/>
   <tile gid="65"/>
   <tile gid="65"/>
   <tile/>
   <tile/>
   <tile/>
   <tile/>
   <tile/>
   <tile/>
   <tile/>
   <tile/>
   <tile/>
   <tile/>
   <tile/>
   <tile/>
   <tile/>
   <tile/>
   <tile/>
   <tile/>
   <tile/>
   <tile/>
   <tile/>
   <tile/>
   <tile/>
   <tile/>
   <tile/>
   <tile/>
   <tile/>
   <tile/>
   <tile/>
   <tile/>
   <tile/>
   <tile/>
   <tile/>
   <tile/>
   <tile/>
   <tile/>
   <tile/>
   <tile/>
   <tile/>
   <tile/>
   <tile/>
   <tile/>
   <tile/>
   <tile/>
   <tile/>
   <tile/>
   <tile/>
   <tile/>
   <tile/>
   <tile/>
   <tile/>
   <tile/>
   <tile gid="65"/>
   <tile gid="65"/>
   <tile/>
   <tile/>
   <tile/>
   <tile/>
   <tile/>
   <tile/>
   <tile/>
   <tile/>
   <tile/>
   <tile/>
   <tile/>
   <tile/>
   <tile gid="65"/>
   <tile/>
   <tile/>
   <tile/>
   <tile/>
   <tile/>
   <tile/>
   <tile/>
   <tile/>
   <tile/>
   <tile/>
   <tile/>
   <tile/>
   <tile/>
   <tile/>
   <tile/>
   <tile/>
   <tile/>
   <tile/>
   <tile/>
   <tile/>
   <tile/>
   <tile/>
   <tile/>
   <tile/>
   <tile/>
   <tile/>
   <tile/>
   <tile gid="65"/>
   <tile gid="65"/>
   <tile gid="65"/>
   <tile gid="65"/>
   <tile gid="65"/>
   <tile gid="65"/>
   <tile gid="65"/>
   <tile gid="65"/>
   <tile gid="65"/>
   <tile gid="65"/>
   <tile gid="65"/>
   <tile gid="65"/>
   <tile gid="65"/>
   <tile gid="65"/>
   <tile gid="65"/>
   <tile gid="65"/>
   <tile gid="65"/>
   <tile gid="65"/>
   <tile gid="65"/>
   <tile gid="65"/>
   <tile gid="65"/>
   <tile gid="65"/>
   <tile gid="65"/>
   <tile gid="65"/>
   <tile gid="65"/>
   <tile gid="65"/>
   <tile/>
   <tile/>
   <tile/>
   <tile/>
   <tile/>
   <tile/>
   <tile/>
   <tile/>
   <tile/>
   <tile/>
   <tile/>
   <tile/>
   <tile/>
   <tile/>
   <tile/>
   <tile/>
   <tile/>
   <tile/>
   <tile/>
   <tile/>
   <tile/>
   <tile/>
   <tile/>
   <tile/>
   <tile/>
   <tile/>
   <tile/>
   <tile gid="65"/>
   <tile gid="65"/>
   <tile gid="65"/>
   <tile gid="65"/>
   <tile gid="65"/>
   <tile gid="65"/>
   <tile gid="65"/>
   <tile gid="65"/>
   <tile gid="65"/>
   <tile gid="65"/>
   <tile gid="65"/>
   <tile gid="65"/>
   <tile gid="65"/>
   <tile gid="65"/>
   <tile gid="65"/>
   <tile gid="65"/>
   <tile gid="65"/>
   <tile gid="65"/>
   <tile gid="65"/>
   <tile gid="65"/>
   <tile gid="65"/>
   <tile gid="65"/>
   <tile gid="65"/>
   <tile gid="65"/>
   <tile/>
   <tile/>
   <tile/>
   <tile/>
   <tile/>
   <tile/>
   <tile/>
   <tile gid="65"/>
   <tile gid="65"/>
   <tile/>
   <tile/>
   <tile/>
   <tile/>
   <tile/>
   <tile/>
   <tile/>
   <tile/>
   <tile/>
   <tile/>
   <tile/>
   <tile/>
   <tile/>
   <tile/>
   <tile/>
   <tile/>
   <tile/>
   <tile/>
   <tile/>
   <tile/>
   <tile/>
   <tile/>
   <tile/>
   <tile/>
   <tile/>
   <tile/>
   <tile/>
   <tile/>
   <tile/>
   <tile/>
   <tile/>
   <tile/>
   <tile/>
   <tile/>
   <tile/>
   <tile/>
   <tile/>
   <tile/>
   <tile/>
   <tile/>
   <tile/>
   <tile/>
   <tile/>
   <tile/>
   <tile/>
   <tile/>
   <tile/>
   <tile/>
   <tile/>
   <tile/>
   <tile/>
   <tile/>
   <tile gid="65"/>
   <tile gid="65"/>
   <tile/>
   <tile/>
   <tile/>
   <tile/>
   <tile/>
   <tile/>
   <tile/>
   <tile/>
   <tile/>
   <tile gid="65"/>
   <tile/>
   <tile/>
   <tile gid="65"/>
   <tile/>
   <tile/>
   <tile/>
   <tile/>
   <tile/>
   <tile/>
   <tile/>
   <tile/>
   <tile/>
   <tile/>
   <tile/>
   <tile/>
   <tile/>
   <tile/>
   <tile/>
   <tile/>
   <tile/>
   <tile/>
   <tile/>
   <tile/>
   <tile/>
   <tile/>
   <tile gid="65"/>
   <tile gid="65"/>
   <tile/>
   <tile/>
   <tile/>
   <tile gid="65"/>
   <tile gid="65"/>
   <tile gid="65"/>
   <tile gid="65"/>
   <tile gid="65"/>
   <tile gid="65"/>
   <tile gid="65"/>
   <tile gid="65"/>
   <tile gid="65"/>
   <tile gid="65"/>
   <tile gid="65"/>
   <tile gid="65"/>
   <tile gid="65"/>
   <tile gid="65"/>
   <tile gid="65"/>
   <tile gid="65"/>
   <tile gid="65"/>
   <tile gid="65"/>
   <tile gid="65"/>
   <tile gid="65"/>
   <tile gid="65"/>
   <tile gid="65"/>
   <tile gid="65"/>
   <tile gid="65"/>
   <tile gid="65"/>
   <tile gid="65"/>
   <tile gid="65"/>
   <tile gid="65"/>
   <tile/>
   <tile/>
   <tile/>
   <tile/>
   <tile/>
   <tile/>
   <tile/>
   <tile/>
   <tile/>
   <tile/>
   <tile/>
   <tile/>
   <tile/>
   <tile/>
   <tile/>
   <tile/>
   <tile/>
   <tile/>
   <tile/>
   <tile/>
   <tile/>
   <tile/>
   <tile/>
   <tile gid="65"/>
   <tile gid="65"/>
   <tile gid="65"/>
   <tile gid="65"/>
   <tile gid="65"/>
   <tile gid="65"/>
   <tile gid="65"/>
   <tile gid="65"/>
   <tile gid="65"/>
   <tile gid="65"/>
   <tile gid="65"/>
   <tile gid="65"/>
   <tile gid="65"/>
   <tile gid="65"/>
   <tile gid="65"/>
   <tile gid="65"/>
   <tile gid="65"/>
   <tile gid="65"/>
   <tile gid="65"/>
   <tile gid="65"/>
   <tile gid="65"/>
   <tile gid="65"/>
   <tile gid="65"/>
   <tile gid="65"/>
   <tile gid="65"/>
   <tile gid="65"/>
   <tile/>
   <tile/>
   <tile/>
   <tile/>
   <tile/>
   <tile/>
   <tile/>
   <tile/>
   <tile/>
   <tile/>
   <tile/>
   <tile/>
   <tile/>
   <tile/>
   <tile/>
   <tile/>
   <tile/>
   <tile/>
   <tile/>
   <tile/>
   <tile/>
   <tile/>
   <tile/>
   <tile/>
   <tile/>
   <tile/>
   <tile/>
   <tile/>
   <tile/>
   <tile/>
   <tile/>
   <tile/>
   <tile/>
   <tile/>
   <tile/>
   <tile/>
   <tile/>
   <tile/>
   <tile/>
   <tile/>
   <tile/>
   <tile/>
   <tile/>
   <tile/>
   <tile/>
   <tile gid="65"/>
   <tile gid="65"/>
   <tile gid="65"/>
   <tile gid="65"/>
   <tile gid="65"/>
   <tile gid="65"/>
   <tile/>
   <tile/>
   <tile/>
   <tile/>
   <tile/>
   <tile/>
   <tile/>
   <tile/>
   <tile/>
   <tile/>
   <tile gid="65"/>
   <tile gid="65"/>
   <tile/>
   <tile/>
   <tile/>
   <tile/>
   <tile/>
   <tile/>
   <tile/>
   <tile/>
   <tile/>
   <tile/>
   <tile/>
   <tile/>
   <tile gid="65"/>
   <tile/>
   <tile/>
   <tile/>
   <tile/>
   <tile/>
   <tile/>
   <tile/>
   <tile/>
   <tile/>
   <tile/>
   <tile/>
   <tile/>
   <tile/>
   <tile/>
   <tile/>
   <tile/>
   <tile/>
   <tile/>
   <tile/>
   <tile/>
   <tile/>
   <tile/>
   <tile/>
   <tile/>
   <tile/>
   <tile/>
   <tile/>
   <tile gid="65"/>
   <tile gid="65"/>
   <tile gid="65"/>
   <tile gid="65"/>
   <tile gid="65"/>
   <tile gid="65"/>
   <tile gid="65"/>
   <tile gid="65"/>
   <tile gid="65"/>
   <tile gid="65"/>
   <tile gid="65"/>
   <tile gid="65"/>
   <tile gid="65"/>
   <tile gid="65"/>
   <tile gid="65"/>
   <tile gid="65"/>
   <tile gid="65"/>
   <tile gid="65"/>
   <tile gid="65"/>
   <tile gid="65"/>
   <tile gid="65"/>
   <tile gid="65"/>
   <tile gid="65"/>
   <tile gid="65"/>
   <tile gid="65"/>
   <tile gid="65"/>
   <tile gid="65"/>
   <tile gid="65"/>
   <tile gid="65"/>
   <tile gid="65"/>
   <tile gid="65"/>
   <tile gid="65"/>
   <tile gid="65"/>
   <tile gid="65"/>
   <tile gid="65"/>
   <tile gid="65"/>
   <tile gid="65"/>
   <tile gid="65"/>
   <tile gid="65"/>
   <tile gid="65"/>
   <tile gid="65"/>
   <tile gid="65"/>
   <tile gid="65"/>
   <tile gid="65"/>
   <tile gid="65"/>
   <tile gid="65"/>
   <tile gid="65"/>
   <tile gid="65"/>
   <tile gid="65"/>
   <tile gid="65"/>
   <tile gid="65"/>
   <tile gid="65"/>
   <tile gid="65"/>
   <tile gid="65"/>
   <tile gid="65"/>
   <tile gid="65"/>
   <tile gid="65"/>
   <tile gid="65"/>
   <tile gid="65"/>
   <tile gid="65"/>
   <tile gid="65"/>
   <tile gid="65"/>
   <tile gid="65"/>
   <tile gid="65"/>
   <tile gid="65"/>
   <tile gid="65"/>
   <tile gid="65"/>
   <tile gid="65"/>
   <tile gid="65"/>
   <tile gid="65"/>
   <tile gid="65"/>
   <tile gid="65"/>
   <tile gid="65"/>
   <tile gid="65"/>
   <tile gid="65"/>
   <tile gid="65"/>
   <tile/>
   <tile/>
   <tile/>
   <tile/>
   <tile/>
   <tile/>
   <tile/>
   <tile/>
   <tile/>
   <tile/>
   <tile/>
   <tile/>
   <tile/>
   <tile/>
   <tile/>
   <tile/>
   <tile/>
   <tile/>
   <tile/>
   <tile/>
   <tile/>
   <tile/>
   <tile/>
   <tile/>
   <tile/>
   <tile/>
   <tile/>
   <tile/>
   <tile/>
   <tile/>
   <tile/>
   <tile/>
   <tile/>
   <tile/>
   <tile/>
   <tile/>
   <tile/>
   <tile/>
   <tile gid="65"/>
   <tile gid="65"/>
   <tile gid="65"/>
   <tile/>
   <tile/>
   <tile/>
   <tile/>
   <tile/>
   <tile gid="65"/>
   <tile gid="65"/>
   <tile gid="65"/>
   <tile gid="65"/>
   <tile gid="65"/>
   <tile gid="65"/>
   <tile/>
   <tile/>
   <tile/>
   <tile/>
   <tile/>
   <tile/>
   <tile/>
   <tile/>
   <tile/>
   <tile/>
   <tile gid="65"/>
   <tile gid="65"/>
   <tile/>
   <tile/>
   <tile/>
   <tile/>
   <tile/>
   <tile/>
   <tile/>
   <tile/>
   <tile/>
   <tile/>
   <tile/>
   <tile/>
   <tile gid="65"/>
   <tile/>
   <tile/>
   <tile/>
   <tile/>
   <tile/>
   <tile/>
   <tile/>
   <tile/>
   <tile/>
   <tile/>
   <tile/>
   <tile/>
   <tile/>
   <tile/>
   <tile/>
   <tile/>
   <tile/>
   <tile/>
   <tile/>
   <tile/>
   <tile/>
   <tile/>
   <tile/>
   <tile/>
   <tile/>
   <tile/>
   <tile gid="65"/>
   <tile gid="65"/>
   <tile gid="65"/>
   <tile gid="65"/>
   <tile gid="65"/>
   <tile gid="65"/>
   <tile gid="65"/>
   <tile gid="65"/>
   <tile gid="65"/>
   <tile gid="65"/>
   <tile gid="65"/>
   <tile gid="65"/>
   <tile gid="65"/>
   <tile gid="65"/>
   <tile gid="65"/>
   <tile gid="65"/>
   <tile gid="65"/>
   <tile gid="65"/>
   <tile gid="65"/>
   <tile gid="65"/>
   <tile gid="65"/>
   <tile gid="65"/>
   <tile gid="65"/>
   <tile gid="65"/>
   <tile gid="65"/>
   <tile gid="65"/>
   <tile gid="65"/>
   <tile gid="65"/>
   <tile gid="65"/>
   <tile gid="65"/>
   <tile gid="65"/>
   <tile gid="65"/>
   <tile gid="65"/>
   <tile gid="65"/>
   <tile gid="65"/>
   <tile gid="65"/>
   <tile gid="65"/>
   <tile gid="65"/>
   <tile gid="65"/>
   <tile gid="65"/>
   <tile gid="65"/>
   <tile gid="65"/>
   <tile gid="65"/>
   <tile gid="65"/>
   <tile gid="65"/>
   <tile gid="65"/>
   <tile gid="65"/>
   <tile gid="65"/>
   <tile gid="65"/>
   <tile gid="65"/>
   <tile gid="65"/>
   <tile gid="65"/>
   <tile gid="65"/>
   <tile gid="65"/>
   <tile gid="65"/>
   <tile/>
   <tile/>
   <tile/>
   <tile/>
   <tile/>
   <tile/>
   <tile/>
   <tile/>
   <tile/>
   <tile/>
   <tile/>
   <tile/>
   <tile/>
   <tile/>
   <tile/>
   <tile/>
   <tile/>
   <tile/>
   <tile/>
   <tile/>
   <tile/>
   <tile/>
   <tile/>
   <tile/>
   <tile/>
   <tile/>
   <tile/>
   <tile/>
   <tile/>
   <tile/>
   <tile/>
   <tile/>
   <tile/>
   <tile/>
   <tile/>
   <tile/>
   <tile/>
   <tile/>
   <tile/>
   <tile/>
   <tile/>
   <tile/>
   <tile/>
   <tile/>
   <tile/>
   <tile/>
   <tile/>
   <tile/>
   <tile/>
   <tile/>
   <tile/>
   <tile/>
   <tile/>
   <tile/>
   <tile/>
   <tile/>
   <tile/>
   <tile/>
   <tile/>
   <tile/>
   <tile/>
   <tile/>
   <tile/>
   <tile/>
   <tile/>
   <tile/>
   <tile/>
   <tile/>
   <tile gid="65"/>
   <tile gid="65"/>
   <tile gid="65"/>
   <tile gid="65"/>
   <tile/>
   <tile/>
   <tile/>
   <tile/>
   <tile/>
   <tile/>
   <tile/>
   <tile/>
   <tile/>
   <tile/>
   <tile/>
   <tile/>
   <tile gid="65"/>
   <tile gid="65"/>
   <tile/>
   <tile/>
   <tile/>
   <tile gid="65"/>
   <tile/>
   <tile/>
   <tile/>
   <tile/>
   <tile/>
   <tile/>
   <tile/>
   <tile/>
   <tile gid="65"/>
   <tile/>
   <tile/>
   <tile/>
   <tile/>
   <tile/>
   <tile/>
   <tile/>
   <tile/>
   <tile/>
   <tile/>
   <tile/>
   <tile/>
   <tile/>
   <tile/>
   <tile/>
   <tile/>
   <tile/>
   <tile/>
   <tile/>
   <tile/>
   <tile/>
   <tile/>
   <tile/>
   <tile/>
   <tile/>
   <tile/>
   <tile gid="65"/>
   <tile gid="65"/>
   <tile gid="65"/>
   <tile gid="65"/>
   <tile gid="65"/>
   <tile gid="65"/>
   <tile gid="65"/>
   <tile gid="65"/>
   <tile gid="65"/>
   <tile gid="65"/>
   <tile gid="65"/>
   <tile gid="65"/>
   <tile gid="65"/>
   <tile gid="65"/>
   <tile gid="65"/>
   <tile gid="65"/>
   <tile gid="65"/>
   <tile gid="65"/>
   <tile gid="65"/>
   <tile gid="65"/>
   <tile gid="65"/>
   <tile gid="65"/>
   <tile gid="65"/>
   <tile gid="65"/>
   <tile gid="65"/>
   <tile gid="65"/>
   <tile gid="65"/>
   <tile gid="65"/>
   <tile gid="65"/>
   <tile gid="65"/>
   <tile gid="65"/>
   <tile gid="65"/>
   <tile gid="65"/>
   <tile gid="65"/>
   <tile gid="65"/>
   <tile gid="65"/>
   <tile gid="65"/>
   <tile gid="65"/>
   <tile gid="65"/>
   <tile gid="65"/>
   <tile gid="65"/>
   <tile gid="65"/>
   <tile gid="65"/>
   <tile gid="65"/>
   <tile gid="65"/>
   <tile/>
   <tile/>
   <tile/>
   <tile/>
   <tile/>
   <tile/>
   <tile/>
   <tile/>
   <tile/>
   <tile/>
   <tile/>
   <tile/>
   <tile/>
   <tile/>
   <tile/>
   <tile/>
   <tile/>
   <tile/>
   <tile/>
   <tile/>
   <tile/>
   <tile/>
   <tile/>
   <tile/>
   <tile/>
   <tile/>
   <tile/>
   <tile/>
   <tile/>
   <tile/>
   <tile/>
   <tile/>
   <tile/>
   <tile/>
   <tile/>
   <tile/>
   <tile/>
   <tile/>
   <tile/>
   <tile/>
   <tile/>
   <tile/>
   <tile/>
   <tile/>
   <tile/>
   <tile/>
   <tile/>
   <tile/>
   <tile/>
   <tile/>
   <tile/>
   <tile/>
   <tile/>
   <tile/>
   <tile/>
   <tile/>
   <tile/>
   <tile/>
   <tile/>
   <tile/>
   <tile/>
   <tile/>
   <tile/>
   <tile/>
   <tile/>
   <tile/>
   <tile/>
   <tile/>
   <tile/>
   <tile/>
   <tile/>
   <tile/>
   <tile/>
   <tile/>
   <tile/>
   <tile/>
   <tile/>
   <tile/>
   <tile gid="65"/>
   <tile gid="65"/>
   <tile gid="65"/>
   <tile gid="65"/>
   <tile/>
   <tile/>
   <tile/>
   <tile/>
   <tile/>
   <tile/>
   <tile gid="65"/>
   <tile gid="65"/>
   <tile gid="65"/>
   <tile/>
   <tile/>
   <tile/>
   <tile gid="65"/>
   <tile gid="65"/>
   <tile/>
   <tile/>
   <tile/>
   <tile/>
   <tile/>
   <tile/>
   <tile/>
   <tile/>
   <tile/>
   <tile/>
   <tile/>
   <tile/>
   <tile gid="65"/>
   <tile/>
   <tile/>
   <tile/>
   <tile/>
   <tile/>
   <tile/>
   <tile/>
   <tile/>
   <tile/>
   <tile/>
   <tile/>
   <tile/>
   <tile/>
   <tile/>
   <tile/>
   <tile/>
   <tile/>
   <tile/>
   <tile/>
   <tile/>
   <tile/>
   <tile/>
   <tile/>
   <tile/>
   <tile/>
   <tile gid="65"/>
   <tile gid="65"/>
   <tile gid="65"/>
   <tile gid="65"/>
   <tile gid="65"/>
   <tile gid="65"/>
   <tile gid="65"/>
   <tile gid="65"/>
   <tile gid="65"/>
   <tile gid="65"/>
   <tile gid="65"/>
   <tile gid="65"/>
   <tile gid="65"/>
   <tile gid="65"/>
   <tile gid="65"/>
   <tile gid="65"/>
   <tile gid="65"/>
   <tile gid="65"/>
   <tile gid="65"/>
   <tile gid="65"/>
   <tile gid="65"/>
   <tile gid="65"/>
   <tile gid="65"/>
   <tile gid="65"/>
   <tile gid="65"/>
   <tile gid="65"/>
   <tile gid="65"/>
   <tile gid="65"/>
   <tile gid="65"/>
   <tile gid="65"/>
   <tile gid="65"/>
   <tile gid="65"/>
   <tile gid="65"/>
   <tile gid="65"/>
   <tile gid="65"/>
   <tile gid="65"/>
   <tile gid="65"/>
   <tile gid="65"/>
   <tile gid="65"/>
   <tile gid="65"/>
   <tile gid="65"/>
   <tile gid="65"/>
   <tile gid="65"/>
   <tile gid="65"/>
   <tile gid="65"/>
   <tile/>
   <tile/>
   <tile/>
   <tile/>
   <tile/>
   <tile/>
   <tile/>
   <tile/>
   <tile/>
   <tile/>
   <tile/>
   <tile/>
   <tile/>
   <tile/>
   <tile/>
   <tile/>
   <tile/>
   <tile/>
   <tile/>
   <tile/>
   <tile/>
   <tile/>
   <tile/>
   <tile/>
   <tile/>
   <tile/>
   <tile/>
   <tile/>
   <tile/>
   <tile/>
   <tile/>
   <tile/>
   <tile/>
   <tile/>
   <tile/>
   <tile/>
   <tile/>
   <tile/>
   <tile/>
   <tile/>
   <tile/>
   <tile/>
   <tile/>
   <tile/>
   <tile/>
   <tile/>
   <tile/>
   <tile/>
   <tile/>
   <tile/>
   <tile/>
   <tile/>
   <tile/>
   <tile/>
   <tile/>
   <tile/>
   <tile/>
   <tile/>
   <tile/>
   <tile/>
   <tile/>
   <tile/>
   <tile/>
   <tile/>
   <tile/>
   <tile/>
   <tile/>
   <tile/>
   <tile/>
   <tile/>
   <tile/>
   <tile/>
   <tile/>
   <tile/>
   <tile/>
   <tile/>
   <tile/>
   <tile/>
   <tile/>
   <tile gid="65"/>
   <tile gid="65"/>
   <tile gid="65"/>
   <tile/>
   <tile/>
   <tile/>
   <tile/>
   <tile/>
   <tile/>
   <tile/>
   <tile/>
   <tile/>
   <tile/>
   <tile/>
   <tile/>
   <tile/>
   <tile/>
   <tile/>
   <tile/>
   <tile/>
   <tile/>
   <tile/>
   <tile/>
   <tile/>
   <tile/>
   <tile/>
   <tile/>
   <tile/>
   <tile/>
   <tile/>
   <tile gid="65"/>
   <tile/>
   <tile/>
   <tile/>
   <tile/>
   <tile/>
   <tile/>
   <tile/>
   <tile/>
   <tile/>
   <tile/>
   <tile/>
   <tile/>
   <tile/>
   <tile/>
   <tile/>
   <tile/>
   <tile/>
   <tile/>
   <tile/>
   <tile/>
   <tile/>
   <tile/>
   <tile/>
   <tile/>
   <tile gid="65"/>
   <tile gid="65"/>
   <tile gid="65"/>
   <tile gid="65"/>
   <tile gid="65"/>
   <tile gid="65"/>
   <tile gid="65"/>
   <tile gid="65"/>
   <tile gid="65"/>
   <tile gid="65"/>
   <tile gid="65"/>
   <tile gid="65"/>
   <tile gid="65"/>
   <tile gid="65"/>
   <tile gid="65"/>
   <tile gid="65"/>
   <tile gid="65"/>
   <tile gid="65"/>
   <tile gid="65"/>
   <tile gid="65"/>
   <tile gid="65"/>
   <tile gid="65"/>
   <tile gid="65"/>
   <tile gid="65"/>
   <tile gid="65"/>
   <tile gid="65"/>
   <tile gid="65"/>
   <tile gid="65"/>
   <tile gid="65"/>
   <tile gid="65"/>
   <tile gid="65"/>
   <tile gid="65"/>
   <tile gid="65"/>
   <tile gid="65"/>
   <tile gid="65"/>
   <tile gid="65"/>
   <tile gid="65"/>
   <tile gid="65"/>
   <tile gid="65"/>
   <tile gid="65"/>
   <tile gid="65"/>
   <tile gid="65"/>
   <tile gid="65"/>
   <tile gid="65"/>
   <tile gid="65"/>
   <tile/>
   <tile/>
   <tile/>
   <tile/>
   <tile/>
   <tile/>
   <tile/>
   <tile/>
   <tile/>
   <tile/>
   <tile/>
   <tile/>
   <tile/>
   <tile/>
   <tile/>
   <tile/>
   <tile/>
   <tile/>
   <tile/>
   <tile/>
   <tile/>
   <tile/>
   <tile/>
   <tile/>
   <tile/>
   <tile/>
   <tile/>
   <tile/>
   <tile/>
   <tile/>
   <tile/>
   <tile/>
   <tile/>
   <tile/>
   <tile/>
   <tile/>
   <tile/>
   <tile/>
   <tile/>
   <tile/>
   <tile/>
   <tile gid="65"/>
   <tile gid="65"/>
   <tile gid="65"/>
   <tile gid="65"/>
   <tile gid="65"/>
   <tile gid="65"/>
   <tile gid="65"/>
   <tile gid="65"/>
   <tile gid="65"/>
   <tile gid="65"/>
   <tile gid="65"/>
   <tile gid="65"/>
   <tile gid="65"/>
   <tile/>
   <tile/>
   <tile/>
   <tile/>
   <tile/>
   <tile/>
   <tile/>
   <tile/>
   <tile/>
   <tile/>
   <tile/>
   <tile gid="65"/>
   <tile gid="65"/>
   <tile gid="65"/>
   <tile gid="65"/>
   <tile gid="65"/>
   <tile gid="65"/>
   <tile gid="65"/>
   <tile gid="65"/>
   <tile gid="65"/>
   <tile gid="65"/>
   <tile gid="65"/>
   <tile gid="65"/>
   <tile gid="65"/>
   <tile gid="65"/>
   <tile gid="65"/>
   <tile gid="65"/>
   <tile gid="65"/>
   <tile/>
   <tile/>
   <tile/>
   <tile gid="65"/>
   <tile gid="65"/>
   <tile gid="65"/>
   <tile/>
   <tile/>
   <tile/>
   <tile/>
   <tile/>
   <tile/>
   <tile/>
   <tile/>
   <tile/>
   <tile/>
   <tile/>
   <tile/>
   <tile/>
   <tile/>
   <tile/>
   <tile/>
   <tile/>
   <tile/>
   <tile/>
   <tile gid="65"/>
   <tile/>
   <tile/>
   <tile gid="65"/>
   <tile/>
   <tile/>
   <tile/>
   <tile/>
   <tile/>
   <tile/>
   <tile/>
   <tile/>
   <tile/>
   <tile/>
   <tile/>
   <tile/>
   <tile/>
   <tile/>
   <tile/>
   <tile/>
   <tile/>
   <tile/>
   <tile/>
   <tile/>
   <tile/>
   <tile/>
   <tile/>
   <tile gid="65"/>
   <tile gid="65"/>
   <tile gid="65"/>
   <tile gid="65"/>
   <tile gid="65"/>
   <tile gid="65"/>
   <tile gid="65"/>
   <tile gid="65"/>
   <tile gid="65"/>
   <tile gid="65"/>
   <tile gid="65"/>
   <tile gid="65"/>
   <tile gid="65"/>
   <tile gid="65"/>
   <tile gid="65"/>
   <tile gid="65"/>
   <tile gid="65"/>
   <tile gid="65"/>
   <tile gid="65"/>
   <tile gid="65"/>
   <tile gid="65"/>
   <tile gid="65"/>
   <tile gid="65"/>
   <tile gid="65"/>
   <tile gid="65"/>
   <tile gid="65"/>
   <tile gid="65"/>
   <tile gid="65"/>
   <tile gid="65"/>
   <tile gid="65"/>
   <tile gid="65"/>
   <tile gid="65"/>
   <tile gid="65"/>
   <tile gid="65"/>
   <tile gid="65"/>
   <tile gid="65"/>
   <tile gid="65"/>
   <tile gid="65"/>
   <tile gid="65"/>
   <tile gid="65"/>
   <tile gid="65"/>
   <tile gid="65"/>
   <tile gid="65"/>
   <tile gid="65"/>
   <tile gid="65"/>
   <tile/>
   <tile/>
   <tile/>
   <tile/>
   <tile/>
   <tile/>
   <tile/>
   <tile/>
   <tile/>
   <tile/>
   <tile/>
   <tile/>
   <tile/>
   <tile/>
   <tile/>
   <tile/>
   <tile/>
   <tile/>
   <tile/>
   <tile/>
   <tile/>
   <tile/>
   <tile/>
   <tile/>
   <tile/>
   <tile/>
   <tile/>
   <tile/>
   <tile/>
   <tile/>
   <tile/>
   <tile/>
   <tile/>
   <tile/>
   <tile/>
   <tile/>
   <tile/>
   <tile/>
   <tile/>
   <tile/>
   <tile gid="65"/>
   <tile gid="65"/>
   <tile gid="65"/>
   <tile gid="65"/>
   <tile gid="65"/>
   <tile gid="65"/>
   <tile gid="65"/>
   <tile gid="65"/>
   <tile gid="65"/>
   <tile gid="65"/>
   <tile gid="65"/>
   <tile gid="65"/>
   <tile gid="65"/>
   <tile gid="65"/>
   <tile gid="65"/>
   <tile gid="65"/>
   <tile gid="65"/>
   <tile gid="65"/>
   <tile gid="65"/>
   <tile gid="65"/>
   <tile gid="65"/>
   <tile gid="65"/>
   <tile gid="65"/>
   <tile gid="65"/>
   <tile gid="65"/>
   <tile gid="65"/>
   <tile gid="65"/>
   <tile gid="65"/>
   <tile gid="65"/>
   <tile gid="65"/>
   <tile gid="65"/>
   <tile gid="65"/>
   <tile gid="65"/>
   <tile gid="65"/>
   <tile gid="65"/>
   <tile gid="65"/>
   <tile gid="65"/>
   <tile gid="65"/>
   <tile gid="65"/>
   <tile gid="65"/>
   <tile gid="65"/>
   <tile gid="65"/>
   <tile gid="65"/>
   <tile/>
   <tile/>
   <tile/>
   <tile/>
   <tile/>
   <tile/>
   <tile/>
   <tile/>
   <tile/>
   <tile/>
   <tile/>
   <tile/>
   <tile/>
   <tile/>
   <tile/>
   <tile/>
   <tile/>
   <tile/>
   <tile/>
   <tile/>
   <tile/>
   <tile/>
   <tile/>
   <tile/>
   <tile/>
   <tile/>
   <tile/>
   <tile/>
   <tile gid="65"/>
   <tile/>
   <tile/>
   <tile/>
   <tile/>
   <tile/>
   <tile/>
   <tile/>
   <tile/>
   <tile/>
   <tile/>
   <tile/>
   <tile/>
   <tile/>
   <tile/>
   <tile/>
   <tile/>
   <tile/>
   <tile/>
   <tile/>
   <tile/>
   <tile/>
   <tile/>
   <tile/>
   <tile gid="65"/>
   <tile gid="65"/>
   <tile gid="65"/>
   <tile gid="65"/>
   <tile gid="65"/>
   <tile gid="65"/>
   <tile gid="65"/>
   <tile gid="65"/>
   <tile gid="65"/>
   <tile gid="65"/>
   <tile gid="65"/>
   <tile gid="65"/>
   <tile gid="65"/>
   <tile gid="65"/>
   <tile gid="65"/>
   <tile gid="65"/>
   <tile gid="65"/>
   <tile gid="65"/>
   <tile gid="65"/>
   <tile gid="65"/>
   <tile gid="65"/>
   <tile gid="65"/>
   <tile gid="65"/>
   <tile gid="65"/>
   <tile gid="65"/>
   <tile gid="65"/>
   <tile gid="65"/>
   <tile gid="65"/>
   <tile gid="65"/>
   <tile gid="65"/>
   <tile gid="65"/>
   <tile gid="65"/>
   <tile gid="65"/>
   <tile gid="65"/>
   <tile gid="65"/>
   <tile gid="65"/>
   <tile gid="65"/>
   <tile gid="65"/>
   <tile gid="65"/>
   <tile gid="65"/>
   <tile gid="65"/>
   <tile gid="65"/>
   <tile gid="65"/>
   <tile gid="65"/>
   <tile gid="65"/>
   <tile/>
   <tile/>
   <tile/>
   <tile/>
   <tile/>
   <tile/>
   <tile/>
   <tile/>
   <tile/>
   <tile/>
   <tile/>
   <tile/>
   <tile gid="65"/>
   <tile/>
   <tile/>
   <tile/>
   <tile/>
   <tile/>
   <tile/>
   <tile gid="65"/>
   <tile/>
   <tile/>
   <tile/>
   <tile/>
   <tile/>
   <tile/>
   <tile/>
   <tile gid="65"/>
   <tile/>
   <tile/>
   <tile/>
   <tile/>
   <tile/>
   <tile/>
   <tile/>
   <tile/>
   <tile gid="65"/>
   <tile gid="65"/>
   <tile gid="65"/>
   <tile gid="65"/>
   <tile gid="65"/>
   <tile gid="65"/>
   <tile gid="65"/>
   <tile gid="65"/>
   <tile gid="65"/>
   <tile gid="65"/>
   <tile gid="65"/>
   <tile gid="65"/>
   <tile gid="65"/>
   <tile gid="65"/>
   <tile gid="65"/>
   <tile gid="65"/>
   <tile gid="65"/>
   <tile gid="65"/>
   <tile gid="65"/>
   <tile gid="65"/>
   <tile gid="65"/>
   <tile gid="65"/>
   <tile gid="65"/>
   <tile gid="65"/>
   <tile gid="65"/>
   <tile gid="65"/>
   <tile gid="65"/>
   <tile gid="65"/>
   <tile gid="65"/>
   <tile gid="65"/>
   <tile gid="65"/>
   <tile gid="65"/>
   <tile gid="65"/>
   <tile gid="65"/>
   <tile gid="65"/>
   <tile gid="65"/>
   <tile gid="65"/>
   <tile gid="65"/>
   <tile gid="65"/>
   <tile gid="65"/>
   <tile gid="65"/>
   <tile gid="65"/>
   <tile gid="65"/>
   <tile gid="65"/>
   <tile gid="65"/>
   <tile gid="65"/>
   <tile/>
   <tile/>
   <tile/>
   <tile/>
   <tile/>
   <tile/>
   <tile/>
   <tile/>
   <tile/>
   <tile/>
   <tile/>
   <tile/>
   <tile/>
   <tile/>
   <tile/>
   <tile/>
   <tile/>
   <tile/>
   <tile/>
   <tile/>
   <tile/>
   <tile/>
   <tile/>
   <tile/>
   <tile/>
   <tile/>
   <tile/>
   <tile/>
   <tile/>
   <tile gid="65"/>
   <tile gid="65"/>
   <tile gid="65"/>
   <tile gid="65"/>
   <tile gid="65"/>
   <tile gid="65"/>
   <tile gid="65"/>
   <tile gid="65"/>
   <tile gid="65"/>
   <tile gid="65"/>
   <tile gid="65"/>
   <tile gid="65"/>
   <tile gid="65"/>
   <tile gid="65"/>
   <tile gid="65"/>
   <tile gid="65"/>
   <tile gid="65"/>
   <tile gid="65"/>
   <tile gid="65"/>
   <tile gid="65"/>
   <tile gid="65"/>
   <tile gid="65"/>
   <tile gid="65"/>
   <tile gid="65"/>
   <tile gid="65"/>
   <tile gid="65"/>
   <tile gid="65"/>
   <tile gid="65"/>
   <tile gid="65"/>
   <tile gid="65"/>
   <tile gid="65"/>
   <tile gid="65"/>
   <tile gid="65"/>
   <tile gid="65"/>
   <tile gid="65"/>
   <tile gid="65"/>
   <tile gid="65"/>
   <tile gid="65"/>
   <tile gid="65"/>
   <tile gid="65"/>
   <tile gid="65"/>
   <tile gid="65"/>
   <tile gid="65"/>
   <tile gid="65"/>
   <tile gid="65"/>
   <tile gid="65"/>
   <tile gid="65"/>
   <tile gid="65"/>
   <tile gid="65"/>
   <tile gid="65"/>
   <tile gid="65"/>
   <tile gid="65"/>
   <tile gid="65"/>
   <tile gid="65"/>
   <tile gid="65"/>
   <tile gid="65"/>
   <tile gid="65"/>
   <tile gid="65"/>
   <tile gid="65"/>
   <tile gid="65"/>
   <tile gid="65"/>
   <tile gid="65"/>
   <tile gid="65"/>
   <tile gid="65"/>
   <tile gid="65"/>
   <tile gid="65"/>
   <tile gid="65"/>
   <tile gid="65"/>
   <tile gid="65"/>
   <tile/>
   <tile/>
   <tile/>
   <tile/>
   <tile/>
   <tile/>
   <tile gid="65"/>
   <tile gid="65"/>
   <tile gid="65"/>
   <tile gid="65"/>
   <tile gid="65"/>
   <tile gid="65"/>
   <tile gid="65"/>
   <tile gid="65"/>
   <tile gid="65"/>
   <tile gid="65"/>
   <tile gid="65"/>
   <tile gid="65"/>
   <tile gid="65"/>
   <tile gid="65"/>
   <tile gid="65"/>
   <tile gid="65"/>
   <tile gid="65"/>
   <tile gid="65"/>
   <tile gid="65"/>
   <tile gid="65"/>
   <tile gid="65"/>
   <tile gid="65"/>
   <tile gid="65"/>
   <tile gid="65"/>
   <tile gid="65"/>
   <tile gid="65"/>
   <tile gid="65"/>
   <tile gid="65"/>
   <tile gid="65"/>
   <tile gid="65"/>
   <tile gid="65"/>
   <tile gid="65"/>
   <tile gid="65"/>
   <tile gid="65"/>
   <tile gid="65"/>
   <tile gid="65"/>
   <tile gid="65"/>
   <tile gid="65"/>
   <tile gid="65"/>
   <tile gid="65"/>
   <tile gid="65"/>
   <tile gid="65"/>
   <tile gid="65"/>
   <tile gid="65"/>
   <tile gid="65"/>
   <tile gid="65"/>
   <tile gid="65"/>
   <tile gid="65"/>
   <tile gid="65"/>
   <tile gid="65"/>
   <tile gid="65"/>
   <tile gid="65"/>
   <tile gid="65"/>
   <tile gid="65"/>
   <tile gid="65"/>
   <tile gid="65"/>
   <tile gid="65"/>
   <tile gid="65"/>
   <tile gid="65"/>
   <tile gid="65"/>
   <tile gid="65"/>
   <tile gid="65"/>
   <tile gid="65"/>
   <tile gid="65"/>
   <tile gid="65"/>
   <tile gid="65"/>
   <tile gid="65"/>
   <tile gid="65"/>
   <tile gid="65"/>
   <tile gid="65"/>
   <tile gid="65"/>
   <tile gid="65"/>
   <tile gid="65"/>
   <tile gid="65"/>
   <tile gid="65"/>
   <tile gid="65"/>
   <tile gid="65"/>
   <tile gid="65"/>
   <tile gid="65"/>
   <tile gid="65"/>
   <tile gid="65"/>
   <tile gid="65"/>
   <tile gid="65"/>
   <tile gid="65"/>
   <tile gid="65"/>
   <tile gid="65"/>
   <tile gid="65"/>
   <tile gid="65"/>
   <tile gid="65"/>
   <tile gid="65"/>
   <tile gid="65"/>
   <tile gid="65"/>
   <tile gid="65"/>
   <tile gid="65"/>
   <tile gid="65"/>
   <tile gid="65"/>
   <tile gid="65"/>
   <tile gid="65"/>
   <tile gid="65"/>
   <tile gid="65"/>
   <tile gid="65"/>
   <tile gid="65"/>
   <tile gid="65"/>
   <tile gid="65"/>
   <tile gid="65"/>
   <tile gid="65"/>
   <tile gid="65"/>
   <tile gid="65"/>
   <tile gid="65"/>
   <tile gid="65"/>
   <tile gid="65"/>
   <tile gid="65"/>
   <tile gid="65"/>
   <tile gid="65"/>
   <tile gid="65"/>
   <tile gid="65"/>
   <tile gid="65"/>
   <tile gid="65"/>
   <tile gid="65"/>
   <tile gid="65"/>
   <tile gid="65"/>
   <tile gid="65"/>
   <tile gid="65"/>
   <tile gid="65"/>
   <tile gid="65"/>
   <tile gid="65"/>
   <tile gid="65"/>
   <tile gid="65"/>
   <tile gid="65"/>
   <tile gid="65"/>
   <tile gid="65"/>
   <tile gid="65"/>
   <tile gid="65"/>
   <tile gid="65"/>
   <tile gid="65"/>
   <tile gid="65"/>
   <tile gid="65"/>
   <tile gid="65"/>
   <tile gid="65"/>
   <tile gid="65"/>
   <tile gid="65"/>
   <tile gid="65"/>
   <tile gid="65"/>
   <tile gid="65"/>
   <tile gid="65"/>
   <tile gid="65"/>
   <tile gid="65"/>
   <tile gid="65"/>
   <tile gid="65"/>
   <tile gid="65"/>
   <tile gid="65"/>
   <tile gid="65"/>
   <tile gid="65"/>
   <tile gid="65"/>
   <tile gid="65"/>
   <tile gid="65"/>
   <tile gid="65"/>
   <tile gid="65"/>
   <tile gid="65"/>
   <tile gid="65"/>
   <tile gid="65"/>
   <tile gid="65"/>
   <tile gid="65"/>
   <tile gid="65"/>
   <tile gid="65"/>
   <tile gid="65"/>
   <tile gid="65"/>
   <tile gid="65"/>
   <tile gid="65"/>
   <tile gid="65"/>
   <tile gid="65"/>
   <tile gid="65"/>
   <tile gid="65"/>
   <tile gid="65"/>
   <tile/>
   <tile/>
   <tile/>
   <tile/>
   <tile/>
   <tile/>
   <tile gid="65"/>
   <tile gid="65"/>
   <tile gid="65"/>
   <tile gid="65"/>
   <tile gid="65"/>
   <tile gid="65"/>
   <tile gid="65"/>
   <tile gid="65"/>
   <tile gid="65"/>
   <tile gid="65"/>
   <tile gid="65"/>
   <tile gid="65"/>
   <tile gid="65"/>
   <tile gid="65"/>
   <tile gid="65"/>
   <tile gid="65"/>
   <tile gid="65"/>
   <tile gid="65"/>
   <tile gid="65"/>
   <tile gid="65"/>
   <tile gid="65"/>
   <tile gid="65"/>
   <tile gid="65"/>
   <tile gid="65"/>
   <tile gid="65"/>
   <tile gid="65"/>
   <tile gid="65"/>
   <tile gid="65"/>
   <tile gid="65"/>
   <tile gid="65"/>
   <tile gid="65"/>
   <tile gid="65"/>
   <tile gid="65"/>
   <tile gid="65"/>
   <tile gid="65"/>
   <tile gid="65"/>
   <tile gid="65"/>
   <tile gid="65"/>
   <tile gid="65"/>
   <tile gid="65"/>
   <tile gid="65"/>
   <tile gid="65"/>
   <tile gid="65"/>
   <tile gid="65"/>
   <tile gid="65"/>
   <tile gid="65"/>
   <tile gid="65"/>
   <tile gid="65"/>
   <tile gid="65"/>
   <tile gid="65"/>
   <tile gid="65"/>
   <tile gid="65"/>
   <tile gid="65"/>
   <tile gid="65"/>
   <tile gid="65"/>
   <tile gid="65"/>
   <tile gid="65"/>
   <tile gid="65"/>
   <tile gid="65"/>
   <tile gid="65"/>
   <tile gid="65"/>
   <tile gid="65"/>
   <tile gid="65"/>
   <tile gid="65"/>
   <tile gid="65"/>
   <tile gid="65"/>
   <tile gid="65"/>
   <tile gid="65"/>
   <tile gid="65"/>
   <tile gid="65"/>
   <tile gid="65"/>
   <tile gid="65"/>
   <tile gid="65"/>
   <tile gid="65"/>
   <tile gid="65"/>
   <tile gid="65"/>
   <tile gid="65"/>
   <tile gid="65"/>
   <tile gid="65"/>
   <tile gid="65"/>
   <tile gid="65"/>
   <tile gid="65"/>
   <tile gid="65"/>
   <tile gid="65"/>
   <tile gid="65"/>
   <tile gid="65"/>
   <tile gid="65"/>
   <tile gid="65"/>
   <tile gid="65"/>
   <tile gid="65"/>
   <tile gid="65"/>
   <tile gid="65"/>
   <tile gid="65"/>
   <tile gid="65"/>
   <tile gid="65"/>
   <tile gid="65"/>
   <tile gid="65"/>
   <tile gid="65"/>
   <tile gid="65"/>
   <tile gid="65"/>
   <tile gid="65"/>
   <tile gid="65"/>
   <tile gid="65"/>
   <tile gid="65"/>
   <tile gid="65"/>
   <tile gid="65"/>
  </data>
 </layer>
 <layer id="33" name="AirLayer" width="180" height="80" visible="0">
  <properties>
   <property name="Air" type="bool" value="true"/>
   <property name="Navigation" type="bool" value="true"/>
  </properties>
  <data>
   <tile/>
   <tile/>
   <tile/>
   <tile/>
   <tile/>
   <tile/>
   <tile/>
   <tile/>
   <tile/>
   <tile/>
   <tile/>
   <tile/>
   <tile/>
   <tile/>
   <tile/>
   <tile/>
   <tile/>
   <tile/>
   <tile/>
   <tile/>
   <tile/>
   <tile/>
   <tile/>
   <tile/>
   <tile/>
   <tile/>
   <tile/>
   <tile/>
   <tile/>
   <tile/>
   <tile/>
   <tile/>
   <tile/>
   <tile/>
   <tile/>
   <tile/>
   <tile/>
   <tile/>
   <tile/>
   <tile/>
   <tile/>
   <tile/>
   <tile/>
   <tile/>
   <tile/>
   <tile/>
   <tile/>
   <tile/>
   <tile/>
   <tile/>
   <tile/>
   <tile/>
   <tile/>
   <tile/>
   <tile/>
   <tile/>
   <tile/>
   <tile/>
   <tile/>
   <tile/>
   <tile/>
   <tile/>
   <tile/>
   <tile/>
   <tile/>
   <tile/>
   <tile/>
   <tile/>
   <tile/>
   <tile/>
   <tile/>
   <tile/>
   <tile/>
   <tile/>
   <tile/>
   <tile/>
   <tile/>
   <tile/>
   <tile/>
   <tile/>
   <tile/>
   <tile/>
   <tile/>
   <tile/>
   <tile/>
   <tile/>
   <tile/>
   <tile/>
   <tile/>
   <tile/>
   <tile/>
   <tile/>
   <tile/>
   <tile/>
   <tile/>
   <tile/>
   <tile/>
   <tile/>
   <tile/>
   <tile/>
   <tile/>
   <tile/>
   <tile/>
   <tile/>
   <tile/>
   <tile/>
   <tile/>
   <tile/>
   <tile/>
   <tile/>
   <tile/>
   <tile/>
   <tile/>
   <tile/>
   <tile/>
   <tile/>
   <tile/>
   <tile/>
   <tile/>
   <tile/>
   <tile/>
   <tile/>
   <tile/>
   <tile/>
   <tile/>
   <tile/>
   <tile/>
   <tile/>
   <tile/>
   <tile/>
   <tile/>
   <tile/>
   <tile/>
   <tile/>
   <tile/>
   <tile/>
   <tile/>
   <tile/>
   <tile/>
   <tile/>
   <tile/>
   <tile/>
   <tile/>
   <tile/>
   <tile/>
   <tile/>
   <tile/>
   <tile/>
   <tile/>
   <tile/>
   <tile/>
   <tile/>
   <tile/>
   <tile/>
   <tile/>
   <tile/>
   <tile/>
   <tile/>
   <tile/>
   <tile/>
   <tile/>
   <tile/>
   <tile/>
   <tile/>
   <tile/>
   <tile/>
   <tile/>
   <tile/>
   <tile/>
   <tile/>
   <tile/>
   <tile/>
   <tile/>
   <tile/>
   <tile/>
   <tile/>
   <tile/>
   <tile/>
   <tile/>
   <tile/>
   <tile/>
   <tile/>
   <tile/>
   <tile/>
   <tile/>
   <tile/>
   <tile/>
   <tile/>
   <tile/>
   <tile/>
   <tile/>
   <tile/>
   <tile/>
   <tile/>
   <tile/>
   <tile/>
   <tile/>
   <tile/>
   <tile/>
   <tile/>
   <tile/>
   <tile/>
   <tile/>
   <tile/>
   <tile/>
   <tile/>
   <tile/>
   <tile/>
   <tile/>
   <tile/>
   <tile/>
   <tile/>
   <tile/>
   <tile/>
   <tile/>
   <tile/>
   <tile/>
   <tile/>
   <tile/>
   <tile/>
   <tile/>
   <tile/>
   <tile/>
   <tile/>
   <tile/>
   <tile/>
   <tile/>
   <tile/>
   <tile/>
   <tile/>
   <tile/>
   <tile/>
   <tile/>
   <tile/>
   <tile/>
   <tile/>
   <tile/>
   <tile/>
   <tile/>
   <tile/>
   <tile/>
   <tile/>
   <tile/>
   <tile/>
   <tile/>
   <tile/>
   <tile/>
   <tile/>
   <tile/>
   <tile/>
   <tile/>
   <tile/>
   <tile/>
   <tile/>
   <tile/>
   <tile/>
   <tile/>
   <tile/>
   <tile/>
   <tile/>
   <tile/>
   <tile/>
   <tile/>
   <tile/>
   <tile/>
   <tile/>
   <tile/>
   <tile/>
   <tile/>
   <tile/>
   <tile/>
   <tile/>
   <tile/>
   <tile/>
   <tile/>
   <tile/>
   <tile/>
   <tile/>
   <tile/>
   <tile/>
   <tile/>
   <tile/>
   <tile/>
   <tile/>
   <tile/>
   <tile/>
   <tile/>
   <tile/>
   <tile/>
   <tile/>
   <tile/>
   <tile/>
   <tile/>
   <tile/>
   <tile/>
   <tile/>
   <tile/>
   <tile/>
   <tile/>
   <tile/>
   <tile/>
   <tile/>
   <tile/>
   <tile/>
   <tile/>
   <tile/>
   <tile/>
   <tile/>
   <tile/>
   <tile/>
   <tile/>
   <tile/>
   <tile/>
   <tile/>
   <tile/>
   <tile/>
   <tile/>
   <tile/>
   <tile/>
   <tile/>
   <tile/>
   <tile/>
   <tile/>
   <tile/>
   <tile/>
   <tile/>
   <tile/>
   <tile/>
   <tile/>
   <tile/>
   <tile/>
   <tile/>
   <tile/>
   <tile/>
   <tile/>
   <tile/>
   <tile/>
   <tile/>
   <tile/>
   <tile/>
   <tile/>
   <tile/>
   <tile/>
   <tile/>
   <tile/>
   <tile/>
   <tile/>
   <tile/>
   <tile/>
   <tile/>
   <tile/>
   <tile/>
   <tile/>
   <tile/>
   <tile/>
   <tile/>
   <tile/>
   <tile/>
   <tile/>
   <tile/>
   <tile/>
   <tile/>
   <tile/>
   <tile/>
   <tile/>
   <tile/>
   <tile/>
   <tile/>
   <tile/>
   <tile/>
   <tile/>
   <tile/>
   <tile/>
   <tile/>
   <tile/>
   <tile/>
   <tile/>
   <tile/>
   <tile/>
   <tile/>
   <tile/>
   <tile/>
   <tile/>
   <tile/>
   <tile/>
   <tile/>
   <tile/>
   <tile/>
   <tile/>
   <tile/>
   <tile/>
   <tile/>
   <tile/>
   <tile/>
   <tile/>
   <tile/>
   <tile/>
   <tile/>
   <tile/>
   <tile/>
   <tile/>
   <tile/>
   <tile/>
   <tile/>
   <tile/>
   <tile/>
   <tile/>
   <tile/>
   <tile/>
   <tile/>
   <tile/>
   <tile/>
   <tile/>
   <tile/>
   <tile/>
   <tile/>
   <tile/>
   <tile/>
   <tile/>
   <tile/>
   <tile/>
   <tile/>
   <tile/>
   <tile/>
   <tile/>
   <tile/>
   <tile/>
   <tile/>
   <tile/>
   <tile/>
   <tile/>
   <tile/>
   <tile/>
   <tile/>
   <tile/>
   <tile/>
   <tile/>
   <tile/>
   <tile/>
   <tile/>
   <tile/>
   <tile/>
   <tile/>
   <tile/>
   <tile/>
   <tile/>
   <tile/>
   <tile/>
   <tile/>
   <tile/>
   <tile/>
   <tile/>
   <tile/>
   <tile/>
   <tile/>
   <tile/>
   <tile/>
   <tile/>
   <tile/>
   <tile/>
   <tile/>
   <tile/>
   <tile/>
   <tile/>
   <tile/>
   <tile/>
   <tile/>
   <tile/>
   <tile/>
   <tile/>
   <tile/>
   <tile/>
   <tile/>
   <tile/>
   <tile/>
   <tile/>
   <tile/>
   <tile/>
   <tile/>
   <tile/>
   <tile/>
   <tile/>
   <tile/>
   <tile/>
   <tile/>
   <tile/>
   <tile/>
   <tile/>
   <tile/>
   <tile/>
   <tile/>
   <tile/>
   <tile/>
   <tile/>
   <tile/>
   <tile/>
   <tile/>
   <tile/>
   <tile/>
   <tile/>
   <tile/>
   <tile/>
   <tile/>
   <tile/>
   <tile/>
   <tile/>
   <tile/>
   <tile/>
   <tile/>
   <tile/>
   <tile/>
   <tile/>
   <tile/>
   <tile/>
   <tile/>
   <tile/>
   <tile/>
   <tile/>
   <tile/>
   <tile/>
   <tile/>
   <tile/>
   <tile/>
   <tile/>
   <tile/>
   <tile/>
   <tile/>
   <tile/>
   <tile/>
   <tile/>
   <tile/>
   <tile/>
   <tile/>
   <tile/>
   <tile/>
   <tile/>
   <tile/>
   <tile/>
   <tile/>
   <tile/>
   <tile/>
   <tile/>
   <tile/>
   <tile/>
   <tile/>
   <tile/>
   <tile/>
   <tile/>
   <tile/>
   <tile/>
   <tile/>
   <tile/>
   <tile/>
   <tile/>
   <tile/>
   <tile/>
   <tile/>
   <tile/>
   <tile/>
   <tile/>
   <tile/>
   <tile/>
   <tile/>
   <tile/>
   <tile/>
   <tile/>
   <tile/>
   <tile/>
   <tile/>
   <tile/>
   <tile/>
   <tile/>
   <tile/>
   <tile/>
   <tile/>
   <tile/>
   <tile/>
   <tile/>
   <tile/>
   <tile/>
   <tile/>
   <tile/>
   <tile/>
   <tile/>
   <tile/>
   <tile/>
   <tile/>
   <tile/>
   <tile/>
   <tile/>
   <tile/>
   <tile/>
   <tile/>
   <tile/>
   <tile/>
   <tile/>
   <tile/>
   <tile/>
   <tile/>
   <tile/>
   <tile/>
   <tile/>
   <tile/>
   <tile/>
   <tile/>
   <tile/>
   <tile/>
   <tile/>
   <tile/>
   <tile/>
   <tile/>
   <tile/>
   <tile/>
   <tile/>
   <tile/>
   <tile/>
   <tile/>
   <tile/>
   <tile/>
   <tile/>
   <tile/>
   <tile/>
   <tile/>
   <tile/>
   <tile/>
   <tile/>
   <tile/>
   <tile/>
   <tile/>
   <tile/>
   <tile/>
   <tile/>
   <tile/>
   <tile/>
   <tile/>
   <tile/>
   <tile/>
   <tile/>
   <tile/>
   <tile/>
   <tile/>
   <tile/>
   <tile/>
   <tile/>
   <tile/>
   <tile/>
   <tile/>
   <tile/>
   <tile/>
   <tile/>
   <tile/>
   <tile/>
   <tile/>
   <tile/>
   <tile/>
   <tile/>
   <tile/>
   <tile/>
   <tile/>
   <tile/>
   <tile/>
   <tile/>
   <tile/>
   <tile/>
   <tile/>
   <tile/>
   <tile/>
   <tile/>
   <tile/>
   <tile/>
   <tile/>
   <tile/>
   <tile/>
   <tile/>
   <tile/>
   <tile/>
   <tile/>
   <tile/>
   <tile/>
   <tile/>
   <tile/>
   <tile/>
   <tile/>
   <tile/>
   <tile/>
   <tile/>
   <tile/>
   <tile/>
   <tile/>
   <tile/>
   <tile/>
   <tile/>
   <tile/>
   <tile/>
   <tile/>
   <tile/>
   <tile/>
   <tile/>
   <tile/>
   <tile/>
   <tile/>
   <tile/>
   <tile/>
   <tile/>
   <tile/>
   <tile/>
   <tile/>
   <tile/>
   <tile/>
   <tile/>
   <tile/>
   <tile/>
   <tile/>
   <tile/>
   <tile/>
   <tile/>
   <tile/>
   <tile/>
   <tile/>
   <tile/>
   <tile/>
   <tile/>
   <tile/>
   <tile/>
   <tile/>
   <tile/>
   <tile/>
   <tile/>
   <tile/>
   <tile/>
   <tile/>
   <tile/>
   <tile/>
   <tile/>
   <tile/>
   <tile/>
   <tile/>
   <tile/>
   <tile/>
   <tile/>
   <tile/>
   <tile/>
   <tile/>
   <tile/>
   <tile/>
   <tile/>
   <tile/>
   <tile/>
   <tile/>
   <tile/>
   <tile/>
   <tile/>
   <tile/>
   <tile/>
   <tile/>
   <tile/>
   <tile/>
   <tile/>
   <tile/>
   <tile/>
   <tile/>
   <tile/>
   <tile/>
   <tile/>
   <tile/>
   <tile/>
   <tile/>
   <tile/>
   <tile/>
   <tile/>
   <tile/>
   <tile/>
   <tile/>
   <tile/>
   <tile/>
   <tile/>
   <tile/>
   <tile/>
   <tile/>
   <tile/>
   <tile/>
   <tile/>
   <tile/>
   <tile/>
   <tile/>
   <tile/>
   <tile/>
   <tile/>
   <tile/>
   <tile/>
   <tile/>
   <tile/>
   <tile/>
   <tile/>
   <tile/>
   <tile/>
   <tile/>
   <tile/>
   <tile/>
   <tile/>
   <tile/>
   <tile/>
   <tile/>
   <tile/>
   <tile/>
   <tile/>
   <tile/>
   <tile/>
   <tile/>
   <tile/>
   <tile/>
   <tile/>
   <tile/>
   <tile/>
   <tile/>
   <tile/>
   <tile/>
   <tile/>
   <tile/>
   <tile/>
   <tile/>
   <tile/>
   <tile/>
   <tile/>
   <tile/>
   <tile/>
   <tile/>
   <tile/>
   <tile/>
   <tile/>
   <tile/>
   <tile/>
   <tile/>
   <tile/>
   <tile/>
   <tile/>
   <tile/>
   <tile/>
   <tile/>
   <tile/>
   <tile/>
   <tile/>
   <tile/>
   <tile/>
   <tile/>
   <tile/>
   <tile/>
   <tile/>
   <tile/>
   <tile/>
   <tile/>
   <tile/>
   <tile/>
   <tile/>
   <tile/>
   <tile/>
   <tile/>
   <tile/>
   <tile/>
   <tile/>
   <tile/>
   <tile/>
   <tile/>
   <tile/>
   <tile/>
   <tile/>
   <tile/>
   <tile/>
   <tile/>
   <tile/>
   <tile/>
   <tile/>
   <tile/>
   <tile/>
   <tile/>
   <tile/>
   <tile/>
   <tile/>
   <tile/>
   <tile/>
   <tile/>
   <tile/>
   <tile/>
   <tile/>
   <tile/>
   <tile/>
   <tile/>
   <tile/>
   <tile/>
   <tile/>
   <tile/>
   <tile/>
   <tile/>
   <tile/>
   <tile/>
   <tile/>
   <tile/>
   <tile/>
   <tile/>
   <tile/>
   <tile/>
   <tile/>
   <tile/>
   <tile/>
   <tile/>
   <tile/>
   <tile/>
   <tile/>
   <tile/>
   <tile/>
   <tile/>
   <tile/>
   <tile/>
   <tile/>
   <tile/>
   <tile/>
   <tile/>
   <tile/>
   <tile/>
   <tile/>
   <tile/>
   <tile/>
   <tile/>
   <tile/>
   <tile/>
   <tile/>
   <tile/>
   <tile/>
   <tile/>
   <tile/>
   <tile/>
   <tile/>
   <tile/>
   <tile/>
   <tile/>
   <tile/>
   <tile/>
   <tile/>
   <tile/>
   <tile/>
   <tile/>
   <tile/>
   <tile/>
   <tile/>
   <tile/>
   <tile/>
   <tile/>
   <tile/>
   <tile/>
   <tile/>
   <tile/>
   <tile/>
   <tile/>
   <tile/>
   <tile/>
   <tile/>
   <tile/>
   <tile/>
   <tile/>
   <tile/>
   <tile/>
   <tile/>
   <tile/>
   <tile/>
   <tile/>
   <tile/>
   <tile/>
   <tile/>
   <tile/>
   <tile/>
   <tile/>
   <tile/>
   <tile/>
   <tile/>
   <tile/>
   <tile/>
   <tile/>
   <tile/>
   <tile/>
   <tile/>
   <tile/>
   <tile/>
   <tile/>
   <tile/>
   <tile/>
   <tile/>
   <tile/>
   <tile/>
   <tile/>
   <tile/>
   <tile/>
   <tile/>
   <tile/>
   <tile/>
   <tile/>
   <tile/>
   <tile/>
   <tile/>
   <tile/>
   <tile/>
   <tile/>
   <tile/>
   <tile/>
   <tile/>
   <tile/>
   <tile/>
   <tile/>
   <tile/>
   <tile/>
   <tile/>
   <tile/>
   <tile/>
   <tile/>
   <tile/>
   <tile/>
   <tile/>
   <tile/>
   <tile/>
   <tile/>
   <tile/>
   <tile/>
   <tile/>
   <tile/>
   <tile/>
   <tile/>
   <tile/>
   <tile/>
   <tile/>
   <tile/>
   <tile/>
   <tile/>
   <tile/>
   <tile/>
   <tile/>
   <tile/>
   <tile/>
   <tile/>
   <tile/>
   <tile/>
   <tile/>
   <tile/>
   <tile/>
   <tile/>
   <tile/>
   <tile/>
   <tile/>
   <tile/>
   <tile/>
   <tile/>
   <tile/>
   <tile/>
   <tile/>
   <tile/>
   <tile/>
   <tile/>
   <tile/>
   <tile/>
   <tile/>
   <tile/>
   <tile/>
   <tile/>
   <tile/>
   <tile/>
   <tile/>
   <tile/>
   <tile/>
   <tile/>
   <tile/>
   <tile/>
   <tile/>
   <tile/>
   <tile/>
   <tile/>
   <tile/>
   <tile/>
   <tile/>
   <tile/>
   <tile/>
   <tile/>
   <tile/>
   <tile/>
   <tile/>
   <tile/>
   <tile/>
   <tile/>
   <tile/>
   <tile/>
   <tile/>
   <tile/>
   <tile/>
   <tile/>
   <tile/>
   <tile/>
   <tile/>
   <tile/>
   <tile/>
   <tile/>
   <tile/>
   <tile/>
   <tile/>
   <tile/>
   <tile/>
   <tile/>
   <tile/>
   <tile/>
   <tile/>
   <tile/>
   <tile/>
   <tile/>
   <tile/>
   <tile/>
   <tile/>
   <tile/>
   <tile/>
   <tile/>
   <tile/>
   <tile/>
   <tile/>
   <tile/>
   <tile/>
   <tile/>
   <tile/>
   <tile/>
   <tile/>
   <tile/>
   <tile/>
   <tile/>
   <tile/>
   <tile/>
   <tile/>
   <tile/>
   <tile/>
   <tile/>
   <tile/>
   <tile/>
   <tile/>
   <tile/>
   <tile/>
   <tile/>
   <tile/>
   <tile/>
   <tile/>
   <tile/>
   <tile/>
   <tile/>
   <tile/>
   <tile/>
   <tile/>
   <tile/>
   <tile/>
   <tile/>
   <tile/>
   <tile/>
   <tile/>
   <tile/>
   <tile/>
   <tile/>
   <tile/>
   <tile/>
   <tile/>
   <tile/>
   <tile/>
   <tile/>
   <tile/>
   <tile/>
   <tile/>
   <tile/>
   <tile/>
   <tile/>
   <tile/>
   <tile/>
   <tile/>
   <tile/>
   <tile/>
   <tile/>
   <tile/>
   <tile/>
   <tile/>
   <tile/>
   <tile/>
   <tile/>
   <tile/>
   <tile/>
   <tile/>
   <tile/>
   <tile/>
   <tile/>
   <tile/>
   <tile/>
   <tile/>
   <tile/>
   <tile/>
   <tile/>
   <tile/>
   <tile/>
   <tile/>
   <tile/>
   <tile/>
   <tile/>
   <tile/>
   <tile/>
   <tile/>
   <tile/>
   <tile/>
   <tile/>
   <tile/>
   <tile/>
   <tile/>
   <tile/>
   <tile/>
   <tile/>
   <tile/>
   <tile/>
   <tile/>
   <tile/>
   <tile/>
   <tile/>
   <tile/>
   <tile/>
   <tile/>
   <tile/>
   <tile/>
   <tile/>
   <tile/>
   <tile/>
   <tile/>
   <tile/>
   <tile/>
   <tile/>
   <tile/>
   <tile/>
   <tile/>
   <tile/>
   <tile/>
   <tile/>
   <tile/>
   <tile/>
   <tile/>
   <tile/>
   <tile/>
   <tile/>
   <tile/>
   <tile/>
   <tile/>
   <tile/>
   <tile/>
   <tile/>
   <tile/>
   <tile/>
   <tile/>
   <tile/>
   <tile/>
   <tile/>
   <tile/>
   <tile/>
   <tile/>
   <tile/>
   <tile/>
   <tile/>
   <tile/>
   <tile/>
   <tile/>
   <tile/>
   <tile/>
   <tile/>
   <tile/>
   <tile/>
   <tile/>
   <tile/>
   <tile/>
   <tile/>
   <tile/>
   <tile/>
   <tile/>
   <tile/>
   <tile/>
   <tile/>
   <tile/>
   <tile/>
   <tile/>
   <tile/>
   <tile/>
   <tile/>
   <tile/>
   <tile/>
   <tile/>
   <tile/>
   <tile/>
   <tile/>
   <tile/>
   <tile/>
   <tile/>
   <tile/>
   <tile/>
   <tile/>
   <tile/>
   <tile/>
   <tile/>
   <tile/>
   <tile/>
   <tile/>
   <tile/>
   <tile/>
   <tile/>
   <tile/>
   <tile/>
   <tile/>
   <tile/>
   <tile/>
   <tile/>
   <tile/>
   <tile/>
   <tile/>
   <tile/>
   <tile/>
   <tile/>
   <tile/>
   <tile/>
   <tile/>
   <tile/>
   <tile/>
   <tile/>
   <tile/>
   <tile/>
   <tile/>
   <tile/>
   <tile/>
   <tile/>
   <tile/>
   <tile/>
   <tile/>
   <tile/>
   <tile/>
   <tile/>
   <tile/>
   <tile/>
   <tile/>
   <tile/>
   <tile/>
   <tile/>
   <tile/>
   <tile/>
   <tile/>
   <tile/>
   <tile/>
   <tile/>
   <tile/>
   <tile/>
   <tile/>
   <tile/>
   <tile/>
   <tile/>
   <tile/>
   <tile/>
   <tile/>
   <tile/>
   <tile/>
   <tile/>
   <tile/>
   <tile/>
   <tile/>
   <tile/>
   <tile/>
   <tile/>
   <tile/>
   <tile/>
   <tile/>
   <tile/>
   <tile/>
   <tile/>
   <tile/>
   <tile/>
   <tile/>
   <tile/>
   <tile/>
   <tile/>
   <tile/>
   <tile/>
   <tile/>
   <tile/>
   <tile/>
   <tile/>
   <tile/>
   <tile/>
   <tile/>
   <tile/>
   <tile/>
   <tile/>
   <tile/>
   <tile/>
   <tile/>
   <tile/>
   <tile/>
   <tile/>
   <tile/>
   <tile/>
   <tile/>
   <tile/>
   <tile/>
   <tile/>
   <tile/>
   <tile/>
   <tile/>
   <tile/>
   <tile/>
   <tile/>
   <tile/>
   <tile/>
   <tile/>
   <tile/>
   <tile/>
   <tile/>
   <tile/>
   <tile/>
   <tile/>
   <tile/>
   <tile/>
   <tile/>
   <tile/>
   <tile/>
   <tile/>
   <tile/>
   <tile/>
   <tile/>
   <tile/>
   <tile/>
   <tile/>
   <tile/>
   <tile/>
   <tile/>
   <tile/>
   <tile/>
   <tile/>
   <tile/>
   <tile/>
   <tile/>
   <tile/>
   <tile/>
   <tile/>
   <tile/>
   <tile/>
   <tile/>
   <tile/>
   <tile/>
   <tile/>
   <tile/>
   <tile/>
   <tile/>
   <tile/>
   <tile/>
   <tile/>
   <tile/>
   <tile/>
   <tile/>
   <tile/>
   <tile/>
   <tile/>
   <tile/>
   <tile/>
   <tile/>
   <tile/>
   <tile/>
   <tile/>
   <tile/>
   <tile/>
   <tile/>
   <tile/>
   <tile/>
   <tile/>
   <tile/>
   <tile/>
   <tile/>
   <tile/>
   <tile/>
   <tile/>
   <tile/>
   <tile/>
   <tile/>
   <tile/>
   <tile/>
   <tile/>
   <tile/>
   <tile/>
   <tile/>
   <tile/>
   <tile/>
   <tile/>
   <tile/>
   <tile/>
   <tile/>
   <tile/>
   <tile/>
   <tile/>
   <tile/>
   <tile/>
   <tile/>
   <tile/>
   <tile/>
   <tile/>
   <tile/>
   <tile/>
   <tile/>
   <tile/>
   <tile/>
   <tile/>
   <tile/>
   <tile/>
   <tile/>
   <tile/>
   <tile/>
   <tile/>
   <tile/>
   <tile/>
   <tile/>
   <tile/>
   <tile/>
   <tile/>
   <tile/>
   <tile/>
   <tile/>
   <tile/>
   <tile/>
   <tile/>
   <tile/>
   <tile/>
   <tile/>
   <tile/>
   <tile/>
   <tile/>
   <tile/>
   <tile/>
   <tile/>
   <tile/>
   <tile/>
   <tile/>
   <tile/>
   <tile/>
   <tile/>
   <tile/>
   <tile/>
   <tile/>
   <tile/>
   <tile/>
   <tile/>
   <tile/>
   <tile/>
   <tile/>
   <tile/>
   <tile/>
   <tile/>
   <tile/>
   <tile/>
   <tile/>
   <tile/>
   <tile/>
   <tile/>
   <tile/>
   <tile/>
   <tile/>
   <tile/>
   <tile/>
   <tile/>
   <tile/>
   <tile/>
   <tile/>
   <tile/>
   <tile/>
   <tile/>
   <tile/>
   <tile/>
   <tile/>
   <tile/>
   <tile/>
   <tile/>
   <tile/>
   <tile/>
   <tile/>
   <tile/>
   <tile/>
   <tile/>
   <tile/>
   <tile/>
   <tile/>
   <tile/>
   <tile/>
   <tile/>
   <tile/>
   <tile/>
   <tile/>
   <tile/>
   <tile/>
   <tile/>
   <tile/>
   <tile/>
   <tile/>
   <tile/>
   <tile/>
   <tile/>
   <tile/>
   <tile/>
   <tile/>
   <tile/>
   <tile/>
   <tile/>
   <tile/>
   <tile/>
   <tile/>
   <tile/>
   <tile/>
   <tile/>
   <tile/>
   <tile/>
   <tile/>
   <tile/>
   <tile/>
   <tile/>
   <tile/>
   <tile/>
   <tile/>
   <tile/>
   <tile/>
   <tile/>
   <tile/>
   <tile/>
   <tile/>
   <tile/>
   <tile/>
   <tile/>
   <tile/>
   <tile/>
   <tile/>
   <tile/>
   <tile/>
   <tile/>
   <tile/>
   <tile/>
   <tile/>
   <tile/>
   <tile/>
   <tile/>
   <tile/>
   <tile/>
   <tile/>
   <tile/>
   <tile/>
   <tile/>
   <tile/>
   <tile/>
   <tile/>
   <tile/>
   <tile/>
   <tile/>
   <tile/>
   <tile/>
   <tile/>
   <tile/>
   <tile/>
   <tile/>
   <tile/>
   <tile/>
   <tile/>
   <tile/>
   <tile/>
   <tile/>
   <tile/>
   <tile/>
   <tile/>
   <tile/>
   <tile/>
   <tile/>
   <tile/>
   <tile/>
   <tile/>
   <tile/>
   <tile/>
   <tile/>
   <tile/>
   <tile/>
   <tile/>
   <tile/>
   <tile/>
   <tile/>
   <tile/>
   <tile/>
   <tile/>
   <tile/>
   <tile/>
   <tile/>
   <tile/>
   <tile/>
   <tile/>
   <tile/>
   <tile/>
   <tile/>
   <tile/>
   <tile/>
   <tile/>
   <tile/>
   <tile/>
   <tile/>
   <tile/>
   <tile/>
   <tile/>
   <tile/>
   <tile/>
   <tile/>
   <tile/>
   <tile/>
   <tile/>
   <tile/>
   <tile/>
   <tile/>
   <tile/>
   <tile/>
   <tile/>
   <tile/>
   <tile/>
   <tile/>
   <tile/>
   <tile/>
   <tile/>
   <tile/>
   <tile/>
   <tile/>
   <tile/>
   <tile/>
   <tile/>
   <tile/>
   <tile/>
   <tile/>
   <tile/>
   <tile/>
   <tile/>
   <tile/>
   <tile/>
   <tile/>
   <tile/>
   <tile/>
   <tile/>
   <tile/>
   <tile/>
   <tile/>
   <tile/>
   <tile/>
   <tile/>
   <tile/>
   <tile/>
   <tile/>
   <tile/>
   <tile/>
   <tile/>
   <tile/>
   <tile/>
   <tile/>
   <tile/>
   <tile/>
   <tile/>
   <tile/>
   <tile/>
   <tile/>
   <tile/>
   <tile/>
   <tile/>
   <tile/>
   <tile/>
   <tile/>
   <tile/>
   <tile/>
   <tile/>
   <tile/>
   <tile/>
   <tile/>
   <tile/>
   <tile/>
   <tile/>
   <tile/>
   <tile/>
   <tile/>
   <tile/>
   <tile/>
   <tile/>
   <tile/>
   <tile/>
   <tile/>
   <tile/>
   <tile/>
   <tile/>
   <tile/>
   <tile/>
   <tile/>
   <tile/>
   <tile/>
   <tile/>
   <tile/>
   <tile/>
   <tile/>
   <tile/>
   <tile/>
   <tile/>
   <tile/>
   <tile/>
   <tile/>
   <tile/>
   <tile/>
   <tile/>
   <tile/>
   <tile/>
   <tile/>
   <tile/>
   <tile/>
   <tile/>
   <tile/>
   <tile/>
   <tile/>
   <tile/>
   <tile/>
   <tile/>
   <tile/>
   <tile/>
   <tile/>
   <tile/>
   <tile/>
   <tile/>
   <tile/>
   <tile/>
   <tile/>
   <tile/>
   <tile/>
   <tile/>
   <tile/>
   <tile/>
   <tile/>
   <tile/>
   <tile/>
   <tile/>
   <tile/>
   <tile/>
   <tile/>
   <tile/>
   <tile/>
   <tile/>
   <tile/>
   <tile/>
   <tile/>
   <tile/>
   <tile/>
   <tile/>
   <tile/>
   <tile/>
   <tile/>
   <tile/>
   <tile/>
   <tile/>
   <tile/>
   <tile/>
   <tile/>
   <tile/>
   <tile/>
   <tile/>
   <tile/>
   <tile/>
   <tile/>
   <tile/>
   <tile/>
   <tile/>
   <tile/>
   <tile/>
   <tile/>
   <tile/>
   <tile/>
   <tile/>
   <tile/>
   <tile/>
   <tile/>
   <tile/>
   <tile/>
   <tile/>
   <tile/>
   <tile/>
   <tile/>
   <tile/>
   <tile/>
   <tile/>
   <tile/>
   <tile/>
   <tile/>
   <tile/>
   <tile/>
   <tile/>
   <tile/>
   <tile/>
   <tile/>
   <tile/>
   <tile/>
   <tile/>
   <tile/>
   <tile/>
   <tile/>
   <tile/>
   <tile/>
   <tile/>
   <tile/>
   <tile/>
   <tile/>
   <tile/>
   <tile/>
   <tile/>
   <tile/>
   <tile/>
   <tile/>
   <tile/>
   <tile/>
   <tile/>
   <tile/>
   <tile/>
   <tile/>
   <tile/>
   <tile/>
   <tile/>
   <tile/>
   <tile/>
   <tile/>
   <tile/>
   <tile/>
   <tile/>
   <tile/>
   <tile/>
   <tile/>
   <tile/>
   <tile/>
   <tile/>
   <tile/>
   <tile/>
   <tile/>
   <tile/>
   <tile/>
   <tile/>
   <tile/>
   <tile/>
   <tile/>
   <tile/>
   <tile/>
   <tile/>
   <tile/>
   <tile/>
   <tile/>
   <tile/>
   <tile/>
   <tile/>
   <tile/>
   <tile/>
   <tile/>
   <tile/>
   <tile/>
   <tile/>
   <tile/>
   <tile/>
   <tile/>
   <tile/>
   <tile/>
   <tile/>
   <tile/>
   <tile/>
   <tile/>
   <tile/>
   <tile/>
   <tile/>
   <tile/>
   <tile/>
   <tile/>
   <tile/>
   <tile/>
   <tile/>
   <tile/>
   <tile/>
   <tile/>
   <tile/>
   <tile/>
   <tile/>
   <tile/>
   <tile/>
   <tile/>
   <tile/>
   <tile/>
   <tile/>
   <tile/>
   <tile/>
   <tile/>
   <tile/>
   <tile/>
   <tile/>
   <tile/>
   <tile/>
   <tile/>
   <tile/>
   <tile/>
   <tile/>
   <tile/>
   <tile/>
   <tile/>
   <tile/>
   <tile/>
   <tile/>
   <tile/>
   <tile/>
   <tile/>
   <tile/>
   <tile/>
   <tile/>
   <tile/>
   <tile/>
   <tile/>
   <tile/>
   <tile/>
   <tile/>
   <tile/>
   <tile/>
   <tile/>
   <tile/>
   <tile/>
   <tile/>
   <tile/>
   <tile/>
   <tile/>
   <tile/>
   <tile/>
   <tile/>
   <tile/>
   <tile/>
   <tile/>
   <tile/>
   <tile/>
   <tile/>
   <tile/>
   <tile/>
   <tile/>
   <tile/>
   <tile/>
   <tile/>
   <tile/>
   <tile/>
   <tile/>
   <tile/>
   <tile/>
   <tile/>
   <tile/>
   <tile/>
   <tile/>
   <tile/>
   <tile/>
   <tile/>
   <tile/>
   <tile/>
   <tile/>
   <tile/>
   <tile/>
   <tile/>
   <tile/>
   <tile/>
   <tile/>
   <tile/>
   <tile/>
   <tile/>
   <tile/>
   <tile/>
   <tile/>
   <tile/>
   <tile/>
   <tile/>
   <tile/>
   <tile/>
   <tile/>
   <tile/>
   <tile/>
   <tile/>
   <tile/>
   <tile/>
   <tile/>
   <tile/>
   <tile/>
   <tile/>
   <tile/>
   <tile/>
   <tile/>
   <tile/>
   <tile/>
   <tile/>
   <tile/>
   <tile/>
   <tile/>
   <tile/>
   <tile/>
   <tile/>
   <tile/>
   <tile/>
   <tile/>
   <tile/>
   <tile/>
   <tile/>
   <tile/>
   <tile/>
   <tile/>
   <tile/>
   <tile/>
   <tile/>
   <tile/>
   <tile/>
   <tile/>
   <tile/>
   <tile/>
   <tile/>
   <tile/>
   <tile/>
   <tile/>
   <tile/>
   <tile/>
   <tile/>
   <tile/>
   <tile/>
   <tile/>
   <tile/>
   <tile/>
   <tile/>
   <tile/>
   <tile/>
   <tile/>
   <tile/>
   <tile/>
   <tile/>
   <tile/>
   <tile/>
   <tile/>
   <tile/>
   <tile/>
   <tile/>
   <tile/>
   <tile/>
   <tile/>
   <tile/>
   <tile/>
   <tile/>
   <tile/>
   <tile/>
   <tile/>
   <tile/>
   <tile/>
   <tile/>
   <tile/>
   <tile/>
   <tile/>
   <tile/>
   <tile/>
   <tile/>
   <tile/>
   <tile/>
   <tile/>
   <tile/>
   <tile/>
   <tile/>
   <tile/>
   <tile/>
   <tile/>
   <tile/>
   <tile/>
   <tile/>
   <tile/>
   <tile/>
   <tile/>
   <tile/>
   <tile/>
   <tile/>
   <tile/>
   <tile/>
   <tile/>
   <tile/>
   <tile/>
   <tile/>
   <tile/>
   <tile/>
   <tile/>
   <tile/>
   <tile/>
   <tile/>
   <tile/>
   <tile/>
   <tile/>
   <tile/>
   <tile/>
   <tile/>
   <tile/>
   <tile/>
   <tile/>
   <tile/>
   <tile/>
   <tile/>
   <tile/>
   <tile/>
   <tile/>
   <tile/>
   <tile/>
   <tile/>
   <tile/>
   <tile/>
   <tile/>
   <tile/>
   <tile/>
   <tile/>
   <tile/>
   <tile/>
   <tile/>
   <tile/>
   <tile/>
   <tile/>
   <tile/>
   <tile/>
   <tile/>
   <tile/>
   <tile/>
   <tile/>
   <tile/>
   <tile/>
   <tile/>
   <tile/>
   <tile/>
   <tile/>
   <tile/>
   <tile/>
   <tile/>
   <tile/>
   <tile/>
   <tile/>
   <tile/>
   <tile/>
   <tile/>
   <tile/>
   <tile/>
   <tile/>
   <tile/>
   <tile/>
   <tile/>
   <tile/>
   <tile/>
   <tile/>
   <tile/>
   <tile/>
   <tile/>
   <tile/>
   <tile/>
   <tile/>
   <tile/>
   <tile/>
   <tile/>
   <tile/>
   <tile/>
   <tile/>
   <tile/>
   <tile/>
   <tile/>
   <tile/>
   <tile/>
   <tile/>
   <tile/>
   <tile/>
   <tile/>
   <tile/>
   <tile/>
   <tile/>
   <tile/>
   <tile/>
   <tile/>
   <tile/>
   <tile/>
   <tile/>
   <tile/>
   <tile/>
   <tile/>
   <tile/>
   <tile/>
   <tile/>
   <tile/>
   <tile/>
   <tile/>
   <tile/>
   <tile/>
   <tile/>
   <tile/>
   <tile/>
   <tile/>
   <tile/>
   <tile/>
   <tile/>
   <tile/>
   <tile/>
   <tile/>
   <tile/>
   <tile/>
   <tile/>
   <tile/>
   <tile/>
   <tile/>
   <tile/>
   <tile/>
   <tile/>
   <tile/>
   <tile/>
   <tile/>
   <tile/>
   <tile/>
   <tile/>
   <tile/>
   <tile/>
   <tile/>
   <tile/>
   <tile/>
   <tile/>
   <tile/>
   <tile/>
   <tile/>
   <tile/>
   <tile/>
   <tile/>
   <tile/>
   <tile/>
   <tile/>
   <tile/>
   <tile/>
   <tile/>
   <tile/>
   <tile/>
   <tile/>
   <tile/>
   <tile/>
   <tile/>
   <tile/>
   <tile/>
   <tile/>
   <tile/>
   <tile/>
   <tile/>
   <tile/>
   <tile/>
   <tile/>
   <tile/>
   <tile/>
   <tile/>
   <tile/>
   <tile/>
   <tile/>
   <tile/>
   <tile/>
   <tile/>
   <tile/>
   <tile/>
   <tile/>
   <tile/>
   <tile/>
   <tile/>
   <tile/>
   <tile/>
   <tile/>
   <tile/>
   <tile/>
   <tile/>
   <tile/>
   <tile/>
   <tile/>
   <tile/>
   <tile/>
   <tile/>
   <tile/>
   <tile/>
   <tile/>
   <tile/>
   <tile/>
   <tile/>
   <tile/>
   <tile/>
   <tile/>
   <tile/>
   <tile/>
   <tile/>
   <tile/>
   <tile/>
   <tile/>
   <tile/>
   <tile/>
   <tile/>
   <tile/>
   <tile/>
   <tile/>
   <tile/>
   <tile/>
   <tile/>
   <tile/>
   <tile/>
   <tile/>
   <tile/>
   <tile/>
   <tile/>
   <tile/>
   <tile/>
   <tile/>
   <tile/>
   <tile/>
   <tile/>
   <tile/>
   <tile/>
   <tile/>
   <tile/>
   <tile/>
   <tile/>
   <tile/>
   <tile/>
   <tile/>
   <tile/>
   <tile/>
   <tile/>
   <tile/>
   <tile/>
   <tile/>
   <tile/>
   <tile/>
   <tile/>
   <tile/>
   <tile/>
   <tile/>
   <tile/>
   <tile/>
   <tile/>
   <tile/>
   <tile/>
   <tile/>
   <tile/>
   <tile/>
   <tile/>
   <tile/>
   <tile/>
   <tile/>
   <tile/>
   <tile/>
   <tile/>
   <tile/>
   <tile/>
   <tile/>
   <tile/>
   <tile/>
   <tile/>
   <tile/>
   <tile/>
   <tile/>
   <tile/>
   <tile/>
   <tile/>
   <tile/>
   <tile/>
   <tile/>
   <tile/>
   <tile/>
   <tile/>
   <tile/>
   <tile/>
   <tile/>
   <tile/>
   <tile/>
   <tile/>
   <tile/>
   <tile/>
   <tile/>
   <tile/>
   <tile/>
   <tile/>
   <tile/>
   <tile/>
   <tile/>
   <tile/>
   <tile/>
   <tile/>
   <tile/>
   <tile/>
   <tile/>
   <tile/>
   <tile/>
   <tile/>
   <tile/>
   <tile/>
   <tile/>
   <tile/>
   <tile/>
   <tile/>
   <tile/>
   <tile/>
   <tile/>
   <tile/>
   <tile/>
   <tile/>
   <tile/>
   <tile/>
   <tile/>
   <tile/>
   <tile/>
   <tile/>
   <tile/>
   <tile/>
   <tile/>
   <tile/>
   <tile/>
   <tile/>
   <tile/>
   <tile/>
   <tile/>
   <tile/>
   <tile/>
   <tile/>
   <tile/>
   <tile/>
   <tile/>
   <tile/>
   <tile/>
   <tile/>
   <tile/>
   <tile/>
   <tile/>
   <tile/>
   <tile/>
   <tile/>
   <tile/>
   <tile/>
   <tile/>
   <tile/>
   <tile/>
   <tile/>
   <tile/>
   <tile/>
   <tile/>
   <tile/>
   <tile/>
   <tile/>
   <tile/>
   <tile/>
   <tile/>
   <tile/>
   <tile/>
   <tile/>
   <tile/>
   <tile/>
   <tile/>
   <tile/>
   <tile/>
   <tile/>
   <tile/>
   <tile/>
   <tile/>
   <tile/>
   <tile/>
   <tile/>
   <tile/>
   <tile/>
   <tile/>
   <tile/>
   <tile/>
   <tile/>
   <tile/>
   <tile/>
   <tile/>
   <tile/>
   <tile/>
   <tile/>
   <tile/>
   <tile/>
   <tile/>
   <tile/>
   <tile/>
   <tile/>
   <tile/>
   <tile/>
   <tile/>
   <tile/>
   <tile/>
   <tile/>
   <tile/>
   <tile/>
   <tile/>
   <tile/>
   <tile/>
   <tile/>
   <tile/>
   <tile/>
   <tile/>
   <tile/>
   <tile/>
   <tile/>
   <tile/>
   <tile/>
   <tile/>
   <tile/>
   <tile/>
   <tile/>
   <tile/>
   <tile/>
   <tile/>
   <tile/>
   <tile/>
   <tile/>
   <tile/>
   <tile/>
   <tile/>
   <tile/>
   <tile/>
   <tile/>
   <tile/>
   <tile/>
   <tile/>
   <tile/>
   <tile/>
   <tile/>
   <tile/>
   <tile/>
   <tile/>
   <tile/>
   <tile/>
   <tile/>
   <tile/>
   <tile/>
   <tile/>
   <tile/>
   <tile/>
   <tile/>
   <tile/>
   <tile/>
   <tile/>
   <tile/>
   <tile/>
   <tile/>
   <tile/>
   <tile/>
   <tile/>
   <tile/>
   <tile/>
   <tile/>
   <tile/>
   <tile/>
   <tile/>
   <tile/>
   <tile/>
   <tile/>
   <tile/>
   <tile/>
   <tile/>
   <tile/>
   <tile/>
   <tile/>
   <tile/>
   <tile/>
   <tile/>
   <tile/>
   <tile/>
   <tile/>
   <tile/>
   <tile/>
   <tile/>
   <tile/>
   <tile/>
   <tile/>
   <tile/>
   <tile/>
   <tile/>
   <tile/>
   <tile/>
   <tile/>
   <tile/>
   <tile/>
   <tile/>
   <tile/>
   <tile/>
   <tile/>
   <tile/>
   <tile/>
   <tile/>
   <tile/>
   <tile/>
   <tile/>
   <tile/>
   <tile/>
   <tile/>
   <tile/>
   <tile/>
   <tile/>
   <tile/>
   <tile/>
   <tile/>
   <tile/>
   <tile/>
   <tile/>
   <tile/>
   <tile/>
   <tile/>
   <tile/>
   <tile/>
   <tile/>
   <tile/>
   <tile/>
   <tile/>
   <tile/>
   <tile/>
   <tile/>
   <tile/>
   <tile/>
   <tile/>
   <tile/>
   <tile/>
   <tile/>
   <tile/>
   <tile/>
   <tile/>
   <tile/>
   <tile/>
   <tile/>
   <tile/>
   <tile/>
   <tile/>
   <tile/>
   <tile/>
   <tile/>
   <tile/>
   <tile/>
   <tile/>
   <tile/>
   <tile/>
   <tile/>
   <tile/>
   <tile/>
   <tile/>
   <tile/>
   <tile/>
   <tile/>
   <tile/>
   <tile/>
   <tile/>
   <tile/>
   <tile/>
   <tile/>
   <tile/>
   <tile/>
   <tile/>
   <tile/>
   <tile/>
   <tile/>
   <tile/>
   <tile/>
   <tile/>
   <tile/>
   <tile/>
   <tile/>
   <tile/>
   <tile/>
   <tile/>
   <tile/>
   <tile/>
   <tile/>
   <tile/>
   <tile/>
   <tile/>
   <tile/>
   <tile/>
   <tile/>
   <tile/>
   <tile/>
   <tile/>
   <tile/>
   <tile/>
   <tile/>
   <tile/>
   <tile/>
   <tile/>
   <tile/>
   <tile/>
   <tile/>
   <tile/>
   <tile/>
   <tile/>
   <tile/>
   <tile/>
   <tile/>
   <tile/>
   <tile/>
   <tile/>
   <tile/>
   <tile/>
   <tile/>
   <tile/>
   <tile/>
   <tile/>
   <tile/>
   <tile/>
   <tile/>
   <tile/>
   <tile/>
   <tile/>
   <tile/>
   <tile/>
   <tile/>
   <tile/>
   <tile/>
   <tile/>
   <tile/>
   <tile/>
   <tile/>
   <tile/>
   <tile/>
   <tile/>
   <tile/>
   <tile/>
   <tile/>
   <tile/>
   <tile/>
   <tile/>
   <tile/>
   <tile/>
   <tile/>
   <tile/>
   <tile/>
   <tile/>
   <tile/>
   <tile/>
   <tile/>
   <tile/>
   <tile/>
   <tile/>
   <tile/>
   <tile/>
   <tile/>
   <tile/>
   <tile/>
   <tile/>
   <tile/>
   <tile/>
   <tile/>
   <tile/>
   <tile/>
   <tile/>
   <tile/>
   <tile/>
   <tile/>
   <tile/>
   <tile/>
   <tile/>
   <tile/>
   <tile/>
   <tile/>
   <tile/>
   <tile/>
   <tile/>
   <tile/>
   <tile/>
   <tile/>
   <tile/>
   <tile/>
   <tile/>
   <tile/>
   <tile/>
   <tile/>
   <tile/>
   <tile/>
   <tile/>
   <tile/>
   <tile/>
   <tile/>
   <tile/>
   <tile/>
   <tile/>
   <tile/>
   <tile/>
   <tile/>
   <tile/>
   <tile/>
   <tile/>
   <tile/>
   <tile/>
   <tile/>
   <tile/>
   <tile/>
   <tile/>
   <tile/>
   <tile/>
   <tile/>
   <tile/>
   <tile/>
   <tile/>
   <tile/>
   <tile/>
   <tile/>
   <tile/>
   <tile/>
   <tile/>
   <tile/>
   <tile/>
   <tile/>
   <tile/>
   <tile/>
   <tile/>
   <tile/>
   <tile/>
   <tile/>
   <tile/>
   <tile/>
   <tile/>
   <tile/>
   <tile/>
   <tile/>
   <tile/>
   <tile/>
   <tile/>
   <tile/>
   <tile/>
   <tile/>
   <tile/>
   <tile/>
   <tile/>
   <tile/>
   <tile/>
   <tile/>
   <tile/>
   <tile/>
   <tile/>
   <tile/>
   <tile/>
   <tile/>
   <tile/>
   <tile/>
   <tile/>
   <tile/>
   <tile/>
   <tile/>
   <tile/>
   <tile/>
   <tile/>
   <tile/>
   <tile/>
   <tile/>
   <tile/>
   <tile/>
   <tile/>
   <tile/>
   <tile/>
   <tile/>
   <tile/>
   <tile/>
   <tile/>
   <tile/>
   <tile/>
   <tile/>
   <tile/>
   <tile/>
   <tile/>
   <tile/>
   <tile/>
   <tile/>
   <tile/>
   <tile/>
   <tile/>
   <tile/>
   <tile/>
   <tile/>
   <tile/>
   <tile/>
   <tile/>
   <tile/>
   <tile/>
   <tile/>
   <tile/>
   <tile/>
   <tile/>
   <tile/>
   <tile/>
   <tile/>
   <tile/>
   <tile/>
   <tile/>
   <tile/>
   <tile/>
   <tile/>
   <tile/>
   <tile/>
   <tile/>
   <tile/>
   <tile/>
   <tile/>
   <tile/>
   <tile/>
   <tile/>
   <tile/>
   <tile/>
   <tile/>
   <tile/>
   <tile/>
   <tile/>
   <tile/>
   <tile/>
   <tile/>
   <tile/>
   <tile/>
   <tile/>
   <tile/>
   <tile/>
   <tile/>
   <tile/>
   <tile/>
   <tile/>
   <tile/>
   <tile/>
   <tile/>
   <tile/>
   <tile/>
   <tile/>
   <tile/>
   <tile/>
   <tile/>
   <tile/>
   <tile/>
   <tile/>
   <tile/>
   <tile/>
   <tile/>
   <tile/>
   <tile/>
   <tile/>
   <tile/>
   <tile/>
   <tile/>
   <tile/>
   <tile/>
   <tile/>
   <tile/>
   <tile/>
   <tile/>
   <tile/>
   <tile/>
   <tile/>
   <tile/>
   <tile/>
   <tile/>
   <tile/>
   <tile/>
   <tile/>
   <tile/>
   <tile/>
   <tile/>
   <tile/>
   <tile/>
   <tile/>
   <tile/>
   <tile/>
   <tile/>
   <tile/>
   <tile/>
   <tile/>
   <tile/>
   <tile/>
   <tile/>
   <tile/>
   <tile/>
   <tile/>
   <tile/>
   <tile/>
   <tile/>
   <tile/>
   <tile/>
   <tile/>
   <tile/>
   <tile/>
   <tile/>
   <tile/>
   <tile/>
   <tile/>
   <tile/>
   <tile/>
   <tile/>
   <tile/>
   <tile/>
   <tile/>
   <tile/>
   <tile/>
   <tile/>
   <tile/>
   <tile/>
   <tile/>
   <tile/>
   <tile/>
   <tile/>
   <tile/>
   <tile/>
   <tile/>
   <tile/>
   <tile/>
   <tile/>
   <tile/>
   <tile/>
   <tile/>
   <tile/>
   <tile/>
   <tile/>
   <tile/>
   <tile/>
   <tile/>
   <tile/>
   <tile/>
   <tile/>
   <tile/>
   <tile/>
   <tile/>
   <tile/>
   <tile/>
   <tile/>
   <tile/>
   <tile/>
   <tile/>
   <tile/>
   <tile/>
   <tile/>
   <tile/>
   <tile/>
   <tile/>
   <tile/>
   <tile/>
   <tile/>
   <tile/>
   <tile/>
   <tile/>
   <tile/>
   <tile/>
   <tile/>
   <tile/>
   <tile/>
   <tile/>
   <tile/>
   <tile/>
   <tile/>
   <tile/>
   <tile/>
   <tile/>
   <tile/>
   <tile/>
   <tile/>
   <tile/>
   <tile/>
   <tile/>
   <tile/>
   <tile/>
   <tile/>
   <tile/>
   <tile/>
   <tile/>
   <tile/>
   <tile/>
   <tile/>
   <tile/>
   <tile/>
   <tile/>
   <tile/>
   <tile/>
   <tile/>
   <tile/>
   <tile/>
   <tile/>
   <tile/>
   <tile/>
   <tile/>
   <tile/>
   <tile/>
   <tile/>
   <tile/>
   <tile/>
   <tile/>
   <tile/>
   <tile/>
   <tile/>
   <tile/>
   <tile/>
   <tile/>
   <tile/>
   <tile/>
   <tile/>
   <tile/>
   <tile/>
   <tile/>
   <tile/>
   <tile/>
   <tile/>
   <tile/>
   <tile/>
   <tile/>
   <tile/>
   <tile/>
   <tile/>
   <tile/>
   <tile/>
   <tile/>
   <tile/>
   <tile/>
   <tile/>
   <tile/>
   <tile/>
   <tile/>
   <tile/>
   <tile/>
   <tile/>
   <tile/>
   <tile/>
   <tile/>
   <tile/>
   <tile/>
   <tile/>
   <tile/>
   <tile/>
   <tile/>
   <tile/>
   <tile/>
   <tile/>
   <tile/>
   <tile/>
   <tile/>
   <tile/>
   <tile/>
   <tile/>
   <tile/>
   <tile/>
   <tile/>
   <tile/>
   <tile/>
   <tile/>
   <tile/>
   <tile/>
   <tile/>
   <tile/>
   <tile/>
   <tile/>
   <tile/>
   <tile/>
   <tile/>
   <tile/>
   <tile/>
   <tile/>
   <tile/>
   <tile/>
   <tile/>
   <tile/>
   <tile/>
   <tile/>
   <tile/>
   <tile/>
   <tile/>
   <tile/>
   <tile/>
   <tile/>
   <tile/>
   <tile/>
   <tile/>
   <tile/>
   <tile/>
   <tile/>
   <tile/>
   <tile/>
   <tile/>
   <tile/>
   <tile/>
   <tile/>
   <tile/>
   <tile/>
   <tile/>
   <tile/>
   <tile/>
   <tile/>
   <tile/>
   <tile/>
   <tile/>
   <tile/>
   <tile/>
   <tile/>
   <tile/>
   <tile/>
   <tile/>
   <tile/>
   <tile/>
   <tile/>
   <tile/>
   <tile/>
   <tile/>
   <tile/>
   <tile/>
   <tile/>
   <tile/>
   <tile/>
   <tile/>
   <tile/>
   <tile/>
   <tile/>
   <tile/>
   <tile/>
   <tile/>
   <tile/>
   <tile/>
   <tile/>
   <tile/>
   <tile/>
   <tile/>
   <tile/>
   <tile/>
   <tile/>
   <tile/>
   <tile/>
   <tile/>
   <tile/>
   <tile/>
   <tile/>
   <tile/>
   <tile/>
   <tile/>
   <tile/>
   <tile/>
   <tile/>
   <tile/>
   <tile/>
   <tile/>
   <tile/>
   <tile/>
   <tile/>
   <tile/>
   <tile/>
   <tile/>
   <tile/>
   <tile/>
   <tile/>
   <tile/>
   <tile/>
   <tile/>
   <tile/>
   <tile/>
   <tile/>
   <tile/>
   <tile/>
   <tile/>
   <tile/>
   <tile/>
   <tile/>
   <tile/>
   <tile/>
   <tile/>
   <tile/>
   <tile/>
   <tile/>
   <tile/>
   <tile/>
   <tile/>
   <tile/>
   <tile/>
   <tile/>
   <tile/>
   <tile/>
   <tile/>
   <tile/>
   <tile/>
   <tile/>
   <tile/>
   <tile/>
   <tile/>
   <tile/>
   <tile/>
   <tile/>
   <tile/>
   <tile/>
   <tile/>
   <tile/>
   <tile/>
   <tile/>
   <tile/>
   <tile/>
   <tile/>
   <tile/>
   <tile/>
   <tile/>
   <tile/>
   <tile/>
   <tile/>
   <tile/>
   <tile/>
   <tile/>
   <tile/>
   <tile/>
   <tile/>
   <tile/>
   <tile/>
   <tile/>
   <tile/>
   <tile/>
   <tile/>
   <tile/>
   <tile/>
   <tile/>
   <tile/>
   <tile/>
   <tile/>
   <tile/>
   <tile/>
   <tile/>
   <tile/>
   <tile/>
   <tile/>
   <tile/>
   <tile/>
   <tile/>
   <tile/>
   <tile/>
   <tile/>
   <tile/>
   <tile/>
   <tile/>
   <tile/>
   <tile/>
   <tile/>
   <tile/>
   <tile/>
   <tile/>
   <tile/>
   <tile/>
   <tile/>
   <tile/>
   <tile/>
   <tile/>
   <tile/>
   <tile/>
   <tile/>
   <tile/>
   <tile/>
   <tile/>
   <tile/>
   <tile/>
   <tile/>
   <tile/>
   <tile/>
   <tile/>
   <tile/>
   <tile/>
   <tile/>
   <tile/>
   <tile/>
   <tile/>
   <tile/>
   <tile/>
   <tile/>
   <tile/>
   <tile/>
   <tile/>
   <tile/>
   <tile/>
   <tile/>
   <tile/>
   <tile/>
   <tile/>
   <tile/>
   <tile/>
   <tile/>
   <tile/>
   <tile/>
   <tile/>
   <tile/>
   <tile/>
   <tile/>
   <tile/>
   <tile/>
   <tile/>
   <tile/>
   <tile/>
   <tile/>
   <tile/>
   <tile/>
   <tile/>
   <tile/>
   <tile/>
   <tile/>
   <tile/>
   <tile/>
   <tile/>
   <tile/>
   <tile/>
   <tile/>
   <tile/>
   <tile/>
   <tile/>
   <tile/>
   <tile/>
   <tile/>
   <tile/>
   <tile/>
   <tile/>
   <tile/>
   <tile/>
   <tile/>
   <tile/>
   <tile/>
   <tile/>
   <tile/>
   <tile/>
   <tile/>
   <tile/>
   <tile/>
   <tile/>
   <tile/>
   <tile/>
   <tile/>
   <tile/>
   <tile/>
   <tile/>
   <tile/>
   <tile/>
   <tile/>
   <tile/>
   <tile/>
   <tile/>
   <tile/>
   <tile/>
   <tile/>
   <tile/>
   <tile/>
   <tile/>
   <tile/>
   <tile/>
   <tile/>
   <tile/>
   <tile/>
   <tile/>
   <tile/>
   <tile/>
   <tile/>
   <tile/>
   <tile/>
   <tile/>
   <tile/>
   <tile/>
   <tile/>
   <tile/>
   <tile/>
   <tile/>
   <tile/>
   <tile/>
   <tile/>
   <tile/>
   <tile/>
   <tile/>
   <tile/>
   <tile/>
   <tile/>
   <tile/>
   <tile/>
   <tile/>
   <tile/>
   <tile/>
   <tile/>
   <tile/>
   <tile/>
   <tile/>
   <tile/>
   <tile/>
   <tile/>
   <tile/>
   <tile/>
   <tile/>
   <tile/>
   <tile/>
   <tile/>
   <tile/>
   <tile/>
   <tile/>
   <tile/>
   <tile/>
   <tile/>
   <tile/>
   <tile/>
   <tile/>
   <tile/>
   <tile/>
   <tile/>
   <tile/>
   <tile/>
   <tile/>
   <tile/>
   <tile/>
   <tile/>
   <tile/>
   <tile/>
   <tile/>
   <tile/>
   <tile/>
   <tile/>
   <tile/>
   <tile/>
   <tile/>
   <tile/>
   <tile/>
   <tile/>
   <tile/>
   <tile/>
   <tile/>
   <tile/>
   <tile/>
   <tile/>
   <tile/>
   <tile/>
   <tile/>
   <tile/>
   <tile/>
   <tile/>
   <tile/>
   <tile/>
   <tile/>
   <tile/>
   <tile/>
   <tile/>
   <tile/>
   <tile/>
   <tile/>
   <tile/>
   <tile/>
   <tile/>
   <tile/>
   <tile/>
   <tile/>
   <tile/>
   <tile/>
   <tile/>
   <tile/>
   <tile/>
   <tile/>
   <tile/>
   <tile/>
   <tile/>
   <tile/>
   <tile/>
   <tile/>
   <tile/>
   <tile/>
   <tile/>
   <tile/>
   <tile/>
   <tile/>
   <tile/>
   <tile/>
   <tile/>
   <tile/>
   <tile/>
   <tile/>
   <tile/>
   <tile/>
   <tile/>
   <tile/>
   <tile/>
   <tile/>
   <tile/>
   <tile/>
   <tile/>
   <tile/>
   <tile/>
   <tile/>
   <tile/>
   <tile/>
   <tile/>
   <tile/>
   <tile/>
   <tile/>
   <tile/>
   <tile/>
   <tile/>
   <tile/>
   <tile/>
   <tile/>
   <tile/>
   <tile/>
   <tile/>
   <tile/>
   <tile/>
   <tile/>
   <tile/>
   <tile/>
   <tile/>
   <tile/>
   <tile/>
   <tile/>
   <tile/>
   <tile/>
   <tile/>
   <tile/>
   <tile/>
   <tile/>
   <tile/>
   <tile/>
   <tile/>
   <tile/>
   <tile/>
   <tile/>
   <tile/>
   <tile/>
   <tile/>
   <tile/>
   <tile/>
   <tile/>
   <tile/>
   <tile/>
   <tile/>
   <tile/>
   <tile/>
   <tile/>
   <tile/>
   <tile/>
   <tile/>
   <tile/>
   <tile/>
   <tile/>
   <tile/>
   <tile/>
   <tile/>
   <tile/>
   <tile/>
   <tile/>
   <tile/>
   <tile/>
   <tile/>
   <tile/>
   <tile/>
   <tile/>
   <tile/>
   <tile/>
   <tile/>
   <tile/>
   <tile/>
   <tile/>
   <tile/>
   <tile/>
   <tile/>
   <tile/>
   <tile/>
   <tile/>
   <tile/>
   <tile/>
   <tile/>
   <tile/>
   <tile/>
   <tile/>
   <tile/>
   <tile/>
   <tile/>
   <tile/>
   <tile/>
   <tile/>
   <tile/>
   <tile/>
   <tile/>
   <tile/>
   <tile/>
   <tile/>
   <tile/>
   <tile/>
   <tile/>
   <tile/>
   <tile/>
   <tile/>
   <tile/>
   <tile/>
   <tile/>
   <tile/>
   <tile/>
   <tile/>
   <tile/>
   <tile/>
   <tile/>
   <tile/>
   <tile/>
   <tile/>
   <tile/>
   <tile/>
   <tile/>
   <tile/>
   <tile/>
   <tile/>
   <tile/>
   <tile/>
   <tile/>
   <tile/>
   <tile/>
   <tile/>
   <tile/>
   <tile/>
   <tile/>
   <tile/>
   <tile/>
   <tile/>
   <tile/>
   <tile/>
   <tile/>
   <tile/>
   <tile/>
   <tile/>
   <tile/>
   <tile/>
   <tile/>
   <tile/>
   <tile/>
   <tile/>
   <tile/>
   <tile/>
   <tile/>
   <tile/>
   <tile/>
   <tile/>
   <tile/>
   <tile/>
   <tile/>
   <tile/>
   <tile/>
   <tile/>
   <tile/>
   <tile/>
   <tile/>
   <tile/>
   <tile/>
   <tile/>
   <tile/>
   <tile/>
   <tile/>
   <tile/>
   <tile/>
   <tile/>
   <tile/>
   <tile/>
   <tile/>
   <tile/>
   <tile/>
   <tile/>
   <tile/>
   <tile/>
   <tile/>
   <tile/>
   <tile/>
   <tile/>
   <tile/>
   <tile/>
   <tile/>
   <tile/>
   <tile/>
   <tile/>
   <tile/>
   <tile/>
   <tile/>
   <tile/>
   <tile/>
   <tile/>
   <tile/>
   <tile/>
   <tile/>
   <tile/>
   <tile/>
   <tile/>
   <tile/>
   <tile/>
   <tile/>
   <tile/>
   <tile/>
   <tile/>
   <tile/>
   <tile/>
   <tile/>
   <tile/>
   <tile/>
   <tile/>
   <tile/>
   <tile/>
   <tile/>
   <tile/>
   <tile/>
   <tile/>
   <tile/>
   <tile/>
   <tile/>
   <tile/>
   <tile/>
   <tile/>
   <tile/>
   <tile/>
   <tile/>
   <tile/>
   <tile/>
   <tile/>
   <tile/>
   <tile/>
   <tile/>
   <tile/>
   <tile/>
   <tile/>
   <tile/>
   <tile/>
   <tile/>
   <tile/>
   <tile/>
   <tile/>
   <tile/>
   <tile/>
   <tile/>
   <tile/>
   <tile/>
   <tile/>
   <tile/>
   <tile/>
   <tile/>
   <tile/>
   <tile/>
   <tile/>
   <tile/>
   <tile/>
   <tile/>
   <tile/>
   <tile/>
   <tile/>
   <tile/>
   <tile/>
   <tile/>
   <tile/>
   <tile/>
   <tile/>
   <tile/>
   <tile/>
   <tile/>
   <tile/>
   <tile/>
   <tile/>
   <tile/>
   <tile/>
   <tile/>
   <tile/>
   <tile/>
   <tile/>
   <tile/>
   <tile/>
   <tile/>
   <tile/>
   <tile/>
   <tile/>
   <tile/>
   <tile/>
   <tile/>
   <tile/>
   <tile/>
   <tile/>
   <tile/>
   <tile/>
   <tile/>
   <tile/>
   <tile/>
   <tile/>
   <tile/>
   <tile/>
   <tile/>
   <tile/>
   <tile/>
   <tile/>
   <tile/>
   <tile/>
   <tile/>
   <tile/>
   <tile/>
   <tile/>
   <tile/>
   <tile/>
   <tile/>
   <tile/>
   <tile/>
   <tile/>
   <tile/>
   <tile/>
   <tile/>
   <tile/>
   <tile/>
   <tile/>
   <tile/>
   <tile/>
   <tile/>
   <tile/>
   <tile/>
   <tile/>
   <tile/>
   <tile/>
   <tile/>
   <tile/>
   <tile/>
   <tile/>
   <tile/>
   <tile/>
   <tile/>
   <tile/>
   <tile/>
   <tile/>
   <tile/>
   <tile/>
   <tile/>
   <tile/>
   <tile/>
   <tile/>
   <tile/>
   <tile/>
   <tile/>
   <tile/>
   <tile/>
   <tile/>
   <tile/>
   <tile/>
   <tile/>
   <tile/>
   <tile/>
   <tile/>
   <tile/>
   <tile/>
   <tile/>
   <tile/>
   <tile/>
   <tile/>
   <tile/>
   <tile/>
   <tile/>
   <tile/>
   <tile/>
   <tile/>
   <tile/>
   <tile/>
   <tile/>
   <tile/>
   <tile/>
   <tile/>
   <tile/>
   <tile/>
   <tile/>
   <tile/>
   <tile/>
   <tile/>
   <tile/>
   <tile/>
   <tile/>
   <tile/>
   <tile/>
   <tile/>
   <tile/>
   <tile/>
   <tile/>
   <tile/>
   <tile/>
   <tile/>
   <tile/>
   <tile/>
   <tile/>
   <tile/>
   <tile/>
   <tile/>
   <tile/>
   <tile/>
   <tile/>
   <tile/>
   <tile/>
   <tile/>
   <tile/>
   <tile/>
   <tile/>
   <tile/>
   <tile/>
   <tile/>
   <tile/>
   <tile/>
   <tile/>
   <tile/>
   <tile/>
   <tile/>
   <tile/>
   <tile/>
   <tile/>
   <tile/>
   <tile/>
   <tile/>
   <tile/>
   <tile/>
   <tile/>
   <tile/>
   <tile/>
   <tile/>
   <tile/>
   <tile/>
   <tile/>
   <tile/>
   <tile/>
   <tile/>
   <tile/>
   <tile/>
   <tile/>
   <tile/>
   <tile/>
   <tile/>
   <tile/>
   <tile/>
   <tile/>
   <tile/>
   <tile/>
   <tile/>
   <tile/>
   <tile/>
   <tile/>
   <tile/>
   <tile/>
   <tile/>
   <tile/>
   <tile/>
   <tile/>
   <tile/>
   <tile/>
   <tile/>
   <tile/>
   <tile/>
   <tile/>
   <tile/>
   <tile/>
   <tile/>
   <tile/>
   <tile/>
   <tile/>
   <tile/>
   <tile/>
   <tile/>
   <tile/>
   <tile/>
   <tile/>
   <tile/>
   <tile/>
   <tile/>
   <tile/>
   <tile/>
   <tile/>
   <tile/>
   <tile/>
   <tile/>
   <tile/>
   <tile/>
   <tile/>
   <tile/>
   <tile/>
   <tile/>
   <tile/>
   <tile/>
   <tile/>
   <tile/>
   <tile/>
   <tile/>
   <tile/>
   <tile/>
   <tile/>
   <tile/>
   <tile/>
   <tile/>
   <tile/>
   <tile/>
   <tile/>
   <tile/>
   <tile/>
   <tile/>
   <tile/>
   <tile/>
   <tile/>
   <tile/>
   <tile/>
   <tile/>
   <tile/>
   <tile/>
   <tile/>
   <tile/>
   <tile/>
   <tile/>
   <tile/>
   <tile/>
   <tile/>
   <tile/>
   <tile/>
   <tile/>
   <tile/>
   <tile/>
   <tile/>
   <tile/>
   <tile/>
   <tile/>
   <tile/>
   <tile/>
   <tile/>
   <tile/>
   <tile/>
   <tile/>
   <tile/>
   <tile/>
   <tile/>
   <tile/>
   <tile/>
   <tile/>
   <tile/>
   <tile/>
   <tile/>
   <tile/>
   <tile/>
   <tile/>
   <tile/>
   <tile/>
   <tile/>
   <tile/>
   <tile/>
   <tile/>
   <tile/>
   <tile/>
   <tile/>
   <tile/>
   <tile/>
   <tile/>
   <tile/>
   <tile/>
   <tile/>
   <tile/>
   <tile/>
   <tile/>
   <tile/>
   <tile/>
   <tile/>
   <tile/>
   <tile/>
   <tile/>
   <tile/>
   <tile/>
   <tile/>
   <tile/>
   <tile/>
   <tile/>
   <tile/>
   <tile/>
   <tile/>
   <tile/>
   <tile/>
   <tile/>
   <tile/>
   <tile/>
   <tile/>
   <tile/>
   <tile/>
   <tile/>
   <tile/>
   <tile/>
   <tile/>
   <tile/>
   <tile/>
   <tile/>
   <tile/>
   <tile/>
   <tile/>
   <tile/>
   <tile/>
   <tile/>
   <tile/>
   <tile/>
   <tile/>
   <tile/>
   <tile/>
   <tile/>
   <tile/>
   <tile/>
   <tile/>
   <tile/>
   <tile/>
   <tile/>
   <tile/>
   <tile/>
   <tile/>
   <tile/>
   <tile/>
   <tile/>
   <tile/>
   <tile/>
   <tile/>
   <tile/>
   <tile/>
   <tile/>
   <tile/>
   <tile/>
   <tile/>
   <tile/>
   <tile/>
   <tile/>
   <tile/>
   <tile/>
   <tile/>
   <tile/>
   <tile/>
   <tile/>
   <tile/>
   <tile/>
   <tile/>
   <tile/>
   <tile/>
   <tile/>
   <tile/>
   <tile/>
   <tile/>
   <tile/>
   <tile/>
   <tile/>
   <tile/>
   <tile/>
   <tile/>
   <tile/>
   <tile/>
   <tile/>
   <tile/>
   <tile/>
   <tile/>
   <tile/>
   <tile/>
   <tile/>
   <tile/>
   <tile/>
   <tile/>
   <tile/>
   <tile/>
   <tile/>
   <tile/>
   <tile/>
   <tile/>
   <tile/>
   <tile/>
   <tile/>
   <tile/>
   <tile/>
   <tile/>
   <tile/>
   <tile/>
   <tile/>
   <tile/>
   <tile/>
   <tile/>
   <tile/>
   <tile/>
   <tile/>
   <tile/>
   <tile/>
   <tile/>
   <tile/>
   <tile/>
   <tile/>
   <tile/>
   <tile/>
   <tile/>
   <tile/>
   <tile/>
   <tile/>
   <tile/>
   <tile/>
   <tile/>
   <tile/>
   <tile/>
   <tile/>
   <tile/>
   <tile/>
   <tile/>
   <tile/>
   <tile/>
   <tile/>
   <tile/>
   <tile/>
   <tile/>
   <tile/>
   <tile/>
   <tile/>
   <tile/>
   <tile/>
   <tile/>
   <tile/>
   <tile/>
   <tile/>
   <tile/>
   <tile/>
   <tile/>
   <tile/>
   <tile/>
   <tile/>
   <tile/>
   <tile/>
   <tile/>
   <tile/>
   <tile/>
   <tile/>
   <tile/>
   <tile/>
   <tile/>
   <tile/>
   <tile/>
   <tile/>
   <tile/>
   <tile/>
   <tile/>
   <tile/>
   <tile/>
   <tile/>
   <tile/>
   <tile/>
   <tile/>
   <tile/>
   <tile/>
   <tile/>
   <tile/>
   <tile/>
   <tile/>
   <tile/>
   <tile/>
   <tile/>
   <tile/>
   <tile/>
   <tile/>
   <tile/>
   <tile/>
   <tile/>
   <tile/>
   <tile/>
   <tile/>
   <tile/>
   <tile/>
   <tile/>
   <tile/>
   <tile/>
   <tile/>
   <tile/>
   <tile/>
   <tile/>
   <tile/>
   <tile/>
   <tile/>
   <tile/>
   <tile/>
   <tile/>
   <tile/>
   <tile/>
   <tile/>
   <tile/>
   <tile/>
   <tile/>
   <tile/>
   <tile/>
   <tile/>
   <tile/>
   <tile/>
   <tile/>
   <tile/>
   <tile/>
   <tile/>
   <tile/>
   <tile/>
   <tile/>
   <tile/>
   <tile/>
   <tile/>
   <tile/>
   <tile/>
   <tile/>
   <tile/>
   <tile/>
   <tile/>
   <tile/>
   <tile/>
   <tile/>
   <tile/>
   <tile/>
   <tile/>
   <tile/>
   <tile/>
   <tile/>
   <tile/>
   <tile/>
   <tile/>
   <tile/>
   <tile/>
   <tile/>
   <tile/>
   <tile/>
   <tile/>
   <tile/>
   <tile/>
   <tile/>
   <tile/>
   <tile/>
   <tile/>
   <tile/>
   <tile/>
   <tile/>
   <tile/>
   <tile/>
   <tile/>
   <tile/>
   <tile/>
   <tile/>
   <tile/>
   <tile/>
   <tile/>
   <tile/>
   <tile/>
   <tile/>
   <tile/>
   <tile/>
   <tile/>
   <tile/>
   <tile/>
   <tile/>
   <tile/>
   <tile/>
   <tile/>
   <tile/>
   <tile/>
   <tile/>
   <tile/>
   <tile/>
   <tile/>
   <tile/>
   <tile/>
   <tile/>
   <tile/>
   <tile/>
   <tile/>
   <tile/>
   <tile/>
   <tile/>
   <tile/>
   <tile/>
   <tile/>
   <tile/>
   <tile/>
   <tile/>
   <tile/>
   <tile/>
   <tile/>
   <tile/>
   <tile/>
   <tile/>
   <tile/>
   <tile/>
   <tile/>
   <tile/>
   <tile/>
   <tile/>
   <tile/>
   <tile/>
   <tile/>
   <tile/>
   <tile/>
   <tile/>
   <tile/>
   <tile/>
   <tile/>
   <tile/>
   <tile/>
   <tile/>
   <tile/>
   <tile/>
   <tile/>
   <tile/>
   <tile/>
   <tile/>
   <tile/>
   <tile/>
   <tile/>
   <tile/>
   <tile/>
   <tile/>
   <tile/>
   <tile/>
   <tile/>
   <tile/>
   <tile/>
   <tile/>
   <tile/>
   <tile/>
   <tile/>
   <tile/>
   <tile/>
   <tile/>
   <tile/>
   <tile/>
   <tile/>
   <tile/>
   <tile/>
   <tile/>
   <tile/>
   <tile/>
   <tile/>
   <tile/>
   <tile/>
   <tile/>
   <tile/>
   <tile/>
   <tile/>
   <tile/>
   <tile/>
   <tile/>
   <tile/>
   <tile/>
   <tile/>
   <tile/>
   <tile/>
   <tile/>
   <tile/>
   <tile/>
   <tile/>
   <tile/>
   <tile/>
   <tile/>
   <tile/>
   <tile/>
   <tile/>
   <tile/>
   <tile/>
   <tile/>
   <tile/>
   <tile/>
   <tile/>
   <tile/>
   <tile/>
   <tile/>
   <tile/>
   <tile/>
   <tile/>
   <tile/>
   <tile/>
   <tile/>
   <tile/>
   <tile/>
   <tile/>
   <tile/>
   <tile/>
   <tile/>
   <tile/>
   <tile/>
   <tile/>
   <tile/>
   <tile/>
   <tile/>
   <tile/>
   <tile/>
   <tile/>
   <tile/>
   <tile/>
   <tile/>
   <tile/>
   <tile/>
   <tile/>
   <tile/>
   <tile/>
   <tile/>
   <tile/>
   <tile/>
   <tile/>
   <tile/>
   <tile/>
   <tile/>
   <tile/>
   <tile/>
   <tile/>
   <tile/>
   <tile/>
   <tile/>
   <tile/>
   <tile/>
   <tile/>
   <tile/>
   <tile/>
   <tile/>
   <tile/>
   <tile/>
   <tile/>
   <tile/>
   <tile/>
   <tile/>
   <tile/>
   <tile/>
   <tile/>
   <tile/>
   <tile/>
   <tile/>
   <tile/>
   <tile/>
   <tile/>
   <tile/>
   <tile/>
   <tile/>
   <tile/>
   <tile/>
   <tile/>
   <tile/>
   <tile/>
   <tile/>
   <tile/>
   <tile/>
   <tile/>
   <tile/>
   <tile/>
   <tile/>
   <tile/>
   <tile/>
   <tile/>
   <tile/>
   <tile/>
   <tile/>
   <tile/>
   <tile/>
   <tile/>
   <tile/>
   <tile/>
   <tile/>
   <tile/>
   <tile/>
   <tile/>
   <tile/>
   <tile/>
   <tile/>
   <tile/>
   <tile/>
   <tile/>
   <tile/>
   <tile/>
   <tile/>
   <tile/>
   <tile/>
   <tile/>
   <tile/>
   <tile/>
   <tile/>
   <tile/>
   <tile/>
   <tile/>
   <tile/>
   <tile/>
   <tile/>
   <tile/>
   <tile/>
   <tile/>
   <tile/>
   <tile/>
   <tile/>
   <tile/>
   <tile/>
   <tile/>
   <tile/>
   <tile/>
   <tile/>
   <tile/>
   <tile/>
   <tile/>
   <tile/>
   <tile/>
   <tile/>
   <tile/>
   <tile/>
   <tile/>
   <tile/>
   <tile/>
   <tile/>
   <tile/>
   <tile/>
   <tile/>
   <tile/>
   <tile/>
   <tile/>
   <tile/>
   <tile/>
   <tile/>
   <tile/>
   <tile/>
   <tile/>
   <tile/>
   <tile/>
   <tile/>
   <tile/>
   <tile/>
   <tile/>
   <tile/>
   <tile/>
   <tile/>
   <tile/>
   <tile/>
   <tile/>
   <tile/>
   <tile/>
   <tile/>
   <tile/>
   <tile/>
   <tile/>
   <tile/>
   <tile/>
   <tile/>
   <tile/>
   <tile/>
   <tile/>
   <tile/>
   <tile/>
   <tile/>
   <tile/>
   <tile/>
   <tile/>
   <tile/>
   <tile/>
   <tile/>
   <tile/>
   <tile/>
   <tile/>
   <tile/>
   <tile/>
   <tile/>
   <tile/>
   <tile/>
   <tile/>
   <tile/>
   <tile/>
   <tile/>
   <tile/>
   <tile/>
   <tile/>
   <tile/>
   <tile/>
   <tile/>
   <tile/>
   <tile/>
   <tile/>
   <tile/>
   <tile/>
   <tile/>
   <tile/>
   <tile/>
   <tile/>
   <tile/>
   <tile/>
   <tile/>
   <tile/>
   <tile/>
   <tile/>
   <tile/>
   <tile/>
   <tile/>
   <tile/>
   <tile/>
   <tile/>
   <tile/>
   <tile/>
   <tile/>
   <tile/>
   <tile/>
   <tile/>
   <tile/>
   <tile/>
   <tile/>
   <tile/>
   <tile/>
   <tile/>
   <tile/>
   <tile/>
   <tile/>
   <tile/>
   <tile/>
   <tile/>
   <tile/>
   <tile/>
   <tile/>
   <tile/>
   <tile/>
   <tile/>
   <tile/>
   <tile/>
   <tile/>
   <tile/>
   <tile/>
   <tile/>
   <tile/>
   <tile/>
   <tile/>
   <tile/>
   <tile/>
   <tile/>
   <tile/>
   <tile/>
   <tile/>
   <tile/>
   <tile/>
   <tile/>
   <tile/>
   <tile/>
   <tile/>
   <tile/>
   <tile/>
   <tile/>
   <tile/>
   <tile/>
   <tile/>
   <tile/>
   <tile/>
   <tile/>
   <tile/>
   <tile/>
   <tile/>
   <tile/>
   <tile/>
   <tile/>
   <tile/>
   <tile/>
   <tile/>
   <tile/>
   <tile/>
   <tile/>
   <tile/>
   <tile/>
   <tile/>
   <tile/>
   <tile/>
   <tile/>
   <tile/>
   <tile/>
   <tile/>
   <tile/>
   <tile/>
   <tile/>
   <tile/>
   <tile/>
   <tile/>
   <tile/>
   <tile/>
   <tile/>
   <tile/>
   <tile/>
   <tile/>
   <tile/>
   <tile/>
   <tile/>
   <tile/>
   <tile/>
   <tile/>
   <tile/>
   <tile/>
   <tile/>
   <tile/>
   <tile/>
   <tile/>
   <tile/>
   <tile/>
   <tile/>
   <tile/>
   <tile/>
   <tile/>
   <tile/>
   <tile/>
   <tile/>
   <tile/>
   <tile/>
   <tile/>
   <tile/>
   <tile/>
   <tile/>
   <tile/>
   <tile/>
   <tile/>
   <tile/>
   <tile/>
   <tile/>
   <tile/>
   <tile/>
   <tile/>
   <tile/>
   <tile/>
   <tile/>
   <tile/>
   <tile/>
   <tile/>
   <tile/>
   <tile/>
   <tile/>
   <tile/>
   <tile/>
   <tile/>
   <tile/>
   <tile/>
   <tile/>
   <tile/>
   <tile/>
   <tile/>
   <tile/>
   <tile/>
   <tile/>
   <tile/>
   <tile/>
   <tile/>
   <tile/>
   <tile/>
   <tile/>
   <tile/>
   <tile/>
   <tile/>
   <tile/>
   <tile/>
   <tile/>
   <tile/>
   <tile/>
   <tile/>
   <tile/>
   <tile/>
   <tile/>
   <tile/>
   <tile/>
   <tile/>
   <tile/>
   <tile/>
   <tile/>
   <tile/>
   <tile/>
   <tile/>
   <tile/>
   <tile/>
   <tile/>
   <tile/>
   <tile/>
   <tile/>
   <tile/>
   <tile/>
   <tile/>
   <tile/>
   <tile/>
   <tile/>
   <tile/>
   <tile/>
   <tile/>
   <tile/>
   <tile/>
   <tile/>
   <tile/>
   <tile/>
   <tile/>
   <tile/>
   <tile/>
   <tile/>
   <tile/>
   <tile/>
   <tile/>
   <tile/>
   <tile/>
   <tile/>
   <tile/>
   <tile/>
   <tile/>
   <tile/>
   <tile/>
   <tile/>
   <tile/>
   <tile/>
   <tile/>
   <tile/>
   <tile/>
   <tile/>
   <tile/>
   <tile/>
   <tile/>
   <tile/>
   <tile/>
   <tile/>
   <tile/>
   <tile/>
   <tile/>
   <tile/>
   <tile/>
   <tile/>
   <tile/>
   <tile/>
   <tile/>
   <tile/>
   <tile/>
   <tile/>
   <tile/>
   <tile/>
   <tile/>
   <tile/>
   <tile/>
   <tile/>
   <tile/>
   <tile/>
   <tile/>
   <tile/>
   <tile/>
   <tile/>
   <tile/>
   <tile/>
   <tile/>
   <tile/>
   <tile/>
   <tile/>
   <tile/>
   <tile/>
   <tile/>
   <tile/>
   <tile/>
   <tile/>
   <tile/>
   <tile/>
   <tile/>
   <tile/>
   <tile/>
   <tile/>
   <tile/>
   <tile/>
   <tile/>
   <tile/>
   <tile/>
   <tile/>
   <tile/>
   <tile/>
   <tile/>
   <tile/>
   <tile/>
   <tile/>
   <tile/>
   <tile/>
   <tile/>
   <tile/>
   <tile/>
   <tile/>
   <tile/>
   <tile/>
   <tile/>
   <tile/>
   <tile/>
   <tile/>
   <tile/>
   <tile/>
   <tile/>
   <tile/>
   <tile/>
   <tile/>
   <tile/>
   <tile/>
   <tile/>
   <tile/>
   <tile/>
   <tile/>
   <tile/>
   <tile/>
   <tile/>
   <tile/>
   <tile/>
   <tile/>
   <tile/>
   <tile/>
   <tile/>
   <tile/>
   <tile/>
   <tile/>
   <tile/>
   <tile/>
   <tile/>
   <tile/>
   <tile/>
   <tile/>
   <tile/>
   <tile/>
   <tile/>
   <tile/>
   <tile/>
   <tile/>
   <tile/>
   <tile/>
   <tile/>
   <tile/>
   <tile/>
   <tile/>
   <tile/>
   <tile/>
   <tile/>
   <tile/>
   <tile/>
   <tile/>
   <tile/>
   <tile/>
   <tile/>
   <tile/>
   <tile/>
   <tile/>
   <tile/>
   <tile/>
   <tile/>
   <tile/>
   <tile/>
   <tile/>
   <tile/>
   <tile/>
   <tile/>
   <tile/>
   <tile/>
   <tile/>
   <tile/>
   <tile/>
   <tile/>
   <tile/>
   <tile/>
   <tile/>
   <tile/>
   <tile/>
   <tile/>
   <tile/>
   <tile/>
   <tile/>
   <tile/>
   <tile/>
   <tile/>
   <tile/>
   <tile/>
   <tile/>
   <tile/>
   <tile/>
   <tile/>
   <tile/>
   <tile/>
   <tile/>
   <tile/>
   <tile/>
   <tile/>
   <tile/>
   <tile/>
   <tile/>
   <tile/>
   <tile/>
   <tile/>
   <tile/>
   <tile/>
   <tile/>
   <tile/>
   <tile/>
   <tile/>
   <tile/>
   <tile/>
   <tile/>
   <tile/>
   <tile/>
   <tile/>
   <tile/>
   <tile/>
   <tile/>
   <tile/>
   <tile/>
   <tile/>
   <tile/>
   <tile/>
   <tile/>
   <tile/>
   <tile/>
   <tile/>
   <tile/>
   <tile/>
   <tile/>
   <tile/>
   <tile/>
   <tile/>
   <tile/>
   <tile/>
   <tile/>
   <tile/>
   <tile/>
   <tile/>
   <tile/>
   <tile/>
   <tile/>
   <tile/>
   <tile/>
   <tile/>
   <tile/>
   <tile/>
   <tile/>
   <tile/>
   <tile/>
   <tile/>
   <tile/>
   <tile/>
   <tile/>
   <tile/>
   <tile/>
   <tile/>
   <tile/>
   <tile/>
   <tile/>
   <tile/>
   <tile/>
   <tile/>
   <tile/>
   <tile/>
   <tile/>
   <tile/>
   <tile/>
   <tile/>
   <tile/>
   <tile/>
   <tile/>
   <tile/>
   <tile/>
   <tile/>
   <tile/>
   <tile/>
   <tile/>
   <tile/>
   <tile/>
   <tile/>
   <tile/>
   <tile/>
   <tile/>
   <tile/>
   <tile/>
   <tile/>
   <tile/>
   <tile/>
   <tile/>
   <tile/>
   <tile/>
   <tile/>
   <tile/>
   <tile/>
   <tile/>
   <tile/>
   <tile/>
   <tile/>
   <tile/>
   <tile/>
   <tile/>
   <tile/>
   <tile/>
   <tile/>
   <tile/>
   <tile/>
   <tile/>
   <tile/>
   <tile/>
   <tile/>
   <tile/>
   <tile/>
   <tile/>
   <tile/>
   <tile/>
   <tile/>
   <tile/>
   <tile/>
   <tile/>
   <tile/>
   <tile/>
   <tile/>
   <tile/>
   <tile/>
   <tile/>
   <tile/>
   <tile/>
   <tile/>
   <tile/>
   <tile/>
   <tile/>
   <tile/>
   <tile/>
   <tile/>
   <tile/>
   <tile/>
   <tile/>
   <tile/>
   <tile/>
   <tile/>
   <tile/>
   <tile/>
   <tile/>
   <tile/>
   <tile/>
   <tile/>
   <tile/>
   <tile/>
   <tile/>
   <tile/>
   <tile/>
   <tile/>
   <tile/>
   <tile/>
   <tile/>
   <tile/>
   <tile/>
   <tile/>
   <tile/>
   <tile/>
   <tile/>
   <tile/>
   <tile/>
   <tile/>
   <tile/>
   <tile/>
   <tile/>
   <tile/>
   <tile/>
   <tile/>
   <tile/>
   <tile/>
   <tile/>
   <tile/>
   <tile/>
   <tile/>
   <tile/>
   <tile/>
   <tile/>
   <tile/>
   <tile/>
   <tile/>
   <tile/>
   <tile/>
   <tile/>
   <tile/>
   <tile/>
   <tile/>
   <tile/>
   <tile/>
   <tile/>
   <tile/>
   <tile/>
   <tile/>
   <tile/>
   <tile/>
   <tile/>
   <tile/>
   <tile/>
   <tile/>
   <tile/>
   <tile/>
   <tile/>
   <tile/>
   <tile/>
   <tile/>
   <tile/>
   <tile/>
   <tile/>
   <tile/>
   <tile/>
   <tile/>
   <tile/>
   <tile/>
   <tile/>
   <tile/>
   <tile/>
   <tile/>
   <tile/>
   <tile/>
   <tile/>
   <tile/>
   <tile/>
   <tile/>
   <tile/>
   <tile/>
   <tile/>
   <tile/>
   <tile/>
   <tile/>
   <tile/>
   <tile/>
   <tile/>
   <tile/>
   <tile/>
   <tile/>
   <tile/>
   <tile/>
   <tile/>
   <tile/>
   <tile/>
   <tile/>
   <tile/>
   <tile/>
   <tile/>
   <tile/>
   <tile/>
   <tile/>
   <tile/>
   <tile/>
   <tile/>
   <tile/>
   <tile/>
   <tile/>
   <tile/>
   <tile/>
   <tile/>
   <tile/>
   <tile/>
   <tile/>
   <tile/>
   <tile/>
   <tile/>
   <tile/>
   <tile/>
   <tile/>
   <tile/>
   <tile/>
   <tile/>
   <tile/>
   <tile/>
   <tile/>
   <tile/>
   <tile/>
   <tile/>
   <tile/>
   <tile/>
   <tile/>
   <tile/>
   <tile/>
   <tile/>
   <tile/>
   <tile/>
   <tile/>
   <tile/>
   <tile/>
   <tile/>
   <tile/>
   <tile/>
   <tile/>
   <tile/>
   <tile/>
   <tile/>
   <tile/>
   <tile/>
   <tile/>
   <tile/>
   <tile/>
   <tile/>
   <tile/>
   <tile/>
   <tile/>
   <tile/>
   <tile/>
   <tile/>
   <tile/>
   <tile/>
   <tile/>
   <tile/>
   <tile/>
   <tile/>
   <tile/>
   <tile/>
   <tile/>
   <tile/>
   <tile/>
   <tile/>
   <tile/>
   <tile/>
   <tile/>
   <tile/>
   <tile/>
   <tile/>
   <tile/>
   <tile/>
   <tile/>
   <tile/>
   <tile/>
   <tile/>
   <tile/>
   <tile/>
   <tile/>
   <tile/>
   <tile/>
   <tile/>
   <tile/>
   <tile/>
   <tile/>
   <tile/>
   <tile/>
   <tile/>
   <tile/>
   <tile/>
   <tile/>
   <tile/>
   <tile/>
   <tile/>
   <tile/>
   <tile/>
   <tile/>
   <tile/>
   <tile/>
   <tile/>
   <tile/>
   <tile/>
   <tile/>
   <tile/>
   <tile/>
   <tile/>
   <tile/>
   <tile/>
   <tile/>
   <tile/>
   <tile/>
   <tile/>
   <tile/>
   <tile/>
   <tile/>
   <tile/>
   <tile/>
   <tile/>
   <tile/>
   <tile/>
   <tile/>
   <tile/>
   <tile/>
   <tile/>
   <tile/>
   <tile/>
   <tile/>
   <tile/>
   <tile/>
   <tile/>
   <tile/>
   <tile/>
   <tile/>
   <tile/>
   <tile/>
   <tile/>
   <tile/>
   <tile/>
   <tile/>
   <tile/>
   <tile/>
   <tile/>
   <tile/>
   <tile/>
   <tile/>
   <tile/>
   <tile/>
   <tile/>
   <tile/>
   <tile/>
   <tile/>
   <tile/>
   <tile/>
   <tile/>
   <tile/>
   <tile/>
   <tile/>
   <tile/>
   <tile/>
   <tile/>
   <tile/>
   <tile/>
   <tile/>
   <tile/>
   <tile/>
   <tile/>
   <tile/>
   <tile/>
   <tile/>
   <tile/>
   <tile/>
   <tile/>
   <tile/>
   <tile/>
   <tile/>
   <tile/>
   <tile/>
   <tile/>
   <tile/>
   <tile/>
   <tile/>
   <tile/>
   <tile/>
   <tile/>
   <tile/>
   <tile/>
   <tile/>
   <tile/>
   <tile/>
   <tile/>
   <tile/>
   <tile/>
   <tile/>
   <tile/>
   <tile/>
   <tile/>
   <tile/>
   <tile/>
   <tile/>
   <tile/>
   <tile/>
   <tile/>
   <tile/>
   <tile/>
   <tile/>
   <tile/>
   <tile/>
   <tile/>
   <tile/>
   <tile/>
   <tile/>
   <tile/>
   <tile/>
   <tile/>
   <tile/>
   <tile/>
   <tile/>
   <tile/>
   <tile/>
   <tile/>
   <tile/>
   <tile/>
   <tile/>
   <tile/>
   <tile/>
   <tile/>
   <tile/>
   <tile/>
   <tile/>
   <tile/>
   <tile/>
   <tile/>
   <tile/>
   <tile/>
   <tile/>
   <tile/>
   <tile/>
   <tile/>
   <tile/>
   <tile/>
   <tile/>
   <tile/>
   <tile/>
   <tile/>
   <tile/>
   <tile/>
   <tile/>
   <tile/>
   <tile/>
   <tile/>
   <tile/>
   <tile/>
   <tile/>
   <tile/>
   <tile/>
   <tile/>
   <tile/>
   <tile/>
   <tile/>
   <tile/>
   <tile/>
   <tile/>
   <tile/>
   <tile/>
   <tile/>
   <tile/>
   <tile/>
   <tile/>
   <tile/>
   <tile/>
   <tile/>
   <tile/>
   <tile/>
   <tile/>
   <tile/>
   <tile/>
   <tile/>
   <tile/>
   <tile/>
   <tile/>
   <tile/>
   <tile/>
   <tile/>
   <tile/>
   <tile/>
   <tile/>
   <tile/>
   <tile/>
   <tile/>
   <tile/>
   <tile/>
   <tile/>
   <tile/>
   <tile/>
   <tile/>
   <tile/>
   <tile/>
   <tile/>
   <tile/>
   <tile/>
   <tile/>
   <tile/>
   <tile/>
   <tile/>
   <tile/>
   <tile/>
   <tile/>
   <tile/>
   <tile/>
   <tile/>
   <tile/>
   <tile/>
   <tile/>
   <tile/>
   <tile/>
   <tile/>
   <tile/>
   <tile/>
   <tile/>
   <tile/>
   <tile/>
   <tile/>
   <tile/>
   <tile/>
   <tile/>
   <tile/>
   <tile/>
   <tile/>
   <tile/>
   <tile/>
   <tile/>
   <tile/>
   <tile/>
   <tile/>
   <tile/>
   <tile/>
   <tile/>
   <tile/>
   <tile/>
   <tile/>
   <tile/>
   <tile/>
   <tile/>
   <tile/>
   <tile/>
   <tile/>
   <tile/>
   <tile/>
   <tile/>
   <tile/>
   <tile/>
   <tile/>
   <tile/>
   <tile/>
   <tile/>
   <tile/>
   <tile/>
   <tile/>
   <tile/>
   <tile/>
   <tile/>
   <tile/>
   <tile/>
   <tile/>
   <tile/>
   <tile/>
   <tile/>
   <tile/>
   <tile/>
   <tile/>
   <tile/>
   <tile/>
   <tile/>
   <tile/>
   <tile/>
   <tile/>
   <tile/>
   <tile/>
   <tile/>
   <tile/>
   <tile/>
   <tile/>
   <tile/>
   <tile/>
   <tile/>
   <tile/>
   <tile/>
   <tile/>
   <tile/>
   <tile/>
   <tile/>
   <tile/>
   <tile/>
   <tile/>
   <tile/>
   <tile/>
   <tile/>
   <tile/>
   <tile/>
   <tile/>
   <tile/>
   <tile/>
   <tile/>
   <tile/>
   <tile/>
   <tile/>
   <tile/>
   <tile/>
   <tile/>
   <tile/>
   <tile/>
   <tile/>
   <tile/>
   <tile/>
   <tile/>
   <tile/>
   <tile/>
   <tile/>
   <tile/>
   <tile/>
   <tile/>
   <tile/>
   <tile/>
   <tile/>
   <tile/>
   <tile/>
   <tile/>
   <tile/>
   <tile/>
   <tile/>
   <tile/>
   <tile/>
   <tile/>
   <tile/>
   <tile/>
   <tile/>
   <tile/>
   <tile/>
   <tile/>
   <tile/>
   <tile/>
   <tile/>
   <tile/>
   <tile/>
   <tile/>
   <tile/>
   <tile/>
   <tile/>
   <tile/>
   <tile/>
   <tile/>
   <tile/>
   <tile/>
   <tile/>
   <tile/>
   <tile/>
   <tile/>
   <tile/>
   <tile/>
   <tile/>
   <tile/>
   <tile/>
   <tile/>
   <tile/>
   <tile/>
   <tile/>
   <tile/>
   <tile/>
   <tile/>
   <tile/>
   <tile/>
   <tile/>
   <tile/>
   <tile/>
   <tile/>
   <tile/>
   <tile/>
   <tile/>
   <tile/>
   <tile/>
   <tile/>
   <tile/>
   <tile/>
   <tile/>
   <tile/>
   <tile/>
   <tile/>
   <tile/>
   <tile/>
   <tile/>
   <tile/>
   <tile/>
   <tile/>
   <tile/>
   <tile/>
   <tile/>
   <tile/>
   <tile/>
   <tile/>
   <tile/>
   <tile/>
   <tile/>
   <tile/>
   <tile/>
   <tile/>
   <tile/>
   <tile/>
   <tile/>
   <tile/>
   <tile/>
   <tile/>
   <tile/>
   <tile/>
   <tile/>
   <tile/>
   <tile/>
   <tile/>
   <tile/>
   <tile/>
   <tile/>
   <tile/>
   <tile/>
   <tile/>
   <tile/>
   <tile/>
   <tile/>
   <tile/>
   <tile/>
   <tile/>
   <tile/>
   <tile/>
   <tile/>
   <tile/>
   <tile/>
   <tile/>
   <tile/>
   <tile/>
   <tile/>
   <tile/>
   <tile/>
   <tile/>
   <tile/>
   <tile/>
   <tile/>
   <tile/>
   <tile/>
   <tile/>
   <tile/>
   <tile/>
   <tile/>
   <tile/>
   <tile/>
   <tile/>
   <tile/>
   <tile/>
   <tile/>
   <tile/>
   <tile/>
   <tile/>
   <tile/>
   <tile/>
   <tile/>
   <tile/>
   <tile/>
   <tile/>
   <tile/>
   <tile/>
   <tile/>
   <tile/>
   <tile/>
   <tile/>
   <tile/>
   <tile/>
   <tile/>
   <tile/>
   <tile/>
   <tile/>
   <tile/>
   <tile/>
   <tile/>
   <tile/>
   <tile/>
   <tile/>
   <tile/>
   <tile/>
   <tile/>
   <tile/>
   <tile/>
   <tile/>
   <tile/>
   <tile/>
   <tile/>
   <tile/>
   <tile/>
   <tile/>
   <tile/>
   <tile/>
   <tile/>
   <tile/>
   <tile/>
   <tile/>
   <tile/>
   <tile/>
   <tile/>
   <tile/>
   <tile/>
   <tile/>
   <tile/>
   <tile/>
   <tile/>
   <tile/>
   <tile/>
   <tile/>
   <tile/>
   <tile/>
   <tile/>
   <tile/>
   <tile/>
   <tile/>
   <tile/>
   <tile/>
   <tile/>
   <tile/>
   <tile/>
   <tile/>
   <tile/>
   <tile/>
   <tile/>
   <tile/>
   <tile/>
   <tile/>
   <tile/>
   <tile/>
   <tile/>
   <tile/>
   <tile/>
   <tile/>
   <tile/>
   <tile/>
   <tile/>
   <tile/>
   <tile/>
   <tile/>
   <tile/>
   <tile/>
   <tile/>
   <tile/>
   <tile/>
   <tile/>
   <tile/>
   <tile/>
   <tile/>
   <tile/>
   <tile/>
   <tile/>
   <tile/>
   <tile/>
   <tile/>
   <tile/>
   <tile/>
   <tile/>
   <tile/>
   <tile/>
   <tile/>
   <tile/>
   <tile/>
   <tile/>
   <tile/>
   <tile/>
   <tile/>
   <tile/>
   <tile/>
   <tile/>
   <tile/>
   <tile/>
   <tile/>
   <tile/>
   <tile/>
   <tile/>
   <tile/>
   <tile/>
   <tile/>
   <tile/>
   <tile/>
   <tile/>
   <tile/>
   <tile/>
   <tile/>
   <tile/>
   <tile/>
   <tile/>
   <tile/>
   <tile/>
   <tile/>
   <tile/>
   <tile/>
   <tile/>
   <tile/>
   <tile/>
   <tile/>
   <tile/>
   <tile/>
   <tile/>
   <tile/>
   <tile/>
   <tile/>
   <tile/>
   <tile/>
   <tile/>
   <tile/>
   <tile/>
   <tile/>
   <tile/>
   <tile/>
   <tile/>
   <tile/>
   <tile/>
   <tile/>
   <tile/>
   <tile/>
   <tile/>
   <tile/>
   <tile/>
   <tile/>
   <tile/>
   <tile/>
   <tile/>
   <tile/>
   <tile/>
   <tile/>
   <tile/>
   <tile/>
   <tile/>
   <tile/>
   <tile/>
   <tile/>
   <tile/>
   <tile/>
   <tile/>
   <tile/>
   <tile/>
   <tile/>
   <tile/>
   <tile/>
   <tile/>
   <tile/>
   <tile/>
   <tile/>
   <tile/>
   <tile/>
   <tile/>
   <tile/>
   <tile/>
   <tile/>
   <tile/>
   <tile/>
   <tile/>
   <tile/>
   <tile/>
   <tile/>
   <tile/>
   <tile/>
   <tile/>
   <tile/>
   <tile/>
   <tile/>
   <tile/>
   <tile/>
   <tile/>
   <tile/>
   <tile/>
   <tile/>
   <tile/>
   <tile/>
   <tile/>
   <tile/>
   <tile/>
   <tile/>
   <tile/>
   <tile/>
   <tile/>
   <tile/>
   <tile/>
   <tile/>
   <tile/>
   <tile/>
   <tile/>
   <tile/>
   <tile/>
   <tile/>
   <tile/>
   <tile/>
   <tile/>
   <tile/>
   <tile/>
   <tile/>
   <tile/>
   <tile/>
   <tile/>
   <tile/>
   <tile/>
   <tile/>
   <tile/>
   <tile/>
   <tile/>
   <tile/>
   <tile/>
   <tile/>
   <tile/>
   <tile/>
   <tile/>
   <tile/>
   <tile/>
   <tile/>
   <tile/>
   <tile/>
   <tile/>
   <tile/>
   <tile/>
   <tile/>
   <tile/>
   <tile/>
   <tile/>
   <tile/>
   <tile/>
   <tile/>
   <tile/>
   <tile/>
   <tile/>
   <tile/>
   <tile/>
   <tile/>
   <tile/>
   <tile/>
   <tile/>
   <tile/>
   <tile/>
   <tile/>
   <tile/>
   <tile/>
   <tile/>
   <tile/>
   <tile/>
   <tile/>
   <tile/>
   <tile/>
   <tile/>
   <tile/>
   <tile/>
   <tile/>
   <tile/>
   <tile/>
   <tile/>
   <tile/>
   <tile/>
   <tile/>
   <tile/>
   <tile/>
   <tile/>
   <tile/>
   <tile/>
   <tile/>
   <tile/>
   <tile/>
   <tile/>
   <tile/>
   <tile/>
   <tile/>
   <tile/>
   <tile/>
   <tile/>
   <tile/>
   <tile/>
   <tile/>
   <tile/>
   <tile/>
   <tile/>
   <tile/>
   <tile/>
   <tile/>
   <tile/>
   <tile/>
   <tile/>
   <tile/>
   <tile/>
   <tile/>
   <tile/>
   <tile/>
   <tile/>
   <tile/>
   <tile/>
   <tile/>
   <tile/>
   <tile/>
   <tile/>
   <tile/>
   <tile/>
   <tile/>
   <tile/>
   <tile/>
   <tile/>
   <tile/>
   <tile/>
   <tile/>
   <tile/>
   <tile/>
   <tile/>
   <tile/>
   <tile/>
   <tile/>
   <tile/>
   <tile/>
   <tile/>
   <tile/>
   <tile/>
   <tile/>
   <tile/>
   <tile/>
   <tile/>
   <tile/>
   <tile/>
   <tile/>
   <tile/>
   <tile/>
   <tile/>
   <tile/>
   <tile/>
   <tile/>
   <tile/>
   <tile/>
   <tile/>
   <tile/>
   <tile/>
   <tile/>
   <tile/>
   <tile/>
   <tile/>
   <tile/>
   <tile/>
   <tile/>
   <tile/>
   <tile/>
   <tile/>
   <tile/>
   <tile/>
   <tile/>
   <tile/>
   <tile/>
   <tile/>
   <tile/>
   <tile/>
   <tile/>
   <tile/>
   <tile/>
   <tile/>
   <tile/>
   <tile/>
   <tile/>
   <tile/>
   <tile/>
   <tile/>
   <tile/>
   <tile/>
   <tile/>
   <tile/>
   <tile/>
   <tile/>
   <tile/>
   <tile/>
   <tile/>
   <tile/>
   <tile/>
   <tile/>
   <tile/>
   <tile/>
   <tile/>
   <tile/>
   <tile/>
   <tile/>
   <tile/>
   <tile/>
   <tile/>
   <tile/>
   <tile/>
   <tile/>
   <tile/>
   <tile/>
   <tile/>
   <tile/>
   <tile/>
   <tile/>
   <tile/>
   <tile/>
   <tile/>
   <tile/>
   <tile/>
   <tile/>
   <tile/>
   <tile/>
   <tile/>
   <tile/>
   <tile/>
   <tile/>
   <tile/>
   <tile/>
   <tile/>
   <tile/>
   <tile/>
   <tile/>
   <tile/>
   <tile/>
   <tile/>
   <tile/>
   <tile/>
   <tile/>
   <tile/>
   <tile/>
   <tile/>
   <tile/>
   <tile/>
   <tile/>
   <tile/>
   <tile/>
   <tile/>
   <tile/>
   <tile/>
   <tile/>
   <tile/>
   <tile/>
   <tile/>
   <tile/>
   <tile/>
   <tile/>
   <tile/>
   <tile/>
   <tile/>
   <tile/>
   <tile/>
   <tile/>
   <tile/>
   <tile/>
   <tile/>
   <tile/>
   <tile/>
   <tile/>
   <tile/>
   <tile/>
   <tile/>
   <tile/>
   <tile/>
   <tile/>
   <tile/>
   <tile/>
   <tile/>
   <tile/>
   <tile/>
   <tile/>
   <tile/>
   <tile/>
   <tile/>
   <tile/>
   <tile/>
   <tile/>
   <tile/>
   <tile/>
   <tile/>
   <tile/>
   <tile/>
   <tile/>
   <tile/>
   <tile/>
   <tile/>
   <tile/>
   <tile/>
   <tile/>
   <tile/>
   <tile/>
   <tile/>
   <tile/>
   <tile/>
   <tile/>
   <tile/>
   <tile/>
   <tile/>
   <tile/>
   <tile/>
   <tile/>
   <tile/>
   <tile/>
   <tile/>
   <tile/>
   <tile/>
   <tile/>
   <tile/>
   <tile/>
   <tile/>
   <tile/>
   <tile/>
   <tile/>
   <tile/>
   <tile/>
   <tile/>
   <tile/>
   <tile/>
   <tile/>
   <tile/>
   <tile/>
   <tile/>
   <tile/>
   <tile/>
   <tile/>
   <tile/>
   <tile/>
   <tile/>
   <tile/>
   <tile/>
   <tile/>
   <tile/>
   <tile/>
   <tile/>
   <tile/>
   <tile/>
   <tile/>
   <tile/>
   <tile/>
   <tile/>
   <tile/>
   <tile/>
   <tile/>
   <tile/>
   <tile/>
   <tile/>
   <tile/>
   <tile/>
   <tile/>
   <tile/>
   <tile/>
   <tile/>
   <tile/>
   <tile/>
   <tile/>
   <tile/>
   <tile/>
   <tile/>
   <tile/>
   <tile/>
   <tile/>
   <tile/>
   <tile/>
   <tile/>
   <tile/>
   <tile/>
   <tile/>
   <tile/>
   <tile/>
   <tile/>
   <tile/>
   <tile/>
   <tile/>
   <tile/>
   <tile/>
   <tile/>
   <tile/>
   <tile/>
   <tile/>
   <tile/>
   <tile/>
   <tile/>
   <tile/>
   <tile/>
   <tile/>
   <tile/>
   <tile/>
   <tile/>
   <tile/>
   <tile/>
   <tile/>
   <tile/>
   <tile/>
   <tile/>
   <tile/>
   <tile/>
   <tile/>
   <tile/>
   <tile/>
   <tile/>
   <tile/>
   <tile/>
   <tile/>
   <tile/>
   <tile/>
   <tile/>
   <tile/>
   <tile/>
   <tile/>
   <tile/>
   <tile/>
   <tile/>
   <tile/>
   <tile/>
   <tile/>
   <tile/>
   <tile/>
   <tile/>
   <tile/>
   <tile/>
   <tile/>
   <tile/>
   <tile/>
   <tile/>
   <tile/>
   <tile/>
   <tile/>
   <tile/>
   <tile/>
   <tile/>
   <tile/>
   <tile/>
   <tile/>
   <tile/>
   <tile/>
   <tile/>
   <tile/>
   <tile/>
   <tile/>
   <tile/>
   <tile/>
   <tile/>
   <tile/>
   <tile/>
   <tile/>
   <tile/>
   <tile/>
   <tile/>
   <tile/>
   <tile/>
   <tile/>
   <tile/>
   <tile/>
   <tile/>
   <tile/>
   <tile/>
   <tile/>
   <tile/>
   <tile/>
   <tile/>
   <tile/>
   <tile/>
   <tile/>
   <tile/>
   <tile/>
   <tile/>
   <tile/>
   <tile/>
   <tile/>
   <tile/>
   <tile/>
   <tile/>
   <tile/>
   <tile/>
   <tile/>
   <tile/>
   <tile/>
   <tile/>
   <tile/>
   <tile/>
   <tile/>
   <tile/>
   <tile/>
   <tile/>
   <tile/>
   <tile/>
   <tile/>
   <tile/>
   <tile/>
   <tile/>
   <tile/>
   <tile/>
   <tile/>
   <tile/>
   <tile/>
   <tile/>
   <tile/>
   <tile/>
   <tile/>
   <tile/>
   <tile/>
   <tile/>
   <tile/>
   <tile/>
   <tile/>
   <tile/>
   <tile/>
   <tile/>
   <tile/>
   <tile/>
   <tile/>
   <tile/>
   <tile/>
   <tile/>
   <tile/>
   <tile/>
   <tile/>
   <tile/>
   <tile/>
   <tile/>
   <tile/>
   <tile/>
   <tile/>
   <tile/>
   <tile/>
   <tile/>
   <tile/>
   <tile/>
   <tile/>
   <tile/>
   <tile/>
   <tile/>
   <tile/>
   <tile/>
   <tile/>
   <tile/>
   <tile/>
   <tile/>
   <tile/>
   <tile/>
   <tile/>
   <tile/>
   <tile/>
   <tile/>
   <tile/>
   <tile/>
   <tile/>
   <tile/>
   <tile/>
   <tile/>
   <tile/>
   <tile/>
   <tile/>
   <tile/>
   <tile/>
   <tile/>
   <tile/>
   <tile/>
   <tile/>
   <tile/>
   <tile/>
   <tile/>
   <tile/>
   <tile/>
   <tile/>
   <tile/>
   <tile/>
   <tile/>
   <tile/>
   <tile/>
   <tile/>
   <tile/>
   <tile/>
   <tile/>
   <tile/>
   <tile/>
   <tile/>
   <tile/>
   <tile/>
   <tile/>
   <tile/>
   <tile/>
   <tile/>
   <tile/>
   <tile/>
   <tile/>
   <tile/>
   <tile/>
   <tile/>
   <tile/>
   <tile/>
   <tile/>
   <tile/>
   <tile/>
   <tile/>
   <tile/>
   <tile/>
   <tile/>
   <tile/>
   <tile/>
   <tile/>
   <tile/>
   <tile/>
   <tile/>
   <tile/>
   <tile/>
   <tile/>
   <tile/>
   <tile/>
   <tile/>
   <tile/>
   <tile/>
   <tile/>
   <tile/>
   <tile/>
   <tile/>
   <tile/>
   <tile/>
   <tile/>
   <tile/>
   <tile/>
   <tile/>
   <tile/>
   <tile/>
   <tile/>
   <tile/>
   <tile/>
   <tile/>
   <tile/>
   <tile/>
   <tile/>
   <tile/>
   <tile/>
   <tile/>
   <tile/>
   <tile/>
   <tile/>
   <tile/>
   <tile/>
   <tile/>
   <tile/>
   <tile/>
   <tile/>
   <tile/>
   <tile/>
   <tile/>
   <tile/>
   <tile/>
   <tile/>
   <tile/>
   <tile/>
   <tile/>
   <tile/>
   <tile/>
   <tile/>
   <tile/>
   <tile/>
   <tile/>
   <tile/>
   <tile/>
   <tile/>
   <tile/>
   <tile/>
   <tile/>
   <tile/>
   <tile/>
   <tile/>
   <tile/>
   <tile/>
   <tile/>
   <tile/>
   <tile/>
   <tile/>
   <tile/>
   <tile/>
   <tile/>
   <tile/>
   <tile/>
   <tile/>
   <tile/>
   <tile/>
   <tile/>
   <tile/>
   <tile/>
   <tile/>
   <tile/>
   <tile/>
   <tile/>
   <tile/>
   <tile/>
   <tile/>
   <tile/>
   <tile/>
   <tile/>
   <tile/>
   <tile/>
   <tile/>
   <tile/>
   <tile/>
   <tile/>
   <tile/>
   <tile/>
   <tile/>
   <tile/>
   <tile/>
   <tile/>
   <tile/>
   <tile/>
   <tile/>
   <tile/>
   <tile/>
   <tile/>
   <tile/>
   <tile/>
   <tile/>
   <tile/>
   <tile/>
   <tile/>
   <tile/>
   <tile/>
   <tile/>
   <tile/>
   <tile/>
   <tile/>
   <tile/>
   <tile/>
   <tile/>
   <tile/>
   <tile/>
   <tile/>
   <tile/>
   <tile/>
   <tile/>
   <tile/>
   <tile/>
   <tile/>
   <tile/>
   <tile/>
   <tile/>
   <tile/>
   <tile/>
   <tile/>
   <tile/>
   <tile/>
   <tile/>
   <tile/>
   <tile/>
   <tile/>
   <tile/>
   <tile/>
   <tile/>
   <tile/>
   <tile/>
   <tile/>
   <tile/>
   <tile/>
   <tile/>
   <tile/>
   <tile/>
   <tile/>
   <tile/>
   <tile/>
   <tile/>
   <tile/>
   <tile/>
   <tile/>
   <tile/>
   <tile/>
   <tile/>
   <tile/>
   <tile/>
   <tile/>
   <tile/>
   <tile/>
   <tile/>
   <tile/>
   <tile/>
   <tile/>
   <tile/>
   <tile/>
   <tile/>
   <tile/>
   <tile/>
   <tile/>
   <tile/>
   <tile/>
   <tile/>
   <tile/>
   <tile/>
   <tile/>
   <tile/>
   <tile/>
   <tile/>
   <tile/>
   <tile/>
   <tile/>
   <tile/>
   <tile/>
   <tile/>
   <tile/>
   <tile/>
   <tile/>
   <tile/>
   <tile/>
   <tile/>
   <tile/>
   <tile/>
   <tile/>
   <tile/>
   <tile/>
   <tile/>
   <tile/>
   <tile/>
   <tile/>
   <tile/>
   <tile/>
   <tile/>
   <tile/>
   <tile/>
   <tile/>
   <tile/>
   <tile/>
   <tile/>
   <tile/>
   <tile/>
   <tile/>
   <tile/>
   <tile/>
   <tile/>
   <tile/>
   <tile/>
   <tile/>
   <tile/>
   <tile/>
   <tile/>
   <tile/>
   <tile/>
   <tile/>
   <tile/>
   <tile/>
   <tile/>
   <tile/>
   <tile/>
   <tile/>
   <tile/>
   <tile/>
   <tile/>
   <tile/>
   <tile/>
   <tile/>
   <tile/>
   <tile/>
   <tile/>
   <tile/>
   <tile/>
   <tile/>
   <tile/>
   <tile/>
   <tile/>
   <tile/>
   <tile/>
   <tile/>
   <tile/>
   <tile/>
   <tile/>
   <tile/>
   <tile/>
   <tile/>
   <tile/>
   <tile/>
   <tile/>
   <tile/>
   <tile/>
   <tile/>
   <tile/>
   <tile/>
   <tile/>
   <tile/>
   <tile/>
   <tile/>
   <tile/>
   <tile/>
   <tile/>
   <tile/>
   <tile/>
   <tile/>
   <tile/>
   <tile/>
   <tile/>
   <tile/>
   <tile/>
   <tile/>
   <tile/>
   <tile/>
   <tile/>
   <tile/>
   <tile/>
   <tile/>
   <tile/>
   <tile/>
   <tile/>
   <tile/>
   <tile/>
   <tile/>
   <tile/>
   <tile/>
   <tile/>
   <tile/>
   <tile/>
   <tile/>
   <tile/>
   <tile/>
   <tile/>
   <tile/>
   <tile/>
   <tile/>
   <tile/>
   <tile/>
   <tile/>
   <tile/>
   <tile/>
   <tile/>
   <tile/>
   <tile/>
   <tile/>
   <tile/>
   <tile/>
   <tile/>
   <tile/>
   <tile/>
   <tile/>
   <tile/>
   <tile/>
   <tile/>
   <tile/>
   <tile/>
   <tile/>
   <tile/>
   <tile/>
   <tile/>
   <tile/>
   <tile/>
   <tile/>
   <tile/>
   <tile/>
   <tile/>
   <tile/>
   <tile/>
   <tile/>
   <tile/>
   <tile/>
   <tile/>
   <tile/>
   <tile/>
   <tile/>
   <tile/>
   <tile/>
   <tile/>
   <tile/>
   <tile/>
   <tile/>
   <tile/>
   <tile/>
   <tile/>
   <tile/>
   <tile/>
   <tile/>
   <tile/>
   <tile/>
   <tile/>
   <tile/>
   <tile/>
   <tile/>
   <tile/>
   <tile/>
   <tile/>
   <tile/>
   <tile/>
   <tile/>
   <tile/>
   <tile/>
   <tile/>
   <tile/>
   <tile/>
   <tile/>
   <tile/>
   <tile/>
   <tile/>
   <tile/>
   <tile/>
   <tile/>
   <tile/>
   <tile/>
   <tile/>
   <tile/>
   <tile/>
   <tile/>
   <tile/>
   <tile/>
   <tile/>
   <tile/>
   <tile/>
   <tile/>
   <tile/>
   <tile/>
   <tile/>
   <tile/>
   <tile/>
   <tile/>
   <tile/>
   <tile/>
   <tile/>
   <tile/>
   <tile/>
   <tile/>
   <tile/>
   <tile/>
   <tile/>
   <tile/>
   <tile/>
   <tile/>
   <tile/>
   <tile/>
   <tile/>
   <tile/>
   <tile/>
   <tile/>
   <tile/>
   <tile/>
   <tile/>
   <tile/>
   <tile/>
   <tile/>
   <tile/>
   <tile/>
   <tile/>
   <tile/>
   <tile/>
   <tile/>
   <tile/>
   <tile/>
   <tile/>
   <tile/>
   <tile/>
   <tile/>
   <tile/>
   <tile/>
   <tile/>
   <tile/>
   <tile/>
   <tile/>
   <tile/>
   <tile/>
   <tile/>
   <tile/>
   <tile/>
   <tile/>
   <tile/>
   <tile/>
   <tile/>
   <tile/>
   <tile/>
   <tile/>
   <tile/>
   <tile/>
   <tile/>
   <tile/>
   <tile/>
   <tile/>
   <tile/>
   <tile/>
   <tile/>
   <tile/>
   <tile/>
   <tile/>
   <tile/>
   <tile/>
   <tile/>
   <tile/>
   <tile/>
   <tile/>
   <tile/>
   <tile/>
   <tile/>
   <tile/>
   <tile/>
   <tile/>
   <tile/>
   <tile/>
   <tile/>
   <tile/>
   <tile/>
   <tile/>
   <tile/>
   <tile/>
   <tile/>
   <tile/>
   <tile/>
   <tile/>
   <tile/>
   <tile/>
   <tile/>
   <tile/>
   <tile/>
   <tile/>
   <tile/>
   <tile/>
   <tile/>
   <tile/>
   <tile/>
   <tile/>
   <tile/>
   <tile/>
   <tile/>
   <tile/>
   <tile/>
   <tile/>
   <tile/>
   <tile/>
   <tile/>
   <tile/>
   <tile/>
   <tile/>
   <tile/>
   <tile/>
   <tile/>
   <tile/>
   <tile/>
   <tile/>
   <tile/>
   <tile/>
   <tile/>
   <tile/>
   <tile/>
   <tile/>
   <tile/>
   <tile/>
   <tile/>
   <tile/>
   <tile/>
   <tile/>
   <tile/>
   <tile/>
   <tile/>
   <tile/>
   <tile/>
   <tile/>
   <tile/>
   <tile/>
   <tile/>
   <tile/>
   <tile/>
   <tile/>
   <tile/>
   <tile/>
   <tile/>
   <tile/>
   <tile/>
   <tile/>
   <tile/>
   <tile/>
   <tile/>
   <tile/>
   <tile/>
   <tile/>
   <tile/>
   <tile/>
   <tile/>
   <tile/>
   <tile/>
   <tile/>
   <tile/>
   <tile/>
   <tile/>
   <tile/>
   <tile/>
   <tile/>
   <tile/>
   <tile/>
   <tile/>
   <tile/>
   <tile/>
   <tile/>
   <tile/>
   <tile/>
   <tile/>
   <tile/>
   <tile/>
   <tile/>
   <tile/>
   <tile/>
   <tile/>
   <tile/>
   <tile/>
   <tile/>
   <tile/>
   <tile/>
   <tile/>
   <tile/>
   <tile/>
   <tile/>
   <tile/>
   <tile/>
   <tile/>
   <tile/>
   <tile/>
   <tile/>
   <tile/>
   <tile/>
   <tile/>
   <tile/>
   <tile/>
   <tile/>
   <tile/>
   <tile/>
   <tile/>
   <tile/>
   <tile/>
   <tile/>
   <tile/>
   <tile/>
   <tile/>
   <tile/>
   <tile/>
   <tile/>
   <tile/>
   <tile/>
   <tile/>
   <tile/>
   <tile/>
   <tile/>
   <tile/>
   <tile/>
   <tile/>
   <tile/>
   <tile/>
   <tile/>
   <tile/>
   <tile/>
   <tile/>
   <tile/>
   <tile/>
   <tile/>
   <tile/>
   <tile/>
   <tile/>
   <tile/>
   <tile/>
   <tile/>
   <tile/>
   <tile/>
   <tile/>
   <tile/>
   <tile/>
   <tile/>
   <tile/>
   <tile/>
   <tile/>
   <tile/>
   <tile/>
   <tile/>
   <tile/>
   <tile/>
   <tile/>
   <tile/>
   <tile/>
   <tile/>
   <tile/>
   <tile/>
   <tile/>
   <tile/>
   <tile/>
   <tile/>
   <tile/>
   <tile/>
   <tile/>
   <tile/>
   <tile/>
   <tile/>
   <tile/>
   <tile/>
   <tile/>
   <tile/>
   <tile/>
   <tile/>
   <tile/>
   <tile/>
   <tile/>
   <tile/>
   <tile/>
   <tile/>
   <tile/>
   <tile/>
   <tile/>
   <tile/>
   <tile/>
   <tile/>
   <tile/>
   <tile/>
   <tile/>
   <tile/>
   <tile/>
   <tile/>
   <tile/>
   <tile/>
   <tile/>
   <tile/>
   <tile/>
   <tile/>
   <tile/>
   <tile/>
   <tile/>
   <tile/>
   <tile/>
   <tile/>
   <tile/>
   <tile/>
   <tile/>
   <tile/>
   <tile/>
   <tile/>
   <tile/>
   <tile/>
   <tile/>
   <tile/>
   <tile/>
   <tile/>
   <tile/>
   <tile/>
   <tile/>
   <tile/>
   <tile/>
   <tile/>
   <tile/>
   <tile/>
   <tile/>
   <tile/>
   <tile/>
   <tile/>
   <tile/>
   <tile/>
   <tile/>
   <tile/>
   <tile/>
   <tile/>
   <tile/>
   <tile/>
   <tile/>
   <tile/>
   <tile/>
   <tile/>
   <tile/>
   <tile/>
   <tile/>
   <tile/>
   <tile/>
   <tile/>
   <tile/>
   <tile/>
   <tile/>
   <tile/>
   <tile/>
   <tile/>
   <tile/>
   <tile/>
   <tile/>
   <tile/>
   <tile/>
   <tile/>
   <tile/>
   <tile/>
   <tile/>
   <tile/>
   <tile/>
   <tile/>
   <tile/>
   <tile/>
   <tile/>
   <tile/>
   <tile/>
   <tile/>
   <tile/>
   <tile/>
   <tile/>
   <tile/>
   <tile/>
   <tile/>
   <tile/>
   <tile/>
   <tile/>
   <tile/>
   <tile/>
   <tile/>
   <tile/>
   <tile/>
   <tile/>
   <tile/>
   <tile/>
   <tile/>
   <tile/>
   <tile/>
   <tile/>
   <tile/>
   <tile/>
   <tile/>
   <tile/>
   <tile/>
   <tile/>
   <tile/>
   <tile/>
   <tile/>
   <tile/>
   <tile/>
   <tile/>
   <tile/>
   <tile/>
   <tile/>
   <tile/>
   <tile/>
   <tile/>
   <tile/>
   <tile/>
   <tile/>
   <tile/>
   <tile/>
   <tile/>
   <tile/>
   <tile/>
   <tile/>
   <tile/>
   <tile/>
   <tile/>
   <tile/>
   <tile/>
   <tile/>
   <tile/>
   <tile/>
   <tile/>
   <tile/>
   <tile/>
   <tile/>
   <tile/>
   <tile/>
   <tile/>
   <tile/>
   <tile/>
   <tile/>
   <tile/>
   <tile/>
   <tile/>
   <tile/>
   <tile/>
   <tile/>
   <tile/>
   <tile/>
   <tile/>
   <tile/>
   <tile/>
   <tile/>
   <tile/>
   <tile/>
   <tile/>
   <tile/>
   <tile/>
   <tile/>
   <tile/>
   <tile/>
   <tile/>
   <tile/>
   <tile/>
   <tile/>
   <tile/>
   <tile/>
   <tile/>
   <tile/>
   <tile/>
   <tile/>
   <tile/>
   <tile/>
   <tile/>
   <tile/>
   <tile/>
   <tile/>
   <tile/>
   <tile/>
   <tile/>
   <tile/>
   <tile/>
   <tile/>
   <tile/>
   <tile/>
   <tile/>
   <tile/>
   <tile/>
   <tile/>
   <tile/>
   <tile/>
   <tile/>
   <tile/>
   <tile/>
   <tile/>
   <tile/>
   <tile/>
   <tile/>
   <tile/>
   <tile/>
   <tile/>
   <tile/>
   <tile/>
   <tile/>
   <tile/>
   <tile/>
   <tile/>
   <tile/>
   <tile/>
   <tile/>
   <tile/>
   <tile/>
   <tile/>
   <tile/>
   <tile/>
   <tile/>
   <tile/>
   <tile/>
   <tile/>
   <tile/>
   <tile/>
   <tile/>
   <tile/>
   <tile/>
   <tile/>
   <tile/>
   <tile/>
   <tile/>
   <tile/>
   <tile/>
   <tile/>
   <tile/>
   <tile/>
   <tile/>
   <tile/>
   <tile/>
   <tile/>
   <tile/>
   <tile/>
   <tile/>
   <tile/>
   <tile/>
   <tile/>
   <tile/>
   <tile/>
   <tile/>
   <tile/>
   <tile/>
   <tile/>
   <tile/>
   <tile/>
   <tile/>
   <tile/>
   <tile/>
   <tile/>
   <tile/>
   <tile/>
   <tile/>
   <tile/>
   <tile/>
   <tile/>
   <tile/>
   <tile/>
   <tile/>
   <tile/>
   <tile/>
   <tile/>
   <tile/>
   <tile/>
   <tile/>
   <tile/>
   <tile/>
   <tile/>
   <tile/>
   <tile/>
   <tile/>
   <tile/>
   <tile/>
   <tile/>
   <tile/>
   <tile/>
   <tile/>
   <tile/>
   <tile/>
   <tile/>
   <tile/>
   <tile/>
   <tile/>
   <tile/>
   <tile/>
   <tile/>
   <tile/>
   <tile/>
   <tile/>
   <tile/>
   <tile/>
   <tile/>
   <tile/>
   <tile/>
   <tile/>
   <tile/>
   <tile/>
   <tile/>
   <tile/>
   <tile/>
   <tile/>
   <tile/>
   <tile/>
   <tile/>
   <tile/>
   <tile/>
   <tile/>
   <tile/>
   <tile/>
   <tile/>
   <tile/>
   <tile/>
   <tile/>
   <tile/>
   <tile/>
   <tile/>
   <tile/>
   <tile/>
   <tile/>
   <tile/>
   <tile/>
   <tile/>
   <tile/>
   <tile/>
   <tile/>
   <tile/>
   <tile/>
   <tile/>
   <tile/>
   <tile/>
   <tile/>
   <tile/>
   <tile/>
   <tile/>
   <tile/>
   <tile/>
   <tile/>
   <tile/>
   <tile/>
   <tile/>
   <tile/>
   <tile/>
   <tile/>
   <tile/>
   <tile/>
   <tile/>
   <tile/>
   <tile/>
   <tile/>
   <tile/>
   <tile/>
   <tile/>
   <tile/>
   <tile/>
   <tile/>
   <tile/>
   <tile/>
   <tile/>
   <tile/>
   <tile/>
   <tile/>
   <tile/>
   <tile/>
   <tile/>
   <tile/>
   <tile/>
   <tile/>
   <tile/>
   <tile/>
   <tile/>
   <tile/>
   <tile/>
   <tile/>
   <tile/>
   <tile/>
   <tile/>
   <tile/>
   <tile/>
   <tile/>
   <tile/>
   <tile/>
   <tile/>
   <tile/>
   <tile/>
   <tile/>
   <tile/>
   <tile/>
   <tile/>
   <tile/>
   <tile/>
   <tile/>
   <tile/>
   <tile/>
   <tile/>
   <tile/>
   <tile/>
   <tile/>
   <tile/>
   <tile/>
   <tile/>
   <tile/>
   <tile/>
   <tile/>
   <tile/>
   <tile/>
   <tile/>
   <tile/>
   <tile/>
   <tile/>
   <tile/>
   <tile/>
   <tile/>
   <tile/>
   <tile/>
   <tile/>
   <tile/>
   <tile/>
   <tile/>
   <tile/>
   <tile/>
   <tile/>
   <tile/>
   <tile/>
   <tile/>
   <tile/>
   <tile/>
   <tile/>
   <tile/>
   <tile/>
   <tile/>
   <tile/>
   <tile/>
   <tile/>
   <tile/>
   <tile/>
   <tile/>
   <tile/>
   <tile/>
   <tile/>
   <tile/>
   <tile/>
   <tile/>
   <tile/>
   <tile/>
   <tile/>
   <tile/>
   <tile/>
   <tile/>
   <tile/>
   <tile/>
   <tile/>
   <tile/>
   <tile/>
   <tile/>
   <tile/>
   <tile/>
   <tile/>
   <tile/>
   <tile/>
   <tile/>
   <tile/>
   <tile/>
   <tile/>
   <tile/>
   <tile/>
   <tile/>
   <tile/>
   <tile/>
   <tile/>
   <tile/>
   <tile/>
   <tile/>
   <tile/>
   <tile/>
   <tile/>
   <tile/>
   <tile/>
   <tile/>
   <tile/>
   <tile/>
   <tile/>
   <tile/>
   <tile/>
   <tile/>
   <tile/>
   <tile/>
   <tile/>
   <tile/>
   <tile/>
   <tile/>
   <tile/>
   <tile/>
   <tile/>
   <tile/>
   <tile/>
   <tile/>
   <tile/>
   <tile/>
   <tile/>
   <tile/>
   <tile/>
   <tile/>
   <tile/>
   <tile/>
   <tile/>
   <tile/>
   <tile/>
   <tile/>
   <tile/>
   <tile/>
   <tile/>
   <tile/>
   <tile/>
   <tile/>
   <tile/>
   <tile/>
   <tile/>
   <tile/>
   <tile/>
   <tile/>
   <tile/>
   <tile/>
   <tile/>
   <tile/>
   <tile/>
   <tile/>
   <tile/>
   <tile/>
   <tile/>
   <tile/>
   <tile/>
   <tile/>
   <tile/>
   <tile/>
   <tile/>
   <tile/>
   <tile/>
   <tile/>
   <tile/>
   <tile/>
   <tile/>
   <tile/>
   <tile/>
   <tile/>
   <tile/>
   <tile/>
   <tile/>
   <tile/>
   <tile/>
   <tile/>
   <tile/>
   <tile/>
   <tile/>
   <tile/>
   <tile/>
   <tile/>
   <tile/>
   <tile/>
   <tile/>
   <tile/>
   <tile/>
   <tile/>
   <tile/>
   <tile/>
   <tile/>
   <tile/>
   <tile/>
   <tile/>
   <tile/>
   <tile/>
   <tile/>
   <tile/>
   <tile/>
   <tile/>
   <tile/>
   <tile/>
   <tile/>
   <tile/>
   <tile/>
   <tile/>
   <tile/>
   <tile/>
   <tile/>
   <tile/>
   <tile/>
   <tile/>
   <tile/>
   <tile/>
   <tile/>
   <tile/>
   <tile/>
   <tile/>
   <tile/>
   <tile/>
   <tile/>
   <tile/>
   <tile/>
   <tile/>
   <tile/>
   <tile/>
   <tile/>
   <tile/>
   <tile/>
   <tile/>
   <tile/>
   <tile/>
   <tile/>
   <tile/>
   <tile/>
   <tile/>
   <tile/>
   <tile/>
   <tile/>
   <tile/>
   <tile/>
   <tile/>
   <tile/>
   <tile/>
   <tile/>
   <tile/>
   <tile/>
   <tile/>
   <tile/>
   <tile/>
   <tile/>
   <tile/>
   <tile/>
   <tile/>
   <tile/>
   <tile/>
   <tile/>
   <tile/>
   <tile/>
   <tile/>
   <tile/>
   <tile/>
   <tile/>
   <tile/>
   <tile/>
   <tile/>
   <tile/>
   <tile/>
   <tile/>
   <tile/>
   <tile/>
   <tile/>
   <tile/>
   <tile/>
   <tile/>
   <tile/>
   <tile/>
   <tile/>
   <tile/>
   <tile/>
   <tile/>
   <tile/>
   <tile/>
   <tile/>
   <tile/>
   <tile/>
   <tile/>
   <tile/>
   <tile/>
   <tile/>
   <tile/>
   <tile/>
   <tile/>
   <tile/>
   <tile/>
   <tile/>
   <tile/>
   <tile/>
   <tile/>
   <tile/>
   <tile/>
   <tile/>
   <tile/>
   <tile/>
   <tile/>
   <tile/>
   <tile/>
   <tile/>
   <tile/>
   <tile/>
   <tile/>
   <tile/>
   <tile/>
   <tile/>
   <tile/>
   <tile/>
   <tile/>
   <tile/>
   <tile/>
   <tile/>
   <tile/>
   <tile/>
   <tile/>
   <tile/>
   <tile/>
   <tile/>
   <tile/>
   <tile/>
   <tile/>
   <tile/>
   <tile/>
   <tile/>
   <tile/>
   <tile/>
   <tile/>
   <tile/>
   <tile/>
   <tile/>
   <tile/>
   <tile/>
   <tile/>
   <tile/>
   <tile/>
   <tile/>
   <tile/>
   <tile/>
   <tile/>
   <tile/>
   <tile/>
   <tile/>
   <tile/>
   <tile/>
   <tile/>
   <tile/>
   <tile/>
   <tile/>
   <tile/>
   <tile/>
   <tile/>
   <tile/>
   <tile/>
   <tile/>
   <tile/>
   <tile/>
   <tile/>
   <tile/>
   <tile/>
   <tile/>
   <tile/>
   <tile/>
   <tile/>
   <tile/>
   <tile/>
   <tile/>
   <tile/>
   <tile/>
   <tile/>
   <tile/>
   <tile/>
   <tile/>
   <tile/>
   <tile/>
   <tile/>
   <tile/>
   <tile/>
   <tile/>
   <tile/>
   <tile/>
   <tile/>
   <tile/>
   <tile/>
   <tile/>
   <tile/>
   <tile/>
   <tile/>
   <tile/>
   <tile/>
   <tile/>
   <tile/>
   <tile/>
   <tile/>
   <tile/>
   <tile/>
   <tile/>
   <tile/>
   <tile/>
   <tile/>
   <tile/>
   <tile/>
   <tile/>
   <tile/>
   <tile/>
   <tile/>
   <tile/>
   <tile/>
   <tile/>
   <tile/>
   <tile/>
   <tile/>
   <tile/>
   <tile/>
   <tile/>
   <tile/>
   <tile/>
   <tile/>
   <tile/>
   <tile/>
   <tile/>
   <tile/>
   <tile/>
   <tile/>
   <tile/>
   <tile/>
   <tile/>
   <tile/>
   <tile/>
   <tile/>
   <tile/>
   <tile/>
   <tile/>
   <tile/>
   <tile/>
   <tile/>
   <tile/>
   <tile/>
   <tile/>
   <tile/>
   <tile/>
   <tile/>
   <tile/>
   <tile/>
   <tile/>
   <tile/>
   <tile/>
   <tile/>
   <tile/>
   <tile/>
   <tile/>
   <tile/>
   <tile/>
   <tile/>
   <tile/>
   <tile/>
   <tile/>
   <tile/>
   <tile/>
   <tile/>
   <tile/>
   <tile/>
   <tile/>
   <tile/>
   <tile/>
   <tile/>
   <tile/>
   <tile/>
   <tile/>
   <tile/>
   <tile/>
   <tile/>
   <tile/>
   <tile/>
   <tile/>
   <tile/>
   <tile/>
   <tile/>
   <tile/>
   <tile/>
   <tile/>
   <tile/>
   <tile/>
   <tile/>
   <tile/>
   <tile/>
   <tile/>
   <tile/>
   <tile/>
   <tile/>
   <tile/>
   <tile/>
   <tile/>
   <tile/>
   <tile/>
   <tile/>
   <tile/>
   <tile/>
   <tile/>
   <tile/>
   <tile/>
   <tile/>
   <tile/>
   <tile/>
   <tile/>
   <tile/>
   <tile/>
   <tile/>
   <tile/>
   <tile/>
   <tile/>
   <tile/>
   <tile/>
   <tile/>
   <tile/>
   <tile/>
   <tile/>
   <tile/>
   <tile/>
   <tile/>
   <tile/>
   <tile/>
   <tile/>
   <tile/>
   <tile/>
   <tile/>
   <tile/>
   <tile/>
   <tile/>
   <tile/>
   <tile/>
   <tile/>
   <tile/>
   <tile/>
   <tile/>
   <tile/>
   <tile/>
   <tile/>
   <tile/>
   <tile/>
   <tile/>
   <tile/>
   <tile/>
   <tile/>
   <tile/>
   <tile/>
   <tile/>
   <tile/>
   <tile/>
   <tile/>
   <tile/>
   <tile/>
   <tile/>
   <tile/>
   <tile/>
   <tile/>
   <tile/>
   <tile/>
   <tile/>
   <tile/>
   <tile/>
   <tile/>
   <tile/>
   <tile/>
   <tile/>
   <tile/>
   <tile/>
   <tile/>
   <tile/>
   <tile/>
   <tile/>
   <tile/>
   <tile/>
   <tile/>
   <tile/>
   <tile/>
   <tile/>
   <tile/>
   <tile/>
   <tile/>
   <tile/>
   <tile/>
   <tile/>
   <tile/>
   <tile/>
   <tile/>
   <tile/>
   <tile/>
   <tile/>
   <tile/>
   <tile/>
   <tile/>
   <tile/>
   <tile/>
   <tile/>
   <tile/>
   <tile/>
   <tile/>
   <tile/>
   <tile/>
   <tile/>
   <tile/>
   <tile/>
   <tile/>
   <tile/>
   <tile/>
   <tile/>
   <tile/>
   <tile/>
   <tile/>
   <tile/>
   <tile/>
   <tile/>
   <tile/>
   <tile/>
   <tile/>
   <tile/>
   <tile/>
   <tile/>
   <tile/>
   <tile/>
   <tile/>
   <tile/>
   <tile/>
   <tile/>
   <tile/>
   <tile/>
   <tile/>
   <tile/>
   <tile/>
   <tile/>
   <tile/>
   <tile/>
   <tile/>
   <tile/>
   <tile/>
   <tile/>
   <tile/>
   <tile/>
   <tile/>
   <tile/>
   <tile/>
   <tile/>
   <tile/>
   <tile/>
   <tile/>
   <tile/>
   <tile/>
   <tile/>
   <tile/>
   <tile/>
   <tile/>
   <tile/>
   <tile/>
   <tile/>
   <tile/>
   <tile/>
   <tile/>
   <tile/>
   <tile/>
   <tile/>
   <tile/>
   <tile/>
   <tile/>
   <tile/>
   <tile/>
   <tile/>
   <tile/>
   <tile/>
   <tile/>
   <tile/>
   <tile/>
   <tile/>
   <tile/>
   <tile/>
   <tile/>
   <tile/>
   <tile/>
   <tile/>
   <tile/>
   <tile/>
   <tile/>
   <tile/>
   <tile/>
   <tile/>
   <tile/>
   <tile/>
   <tile/>
   <tile/>
   <tile/>
   <tile/>
   <tile/>
   <tile/>
   <tile/>
   <tile/>
   <tile/>
   <tile/>
   <tile/>
   <tile/>
   <tile/>
   <tile/>
   <tile/>
   <tile/>
   <tile/>
   <tile/>
   <tile/>
   <tile/>
   <tile/>
   <tile/>
   <tile/>
   <tile/>
   <tile/>
   <tile/>
   <tile/>
   <tile/>
   <tile/>
   <tile/>
   <tile/>
   <tile/>
   <tile/>
   <tile/>
   <tile/>
   <tile/>
   <tile/>
   <tile/>
   <tile/>
   <tile/>
   <tile/>
   <tile/>
   <tile/>
   <tile/>
   <tile/>
   <tile/>
   <tile/>
   <tile/>
   <tile/>
   <tile/>
   <tile/>
   <tile/>
   <tile/>
   <tile/>
   <tile/>
   <tile/>
   <tile/>
   <tile/>
   <tile/>
   <tile/>
   <tile/>
   <tile/>
   <tile/>
   <tile/>
   <tile/>
   <tile/>
   <tile/>
   <tile/>
   <tile/>
   <tile/>
   <tile/>
   <tile/>
   <tile/>
   <tile/>
   <tile/>
   <tile/>
   <tile/>
   <tile/>
   <tile/>
   <tile/>
   <tile/>
   <tile/>
   <tile/>
   <tile/>
   <tile/>
   <tile/>
   <tile/>
   <tile/>
   <tile/>
   <tile/>
   <tile/>
   <tile/>
   <tile/>
   <tile/>
   <tile/>
   <tile/>
   <tile/>
   <tile/>
   <tile/>
   <tile/>
   <tile/>
   <tile/>
   <tile/>
   <tile/>
   <tile/>
   <tile/>
   <tile/>
   <tile/>
   <tile/>
   <tile/>
   <tile/>
   <tile/>
   <tile/>
   <tile/>
   <tile/>
   <tile/>
   <tile/>
   <tile/>
   <tile/>
   <tile/>
   <tile/>
   <tile/>
   <tile/>
   <tile/>
   <tile/>
   <tile/>
   <tile/>
   <tile/>
   <tile/>
   <tile/>
   <tile/>
   <tile/>
   <tile/>
   <tile/>
   <tile/>
   <tile/>
   <tile/>
   <tile/>
   <tile/>
   <tile/>
   <tile/>
   <tile/>
   <tile/>
   <tile/>
   <tile/>
   <tile/>
   <tile/>
   <tile/>
   <tile/>
   <tile/>
   <tile/>
   <tile/>
   <tile/>
   <tile/>
   <tile/>
   <tile/>
   <tile/>
   <tile/>
   <tile/>
   <tile/>
   <tile/>
   <tile/>
   <tile/>
   <tile/>
   <tile/>
   <tile/>
   <tile/>
   <tile/>
   <tile/>
   <tile/>
   <tile/>
   <tile/>
   <tile/>
   <tile/>
   <tile/>
   <tile/>
   <tile/>
   <tile/>
   <tile/>
   <tile/>
   <tile/>
   <tile/>
   <tile/>
   <tile/>
   <tile/>
   <tile/>
   <tile/>
   <tile/>
   <tile/>
   <tile/>
   <tile/>
   <tile/>
   <tile/>
   <tile/>
   <tile/>
   <tile/>
   <tile/>
   <tile/>
   <tile/>
   <tile/>
   <tile/>
   <tile/>
   <tile/>
   <tile/>
   <tile/>
   <tile/>
   <tile/>
   <tile/>
   <tile/>
   <tile/>
   <tile/>
   <tile/>
   <tile/>
   <tile/>
   <tile/>
   <tile/>
   <tile/>
   <tile/>
   <tile/>
   <tile/>
   <tile/>
   <tile/>
   <tile/>
   <tile/>
   <tile/>
   <tile/>
   <tile/>
   <tile/>
   <tile/>
   <tile/>
   <tile/>
   <tile/>
   <tile/>
   <tile/>
   <tile/>
   <tile/>
   <tile/>
   <tile/>
   <tile/>
   <tile/>
   <tile/>
   <tile/>
   <tile/>
   <tile/>
   <tile/>
   <tile/>
   <tile/>
   <tile/>
   <tile/>
   <tile/>
   <tile/>
   <tile/>
   <tile/>
   <tile/>
   <tile/>
   <tile/>
   <tile/>
   <tile/>
   <tile/>
   <tile/>
   <tile/>
   <tile/>
   <tile/>
   <tile/>
   <tile/>
   <tile/>
   <tile/>
   <tile/>
   <tile/>
   <tile/>
   <tile/>
   <tile/>
   <tile/>
   <tile/>
   <tile/>
   <tile/>
   <tile/>
   <tile/>
   <tile/>
   <tile/>
   <tile/>
   <tile/>
   <tile/>
   <tile/>
   <tile/>
   <tile/>
   <tile/>
   <tile/>
   <tile/>
   <tile/>
   <tile/>
   <tile/>
   <tile/>
   <tile/>
   <tile/>
   <tile/>
   <tile/>
   <tile/>
   <tile/>
   <tile/>
   <tile/>
   <tile/>
   <tile/>
   <tile/>
   <tile/>
   <tile/>
   <tile/>
   <tile/>
   <tile/>
   <tile/>
   <tile/>
   <tile/>
   <tile/>
   <tile/>
   <tile/>
   <tile/>
   <tile/>
   <tile/>
   <tile/>
   <tile/>
   <tile/>
   <tile/>
   <tile/>
   <tile/>
   <tile/>
   <tile/>
   <tile/>
   <tile/>
   <tile/>
   <tile/>
   <tile/>
   <tile/>
   <tile/>
   <tile/>
   <tile/>
   <tile/>
   <tile/>
   <tile/>
   <tile/>
   <tile/>
   <tile/>
   <tile/>
   <tile/>
   <tile/>
   <tile/>
   <tile/>
   <tile/>
   <tile/>
   <tile/>
   <tile/>
   <tile/>
   <tile/>
   <tile/>
   <tile/>
   <tile/>
   <tile/>
   <tile/>
   <tile/>
   <tile/>
   <tile/>
   <tile/>
   <tile/>
   <tile/>
   <tile/>
   <tile/>
   <tile/>
   <tile/>
   <tile/>
   <tile/>
   <tile/>
   <tile/>
   <tile/>
   <tile/>
   <tile/>
   <tile/>
   <tile/>
   <tile/>
   <tile/>
   <tile/>
   <tile/>
   <tile/>
   <tile/>
   <tile/>
   <tile/>
   <tile/>
   <tile/>
   <tile/>
   <tile/>
   <tile/>
   <tile/>
   <tile/>
   <tile/>
   <tile/>
   <tile/>
   <tile/>
   <tile/>
   <tile/>
   <tile/>
   <tile/>
   <tile/>
   <tile/>
   <tile/>
   <tile/>
   <tile/>
   <tile/>
   <tile/>
   <tile/>
   <tile/>
   <tile/>
   <tile/>
   <tile/>
   <tile/>
   <tile/>
   <tile/>
   <tile/>
   <tile/>
   <tile/>
   <tile/>
   <tile/>
   <tile/>
   <tile/>
   <tile/>
   <tile/>
   <tile/>
   <tile/>
   <tile/>
   <tile/>
   <tile/>
   <tile/>
   <tile/>
   <tile/>
   <tile/>
   <tile/>
   <tile/>
   <tile/>
   <tile/>
   <tile/>
   <tile/>
   <tile/>
   <tile/>
   <tile/>
   <tile/>
   <tile/>
   <tile/>
   <tile/>
   <tile/>
   <tile/>
   <tile/>
   <tile/>
   <tile/>
   <tile/>
   <tile/>
   <tile/>
   <tile/>
   <tile/>
   <tile/>
   <tile/>
   <tile/>
   <tile/>
   <tile/>
   <tile/>
   <tile/>
   <tile/>
   <tile/>
   <tile/>
   <tile/>
   <tile/>
   <tile/>
   <tile/>
   <tile/>
   <tile/>
   <tile/>
   <tile/>
   <tile/>
   <tile/>
   <tile/>
   <tile/>
   <tile/>
   <tile/>
   <tile/>
   <tile/>
   <tile/>
   <tile/>
   <tile/>
   <tile/>
   <tile/>
   <tile/>
   <tile/>
   <tile/>
   <tile/>
   <tile/>
   <tile/>
   <tile/>
   <tile/>
   <tile/>
   <tile/>
   <tile/>
   <tile/>
   <tile/>
   <tile/>
   <tile/>
   <tile/>
   <tile/>
   <tile/>
   <tile/>
   <tile/>
   <tile/>
   <tile/>
   <tile/>
   <tile/>
   <tile/>
   <tile/>
   <tile/>
   <tile/>
   <tile/>
   <tile/>
   <tile/>
   <tile/>
   <tile/>
   <tile/>
   <tile/>
   <tile/>
   <tile/>
   <tile/>
   <tile/>
   <tile/>
   <tile/>
   <tile/>
   <tile/>
   <tile/>
   <tile/>
   <tile/>
   <tile/>
   <tile/>
   <tile/>
   <tile/>
   <tile/>
   <tile/>
   <tile/>
   <tile/>
   <tile/>
   <tile/>
   <tile/>
   <tile/>
   <tile/>
   <tile/>
   <tile/>
   <tile/>
   <tile/>
   <tile/>
   <tile/>
   <tile/>
   <tile/>
   <tile/>
   <tile/>
   <tile/>
   <tile/>
   <tile/>
   <tile/>
   <tile/>
   <tile/>
   <tile/>
   <tile/>
   <tile/>
   <tile/>
   <tile/>
   <tile/>
   <tile/>
   <tile/>
   <tile/>
   <tile/>
   <tile/>
   <tile/>
   <tile/>
   <tile/>
   <tile/>
   <tile/>
   <tile/>
   <tile/>
   <tile/>
   <tile/>
   <tile/>
   <tile/>
   <tile/>
   <tile/>
   <tile/>
   <tile/>
   <tile/>
   <tile/>
   <tile/>
   <tile/>
   <tile/>
   <tile/>
   <tile/>
   <tile/>
   <tile/>
   <tile/>
   <tile/>
   <tile/>
   <tile/>
   <tile/>
   <tile/>
   <tile/>
   <tile/>
   <tile/>
   <tile/>
   <tile/>
   <tile/>
   <tile/>
   <tile/>
   <tile/>
   <tile/>
   <tile/>
   <tile/>
   <tile/>
   <tile/>
   <tile/>
   <tile/>
   <tile/>
   <tile/>
   <tile/>
   <tile/>
   <tile/>
   <tile/>
   <tile/>
   <tile/>
   <tile/>
   <tile/>
   <tile/>
   <tile/>
   <tile/>
   <tile/>
   <tile/>
   <tile/>
   <tile/>
   <tile/>
   <tile/>
   <tile/>
   <tile/>
   <tile/>
   <tile/>
   <tile/>
   <tile/>
   <tile/>
   <tile/>
   <tile/>
   <tile/>
   <tile/>
   <tile/>
   <tile/>
   <tile/>
   <tile/>
   <tile/>
   <tile/>
   <tile/>
   <tile/>
   <tile/>
   <tile/>
   <tile/>
   <tile/>
   <tile/>
   <tile/>
   <tile/>
   <tile/>
   <tile/>
   <tile/>
   <tile/>
   <tile/>
   <tile/>
   <tile/>
   <tile/>
   <tile/>
   <tile/>
   <tile/>
   <tile/>
   <tile/>
   <tile/>
   <tile/>
   <tile/>
   <tile/>
   <tile/>
   <tile/>
   <tile/>
   <tile/>
   <tile/>
   <tile/>
   <tile/>
   <tile/>
   <tile/>
   <tile/>
   <tile/>
   <tile/>
   <tile/>
   <tile/>
   <tile/>
   <tile/>
   <tile/>
   <tile/>
   <tile/>
   <tile/>
   <tile/>
   <tile/>
   <tile/>
   <tile/>
   <tile/>
   <tile/>
   <tile/>
   <tile/>
   <tile/>
   <tile/>
   <tile/>
   <tile/>
   <tile/>
   <tile/>
   <tile/>
   <tile/>
   <tile/>
   <tile/>
   <tile/>
   <tile/>
   <tile/>
   <tile/>
   <tile/>
   <tile/>
   <tile/>
   <tile/>
   <tile/>
   <tile/>
   <tile/>
   <tile/>
   <tile/>
   <tile/>
   <tile/>
   <tile/>
   <tile/>
   <tile/>
   <tile/>
   <tile/>
   <tile/>
   <tile/>
   <tile/>
   <tile/>
   <tile/>
   <tile/>
   <tile/>
   <tile/>
   <tile/>
   <tile/>
   <tile/>
   <tile/>
   <tile/>
   <tile/>
   <tile/>
   <tile/>
   <tile/>
   <tile/>
   <tile/>
   <tile/>
   <tile/>
   <tile/>
   <tile/>
   <tile/>
   <tile/>
   <tile/>
   <tile/>
   <tile/>
   <tile/>
   <tile/>
   <tile/>
   <tile/>
   <tile/>
   <tile/>
   <tile/>
   <tile/>
   <tile/>
   <tile/>
   <tile/>
   <tile/>
   <tile/>
   <tile/>
   <tile/>
   <tile/>
   <tile/>
   <tile/>
   <tile/>
   <tile/>
   <tile/>
   <tile/>
   <tile/>
   <tile/>
   <tile/>
   <tile/>
   <tile/>
   <tile/>
   <tile/>
   <tile/>
   <tile/>
   <tile/>
   <tile/>
   <tile/>
   <tile/>
   <tile/>
   <tile/>
   <tile/>
   <tile/>
   <tile/>
   <tile/>
   <tile/>
   <tile/>
   <tile/>
   <tile/>
   <tile/>
   <tile/>
   <tile/>
   <tile/>
   <tile/>
   <tile/>
   <tile/>
   <tile/>
   <tile/>
   <tile/>
   <tile/>
   <tile/>
   <tile/>
   <tile/>
   <tile/>
   <tile/>
   <tile/>
   <tile/>
   <tile/>
   <tile/>
   <tile/>
   <tile/>
   <tile/>
   <tile/>
   <tile/>
   <tile/>
   <tile/>
   <tile/>
   <tile/>
   <tile/>
   <tile/>
   <tile/>
   <tile/>
   <tile/>
   <tile/>
   <tile/>
   <tile/>
   <tile/>
   <tile/>
   <tile/>
   <tile/>
   <tile/>
   <tile/>
   <tile/>
   <tile/>
   <tile/>
   <tile/>
   <tile/>
   <tile/>
   <tile/>
   <tile/>
   <tile/>
   <tile/>
   <tile/>
   <tile/>
   <tile/>
   <tile/>
   <tile/>
   <tile/>
   <tile/>
   <tile/>
   <tile/>
   <tile/>
   <tile/>
   <tile/>
   <tile/>
   <tile/>
   <tile/>
   <tile/>
   <tile/>
   <tile/>
   <tile/>
   <tile/>
   <tile/>
   <tile/>
   <tile/>
   <tile/>
   <tile/>
   <tile/>
   <tile/>
   <tile/>
   <tile/>
   <tile/>
   <tile/>
   <tile/>
   <tile/>
   <tile/>
   <tile/>
   <tile/>
   <tile/>
   <tile/>
   <tile/>
   <tile/>
   <tile/>
   <tile/>
   <tile/>
   <tile/>
   <tile/>
   <tile/>
   <tile/>
   <tile/>
   <tile/>
   <tile/>
   <tile/>
   <tile/>
   <tile/>
   <tile/>
   <tile/>
   <tile/>
   <tile/>
   <tile/>
   <tile/>
   <tile/>
   <tile/>
   <tile/>
   <tile/>
   <tile/>
   <tile/>
   <tile/>
   <tile/>
   <tile/>
   <tile/>
   <tile/>
   <tile/>
   <tile/>
   <tile/>
   <tile/>
   <tile/>
   <tile/>
   <tile/>
   <tile/>
   <tile/>
   <tile/>
   <tile/>
   <tile/>
   <tile/>
   <tile/>
   <tile/>
   <tile/>
   <tile/>
   <tile/>
   <tile/>
   <tile/>
   <tile/>
   <tile/>
   <tile/>
   <tile/>
   <tile/>
   <tile/>
   <tile/>
   <tile/>
   <tile/>
   <tile/>
   <tile/>
   <tile/>
   <tile/>
   <tile/>
   <tile/>
   <tile/>
   <tile/>
   <tile/>
   <tile/>
   <tile/>
   <tile/>
   <tile/>
   <tile/>
   <tile/>
   <tile/>
   <tile/>
   <tile/>
   <tile/>
   <tile/>
   <tile/>
   <tile/>
   <tile/>
   <tile/>
   <tile/>
   <tile/>
   <tile/>
   <tile/>
   <tile/>
   <tile/>
   <tile/>
   <tile/>
   <tile/>
   <tile/>
   <tile/>
   <tile/>
   <tile/>
   <tile/>
   <tile/>
   <tile/>
   <tile/>
   <tile/>
   <tile/>
   <tile/>
   <tile/>
   <tile/>
   <tile/>
   <tile/>
   <tile/>
   <tile/>
   <tile/>
   <tile/>
   <tile/>
   <tile/>
   <tile/>
   <tile/>
   <tile/>
   <tile/>
   <tile/>
   <tile/>
   <tile/>
   <tile/>
   <tile/>
   <tile/>
   <tile/>
   <tile/>
   <tile/>
   <tile/>
   <tile/>
   <tile/>
   <tile/>
   <tile/>
   <tile/>
   <tile/>
   <tile/>
   <tile/>
   <tile/>
   <tile/>
   <tile/>
   <tile/>
   <tile/>
   <tile/>
   <tile/>
   <tile/>
   <tile/>
   <tile/>
   <tile/>
   <tile/>
   <tile/>
   <tile/>
   <tile/>
   <tile/>
   <tile/>
   <tile/>
   <tile/>
   <tile/>
   <tile/>
   <tile/>
   <tile/>
   <tile/>
   <tile/>
   <tile/>
   <tile/>
   <tile/>
   <tile/>
   <tile/>
   <tile/>
   <tile/>
   <tile/>
   <tile/>
   <tile/>
   <tile/>
   <tile/>
   <tile/>
   <tile/>
   <tile/>
   <tile/>
   <tile/>
   <tile/>
   <tile/>
   <tile/>
   <tile/>
   <tile/>
   <tile/>
   <tile/>
   <tile/>
   <tile/>
   <tile/>
   <tile/>
   <tile/>
   <tile/>
   <tile/>
   <tile/>
   <tile/>
   <tile/>
   <tile/>
   <tile/>
   <tile/>
   <tile/>
   <tile/>
   <tile/>
   <tile/>
   <tile/>
   <tile/>
   <tile/>
   <tile/>
   <tile/>
   <tile/>
   <tile/>
   <tile/>
   <tile/>
   <tile/>
   <tile/>
   <tile/>
   <tile/>
   <tile/>
   <tile/>
   <tile/>
   <tile/>
   <tile/>
   <tile/>
   <tile/>
   <tile/>
   <tile/>
   <tile/>
   <tile/>
   <tile/>
   <tile/>
   <tile/>
   <tile/>
   <tile/>
   <tile/>
   <tile/>
   <tile/>
   <tile/>
   <tile/>
   <tile/>
   <tile/>
   <tile/>
   <tile/>
   <tile/>
   <tile/>
   <tile/>
   <tile/>
   <tile/>
   <tile/>
   <tile/>
   <tile/>
   <tile/>
   <tile/>
   <tile/>
   <tile/>
   <tile/>
   <tile/>
   <tile/>
   <tile/>
   <tile/>
   <tile/>
   <tile/>
   <tile/>
   <tile/>
   <tile/>
   <tile/>
   <tile/>
   <tile/>
   <tile/>
   <tile/>
   <tile/>
   <tile/>
   <tile/>
   <tile/>
   <tile/>
   <tile/>
   <tile/>
   <tile/>
   <tile/>
   <tile/>
   <tile/>
   <tile/>
   <tile/>
   <tile/>
   <tile/>
   <tile/>
   <tile/>
   <tile/>
   <tile/>
   <tile/>
   <tile/>
   <tile/>
   <tile/>
   <tile/>
   <tile/>
   <tile/>
   <tile/>
   <tile/>
   <tile/>
   <tile/>
   <tile/>
   <tile/>
   <tile/>
   <tile/>
   <tile/>
   <tile/>
   <tile/>
   <tile/>
   <tile/>
   <tile/>
   <tile/>
   <tile/>
   <tile/>
   <tile/>
   <tile/>
   <tile/>
   <tile/>
   <tile/>
   <tile/>
   <tile/>
   <tile/>
   <tile/>
   <tile/>
   <tile/>
   <tile/>
   <tile/>
   <tile/>
   <tile/>
   <tile/>
   <tile/>
   <tile/>
   <tile/>
   <tile/>
   <tile/>
   <tile/>
   <tile/>
   <tile/>
   <tile/>
   <tile/>
   <tile/>
   <tile/>
   <tile/>
   <tile/>
   <tile/>
   <tile/>
   <tile/>
   <tile/>
   <tile/>
   <tile/>
   <tile/>
   <tile/>
   <tile/>
   <tile/>
   <tile/>
   <tile/>
   <tile/>
   <tile/>
   <tile/>
   <tile/>
   <tile/>
   <tile/>
   <tile/>
   <tile/>
   <tile/>
   <tile/>
   <tile/>
   <tile/>
   <tile/>
   <tile/>
   <tile/>
   <tile/>
   <tile/>
   <tile/>
   <tile/>
   <tile/>
   <tile/>
   <tile/>
   <tile/>
   <tile/>
   <tile/>
   <tile/>
   <tile/>
   <tile/>
   <tile/>
   <tile/>
   <tile/>
   <tile/>
   <tile/>
   <tile/>
   <tile/>
   <tile/>
   <tile/>
   <tile/>
   <tile/>
   <tile/>
   <tile/>
   <tile/>
   <tile/>
   <tile/>
   <tile/>
   <tile/>
   <tile/>
   <tile/>
   <tile/>
   <tile/>
   <tile/>
   <tile/>
   <tile/>
   <tile/>
   <tile/>
   <tile/>
   <tile/>
   <tile/>
   <tile/>
   <tile/>
   <tile/>
   <tile/>
   <tile/>
   <tile/>
   <tile/>
   <tile/>
   <tile/>
   <tile/>
   <tile/>
   <tile/>
   <tile/>
   <tile/>
   <tile/>
   <tile/>
   <tile/>
   <tile/>
   <tile/>
   <tile/>
   <tile/>
   <tile/>
   <tile/>
   <tile/>
   <tile/>
   <tile/>
   <tile/>
   <tile/>
   <tile/>
   <tile/>
   <tile/>
   <tile/>
   <tile/>
   <tile/>
   <tile/>
   <tile/>
   <tile/>
   <tile/>
   <tile/>
   <tile/>
   <tile/>
   <tile/>
   <tile/>
   <tile/>
   <tile/>
   <tile/>
   <tile/>
   <tile/>
   <tile/>
   <tile/>
   <tile/>
   <tile/>
   <tile/>
   <tile/>
   <tile/>
   <tile/>
   <tile/>
   <tile/>
   <tile/>
   <tile/>
   <tile/>
   <tile/>
   <tile/>
   <tile/>
   <tile/>
   <tile/>
   <tile/>
   <tile/>
   <tile/>
   <tile/>
   <tile/>
   <tile/>
   <tile/>
   <tile/>
   <tile/>
   <tile/>
   <tile/>
   <tile/>
   <tile/>
   <tile/>
   <tile/>
   <tile/>
   <tile/>
   <tile/>
   <tile/>
   <tile/>
   <tile/>
   <tile/>
   <tile/>
   <tile/>
   <tile/>
   <tile/>
   <tile/>
   <tile/>
   <tile/>
   <tile/>
   <tile/>
   <tile/>
   <tile/>
   <tile/>
   <tile/>
   <tile/>
   <tile/>
   <tile/>
   <tile/>
   <tile/>
   <tile/>
   <tile/>
   <tile/>
   <tile/>
   <tile/>
   <tile/>
   <tile/>
   <tile/>
   <tile/>
   <tile/>
   <tile/>
   <tile/>
   <tile/>
   <tile/>
   <tile/>
   <tile/>
   <tile/>
   <tile/>
   <tile/>
   <tile/>
   <tile/>
   <tile/>
   <tile/>
   <tile/>
   <tile/>
   <tile/>
   <tile/>
   <tile/>
   <tile/>
   <tile/>
   <tile/>
   <tile/>
   <tile/>
   <tile/>
   <tile/>
   <tile/>
   <tile/>
   <tile/>
   <tile/>
   <tile/>
   <tile/>
   <tile/>
   <tile/>
   <tile/>
   <tile/>
   <tile/>
   <tile/>
   <tile/>
   <tile/>
   <tile/>
   <tile/>
   <tile/>
   <tile/>
   <tile/>
   <tile/>
   <tile/>
   <tile/>
   <tile/>
   <tile/>
   <tile/>
   <tile/>
   <tile/>
   <tile/>
   <tile/>
   <tile/>
   <tile/>
   <tile/>
   <tile/>
   <tile/>
   <tile/>
   <tile/>
   <tile/>
   <tile/>
   <tile/>
   <tile/>
   <tile/>
   <tile/>
   <tile/>
   <tile/>
   <tile/>
   <tile/>
   <tile/>
   <tile/>
   <tile/>
   <tile/>
   <tile/>
   <tile/>
   <tile/>
   <tile/>
   <tile/>
   <tile/>
   <tile/>
   <tile/>
   <tile/>
   <tile/>
   <tile/>
   <tile/>
   <tile/>
   <tile/>
   <tile/>
   <tile/>
   <tile/>
   <tile/>
   <tile/>
   <tile/>
   <tile/>
   <tile/>
   <tile/>
   <tile/>
   <tile/>
   <tile/>
   <tile/>
   <tile/>
   <tile/>
   <tile/>
   <tile/>
   <tile/>
   <tile/>
   <tile/>
   <tile/>
   <tile/>
   <tile/>
   <tile/>
   <tile/>
   <tile/>
   <tile/>
   <tile/>
   <tile/>
   <tile/>
   <tile/>
   <tile/>
   <tile/>
   <tile/>
   <tile/>
   <tile/>
   <tile/>
   <tile/>
   <tile/>
   <tile/>
   <tile/>
   <tile/>
   <tile/>
   <tile/>
   <tile/>
   <tile/>
   <tile/>
   <tile/>
   <tile/>
   <tile/>
   <tile/>
   <tile/>
   <tile/>
   <tile/>
   <tile/>
   <tile/>
   <tile/>
   <tile/>
   <tile/>
   <tile/>
   <tile/>
   <tile/>
   <tile/>
   <tile/>
   <tile/>
   <tile/>
   <tile/>
   <tile/>
   <tile/>
   <tile/>
   <tile/>
   <tile/>
   <tile/>
   <tile/>
   <tile/>
   <tile/>
   <tile/>
   <tile/>
   <tile/>
   <tile/>
   <tile/>
   <tile/>
   <tile/>
   <tile/>
   <tile/>
   <tile/>
   <tile/>
   <tile/>
   <tile/>
   <tile/>
   <tile/>
   <tile/>
   <tile/>
   <tile/>
   <tile/>
   <tile/>
   <tile/>
   <tile/>
   <tile/>
   <tile/>
   <tile/>
   <tile/>
   <tile/>
   <tile/>
   <tile/>
   <tile/>
   <tile/>
   <tile/>
   <tile/>
   <tile/>
   <tile/>
   <tile/>
   <tile/>
   <tile/>
   <tile/>
   <tile/>
   <tile/>
   <tile/>
   <tile/>
   <tile/>
   <tile/>
   <tile/>
   <tile/>
   <tile/>
   <tile/>
   <tile/>
   <tile/>
   <tile/>
   <tile/>
   <tile/>
   <tile/>
   <tile/>
   <tile/>
   <tile/>
   <tile/>
   <tile/>
   <tile/>
   <tile/>
   <tile/>
   <tile/>
   <tile/>
   <tile/>
   <tile/>
   <tile/>
   <tile/>
   <tile/>
   <tile/>
   <tile/>
   <tile/>
   <tile/>
   <tile/>
   <tile/>
   <tile/>
   <tile/>
   <tile/>
   <tile/>
   <tile/>
   <tile/>
   <tile/>
   <tile/>
   <tile/>
   <tile/>
   <tile/>
   <tile/>
   <tile/>
   <tile/>
   <tile/>
   <tile/>
   <tile/>
   <tile/>
   <tile/>
   <tile/>
   <tile/>
   <tile/>
   <tile/>
   <tile/>
   <tile/>
   <tile/>
   <tile/>
   <tile/>
   <tile/>
   <tile/>
   <tile/>
   <tile/>
   <tile/>
   <tile/>
   <tile/>
   <tile/>
   <tile/>
   <tile/>
   <tile/>
   <tile/>
   <tile/>
   <tile/>
   <tile/>
   <tile/>
   <tile/>
   <tile/>
   <tile/>
   <tile/>
   <tile/>
   <tile/>
   <tile/>
   <tile/>
   <tile/>
   <tile/>
   <tile/>
   <tile/>
   <tile/>
   <tile/>
   <tile/>
   <tile/>
   <tile/>
   <tile/>
   <tile/>
   <tile/>
   <tile/>
   <tile/>
   <tile/>
   <tile/>
   <tile/>
   <tile/>
   <tile/>
   <tile/>
   <tile/>
   <tile/>
   <tile/>
   <tile/>
   <tile/>
   <tile/>
   <tile/>
   <tile/>
   <tile/>
   <tile/>
   <tile/>
   <tile/>
   <tile/>
   <tile/>
   <tile/>
   <tile/>
   <tile/>
   <tile/>
   <tile/>
   <tile/>
   <tile/>
   <tile/>
   <tile/>
   <tile/>
   <tile/>
   <tile/>
   <tile/>
   <tile/>
   <tile/>
   <tile/>
   <tile/>
   <tile/>
   <tile/>
   <tile/>
   <tile/>
   <tile/>
   <tile/>
   <tile/>
   <tile/>
   <tile/>
   <tile/>
   <tile/>
   <tile/>
   <tile/>
   <tile/>
   <tile/>
   <tile/>
   <tile/>
   <tile/>
   <tile/>
   <tile/>
   <tile/>
   <tile/>
   <tile/>
   <tile/>
   <tile/>
   <tile/>
   <tile/>
   <tile/>
   <tile/>
   <tile/>
   <tile/>
   <tile/>
   <tile/>
   <tile/>
   <tile/>
   <tile/>
   <tile/>
   <tile/>
   <tile/>
   <tile/>
   <tile/>
   <tile/>
   <tile/>
   <tile/>
   <tile/>
   <tile/>
   <tile/>
   <tile/>
   <tile/>
   <tile/>
   <tile/>
   <tile/>
   <tile/>
   <tile/>
   <tile/>
   <tile/>
   <tile/>
   <tile/>
   <tile/>
   <tile/>
   <tile/>
   <tile/>
   <tile/>
   <tile/>
   <tile/>
   <tile/>
   <tile/>
   <tile/>
   <tile/>
   <tile/>
   <tile/>
   <tile/>
   <tile/>
   <tile/>
   <tile/>
   <tile/>
   <tile/>
   <tile/>
   <tile/>
   <tile/>
   <tile/>
   <tile/>
   <tile/>
   <tile/>
   <tile/>
   <tile/>
   <tile/>
   <tile/>
   <tile/>
   <tile/>
   <tile/>
   <tile/>
   <tile/>
   <tile/>
   <tile/>
   <tile/>
   <tile/>
   <tile/>
   <tile/>
   <tile/>
   <tile/>
   <tile/>
   <tile/>
   <tile/>
   <tile/>
   <tile/>
   <tile/>
   <tile/>
   <tile/>
   <tile/>
   <tile/>
   <tile/>
   <tile/>
   <tile/>
   <tile/>
   <tile/>
   <tile/>
   <tile/>
   <tile/>
   <tile/>
   <tile/>
   <tile/>
   <tile/>
   <tile/>
   <tile/>
   <tile/>
   <tile/>
   <tile/>
   <tile/>
   <tile/>
   <tile/>
   <tile/>
   <tile/>
   <tile/>
   <tile/>
   <tile/>
   <tile/>
   <tile/>
   <tile/>
   <tile/>
   <tile/>
   <tile/>
   <tile/>
   <tile/>
   <tile/>
   <tile/>
   <tile/>
   <tile/>
   <tile/>
   <tile/>
   <tile/>
   <tile/>
   <tile/>
   <tile/>
   <tile/>
   <tile/>
   <tile/>
   <tile/>
   <tile/>
   <tile/>
   <tile/>
   <tile/>
   <tile/>
   <tile/>
   <tile/>
   <tile/>
   <tile/>
   <tile/>
   <tile/>
   <tile/>
   <tile/>
   <tile/>
   <tile/>
   <tile/>
   <tile/>
   <tile/>
   <tile/>
   <tile/>
   <tile/>
   <tile/>
   <tile/>
   <tile/>
   <tile/>
   <tile/>
   <tile/>
   <tile/>
   <tile/>
   <tile/>
   <tile/>
   <tile/>
   <tile/>
   <tile/>
   <tile/>
   <tile/>
   <tile/>
   <tile/>
   <tile/>
   <tile/>
   <tile/>
   <tile/>
   <tile/>
   <tile/>
   <tile/>
   <tile/>
   <tile/>
   <tile/>
   <tile/>
   <tile/>
   <tile/>
   <tile/>
   <tile/>
   <tile/>
   <tile/>
   <tile/>
   <tile/>
   <tile/>
   <tile/>
   <tile/>
   <tile/>
   <tile/>
   <tile/>
   <tile/>
   <tile/>
   <tile/>
   <tile/>
   <tile/>
   <tile/>
   <tile/>
   <tile/>
   <tile/>
   <tile/>
   <tile/>
   <tile/>
   <tile/>
   <tile/>
   <tile/>
   <tile/>
   <tile/>
   <tile/>
   <tile/>
   <tile/>
   <tile/>
   <tile/>
   <tile/>
   <tile/>
   <tile/>
   <tile/>
   <tile/>
   <tile/>
   <tile/>
   <tile/>
   <tile/>
   <tile/>
   <tile/>
   <tile/>
   <tile/>
   <tile/>
   <tile/>
   <tile/>
   <tile/>
   <tile/>
   <tile/>
   <tile/>
   <tile/>
   <tile/>
   <tile/>
   <tile/>
   <tile/>
   <tile/>
   <tile/>
   <tile/>
   <tile/>
   <tile/>
   <tile/>
   <tile/>
   <tile/>
   <tile/>
   <tile/>
   <tile/>
   <tile/>
   <tile/>
   <tile/>
   <tile/>
   <tile/>
   <tile/>
   <tile/>
   <tile/>
   <tile/>
   <tile/>
   <tile/>
   <tile/>
   <tile/>
   <tile/>
   <tile/>
   <tile/>
   <tile/>
   <tile/>
   <tile/>
   <tile/>
   <tile/>
   <tile/>
   <tile/>
   <tile/>
   <tile/>
   <tile/>
   <tile/>
   <tile/>
   <tile/>
   <tile/>
   <tile/>
   <tile/>
   <tile/>
   <tile/>
   <tile/>
   <tile/>
   <tile/>
   <tile/>
   <tile/>
   <tile/>
   <tile/>
   <tile/>
   <tile/>
   <tile/>
   <tile/>
   <tile/>
   <tile/>
   <tile/>
   <tile/>
   <tile/>
   <tile/>
   <tile/>
   <tile/>
   <tile/>
   <tile/>
   <tile/>
   <tile/>
   <tile/>
   <tile/>
   <tile/>
   <tile/>
   <tile/>
   <tile/>
   <tile/>
   <tile/>
   <tile/>
   <tile/>
   <tile/>
   <tile/>
   <tile/>
   <tile/>
   <tile/>
   <tile/>
   <tile/>
   <tile/>
   <tile/>
   <tile/>
   <tile/>
   <tile/>
   <tile/>
   <tile/>
   <tile/>
   <tile/>
   <tile/>
   <tile/>
   <tile/>
   <tile/>
   <tile/>
   <tile/>
   <tile/>
   <tile/>
   <tile/>
   <tile/>
   <tile/>
   <tile/>
   <tile/>
   <tile/>
   <tile/>
   <tile/>
   <tile/>
   <tile/>
   <tile/>
   <tile/>
   <tile/>
   <tile/>
   <tile/>
   <tile/>
   <tile/>
   <tile/>
   <tile/>
   <tile/>
   <tile/>
   <tile/>
   <tile/>
   <tile/>
   <tile/>
   <tile/>
   <tile/>
   <tile/>
   <tile/>
   <tile/>
   <tile/>
   <tile/>
   <tile/>
   <tile/>
   <tile/>
   <tile/>
   <tile/>
   <tile/>
   <tile/>
   <tile/>
   <tile/>
   <tile/>
   <tile/>
   <tile/>
   <tile/>
   <tile/>
   <tile/>
   <tile/>
   <tile/>
   <tile/>
   <tile/>
   <tile/>
   <tile/>
   <tile/>
   <tile/>
   <tile/>
   <tile/>
   <tile/>
   <tile/>
   <tile/>
   <tile/>
   <tile/>
   <tile/>
   <tile/>
   <tile/>
   <tile/>
   <tile/>
   <tile/>
   <tile/>
   <tile/>
   <tile/>
   <tile/>
   <tile/>
   <tile/>
   <tile/>
   <tile/>
   <tile/>
   <tile/>
   <tile/>
   <tile/>
   <tile/>
   <tile/>
   <tile/>
   <tile/>
   <tile/>
   <tile/>
   <tile/>
   <tile/>
   <tile/>
   <tile/>
   <tile/>
   <tile/>
   <tile/>
   <tile/>
   <tile/>
   <tile/>
   <tile/>
   <tile/>
   <tile/>
   <tile/>
   <tile/>
   <tile/>
   <tile/>
   <tile/>
   <tile/>
   <tile/>
   <tile/>
   <tile/>
   <tile/>
   <tile/>
   <tile/>
   <tile/>
   <tile/>
   <tile/>
   <tile/>
   <tile/>
   <tile/>
   <tile/>
   <tile/>
   <tile/>
   <tile/>
   <tile/>
   <tile/>
   <tile/>
   <tile/>
   <tile/>
   <tile/>
   <tile/>
   <tile/>
   <tile/>
   <tile/>
   <tile/>
   <tile/>
   <tile/>
   <tile/>
   <tile/>
   <tile/>
   <tile/>
   <tile/>
   <tile/>
   <tile/>
   <tile/>
   <tile/>
   <tile/>
   <tile/>
   <tile/>
   <tile/>
   <tile/>
   <tile/>
   <tile/>
   <tile/>
   <tile/>
   <tile/>
   <tile/>
   <tile/>
   <tile/>
   <tile/>
   <tile/>
   <tile/>
   <tile/>
   <tile/>
   <tile/>
   <tile/>
   <tile/>
   <tile/>
   <tile/>
   <tile/>
   <tile/>
   <tile/>
   <tile/>
   <tile/>
   <tile/>
   <tile/>
   <tile/>
   <tile/>
   <tile/>
   <tile/>
   <tile/>
   <tile/>
   <tile/>
   <tile/>
   <tile/>
   <tile/>
   <tile/>
   <tile/>
   <tile/>
   <tile/>
   <tile/>
   <tile/>
   <tile/>
   <tile/>
   <tile/>
   <tile/>
   <tile/>
   <tile/>
   <tile/>
   <tile/>
   <tile/>
   <tile/>
   <tile/>
   <tile/>
   <tile/>
   <tile/>
   <tile/>
   <tile/>
   <tile/>
   <tile/>
   <tile/>
   <tile/>
   <tile/>
   <tile/>
   <tile/>
   <tile/>
   <tile/>
   <tile/>
   <tile/>
   <tile/>
   <tile/>
   <tile/>
   <tile/>
   <tile/>
   <tile/>
   <tile/>
   <tile/>
   <tile/>
   <tile/>
   <tile/>
   <tile/>
   <tile/>
   <tile/>
   <tile/>
   <tile/>
   <tile/>
   <tile/>
   <tile/>
   <tile/>
   <tile/>
   <tile/>
   <tile/>
   <tile/>
   <tile/>
   <tile/>
   <tile/>
   <tile/>
   <tile/>
   <tile/>
   <tile/>
   <tile/>
   <tile/>
   <tile/>
   <tile/>
   <tile/>
   <tile/>
   <tile/>
   <tile/>
   <tile/>
   <tile/>
   <tile/>
   <tile/>
   <tile/>
   <tile/>
   <tile/>
   <tile/>
   <tile/>
   <tile/>
   <tile/>
   <tile/>
   <tile/>
   <tile/>
   <tile/>
   <tile/>
   <tile/>
   <tile/>
   <tile/>
   <tile/>
   <tile/>
   <tile/>
   <tile/>
   <tile/>
   <tile/>
   <tile/>
   <tile/>
   <tile/>
   <tile/>
   <tile/>
   <tile/>
   <tile/>
   <tile/>
   <tile/>
   <tile/>
   <tile/>
   <tile/>
   <tile/>
   <tile/>
   <tile/>
   <tile/>
   <tile/>
   <tile/>
   <tile/>
   <tile/>
   <tile/>
   <tile/>
   <tile/>
   <tile/>
   <tile/>
   <tile/>
   <tile/>
   <tile/>
   <tile/>
   <tile/>
   <tile/>
   <tile/>
   <tile/>
   <tile/>
   <tile/>
   <tile/>
   <tile/>
   <tile/>
   <tile/>
   <tile/>
   <tile/>
   <tile/>
   <tile/>
   <tile/>
   <tile/>
   <tile/>
   <tile/>
   <tile/>
   <tile/>
   <tile/>
   <tile/>
   <tile/>
   <tile/>
   <tile/>
   <tile/>
   <tile/>
   <tile/>
   <tile/>
   <tile/>
   <tile/>
   <tile/>
   <tile/>
   <tile/>
   <tile/>
   <tile/>
   <tile/>
   <tile/>
   <tile/>
   <tile/>
   <tile/>
   <tile/>
   <tile/>
   <tile/>
   <tile/>
   <tile/>
   <tile/>
   <tile/>
   <tile/>
   <tile/>
   <tile/>
   <tile/>
   <tile/>
   <tile/>
   <tile/>
   <tile/>
   <tile/>
   <tile/>
   <tile/>
   <tile/>
   <tile/>
   <tile/>
   <tile/>
   <tile/>
   <tile/>
   <tile/>
   <tile/>
   <tile/>
   <tile/>
   <tile/>
   <tile/>
   <tile/>
   <tile/>
   <tile/>
   <tile/>
   <tile/>
   <tile/>
   <tile/>
   <tile/>
   <tile/>
   <tile/>
   <tile/>
   <tile/>
   <tile/>
   <tile/>
   <tile/>
   <tile/>
   <tile/>
   <tile/>
   <tile/>
   <tile/>
   <tile/>
   <tile/>
   <tile/>
   <tile/>
   <tile/>
   <tile/>
   <tile/>
   <tile/>
   <tile/>
   <tile/>
   <tile/>
   <tile/>
   <tile/>
   <tile/>
   <tile/>
   <tile/>
   <tile/>
   <tile/>
   <tile/>
   <tile/>
   <tile/>
   <tile/>
   <tile/>
   <tile/>
   <tile/>
   <tile/>
   <tile/>
   <tile/>
   <tile/>
   <tile/>
   <tile/>
   <tile/>
   <tile/>
   <tile/>
   <tile/>
   <tile/>
   <tile/>
   <tile/>
   <tile/>
   <tile/>
   <tile/>
   <tile/>
   <tile/>
   <tile/>
   <tile/>
   <tile/>
   <tile/>
   <tile/>
   <tile/>
   <tile/>
   <tile/>
   <tile/>
   <tile/>
   <tile/>
   <tile/>
   <tile/>
   <tile/>
   <tile/>
   <tile/>
   <tile/>
   <tile/>
   <tile/>
   <tile/>
   <tile/>
   <tile/>
   <tile/>
   <tile/>
   <tile/>
   <tile/>
   <tile/>
   <tile/>
   <tile/>
   <tile/>
   <tile/>
   <tile/>
   <tile/>
   <tile/>
   <tile/>
   <tile/>
   <tile/>
   <tile/>
   <tile/>
   <tile/>
   <tile/>
   <tile/>
   <tile/>
   <tile/>
   <tile/>
   <tile/>
   <tile/>
   <tile/>
   <tile/>
   <tile/>
   <tile/>
   <tile/>
   <tile/>
   <tile/>
   <tile/>
   <tile/>
   <tile/>
   <tile/>
   <tile/>
   <tile/>
   <tile/>
   <tile/>
   <tile/>
   <tile/>
   <tile/>
   <tile/>
   <tile/>
   <tile/>
   <tile/>
   <tile/>
   <tile/>
   <tile/>
   <tile/>
   <tile/>
   <tile/>
   <tile/>
   <tile/>
   <tile/>
   <tile/>
   <tile/>
   <tile/>
   <tile/>
   <tile/>
   <tile/>
   <tile/>
   <tile/>
   <tile/>
   <tile/>
   <tile/>
   <tile/>
   <tile/>
   <tile/>
   <tile/>
   <tile/>
   <tile/>
   <tile/>
   <tile/>
   <tile/>
   <tile/>
   <tile/>
   <tile/>
   <tile/>
   <tile/>
   <tile/>
   <tile/>
   <tile/>
   <tile/>
   <tile/>
   <tile/>
   <tile/>
   <tile/>
   <tile/>
   <tile/>
   <tile/>
   <tile/>
   <tile/>
   <tile/>
   <tile/>
   <tile/>
   <tile/>
   <tile/>
   <tile/>
   <tile/>
   <tile/>
   <tile/>
   <tile/>
   <tile/>
   <tile/>
   <tile/>
   <tile/>
   <tile/>
   <tile/>
   <tile/>
   <tile/>
   <tile/>
   <tile/>
   <tile/>
   <tile/>
   <tile/>
   <tile/>
   <tile/>
   <tile/>
   <tile/>
   <tile/>
   <tile/>
   <tile/>
   <tile/>
   <tile/>
   <tile/>
   <tile/>
   <tile/>
   <tile/>
   <tile/>
   <tile/>
   <tile/>
   <tile/>
   <tile/>
   <tile/>
   <tile/>
   <tile/>
   <tile/>
   <tile/>
   <tile/>
   <tile/>
   <tile/>
   <tile/>
   <tile/>
   <tile/>
   <tile/>
   <tile/>
   <tile/>
   <tile/>
   <tile/>
   <tile/>
   <tile/>
   <tile/>
   <tile/>
   <tile/>
   <tile/>
   <tile/>
   <tile/>
   <tile/>
   <tile/>
   <tile/>
   <tile/>
   <tile/>
   <tile/>
   <tile/>
   <tile/>
   <tile/>
   <tile/>
   <tile/>
   <tile/>
   <tile/>
   <tile/>
   <tile/>
   <tile/>
   <tile/>
   <tile/>
   <tile/>
   <tile/>
   <tile/>
   <tile/>
   <tile/>
   <tile/>
   <tile/>
   <tile/>
   <tile/>
   <tile/>
   <tile/>
   <tile/>
   <tile/>
   <tile/>
   <tile/>
   <tile/>
   <tile/>
   <tile/>
   <tile/>
   <tile/>
   <tile/>
   <tile/>
   <tile/>
   <tile/>
   <tile/>
   <tile/>
   <tile/>
   <tile/>
   <tile/>
   <tile/>
   <tile/>
   <tile/>
   <tile/>
   <tile/>
   <tile/>
   <tile/>
   <tile/>
   <tile/>
   <tile/>
   <tile/>
   <tile/>
   <tile/>
   <tile/>
   <tile/>
   <tile/>
   <tile/>
   <tile/>
   <tile/>
   <tile/>
   <tile/>
   <tile/>
   <tile/>
   <tile/>
   <tile/>
   <tile/>
   <tile/>
   <tile/>
   <tile/>
   <tile/>
   <tile/>
   <tile/>
   <tile/>
   <tile/>
   <tile/>
   <tile/>
   <tile/>
   <tile/>
   <tile/>
   <tile/>
   <tile/>
   <tile/>
   <tile/>
   <tile/>
   <tile/>
   <tile/>
   <tile/>
   <tile/>
   <tile/>
   <tile/>
   <tile/>
   <tile/>
   <tile/>
   <tile/>
   <tile/>
   <tile/>
   <tile/>
   <tile/>
   <tile/>
   <tile/>
   <tile/>
   <tile/>
   <tile/>
   <tile/>
   <tile/>
   <tile/>
   <tile/>
   <tile/>
   <tile/>
   <tile/>
   <tile/>
   <tile/>
   <tile/>
   <tile/>
   <tile/>
   <tile/>
   <tile/>
   <tile/>
   <tile/>
   <tile/>
   <tile/>
   <tile/>
   <tile/>
   <tile/>
   <tile/>
   <tile/>
   <tile/>
   <tile/>
   <tile/>
   <tile/>
   <tile/>
   <tile/>
   <tile/>
   <tile/>
   <tile/>
   <tile/>
   <tile/>
   <tile/>
   <tile/>
   <tile/>
   <tile/>
   <tile/>
   <tile/>
   <tile/>
   <tile/>
   <tile/>
   <tile/>
   <tile/>
   <tile/>
   <tile/>
   <tile/>
   <tile/>
   <tile/>
   <tile/>
   <tile/>
   <tile/>
   <tile/>
   <tile/>
   <tile/>
   <tile/>
   <tile/>
   <tile/>
   <tile/>
   <tile/>
   <tile/>
   <tile/>
   <tile/>
   <tile/>
   <tile/>
   <tile/>
   <tile/>
   <tile/>
   <tile/>
   <tile/>
   <tile/>
   <tile/>
   <tile/>
   <tile/>
   <tile/>
   <tile/>
   <tile/>
   <tile/>
   <tile/>
   <tile/>
   <tile/>
   <tile/>
   <tile/>
   <tile/>
   <tile/>
   <tile/>
   <tile/>
   <tile/>
   <tile/>
   <tile/>
   <tile/>
   <tile/>
   <tile/>
   <tile/>
   <tile/>
   <tile/>
   <tile/>
   <tile/>
   <tile/>
   <tile/>
   <tile/>
   <tile/>
   <tile/>
   <tile/>
   <tile/>
   <tile/>
   <tile/>
   <tile/>
   <tile/>
   <tile/>
   <tile/>
   <tile/>
   <tile/>
   <tile/>
   <tile/>
   <tile/>
   <tile/>
   <tile/>
   <tile/>
   <tile/>
   <tile/>
   <tile/>
   <tile/>
   <tile/>
   <tile/>
   <tile/>
   <tile/>
   <tile/>
   <tile/>
   <tile/>
   <tile/>
   <tile/>
   <tile/>
   <tile/>
   <tile/>
   <tile/>
   <tile/>
   <tile/>
   <tile/>
   <tile/>
   <tile/>
   <tile/>
   <tile/>
   <tile/>
   <tile/>
   <tile/>
   <tile/>
   <tile/>
   <tile/>
   <tile/>
   <tile/>
   <tile/>
   <tile/>
   <tile/>
   <tile/>
   <tile/>
   <tile/>
   <tile/>
   <tile/>
   <tile/>
   <tile/>
   <tile/>
   <tile/>
   <tile/>
   <tile/>
   <tile/>
   <tile/>
   <tile/>
   <tile/>
   <tile/>
   <tile/>
   <tile/>
   <tile/>
   <tile/>
   <tile/>
   <tile/>
   <tile/>
   <tile/>
   <tile/>
   <tile/>
   <tile/>
   <tile/>
   <tile/>
   <tile/>
   <tile/>
   <tile/>
   <tile/>
   <tile/>
   <tile/>
   <tile/>
   <tile/>
   <tile/>
   <tile/>
   <tile/>
   <tile/>
   <tile/>
   <tile/>
   <tile/>
   <tile/>
   <tile/>
   <tile/>
   <tile/>
   <tile/>
   <tile/>
   <tile/>
   <tile/>
   <tile/>
   <tile/>
   <tile/>
   <tile/>
   <tile/>
   <tile/>
   <tile/>
   <tile/>
   <tile/>
   <tile/>
   <tile/>
   <tile/>
   <tile/>
   <tile/>
   <tile/>
   <tile/>
   <tile/>
   <tile/>
   <tile/>
   <tile/>
   <tile/>
   <tile/>
   <tile/>
   <tile/>
   <tile/>
   <tile/>
   <tile/>
   <tile/>
   <tile/>
   <tile/>
   <tile/>
   <tile/>
   <tile/>
   <tile/>
   <tile/>
   <tile/>
   <tile/>
   <tile/>
   <tile/>
   <tile/>
   <tile/>
   <tile/>
   <tile/>
   <tile/>
   <tile/>
   <tile/>
   <tile/>
   <tile/>
   <tile/>
   <tile/>
   <tile/>
   <tile/>
   <tile/>
   <tile/>
   <tile/>
   <tile/>
   <tile/>
   <tile/>
   <tile/>
   <tile/>
   <tile/>
   <tile/>
   <tile/>
   <tile/>
   <tile/>
   <tile/>
   <tile/>
   <tile/>
   <tile/>
   <tile/>
   <tile/>
   <tile/>
   <tile/>
   <tile/>
   <tile/>
   <tile/>
   <tile/>
   <tile/>
   <tile/>
   <tile/>
   <tile/>
   <tile/>
   <tile/>
   <tile/>
   <tile/>
   <tile/>
   <tile/>
   <tile/>
   <tile/>
   <tile/>
   <tile/>
   <tile/>
   <tile/>
   <tile/>
   <tile/>
   <tile/>
   <tile/>
   <tile/>
   <tile/>
   <tile/>
   <tile/>
   <tile/>
   <tile/>
   <tile/>
   <tile/>
   <tile/>
   <tile/>
   <tile/>
   <tile/>
   <tile/>
   <tile/>
   <tile/>
   <tile/>
   <tile/>
   <tile/>
   <tile/>
   <tile/>
   <tile/>
   <tile/>
   <tile/>
   <tile/>
   <tile/>
   <tile/>
   <tile/>
   <tile/>
   <tile/>
   <tile/>
   <tile/>
   <tile/>
   <tile/>
   <tile/>
   <tile/>
   <tile/>
   <tile/>
   <tile/>
   <tile/>
   <tile/>
   <tile/>
   <tile/>
   <tile/>
   <tile/>
   <tile/>
   <tile/>
   <tile/>
   <tile/>
   <tile/>
   <tile/>
   <tile/>
   <tile/>
   <tile/>
   <tile/>
   <tile/>
   <tile/>
   <tile/>
   <tile/>
   <tile/>
   <tile/>
   <tile/>
   <tile/>
   <tile/>
   <tile/>
   <tile/>
   <tile/>
   <tile/>
   <tile/>
   <tile/>
   <tile/>
   <tile/>
   <tile/>
   <tile/>
   <tile/>
   <tile/>
   <tile/>
   <tile/>
   <tile/>
   <tile/>
   <tile/>
   <tile/>
   <tile/>
   <tile/>
   <tile/>
   <tile/>
   <tile/>
   <tile/>
   <tile/>
   <tile/>
   <tile/>
   <tile/>
   <tile/>
   <tile/>
   <tile/>
   <tile/>
   <tile/>
   <tile/>
   <tile/>
   <tile/>
   <tile/>
   <tile/>
   <tile/>
   <tile/>
   <tile/>
   <tile/>
   <tile/>
   <tile/>
   <tile/>
   <tile/>
   <tile/>
   <tile/>
   <tile/>
   <tile/>
   <tile/>
   <tile/>
   <tile/>
   <tile/>
   <tile/>
   <tile/>
   <tile/>
   <tile/>
   <tile/>
   <tile/>
   <tile/>
   <tile/>
   <tile/>
   <tile/>
   <tile/>
   <tile/>
   <tile/>
   <tile/>
   <tile/>
   <tile/>
   <tile/>
   <tile/>
   <tile/>
   <tile/>
   <tile/>
   <tile/>
   <tile/>
   <tile/>
   <tile/>
   <tile/>
   <tile/>
   <tile/>
   <tile/>
   <tile/>
   <tile/>
   <tile/>
   <tile/>
   <tile/>
   <tile/>
   <tile/>
   <tile/>
   <tile/>
   <tile/>
   <tile/>
   <tile/>
   <tile/>
   <tile/>
   <tile/>
   <tile/>
   <tile/>
   <tile/>
   <tile/>
   <tile/>
   <tile/>
   <tile/>
   <tile/>
   <tile/>
   <tile/>
   <tile/>
   <tile/>
   <tile/>
   <tile/>
   <tile/>
   <tile/>
   <tile/>
   <tile/>
   <tile/>
   <tile/>
   <tile/>
   <tile/>
   <tile/>
   <tile/>
   <tile/>
   <tile/>
   <tile/>
   <tile/>
   <tile/>
   <tile/>
   <tile/>
   <tile/>
   <tile/>
   <tile/>
   <tile/>
   <tile/>
   <tile/>
   <tile/>
   <tile/>
   <tile/>
   <tile/>
   <tile/>
   <tile/>
   <tile/>
   <tile/>
   <tile/>
   <tile/>
   <tile/>
   <tile/>
   <tile/>
   <tile/>
   <tile/>
   <tile/>
   <tile/>
   <tile/>
   <tile/>
   <tile/>
   <tile/>
   <tile/>
   <tile/>
   <tile/>
   <tile/>
   <tile/>
   <tile/>
   <tile/>
   <tile/>
   <tile/>
   <tile/>
   <tile/>
   <tile/>
   <tile/>
   <tile/>
   <tile/>
   <tile/>
   <tile/>
   <tile/>
   <tile/>
   <tile/>
   <tile/>
   <tile/>
   <tile/>
   <tile/>
   <tile/>
   <tile/>
   <tile/>
   <tile/>
   <tile/>
   <tile/>
   <tile/>
   <tile/>
   <tile/>
   <tile/>
   <tile/>
   <tile/>
   <tile/>
   <tile/>
   <tile/>
   <tile/>
   <tile/>
   <tile/>
   <tile/>
   <tile/>
   <tile/>
   <tile/>
   <tile/>
   <tile/>
   <tile/>
   <tile/>
   <tile/>
   <tile/>
   <tile/>
   <tile/>
   <tile/>
   <tile/>
   <tile/>
   <tile/>
   <tile/>
   <tile/>
   <tile/>
   <tile/>
   <tile/>
   <tile/>
   <tile/>
   <tile/>
   <tile/>
   <tile/>
   <tile/>
   <tile/>
   <tile/>
   <tile/>
   <tile/>
   <tile/>
   <tile/>
   <tile/>
   <tile/>
   <tile/>
   <tile/>
   <tile/>
   <tile/>
   <tile/>
   <tile/>
   <tile/>
   <tile/>
   <tile/>
   <tile/>
   <tile/>
   <tile/>
   <tile/>
   <tile/>
   <tile/>
   <tile/>
   <tile/>
   <tile/>
   <tile/>
   <tile/>
   <tile/>
   <tile/>
   <tile/>
   <tile/>
   <tile/>
   <tile/>
   <tile/>
   <tile/>
   <tile/>
   <tile/>
   <tile/>
   <tile/>
   <tile/>
   <tile/>
   <tile/>
   <tile/>
   <tile/>
   <tile/>
   <tile/>
   <tile/>
   <tile/>
   <tile/>
   <tile/>
   <tile/>
   <tile/>
   <tile/>
   <tile/>
   <tile/>
   <tile/>
   <tile/>
   <tile/>
   <tile/>
   <tile/>
   <tile/>
   <tile/>
   <tile/>
   <tile/>
   <tile/>
   <tile/>
   <tile/>
   <tile/>
   <tile/>
   <tile/>
   <tile/>
   <tile/>
   <tile/>
   <tile/>
   <tile/>
   <tile/>
   <tile/>
   <tile/>
   <tile/>
   <tile/>
   <tile/>
   <tile/>
   <tile/>
   <tile/>
   <tile/>
   <tile/>
   <tile/>
   <tile/>
   <tile/>
   <tile/>
   <tile/>
   <tile/>
   <tile/>
   <tile/>
   <tile/>
   <tile/>
   <tile/>
   <tile/>
   <tile/>
   <tile/>
   <tile/>
   <tile/>
   <tile/>
   <tile/>
   <tile/>
   <tile/>
   <tile/>
   <tile/>
   <tile/>
   <tile/>
   <tile/>
   <tile/>
   <tile/>
   <tile/>
   <tile/>
   <tile/>
   <tile/>
   <tile/>
   <tile/>
   <tile/>
   <tile/>
   <tile/>
   <tile/>
   <tile/>
   <tile/>
   <tile/>
   <tile/>
   <tile/>
   <tile/>
   <tile/>
   <tile/>
   <tile/>
   <tile/>
   <tile/>
   <tile/>
   <tile/>
   <tile/>
   <tile/>
   <tile/>
   <tile/>
   <tile/>
   <tile/>
   <tile/>
   <tile/>
   <tile/>
   <tile/>
   <tile/>
   <tile/>
   <tile/>
   <tile/>
   <tile/>
   <tile/>
   <tile/>
   <tile/>
   <tile/>
   <tile/>
   <tile/>
   <tile/>
   <tile/>
   <tile/>
   <tile/>
   <tile/>
   <tile/>
   <tile/>
   <tile/>
   <tile/>
   <tile/>
   <tile/>
   <tile/>
   <tile/>
   <tile/>
   <tile/>
   <tile/>
   <tile/>
   <tile/>
   <tile/>
   <tile/>
   <tile/>
   <tile/>
   <tile/>
   <tile/>
   <tile/>
   <tile/>
   <tile/>
   <tile/>
   <tile/>
   <tile/>
   <tile/>
   <tile/>
   <tile/>
   <tile/>
   <tile/>
   <tile/>
   <tile/>
   <tile/>
   <tile/>
   <tile/>
   <tile/>
   <tile/>
   <tile/>
   <tile/>
   <tile/>
   <tile/>
   <tile/>
   <tile/>
   <tile/>
   <tile/>
   <tile/>
   <tile/>
   <tile/>
   <tile/>
   <tile/>
   <tile/>
   <tile/>
   <tile/>
   <tile/>
   <tile/>
   <tile/>
   <tile/>
   <tile/>
   <tile/>
   <tile/>
   <tile/>
   <tile/>
   <tile/>
   <tile/>
   <tile/>
   <tile/>
   <tile/>
   <tile/>
   <tile/>
   <tile/>
   <tile/>
   <tile/>
   <tile/>
   <tile/>
   <tile/>
   <tile/>
   <tile/>
   <tile/>
   <tile/>
   <tile/>
   <tile/>
   <tile/>
   <tile/>
   <tile/>
   <tile/>
   <tile/>
   <tile/>
   <tile/>
   <tile/>
   <tile/>
   <tile/>
   <tile/>
   <tile/>
   <tile/>
   <tile/>
   <tile/>
   <tile/>
   <tile/>
   <tile/>
   <tile/>
   <tile/>
   <tile/>
   <tile/>
   <tile/>
   <tile/>
   <tile/>
   <tile/>
   <tile/>
   <tile/>
   <tile/>
   <tile/>
   <tile/>
   <tile/>
   <tile/>
   <tile/>
   <tile/>
   <tile/>
   <tile/>
   <tile/>
   <tile/>
   <tile/>
   <tile/>
   <tile/>
   <tile/>
   <tile/>
   <tile/>
   <tile/>
   <tile/>
   <tile/>
   <tile/>
   <tile/>
   <tile/>
   <tile/>
   <tile/>
   <tile/>
   <tile/>
   <tile/>
   <tile/>
   <tile/>
   <tile/>
   <tile/>
   <tile/>
   <tile/>
   <tile/>
   <tile/>
   <tile/>
   <tile/>
   <tile/>
   <tile/>
   <tile/>
   <tile/>
   <tile/>
   <tile/>
   <tile/>
   <tile/>
   <tile/>
   <tile/>
   <tile/>
   <tile/>
   <tile/>
   <tile/>
   <tile/>
   <tile/>
   <tile/>
   <tile/>
   <tile/>
   <tile/>
   <tile/>
   <tile/>
   <tile/>
   <tile/>
   <tile/>
   <tile/>
   <tile/>
   <tile/>
   <tile/>
   <tile/>
   <tile/>
   <tile/>
   <tile/>
   <tile/>
   <tile/>
   <tile/>
   <tile/>
   <tile/>
   <tile/>
   <tile/>
   <tile/>
   <tile/>
   <tile/>
   <tile/>
   <tile/>
   <tile/>
   <tile/>
   <tile/>
   <tile/>
   <tile/>
   <tile/>
   <tile/>
   <tile/>
   <tile/>
   <tile/>
   <tile/>
   <tile/>
   <tile/>
   <tile/>
   <tile/>
   <tile/>
   <tile/>
   <tile/>
   <tile/>
   <tile/>
   <tile/>
   <tile/>
   <tile/>
   <tile/>
   <tile/>
   <tile/>
   <tile/>
   <tile/>
   <tile/>
   <tile/>
   <tile/>
   <tile/>
   <tile/>
   <tile/>
   <tile/>
   <tile/>
   <tile/>
   <tile/>
   <tile/>
   <tile/>
   <tile/>
   <tile/>
   <tile/>
   <tile/>
   <tile/>
   <tile/>
   <tile/>
   <tile/>
   <tile/>
   <tile/>
   <tile/>
   <tile/>
   <tile/>
   <tile/>
   <tile/>
   <tile/>
   <tile/>
   <tile/>
   <tile/>
   <tile/>
   <tile/>
   <tile/>
   <tile/>
   <tile/>
   <tile/>
   <tile/>
   <tile/>
   <tile/>
   <tile/>
   <tile/>
   <tile/>
   <tile/>
   <tile/>
   <tile/>
   <tile/>
   <tile/>
   <tile/>
   <tile/>
   <tile/>
   <tile/>
   <tile/>
   <tile/>
   <tile/>
   <tile/>
   <tile/>
   <tile/>
   <tile/>
   <tile/>
   <tile/>
   <tile/>
   <tile/>
   <tile/>
   <tile/>
   <tile/>
   <tile/>
   <tile/>
   <tile/>
   <tile/>
   <tile/>
   <tile/>
   <tile/>
   <tile/>
   <tile/>
   <tile/>
   <tile/>
   <tile/>
   <tile/>
   <tile/>
   <tile/>
   <tile/>
   <tile/>
   <tile/>
   <tile/>
   <tile/>
   <tile/>
   <tile/>
   <tile/>
   <tile/>
   <tile/>
   <tile/>
   <tile/>
   <tile/>
   <tile/>
   <tile/>
   <tile/>
   <tile/>
   <tile/>
   <tile/>
   <tile/>
   <tile/>
   <tile/>
   <tile/>
   <tile/>
   <tile/>
   <tile/>
   <tile/>
   <tile/>
   <tile/>
   <tile/>
   <tile/>
   <tile/>
   <tile/>
   <tile/>
   <tile/>
   <tile/>
   <tile/>
   <tile/>
   <tile/>
   <tile/>
   <tile/>
   <tile/>
   <tile/>
   <tile/>
   <tile/>
   <tile/>
   <tile/>
   <tile/>
   <tile/>
   <tile/>
   <tile/>
   <tile/>
   <tile/>
   <tile/>
   <tile/>
   <tile/>
   <tile/>
   <tile/>
   <tile/>
   <tile/>
   <tile/>
   <tile/>
   <tile/>
   <tile/>
   <tile/>
   <tile/>
   <tile/>
   <tile/>
   <tile/>
   <tile/>
   <tile/>
   <tile/>
   <tile/>
   <tile/>
   <tile/>
   <tile/>
   <tile/>
   <tile/>
   <tile/>
   <tile/>
   <tile/>
   <tile/>
   <tile/>
   <tile/>
   <tile/>
   <tile/>
   <tile/>
   <tile/>
   <tile/>
   <tile/>
   <tile/>
   <tile/>
   <tile/>
   <tile/>
   <tile/>
   <tile/>
   <tile/>
   <tile/>
   <tile/>
   <tile/>
   <tile/>
   <tile/>
   <tile/>
   <tile/>
   <tile/>
   <tile/>
   <tile/>
   <tile/>
   <tile/>
   <tile/>
   <tile/>
   <tile/>
   <tile/>
   <tile/>
   <tile/>
   <tile/>
   <tile/>
   <tile/>
   <tile/>
   <tile/>
   <tile/>
   <tile/>
   <tile/>
   <tile/>
   <tile/>
   <tile/>
   <tile/>
   <tile/>
   <tile/>
   <tile/>
   <tile/>
   <tile/>
   <tile/>
   <tile/>
   <tile/>
   <tile/>
   <tile/>
   <tile/>
   <tile/>
   <tile/>
   <tile/>
   <tile/>
   <tile/>
   <tile/>
   <tile/>
   <tile/>
   <tile/>
   <tile/>
   <tile/>
   <tile/>
   <tile/>
   <tile/>
   <tile/>
   <tile/>
   <tile/>
   <tile/>
   <tile/>
   <tile/>
   <tile/>
   <tile/>
   <tile/>
   <tile/>
   <tile/>
   <tile/>
   <tile/>
   <tile/>
   <tile/>
   <tile/>
   <tile/>
   <tile/>
   <tile/>
   <tile/>
   <tile/>
   <tile/>
   <tile/>
   <tile/>
   <tile/>
   <tile/>
   <tile/>
   <tile/>
   <tile/>
   <tile/>
   <tile/>
   <tile/>
   <tile/>
   <tile/>
   <tile/>
   <tile/>
   <tile/>
   <tile/>
   <tile/>
   <tile/>
   <tile/>
   <tile/>
   <tile/>
   <tile/>
   <tile/>
   <tile/>
   <tile/>
   <tile/>
   <tile/>
   <tile/>
   <tile/>
   <tile/>
   <tile/>
   <tile/>
   <tile/>
   <tile/>
   <tile/>
   <tile/>
   <tile/>
   <tile/>
   <tile/>
   <tile/>
   <tile/>
   <tile/>
   <tile/>
   <tile/>
   <tile/>
   <tile/>
   <tile/>
   <tile/>
   <tile/>
   <tile/>
   <tile/>
   <tile/>
   <tile/>
   <tile/>
   <tile/>
   <tile/>
   <tile/>
   <tile/>
   <tile/>
   <tile/>
   <tile/>
   <tile/>
   <tile/>
   <tile/>
   <tile/>
   <tile/>
   <tile/>
   <tile/>
   <tile/>
   <tile/>
   <tile/>
   <tile/>
   <tile/>
   <tile/>
   <tile/>
   <tile/>
   <tile/>
   <tile/>
   <tile/>
   <tile/>
   <tile/>
   <tile/>
   <tile/>
   <tile/>
   <tile/>
   <tile/>
   <tile/>
   <tile/>
   <tile/>
   <tile/>
   <tile/>
   <tile/>
   <tile/>
   <tile/>
   <tile/>
   <tile/>
   <tile/>
   <tile/>
   <tile/>
   <tile/>
   <tile/>
   <tile/>
   <tile/>
   <tile/>
   <tile/>
   <tile/>
   <tile/>
   <tile/>
   <tile/>
   <tile/>
   <tile/>
   <tile/>
   <tile/>
   <tile/>
   <tile/>
   <tile/>
   <tile/>
   <tile/>
   <tile/>
   <tile/>
   <tile/>
   <tile/>
   <tile/>
   <tile/>
   <tile/>
   <tile/>
   <tile/>
   <tile/>
   <tile/>
   <tile/>
   <tile/>
   <tile/>
   <tile/>
   <tile/>
   <tile/>
   <tile/>
   <tile/>
   <tile/>
   <tile/>
   <tile/>
   <tile/>
   <tile/>
   <tile/>
   <tile/>
   <tile/>
   <tile/>
   <tile/>
   <tile/>
   <tile/>
   <tile/>
   <tile/>
   <tile/>
   <tile/>
   <tile/>
   <tile/>
   <tile/>
   <tile/>
   <tile/>
   <tile/>
   <tile/>
   <tile/>
   <tile/>
   <tile/>
   <tile/>
   <tile/>
   <tile/>
   <tile/>
   <tile/>
   <tile/>
   <tile/>
   <tile/>
   <tile/>
   <tile/>
   <tile/>
   <tile/>
   <tile/>
   <tile/>
   <tile/>
   <tile/>
   <tile/>
   <tile/>
   <tile/>
   <tile/>
   <tile/>
   <tile/>
   <tile/>
   <tile/>
   <tile/>
   <tile/>
   <tile/>
   <tile/>
   <tile/>
   <tile/>
   <tile/>
   <tile/>
   <tile/>
   <tile/>
   <tile/>
   <tile/>
   <tile/>
   <tile/>
   <tile/>
   <tile/>
   <tile/>
   <tile/>
   <tile/>
   <tile/>
   <tile/>
   <tile/>
   <tile/>
   <tile/>
   <tile/>
   <tile/>
   <tile/>
   <tile/>
   <tile/>
   <tile/>
   <tile/>
   <tile/>
   <tile/>
   <tile/>
   <tile/>
   <tile/>
   <tile/>
   <tile/>
   <tile/>
   <tile/>
   <tile/>
   <tile/>
   <tile/>
   <tile/>
   <tile/>
   <tile/>
   <tile/>
   <tile/>
   <tile/>
   <tile/>
   <tile/>
   <tile/>
   <tile/>
   <tile/>
   <tile/>
   <tile/>
   <tile/>
   <tile/>
   <tile/>
   <tile/>
   <tile/>
   <tile/>
   <tile/>
   <tile/>
   <tile/>
   <tile/>
   <tile/>
   <tile/>
   <tile/>
   <tile/>
   <tile/>
   <tile/>
   <tile/>
   <tile/>
   <tile/>
   <tile/>
   <tile/>
   <tile/>
   <tile/>
   <tile/>
   <tile/>
   <tile/>
   <tile/>
   <tile/>
   <tile/>
   <tile/>
   <tile/>
   <tile/>
   <tile/>
   <tile/>
   <tile/>
   <tile/>
   <tile/>
   <tile/>
   <tile/>
   <tile/>
   <tile/>
   <tile/>
   <tile/>
   <tile/>
   <tile/>
   <tile/>
   <tile/>
   <tile/>
   <tile/>
   <tile/>
   <tile/>
   <tile/>
   <tile/>
   <tile/>
   <tile/>
   <tile/>
   <tile/>
   <tile/>
   <tile/>
   <tile/>
   <tile/>
   <tile/>
   <tile/>
   <tile/>
   <tile/>
   <tile/>
   <tile/>
   <tile/>
   <tile/>
   <tile/>
   <tile/>
   <tile/>
   <tile/>
   <tile/>
   <tile/>
   <tile/>
   <tile/>
   <tile/>
   <tile/>
   <tile/>
   <tile/>
   <tile/>
   <tile/>
   <tile/>
   <tile/>
   <tile/>
   <tile/>
   <tile/>
   <tile/>
   <tile/>
   <tile/>
   <tile/>
   <tile/>
   <tile/>
   <tile/>
   <tile/>
   <tile/>
   <tile/>
   <tile/>
   <tile/>
   <tile/>
   <tile/>
   <tile/>
   <tile/>
   <tile/>
   <tile/>
   <tile/>
   <tile/>
   <tile/>
   <tile/>
   <tile/>
   <tile/>
   <tile/>
   <tile/>
   <tile/>
   <tile/>
   <tile/>
   <tile/>
   <tile/>
   <tile/>
   <tile/>
   <tile/>
   <tile/>
   <tile/>
   <tile/>
   <tile/>
   <tile/>
   <tile/>
   <tile/>
   <tile/>
   <tile/>
   <tile/>
   <tile/>
   <tile/>
   <tile/>
   <tile/>
   <tile/>
   <tile/>
   <tile/>
   <tile/>
   <tile/>
   <tile/>
   <tile/>
   <tile/>
   <tile/>
   <tile/>
   <tile/>
   <tile/>
   <tile/>
   <tile/>
   <tile/>
   <tile/>
   <tile/>
   <tile/>
   <tile/>
   <tile/>
   <tile/>
   <tile/>
   <tile/>
   <tile/>
   <tile/>
   <tile/>
   <tile/>
   <tile/>
   <tile/>
   <tile/>
   <tile/>
   <tile/>
   <tile/>
   <tile/>
   <tile/>
   <tile/>
   <tile/>
   <tile/>
   <tile/>
   <tile/>
   <tile/>
   <tile/>
   <tile/>
   <tile/>
   <tile/>
   <tile/>
   <tile/>
   <tile/>
   <tile/>
   <tile/>
   <tile/>
   <tile/>
   <tile/>
   <tile/>
   <tile/>
   <tile/>
   <tile/>
   <tile/>
   <tile/>
   <tile/>
   <tile/>
   <tile/>
   <tile/>
   <tile/>
   <tile/>
   <tile/>
   <tile/>
   <tile/>
   <tile/>
   <tile/>
   <tile/>
   <tile/>
   <tile/>
   <tile/>
   <tile/>
   <tile/>
   <tile/>
   <tile/>
   <tile/>
   <tile/>
   <tile/>
   <tile/>
   <tile/>
   <tile/>
   <tile/>
   <tile/>
   <tile/>
   <tile/>
   <tile/>
   <tile/>
   <tile/>
   <tile/>
   <tile/>
   <tile/>
   <tile/>
   <tile/>
   <tile/>
   <tile/>
   <tile/>
   <tile/>
   <tile/>
   <tile/>
   <tile/>
   <tile/>
   <tile/>
   <tile/>
   <tile/>
   <tile/>
   <tile/>
   <tile/>
   <tile/>
   <tile/>
   <tile/>
   <tile/>
   <tile/>
   <tile/>
   <tile/>
   <tile/>
   <tile/>
   <tile/>
   <tile/>
   <tile/>
   <tile/>
   <tile/>
   <tile/>
   <tile/>
   <tile/>
   <tile/>
   <tile/>
   <tile/>
   <tile/>
   <tile/>
   <tile/>
   <tile/>
   <tile/>
   <tile/>
   <tile/>
   <tile/>
   <tile/>
   <tile/>
   <tile/>
   <tile/>
   <tile/>
   <tile/>
   <tile/>
   <tile/>
   <tile/>
   <tile/>
   <tile/>
   <tile/>
   <tile/>
   <tile/>
   <tile/>
   <tile/>
   <tile/>
   <tile/>
   <tile/>
   <tile/>
   <tile/>
   <tile/>
   <tile/>
   <tile/>
   <tile/>
   <tile/>
   <tile/>
   <tile/>
   <tile/>
   <tile/>
   <tile/>
   <tile/>
   <tile/>
   <tile/>
   <tile/>
   <tile/>
   <tile/>
   <tile/>
   <tile/>
   <tile/>
   <tile/>
   <tile/>
   <tile/>
   <tile/>
   <tile/>
   <tile/>
   <tile/>
   <tile/>
   <tile/>
   <tile/>
   <tile/>
   <tile/>
   <tile/>
   <tile/>
   <tile/>
   <tile/>
   <tile/>
   <tile/>
   <tile/>
   <tile/>
   <tile/>
   <tile/>
   <tile/>
   <tile/>
   <tile/>
   <tile/>
   <tile/>
   <tile/>
   <tile/>
   <tile/>
   <tile/>
   <tile/>
   <tile/>
   <tile/>
   <tile/>
   <tile/>
   <tile/>
   <tile/>
   <tile/>
   <tile/>
   <tile/>
   <tile/>
   <tile/>
   <tile/>
   <tile/>
   <tile/>
   <tile/>
   <tile/>
   <tile/>
   <tile/>
   <tile/>
   <tile/>
   <tile/>
   <tile/>
   <tile/>
   <tile/>
   <tile/>
   <tile/>
   <tile/>
   <tile/>
   <tile/>
   <tile/>
   <tile/>
   <tile/>
   <tile/>
   <tile/>
   <tile/>
   <tile/>
   <tile/>
   <tile/>
   <tile/>
   <tile/>
   <tile/>
   <tile/>
   <tile/>
   <tile/>
   <tile/>
   <tile/>
   <tile/>
   <tile/>
   <tile/>
   <tile/>
   <tile/>
   <tile/>
   <tile/>
   <tile/>
   <tile/>
   <tile/>
   <tile/>
   <tile/>
   <tile/>
   <tile/>
   <tile/>
   <tile/>
   <tile/>
   <tile/>
   <tile/>
   <tile/>
   <tile/>
   <tile/>
   <tile/>
   <tile/>
   <tile/>
   <tile/>
   <tile/>
   <tile/>
   <tile/>
   <tile/>
   <tile/>
   <tile/>
   <tile/>
   <tile/>
   <tile/>
   <tile/>
   <tile/>
   <tile/>
   <tile/>
   <tile/>
   <tile/>
   <tile/>
   <tile/>
   <tile/>
   <tile/>
   <tile/>
   <tile/>
   <tile/>
   <tile/>
   <tile/>
   <tile/>
   <tile/>
   <tile/>
   <tile/>
   <tile/>
   <tile/>
   <tile/>
   <tile/>
   <tile/>
   <tile/>
   <tile/>
   <tile/>
   <tile/>
   <tile/>
   <tile/>
   <tile/>
   <tile/>
   <tile/>
   <tile/>
   <tile/>
   <tile/>
   <tile/>
   <tile/>
   <tile/>
   <tile/>
   <tile/>
   <tile/>
   <tile/>
   <tile/>
   <tile/>
   <tile/>
   <tile/>
   <tile/>
   <tile/>
   <tile/>
   <tile/>
   <tile/>
   <tile/>
   <tile/>
   <tile/>
   <tile/>
   <tile/>
   <tile/>
   <tile/>
   <tile/>
   <tile/>
   <tile/>
   <tile/>
   <tile/>
   <tile/>
   <tile/>
   <tile/>
   <tile/>
   <tile/>
   <tile/>
   <tile/>
   <tile/>
   <tile/>
   <tile/>
   <tile/>
   <tile/>
   <tile/>
   <tile/>
   <tile/>
   <tile/>
   <tile/>
   <tile/>
   <tile/>
   <tile/>
   <tile/>
   <tile/>
   <tile/>
   <tile/>
   <tile/>
   <tile/>
   <tile/>
   <tile/>
   <tile/>
   <tile/>
   <tile/>
   <tile/>
   <tile/>
   <tile/>
   <tile/>
   <tile/>
   <tile/>
   <tile/>
   <tile/>
   <tile/>
   <tile/>
   <tile/>
   <tile/>
   <tile/>
   <tile/>
   <tile/>
   <tile/>
   <tile/>
   <tile/>
   <tile/>
   <tile/>
   <tile/>
   <tile/>
   <tile/>
   <tile/>
   <tile/>
   <tile/>
   <tile/>
   <tile/>
   <tile/>
   <tile/>
   <tile/>
   <tile/>
   <tile/>
   <tile/>
   <tile/>
   <tile/>
   <tile/>
   <tile/>
   <tile/>
   <tile/>
   <tile/>
   <tile/>
   <tile/>
   <tile/>
   <tile/>
   <tile/>
   <tile/>
   <tile/>
   <tile/>
   <tile/>
   <tile/>
   <tile/>
   <tile/>
   <tile/>
   <tile/>
   <tile/>
   <tile/>
   <tile/>
   <tile/>
   <tile/>
   <tile/>
   <tile/>
   <tile/>
   <tile/>
   <tile/>
   <tile/>
   <tile/>
   <tile/>
   <tile/>
   <tile/>
   <tile/>
   <tile/>
   <tile/>
   <tile/>
   <tile/>
   <tile/>
   <tile/>
   <tile/>
   <tile/>
   <tile/>
   <tile/>
   <tile/>
   <tile/>
   <tile/>
   <tile/>
   <tile/>
   <tile/>
   <tile/>
   <tile/>
   <tile/>
   <tile/>
   <tile/>
   <tile/>
   <tile/>
   <tile/>
   <tile/>
   <tile/>
   <tile/>
   <tile/>
   <tile/>
   <tile/>
   <tile/>
   <tile/>
   <tile/>
   <tile/>
   <tile/>
   <tile/>
   <tile/>
   <tile/>
   <tile/>
   <tile/>
   <tile/>
   <tile/>
   <tile/>
   <tile/>
   <tile/>
   <tile/>
   <tile/>
   <tile/>
   <tile/>
   <tile/>
   <tile/>
   <tile/>
   <tile/>
   <tile/>
   <tile/>
   <tile/>
   <tile/>
   <tile/>
   <tile/>
   <tile/>
   <tile/>
   <tile/>
   <tile/>
   <tile/>
   <tile/>
   <tile/>
   <tile/>
   <tile/>
   <tile/>
   <tile/>
   <tile/>
   <tile/>
   <tile/>
   <tile/>
   <tile/>
   <tile/>
   <tile/>
   <tile/>
   <tile/>
   <tile/>
   <tile/>
   <tile/>
   <tile/>
   <tile/>
   <tile/>
   <tile/>
   <tile/>
   <tile/>
   <tile/>
   <tile/>
   <tile/>
   <tile/>
   <tile/>
   <tile/>
   <tile/>
   <tile/>
   <tile/>
   <tile/>
   <tile/>
   <tile/>
   <tile/>
   <tile/>
   <tile/>
   <tile/>
   <tile/>
   <tile/>
   <tile/>
   <tile/>
   <tile/>
   <tile/>
   <tile/>
   <tile/>
   <tile/>
   <tile/>
   <tile/>
   <tile/>
   <tile/>
   <tile/>
   <tile/>
   <tile/>
   <tile/>
   <tile/>
   <tile/>
   <tile/>
   <tile/>
   <tile/>
   <tile/>
   <tile/>
   <tile/>
   <tile/>
   <tile/>
   <tile/>
   <tile/>
   <tile/>
   <tile/>
   <tile/>
   <tile/>
   <tile/>
   <tile/>
   <tile/>
   <tile/>
   <tile/>
   <tile/>
   <tile/>
   <tile/>
   <tile/>
   <tile/>
   <tile/>
   <tile/>
   <tile/>
   <tile/>
   <tile/>
   <tile/>
   <tile/>
   <tile/>
   <tile/>
   <tile/>
   <tile/>
   <tile/>
   <tile/>
   <tile/>
   <tile/>
   <tile/>
   <tile/>
   <tile/>
   <tile/>
   <tile/>
   <tile/>
   <tile/>
   <tile/>
   <tile/>
   <tile/>
   <tile/>
   <tile/>
   <tile/>
   <tile/>
   <tile/>
   <tile/>
   <tile/>
   <tile/>
   <tile/>
   <tile/>
   <tile/>
   <tile/>
   <tile/>
   <tile/>
   <tile/>
   <tile/>
   <tile/>
   <tile/>
   <tile/>
   <tile/>
   <tile/>
   <tile/>
   <tile/>
   <tile/>
   <tile/>
   <tile/>
   <tile/>
   <tile/>
   <tile/>
   <tile/>
   <tile/>
   <tile/>
   <tile/>
   <tile/>
   <tile/>
   <tile/>
   <tile/>
   <tile/>
   <tile/>
   <tile/>
   <tile/>
   <tile/>
   <tile/>
   <tile/>
   <tile/>
   <tile/>
   <tile/>
   <tile/>
   <tile/>
   <tile/>
   <tile/>
   <tile/>
   <tile/>
   <tile/>
   <tile/>
   <tile/>
   <tile/>
   <tile/>
   <tile/>
   <tile/>
   <tile/>
   <tile/>
   <tile/>
   <tile/>
   <tile/>
   <tile/>
   <tile/>
   <tile/>
   <tile/>
   <tile/>
   <tile/>
   <tile/>
   <tile/>
   <tile/>
   <tile/>
   <tile/>
   <tile/>
   <tile/>
   <tile/>
   <tile/>
   <tile/>
   <tile/>
   <tile/>
   <tile/>
   <tile/>
   <tile/>
   <tile/>
   <tile/>
   <tile/>
   <tile/>
   <tile/>
   <tile/>
   <tile/>
   <tile/>
   <tile/>
   <tile/>
   <tile/>
   <tile/>
   <tile/>
   <tile/>
   <tile/>
   <tile/>
   <tile/>
   <tile/>
   <tile/>
   <tile/>
   <tile/>
   <tile/>
   <tile/>
   <tile/>
   <tile/>
   <tile/>
   <tile/>
   <tile/>
   <tile/>
   <tile/>
   <tile/>
   <tile/>
   <tile/>
   <tile/>
   <tile/>
   <tile/>
   <tile/>
   <tile/>
   <tile/>
   <tile/>
   <tile/>
   <tile/>
   <tile/>
   <tile/>
   <tile/>
   <tile/>
   <tile/>
   <tile/>
   <tile/>
   <tile/>
   <tile/>
   <tile/>
   <tile/>
   <tile/>
   <tile/>
   <tile/>
   <tile/>
   <tile/>
   <tile/>
   <tile/>
   <tile/>
   <tile/>
   <tile/>
   <tile/>
   <tile/>
   <tile/>
   <tile/>
   <tile/>
   <tile/>
   <tile/>
   <tile/>
   <tile/>
   <tile/>
   <tile/>
   <tile/>
   <tile/>
   <tile/>
   <tile/>
   <tile/>
   <tile/>
   <tile/>
   <tile/>
   <tile/>
   <tile/>
   <tile/>
   <tile/>
   <tile/>
   <tile/>
   <tile/>
   <tile/>
   <tile/>
   <tile/>
   <tile/>
   <tile/>
   <tile/>
   <tile/>
   <tile/>
   <tile/>
   <tile/>
   <tile/>
   <tile/>
   <tile/>
   <tile/>
   <tile/>
   <tile/>
   <tile/>
   <tile/>
   <tile/>
   <tile/>
   <tile/>
   <tile/>
   <tile/>
   <tile/>
   <tile/>
   <tile/>
   <tile/>
   <tile/>
   <tile/>
   <tile/>
   <tile/>
   <tile/>
   <tile/>
   <tile/>
   <tile/>
   <tile/>
   <tile/>
   <tile/>
   <tile/>
   <tile/>
   <tile/>
   <tile/>
   <tile/>
   <tile/>
   <tile/>
   <tile/>
   <tile/>
   <tile/>
   <tile/>
   <tile/>
   <tile/>
   <tile/>
   <tile/>
   <tile/>
   <tile/>
   <tile/>
   <tile/>
   <tile/>
   <tile/>
   <tile/>
   <tile/>
   <tile/>
   <tile/>
   <tile/>
   <tile/>
   <tile/>
   <tile/>
   <tile/>
   <tile/>
   <tile/>
   <tile/>
   <tile/>
   <tile/>
   <tile/>
   <tile/>
   <tile/>
   <tile/>
   <tile/>
   <tile/>
   <tile/>
   <tile/>
   <tile/>
   <tile/>
   <tile/>
   <tile/>
   <tile/>
   <tile/>
   <tile/>
   <tile/>
   <tile/>
   <tile/>
   <tile/>
   <tile/>
   <tile/>
   <tile/>
   <tile/>
   <tile/>
   <tile/>
   <tile/>
   <tile/>
   <tile/>
   <tile/>
   <tile/>
   <tile/>
   <tile/>
   <tile/>
   <tile/>
   <tile/>
   <tile/>
   <tile/>
   <tile/>
   <tile/>
   <tile/>
   <tile/>
   <tile/>
   <tile/>
   <tile/>
   <tile/>
   <tile/>
   <tile/>
   <tile/>
   <tile/>
   <tile/>
   <tile/>
   <tile/>
   <tile/>
   <tile/>
   <tile/>
   <tile/>
   <tile/>
   <tile/>
   <tile/>
   <tile/>
   <tile/>
   <tile/>
   <tile/>
   <tile/>
   <tile/>
   <tile/>
   <tile/>
   <tile/>
   <tile/>
   <tile/>
   <tile/>
   <tile/>
   <tile/>
   <tile/>
   <tile/>
   <tile/>
   <tile/>
   <tile/>
   <tile/>
   <tile/>
   <tile/>
   <tile/>
   <tile/>
   <tile/>
   <tile/>
   <tile/>
   <tile/>
   <tile/>
   <tile/>
   <tile/>
   <tile/>
   <tile/>
   <tile/>
   <tile/>
   <tile/>
   <tile/>
   <tile/>
   <tile/>
   <tile/>
   <tile/>
   <tile/>
   <tile/>
   <tile/>
   <tile/>
   <tile/>
   <tile/>
   <tile/>
   <tile/>
   <tile/>
   <tile/>
   <tile/>
   <tile/>
   <tile/>
   <tile/>
   <tile/>
   <tile/>
   <tile/>
   <tile/>
   <tile/>
   <tile/>
   <tile/>
   <tile/>
   <tile/>
   <tile/>
   <tile/>
   <tile/>
   <tile/>
   <tile/>
   <tile/>
   <tile/>
   <tile/>
   <tile/>
   <tile/>
   <tile/>
   <tile/>
   <tile/>
   <tile/>
   <tile/>
   <tile/>
   <tile/>
   <tile/>
   <tile/>
   <tile/>
   <tile/>
   <tile/>
   <tile/>
   <tile/>
   <tile/>
   <tile/>
   <tile/>
   <tile/>
   <tile/>
   <tile/>
   <tile/>
   <tile/>
   <tile/>
   <tile/>
   <tile/>
   <tile/>
   <tile/>
   <tile/>
   <tile/>
   <tile/>
   <tile/>
   <tile/>
   <tile/>
   <tile/>
   <tile/>
   <tile/>
   <tile/>
   <tile/>
   <tile/>
   <tile/>
   <tile/>
   <tile/>
   <tile/>
   <tile/>
   <tile/>
   <tile/>
   <tile/>
   <tile/>
   <tile/>
   <tile/>
   <tile/>
   <tile/>
   <tile/>
   <tile/>
   <tile/>
   <tile/>
   <tile/>
   <tile/>
   <tile/>
   <tile/>
   <tile/>
   <tile/>
   <tile/>
   <tile/>
   <tile/>
   <tile/>
   <tile/>
   <tile/>
   <tile/>
   <tile/>
   <tile/>
   <tile/>
   <tile/>
   <tile/>
   <tile/>
   <tile/>
   <tile/>
   <tile/>
   <tile/>
   <tile/>
   <tile/>
   <tile/>
   <tile/>
   <tile/>
   <tile/>
   <tile/>
   <tile/>
   <tile/>
   <tile/>
   <tile/>
   <tile/>
   <tile/>
   <tile/>
   <tile/>
   <tile/>
   <tile/>
   <tile/>
   <tile/>
   <tile/>
   <tile/>
   <tile/>
   <tile/>
   <tile/>
   <tile/>
   <tile/>
   <tile/>
   <tile/>
   <tile/>
   <tile/>
   <tile/>
   <tile/>
   <tile/>
   <tile/>
   <tile/>
   <tile/>
   <tile/>
   <tile/>
   <tile/>
   <tile/>
   <tile/>
   <tile/>
   <tile/>
   <tile/>
   <tile/>
   <tile/>
   <tile/>
   <tile/>
   <tile/>
   <tile/>
   <tile/>
   <tile/>
   <tile/>
   <tile/>
   <tile/>
   <tile/>
   <tile/>
   <tile/>
   <tile/>
   <tile/>
   <tile/>
   <tile/>
   <tile/>
   <tile/>
   <tile/>
   <tile/>
   <tile/>
   <tile/>
   <tile/>
   <tile/>
   <tile/>
   <tile/>
   <tile/>
   <tile/>
   <tile/>
   <tile/>
   <tile/>
   <tile/>
   <tile/>
   <tile/>
   <tile/>
   <tile/>
   <tile/>
   <tile/>
   <tile/>
   <tile/>
   <tile/>
   <tile/>
   <tile/>
   <tile/>
   <tile/>
   <tile/>
   <tile/>
   <tile/>
   <tile/>
   <tile/>
   <tile/>
   <tile/>
   <tile/>
   <tile/>
   <tile/>
   <tile/>
   <tile/>
   <tile/>
   <tile/>
   <tile/>
   <tile/>
   <tile/>
   <tile/>
   <tile/>
   <tile/>
   <tile/>
   <tile/>
   <tile/>
   <tile/>
   <tile/>
   <tile/>
   <tile/>
   <tile/>
   <tile/>
   <tile/>
   <tile/>
   <tile/>
   <tile/>
   <tile/>
   <tile/>
   <tile/>
   <tile/>
   <tile/>
   <tile/>
   <tile/>
   <tile/>
   <tile/>
   <tile/>
   <tile/>
   <tile/>
   <tile/>
   <tile/>
   <tile/>
   <tile/>
   <tile/>
   <tile/>
   <tile/>
   <tile/>
   <tile/>
   <tile/>
   <tile/>
   <tile/>
   <tile/>
   <tile/>
   <tile/>
   <tile/>
   <tile/>
   <tile/>
   <tile/>
   <tile/>
   <tile/>
   <tile/>
   <tile/>
   <tile/>
   <tile/>
   <tile/>
   <tile/>
   <tile/>
   <tile/>
   <tile/>
   <tile/>
   <tile/>
   <tile/>
   <tile/>
   <tile/>
   <tile/>
   <tile/>
   <tile/>
   <tile/>
  </data>
 </layer>
 <objectgroup id="11" name="EntitiesSpawnPoints" visible="0">
  <object id="52" name="Player" type="Player" x="250.3" y="9694.3">
   <point/>
  </object>
  <object id="159" name="SkillPointOrb" type="SkillPointOrb" x="4224" y="6912">
   <point/>
  </object>
  <object id="409" name="SkillPointOrb" type="SkillPointOrb" x="21504" y="8192">
   <point/>
  </object>
  <object id="410" name="SkillPointOrb" type="SkillPointOrb" x="18560" y="2304">
   <point/>
  </object>
  <object id="625" name="Dip" type="Dip" x="11176" y="8376">
   <point/>
  </object>
  <object id="626" name="Dip" type="Dip" x="18304" y="9600">
   <point/>
  </object>
  <object id="627" name="Dip" type="Dip" x="21616" y="7556">
   <point/>
  </object>
  <object id="628" name="Dip" type="Dip" x="20860" y="6792">
   <point/>
  </object>
  <object id="629" name="Dip" type="Dip" x="18672" y="3708">
   <point/>
  </object>
  <object id="630" name="Dip" type="Dip" x="20260" y="3736">
   <point/>
  </object>
  <object id="631" name="Dip" type="Dip" x="7736" y="3512">
   <point/>
  </object>
  <object id="698" name="WallJumpObj" type="WallJumpObj" x="19584" y="3712">
   <point/>
  </object>
  <object id="699" name="Key" type="Key" x="11264" y="2560">
   <properties>
    <property name="KeyRegion" value="Montanya"/>
   </properties>
   <point/>
  </object>
 </objectgroup>
 <objectgroup id="15" name="PlayerSpawns" visible="0">
  <properties>
   <property name="PlayerSpawns" type="bool" value="true"/>
  </properties>
  <object id="132" name="Player" type="Player" x="256" y="9728">
   <properties>
    <property name="FromRoom" type="file" value="Nexo.tmx"/>
   </properties>
   <point/>
  </object>
  <object id="441" name="Player" type="Player" x="12912" y="1744">
   <properties>
    <property name="FromRoom" type="file" value="Mountain_02.tmx"/>
   </properties>
   <point/>
  </object>
  <object id="466" name="Player" type="Player" x="9609.09" y="9915.15">
   <properties>
    <property name="FromRoom" type="file" value="Catacombs_01_M.tmx"/>
   </properties>
   <point/>
  </object>
 </objectgroup>
 <objectgroup id="29" name="KeyGate" visible="0">
  <properties>
   <property name="KeyGate" type="bool" value="true"/>
   <property name="KeyRegion" value="Montanya"/>
   <property name="Square" type="bool" value="true"/>
  </properties>
  <object id="701" x="20568" y="3020" width="344" height="592"/>
 </objectgroup>
</map>
